M73 P0
;MINX:15.0
;MAXX:85.0
;MINY:39.5
;MAXY:80.5
;MINZ:0.0
;MAXZ:49.3
;MachineType:ENTINA TINA2
;FilamentType:PLA
;Extruder0Temperature:200
;InfillDensity:10
;FLAVOR:Marlin
;TIME:6142
;FilamentUsed:3931.0
;Layer height: 0.2

;Generated with Cura_SteamEngine 3.1
M104 T0 S215
M82 ; absolute extrusion mode
;(**** start.gcode for tina2****)
M104 S150
G28 Z
G28 X Y; Home extruder
G1 X55 Y55 F1000
G1 Z10 F200
G29
G1 Z15 F100
M107 ; Turn off fan
G90 ; Absolute positioning
M82 ; Extruder in absolute mode
M109 S215.0
G92 E0 ; Reset extruder position
G1 X90 Y6 Z0.27 F2000
G1 X20 Y6 Z0.27 E15 F1000
G92 E0 ; Reset extruder position

;LAYER_COUNT:240
;LAYER:-6
M107
M203 Z5
G1 F3600 X61.954 Y51.249 Z0.349
G1 F1200 X62.442 Y51.634 E0.06854
G1 X63.191 Y52.276 E0.17733
G1 X63.547 Y52.605 E0.23078
G1 X64.047 Y53.098 E0.30822
G1 X64.463 Y53.534 E0.37467
G1 X64.916 Y54.04 E0.44956
G1 X65.35 Y54.562 E0.52442
G1 X65.755 Y55.085 E0.59736
G1 X66.006 Y55.426 E0.64406
G1 X66.407 Y56.005 E0.72172
G1 X66.638 Y56.361 E0.76852
G1 X67.058 Y57.067 E0.85911
G1 X67.277 Y57.486 E0.91124
G1 X67.523 Y58.102 E0.98439
G1 X67.583 Y58.295 E1.00668
G1 X67.735 Y58.899 E1.07536
G1 X67.805 Y59.387 E1.12972
G1 X67.825 Y59.622 E1.15573
G1 X67.833 Y60.214 E1.22102
G1 X67.814 Y60.441 E1.24614
G1 X67.729 Y61.097 E1.31908
G1 X67.693 Y61.3 E1.34182
G1 X67.586 Y61.704 E1.38791
G1 X67.503 Y61.949 E1.41643
G1 X67.25 Y62.565 E1.48987
G1 X67.033 Y62.979 E1.54141
G1 X66.728 Y63.494 E1.60741
G1 X66.407 Y63.995 E1.67303
G1 X66.258 Y64.215 E1.70233
G1 X65.627 Y65.087 E1.82102
G1 X65.262 Y65.546 E1.88569
G1 X64.872 Y66.012 E1.9527
G1 X64.486 Y66.443 E2.0165
G1 X64.034 Y66.917 E2.08873
G1 X63.429 Y67.507 E2.18192
G1 X62.736 Y68.12 E2.28395
G1 X61.947 Y68.753 E2.39549
G1 X61.198 Y69.298 E2.49764
G1 X60.999 Y69.433 E2.52416
G1 X60.148 Y69.973 E2.6353
G1 X59.345 Y70.428 E2.73707
G1 X58.461 Y70.878 E2.84646
G1 X58.168 Y71.014 E2.88208
G1 X57.397 Y71.344 E2.97456
G1 X56.403 Y71.714 E3.09152
G1 X55.646 Y71.956 E3.17916
G1 X55.374 Y72.035 E3.2104
G1 X54.694 Y72.211 E3.28785
G1 X53.873 Y72.392 E3.38056
G1 X53.255 Y72.508 E3.4499
G1 X52.783 Y72.578 E3.50252
G1 X52.015 Y72.673 E3.58786
G1 X51.121 Y72.741 E3.68673
G1 X50.695 Y72.759 E3.73375
G1 X50.219 Y72.77 E3.78625
G1 X49.567 Y72.764 E3.85815
G1 X49.055 Y72.744 E3.91465
G1 X25.295 Y71.28 E6.53973
G1 X24.916 Y71.24 E6.58176
G1 X24.19 Y71.091 E6.66349
G1 X23.986 Y71.03 E6.68697
G1 X23.41 Y70.829 E6.75424
G1 X23.165 Y70.72 E6.78381
G1 X22.737 Y70.504 E6.83668
G1 X22.551 Y70.401 E6.86012
G1 X22.392 Y70.299 E6.88096
G1 X21.825 Y69.896 E6.95767
G1 X21.661 Y69.754 E6.98159
G1 X21.252 Y69.363 E7.04398
G1 X21.09 Y69.192 E7.06996
G1 X20.712 Y68.72 E7.13664
G1 X20.595 Y68.557 E7.15877
G1 X20.252 Y67.998 E7.23109
G1 X20.09 Y67.675 E7.27094
G1 X20 Y67.468 E7.29583
G1 X19.816 Y66.98 E7.35334
G1 X19.755 Y66.784 E7.37598
G1 X19.636 Y66.337 E7.42699
G1 X19.542 Y65.787 E7.48852
G1 X19.514 Y65.519 E7.51823
G1 X19.484 Y64.957 E7.58029
G1 X19.479 Y55.111 E8.66605
G1 X19.492 Y54.732 E8.70787
G1 X19.523 Y54.373 E8.7476
G1 X19.555 Y54.135 E8.77409
G1 X19.679 Y53.491 E8.84641
G1 X19.741 Y53.273 E8.8714
G1 X19.956 Y52.641 E8.94502
G1 X20.059 Y52.406 E8.97331
G1 X20.343 Y51.842 E9.04294
G1 X20.442 Y51.681 E9.06379
G1 X20.772 Y51.19 E9.12902
G1 X21.049 Y50.851 E9.1773
G1 X21.441 Y50.442 E9.23977
G1 X21.626 Y50.277 E9.26711
G1 X22.007 Y49.967 E9.32127
G1 X22.191 Y49.831 E9.3465
G1 X22.318 Y49.747 E9.36329
G1 X22.912 Y49.397 E9.43932
G1 X23.12 Y49.299 E9.46468
G1 X23.695 Y49.06 E9.53334
G1 X23.896 Y48.996 E9.55661
G1 X24.322 Y48.878 E9.60535
G1 X24.519 Y48.832 E9.62766
G1 X25.109 Y48.736 E9.69358
G1 X25.42 Y48.706 E9.72803
G1 X48.974 Y47.258 E12.33033
G1 X49.727 Y47.233 E12.41341
G1 X50.415 Y47.233 E12.48928
G1 X51.066 Y47.256 E12.56111
G1 X51.823 Y47.31 E12.6448
G1 X52.391 Y47.371 E12.7078
G1 X52.925 Y47.442 E12.7672
G1 X53.572 Y47.548 E12.8395
G1 X54.171 Y47.667 E12.90685
G1 X54.645 Y47.777 E12.9605
G1 X55.263 Y47.937 E13.0309
G1 X55.866 Y48.112 E13.10014
G1 X56.435 Y48.298 E13.16615
G1 X56.944 Y48.48 E13.22576
G1 X57.639 Y48.754 E13.30814
G1 X58.06 Y48.939 E13.35885
G1 X58.591 Y49.185 E13.42339
G1 X59.066 Y49.422 E13.48193
G1 X59.626 Y49.725 E13.55214
G1 X60.104 Y50.001 E13.61301
G1 X60.599 Y50.306 E13.67712
G1 X61.013 Y50.577 E13.73169
G1 X61.53 Y50.937 E13.80116
G1 X61.954 Y51.249 E13.85921
G1 F3600 X62.4 Y51.601
G1 F1200 X62.4 Y68.39 E15.7106
G1 F1680 E12.7106
G1 F3600 X60.8 Y69.56
G1 F1680 E15.7106
G1 F1200 X60.8 Y50.438 E17.81926
G1 F1680 E14.81926
G1 F3600 X59.2 Y49.495
G1 F1680 E17.81926
G1 F1200 X59.2 Y70.502 E20.13578
G1 F1680 E17.13578
G1 F3600 X57.6 Y71.258
G1 F1680 E20.13578
G1 F1200 X57.6 Y48.739 E22.61904
G1 F1680 E19.61904
G1 F3600 X56 Y48.156
G1 F1680 E22.61904
G1 F1200 X56 Y71.843 E25.2311
G1 F1680 E22.2311
G1 F3600 X54.4 Y72.276
G1 F1680 E25.2311
G1 F1200 X54.4 Y47.721 E27.93888
G1 F1680 E24.93888
G1 F3600 X52.8 Y47.426
G1 F1680 E27.93888
G1 F1200 X52.8 Y72.576 E30.71227
G1 F1680 E27.71227
G1 F3600 X51.2 Y72.735
G1 F1680 E30.71227
G1 F1200 X51.2 Y47.266 E33.52084
G1 F1680 E30.52084
G1 F3600 X49.6 Y47.237
G1 F1680 E33.52084
G1 F1200 X49.6 Y72.764 E36.3358
G1 F1680 E33.3358
G1 F3600 X48 Y72.678
G1 F1680 E36.3358
G1 F1200 X48 Y47.317 E39.13246
G1 F1680 E36.13246
G1 F3600 X46.4 Y47.416
G1 F1680 E39.13246
G1 F1200 X46.4 Y72.58 E41.90739
G1 F1680 E38.90739
G1 F3600 X44.8 Y72.481
G1 F1680 E41.90739
G1 F1200 X44.8 Y47.514 E44.66061
G1 F1680 E41.66061
G1 F3600 X43.2 Y47.612
G1 F1680 E44.66061
G1 F1200 X43.2 Y72.383 E47.3922
G1 F1680 E44.3922
G1 F3600 X41.6 Y72.284
G1 F1680 E47.3922
G1 F1200 X41.6 Y47.711 E50.10196
G1 F1680 E47.10196
G1 F3600 X40 Y47.809
G1 F1680 E50.10196
G1 F1200 X40 Y72.186 E52.79011
G1 F1680 E49.79011
G1 F3600 X38.4 Y72.087
G1 F1680 E52.79011
G1 F1200 X38.4 Y47.908 E55.45643
G1 F1680 E52.45643
G1 F3600 X36.8 Y48.006
G1 F1680 E55.45643
G1 F1200 X36.8 Y71.988 E58.10102
G1 F1680 E55.10102
G1 F3600 X35.2 Y71.89
G1 F1680 E58.10102
G1 F1200 X35.2 Y48.104 E60.72399
G1 F1680 E57.72399
G1 F3600 X33.6 Y48.203
G1 F1680 E60.72399
G1 F1200 X33.6 Y71.791 E63.32514
G1 F1680 E60.32514
G1 F3600 X32 Y71.693
G1 F1680 E63.32514
G1 F1200 X32 Y48.301 E65.90467
G1 F1680 E62.90467
G1 F3600 X30.4 Y48.399
G1 F1680 E65.90467
G1 F1200 X30.4 Y71.594 E68.46247
G1 F1680 E65.46247
G1 F3600 X28.8 Y71.495
G1 F1680 E68.46247
G1 F1200 X28.8 Y48.498 E70.99844
G1 F1680 E67.99844
G1 F3600 X27.2 Y48.596
G1 F1680 E70.99844
G1 F1200 X27.2 Y71.397 E73.5128
G1 F1680 E70.5128
G1 F3600 X25.6 Y71.298
G1 F1680 E73.5128
G1 F1200 X25.6 Y48.694 E76.00543
G1 F1680 E73.00543
G1 F3600 X24 Y48.967
G1 F1680 E76.00543
G1 F1200 X24 Y71.034 E78.43885
G1 F1680 E75.43885
G1 F3600 X22.4 Y70.304
G1 F1680 E78.43885
G1 F1200 X22.4 Y49.698 E80.71115
G1 F1680 E77.71115
G1 F3600 X20.8 Y51.155
M104 T0 S200
G1 F1680 E80.71115
G1 F1200 X20.8 Y68.829 E82.66014
G1 F1680 E79.66014
G1 F3600 X64 Y66.951
G1 F1680 E82.66014
G1 F1200 X64 Y53.052 E84.19283
G1 F1680 E81.19283
G1 F3600 X65.6 Y54.885
G1 F1680 E84.19283
G1 F1200 X65.6 Y65.121 E85.3216
G1 F1680 E82.3216
G1 F3600 X67.2 Y62.661
G1 F1680 E85.3216
G1 F1200 X67.2 Y57.339 E85.90848
G1 F1680 E82.90848
G1 F3600 X61.88 Y51.13
;TIME_ELAPSED:47.353696
;LAYER:-5
G1 X61.88 Y51.13 Z0.619
;TYPE:SUPPORT
G1 F1680 E85.90848
G1 F1980 X61.088 Y50.566 E85.98095
G1 X60.642 Y50.273 E86.02073
G1 X60.276 Y50.044 E86.05291
G1 X60.159 Y49.977 E86.06296
G1 X66.927 Y56.745 E86.77643
G1 X67.102 Y57.043 E86.80219
G1 X67.317 Y57.454 E86.83677
G1 X67.537 Y57.995 E86.8803
G1 X67.632 Y58.281 E86.90276
G1 X67.779 Y58.87 E86.94802
G1 X57.592 Y48.682 E88.02196
G1 X57.512 Y48.648 E88.02844
G1 X57.103 Y48.487 E88.0612
G1 X56.573 Y48.291 E88.10332
G1 X56.039 Y48.112 E88.14531
G1 X55.626 Y47.989 E88.17743
G1 X67.881 Y60.244 E89.46932
G1 X67.862 Y60.46 E89.48549
G1 X67.781 Y61.09 E89.53283
G1 X67.742 Y61.311 E89.54956
G1 X67.728 Y61.364 E89.55365
G1 X53.933 Y47.569 E91.00789
G1 X53.573 Y47.496 E91.03527
G1 X53.109 Y47.418 E91.07034
G1 X52.5 Y47.333 E91.11617
G1 X52.414 Y47.323 E91.12263
G1 X67.407 Y62.316 E92.70316
G1 X67.358 Y62.442 E92.71323
G1 X67.284 Y62.608 E92.72678
G1 X67.204 Y62.762 E92.73972
G1 X67.076 Y63.003 E92.76006
G1 X66.982 Y63.163 E92.77389
G1 X51.024 Y47.205 E94.45615
G1 X50.486 Y47.183 E94.49628
G1 X49.805 Y47.18 E94.54705
G1 X49.729 Y47.183 E94.55272
G1 X66.496 Y63.95 E96.32026
G1 X66.426 Y64.057 E96.32979
G1 X65.972 Y64.699 E96.3884
G1 X48.511 Y47.238 E98.2291
G1 X47.312 Y47.312 E98.31864
G1 X65.424 Y65.424 E100.22797
G1 X65.302 Y65.577 E100.24256
G1 X64.909 Y66.045 E100.28811
G1 X64.845 Y66.118 E100.29535
G1 X46.113 Y47.386 E102.27003
G1 X44.914 Y47.459 E102.35957
G1 X64.235 Y66.781 E104.3964
G1 X64.195 Y66.823 E104.40072
G1 X63.595 Y67.413 E104.46345
G1 X43.714 Y47.533 E106.55921
G1 X42.515 Y47.606 E106.64875
G1 X62.927 Y68.018 E108.80053
G1 X62.767 Y68.158 E108.81638
G1 X62.227 Y68.591 E108.86798
G1 X41.316 Y47.68 E111.07236
G1 X40.116 Y47.753 E111.16198
G1 X61.502 Y69.138 E113.41639
G1 X61.226 Y69.338 E113.4418
G1 X61.001 Y69.492 E113.46212
G1 X60.746 Y69.655 E113.48468
G1 X38.917 Y47.827 E115.78579
G1 X37.718 Y47.9 E115.87533
G1 X59.955 Y70.137 E118.21951
G1 X59.528 Y70.385 E118.25631
G1 X59.137 Y70.592 E118.28929
G1 X36.519 Y47.975 E120.67358
G1 X35.32 Y48.048 E120.76312
G1 X58.286 Y71.014 E123.18414
G1 X58.192 Y71.057 E123.19185
G1 X57.46 Y71.371 E123.25122
G1 X57.395 Y71.395 E123.25638
G1 X34.121 Y48.122 E125.70982
G1 X32.922 Y48.195 E125.79936
G1 X56.468 Y71.742 E128.28158
G1 X56.417 Y71.76 E128.28561
G1 X55.65 Y72.007 E128.34568
G1 X55.503 Y72.049 E128.35707
G1 X31.722 Y48.269 E130.86396
G1 X30.523 Y48.342 E130.9535
G1 X54.488 Y72.307 E133.47984
G1 X53.879 Y72.442 E133.52633
G1 X53.572 Y72.503 E133.54967
G1 X53.433 Y72.525 E133.56016
G1 X29.324 Y48.416 E136.10167
G1 X28.125 Y48.489 E136.19121
G1 X52.32 Y72.685 E138.74185
G1 X52.02 Y72.723 E138.76439
G1 X51.29 Y72.782 E138.81898
G1 X51.151 Y72.788 E138.82935
G1 X26.925 Y48.563 E141.38315
G1 X25.726 Y48.636 E141.47269
G1 X49.909 Y72.819 E144.02201
G1 X49.558 Y72.814 E144.04817
G1 X48.95 Y72.789 E144.09353
G1 X48.583 Y72.766 E144.12094
G1 X24.584 Y48.767 E146.65086
G1 X24.417 Y48.8 E146.66355
G1 X23.881 Y48.946 E146.70496
G1 X23.666 Y49.015 E146.72179
G1 X23.591 Y49.047 E146.72787
G1 X47.226 Y72.682 E149.21942
G1 X45.87 Y72.599 E149.32069
G1 X22.72 Y49.449 E151.76111
G1 X22.29 Y49.703 E151.79833
G1 X21.977 Y49.925 E151.82694
G1 X21.948 Y49.95 E151.82979
G1 X44.514 Y72.515 E154.20859
G1 X43.158 Y72.432 E154.30986
G1 X21.269 Y50.543 E156.61735
G1 X21.09 Y50.727 E156.63649
G1 X20.74 Y51.145 E156.67712
G1 X20.68 Y51.227 E156.6847
G1 X41.802 Y72.349 E158.91133
G1 X40.445 Y72.264 E159.01268
G1 X20.194 Y52.014 E161.14744
G1 X19.941 Y52.539 E161.19089
G1 X19.856 Y52.758 E161.2084
G1 X19.81 Y52.902 E161.21966
G1 X39.088 Y72.181 E163.25196
G1 X37.732 Y72.098 E163.35323
G1 X19.545 Y53.911 E165.27046
G1 X19.487 Y54.247 E165.29588
G1 X19.441 Y54.727 E165.33182
G1 X19.429 Y55.067 E165.35718
G1 X36.376 Y72.014 E167.14369
G1 X35.02 Y71.931 E167.24496
G1 X19.427 Y56.338 E168.88874
G1 X19.428 Y57.612 E168.98371
G1 X33.663 Y71.847 E170.48433
G1 X32.307 Y71.763 E170.5856
G1 X19.429 Y58.885 E171.94317
G1 X19.429 Y60.159 E172.03813
G1 X30.95 Y71.68 E173.25265
G1 X29.594 Y71.596 E173.35392
G1 X19.43 Y61.432 E174.42539
G1 X19.431 Y62.706 E174.52035
G1 X28.238 Y71.513 E175.44877
G1 X26.882 Y71.429 E175.55004
G1 X19.432 Y63.979 E176.3354
G1 X19.432 Y64.956 E176.40823
G1 X19.448 Y65.269 E176.43159
G1 X25.525 Y71.345 E177.07216
G1 X25.343 Y71.335 E177.08575
G1 X24.89 Y71.287 E177.11971
G1 X24.318 Y71.172 E177.1632
G1 X24.13 Y71.126 E177.17762
G1 X23.984 Y71.077 E177.1891
G1 X19.709 Y66.803 E177.63971
G1 F3600 X19.738 Y66.908
G1 F1980 X19.827 Y67.161 E177.6597
G1 X19.951 Y67.482 E177.68535
G1 X20.045 Y67.698 E177.70291
G1 X20.202 Y68.015 E177.72928
G1 X20.487 Y68.483 E177.77013
G1 X20.612 Y68.669 E177.78683
G1 X21.051 Y69.225 E177.83964
G1 X21.204 Y69.387 E177.85625
G1 X21.635 Y69.799 E177.90069
G1 X21.737 Y69.89 E177.91088
G1 X21.928 Y70.036 E177.9288
G1 X22.367 Y70.343 E177.96874
G1 X22.524 Y70.444 E177.98265
G1 X22.7 Y70.542 E177.99767
G1 X23.31 Y70.842 E178.04834
G1 X23.495 Y70.916 E178.06319
G1 X23.984 Y71.077 E178.10157
G1 F1680 E175.10157
G1 F3600 X61.88 Y51.13
G1 F1680 E178.10157
G1 F1980 X62.328 Y51.475 E178.14372
G1 X63.127 Y52.151 E178.22173
G1 X63.558 Y52.544 E178.26521
G1 X64.088 Y53.067 E178.32071
G1 X64.5 Y53.5 E178.36527
G1 X64.957 Y54.013 E178.41648
G1 X65.385 Y54.525 E178.46622
G1 X65.742 Y54.981 E178.50939
G1 X66.086 Y55.452 E178.55287
G1 X66.526 Y56.094 E178.61088
G1 X66.774 Y56.484 E178.64534
G1 F1680 E175.64534
G1 F3600 X61.682 Y50.8
;TIME_ELAPSED:86.555543
;LAYER:-4
M106 S255
G1 X61.682 Y50.8 Z0.869
G1 F1680 E178.64534
G1 F2400 X61.649 Y50.776 E178.64695
G1 X61.124 Y50.41 E178.67222
G1 X61.109 Y50.4 E178.67294
G1 X21.203 Y50.4 E180.24908
G1 X21.298 Y50.3 E180.25453
G1 X21.494 Y50.126 E180.26488
G1 X21.649 Y50 E180.27277
G1 X60.485 Y50 E181.80665
G1 X60.204 Y49.827 E181.81968
G1 X59.813 Y49.6 E181.83754
G1 X22.175 Y49.6 E183.32411
G1 X22.206 Y49.579 E183.32559
G1 X22.666 Y49.303 E183.34677
G1 X22.857 Y49.2 E183.35535
G1 X59.069 Y49.2 E184.78559
G1 X58.79 Y49.059 E184.79794
G1 X58.237 Y48.8 E184.82205
G1 X23.862 Y48.8 E186.17974
G1 X24.28 Y48.68 E186.19692
G1 X24.591 Y48.614 E186.20948
G1 X25.088 Y48.537 E186.22934
G1 X25.447 Y48.503 E186.24358
G1 X27.126 Y48.4 E186.31002
G1 X57.293 Y48.4 E187.50151
G1 X57.096 Y48.323 E187.50986
G1 X56.619 Y48.149 E187.52992
G1 X56.174 Y48 E187.54845
G1 X33.646 Y48 E188.43823
G1 X40.165 Y47.6 E188.69619
G1 X54.765 Y47.6 E189.27284
G1 X54.715 Y47.587 E189.27488
G1 X54.176 Y47.463 E189.29672
G1 X53.574 Y47.344 E189.32096
G1 X53.053 Y47.258 E189.34182
G1 X52.633 Y47.2 E189.35856
G1 X46.685 Y47.2 E189.59349
G1 X49.113 Y47.051 E189.68956
G1 X49.803 Y47.031 E189.71683
G1 X50.422 Y47.032 E189.74128
G1 X51.154 Y47.061 E189.77021
G1 X51.842 Y47.11 E189.79745
G1 X52.517 Y47.184 E189.82427
G1 F1680 E186.82427
G1 F3600 X61.682 Y50.8
G1 F1680 E189.82427
G1 F2400 X20.83 Y50.8 E191.43778
G1 X20.63 Y51.044 E191.45024
G1 X20.525 Y51.2 E191.45767
G1 X62.215 Y51.2 E193.10427
G1 X62.568 Y51.479 E193.12204
G1 X62.71 Y51.6 E193.12941
G1 X20.256 Y51.6 E194.80619
G1 X20.091 Y51.885 E194.8192
G1 X20.036 Y52 E194.82424
G1 X63.176 Y52 E196.52811
G1 X63.323 Y52.126 E196.53576
G1 X63.62 Y52.4 E196.55172
G1 X19.843 Y52.4 E198.28075
G1 X19.808 Y52.471 E198.28388
G1 X19.719 Y52.699 E198.29354
G1 X19.688 Y52.8 E198.29772
G1 X64.032 Y52.8 E200.04915
G1 X64.094 Y52.861 E200.05258
G1 X64.42 Y53.2 E200.07116
G1 X19.561 Y53.2 E201.84293
G1 X19.48 Y53.455 E201.85349
G1 X19.453 Y53.6 E201.85932
G1 X64.792 Y53.6 E203.65005
G1 X64.98 Y53.81 E203.66118
G1 X65.14 Y54 E203.67099
G1 X19.377 Y54 E205.47847
G1 X19.358 Y54.097 E205.48237
G1 X19.324 Y54.348 E205.49237
G1 X19.32 Y54.4 E205.49443
G1 X65.475 Y54.4 E207.31739
G1 X65.502 Y54.433 E207.31907
G1 X65.79 Y54.8 E207.3375
G1 X19.289 Y54.8 E209.17412
G1 X19.278 Y55.105 E209.18618
G1 X19.278 Y55.2 E209.18993
G1 X66.087 Y55.2 E211.03872
G1 X66.207 Y55.365 E211.04677
G1 X66.37 Y55.6 E211.05807
G1 X19.278 Y55.6 E212.91803
G1 X19.278 Y56 E212.93383
G1 X66.641 Y56 E214.8045
G1 X66.898 Y56.4 E214.82328
G1 X19.278 Y56.4 E216.7041
G1 X19.278 Y56.8 E216.7199
G1 X67.134 Y56.8 E218.61004
G1 X67.235 Y56.973 E218.61795
G1 X67.355 Y57.2 E218.62809
G1 X19.279 Y57.2 E220.52692
G1 X19.279 Y57.6 E220.54272
G1 X67.54 Y57.6 E222.44886
G1 X67.693 Y58 E222.46577
G1 X19.279 Y58 E224.37795
G1 X19.279 Y58.4 E224.39375
G1 X67.815 Y58.4 E226.31075
G1 X67.899 Y58.72 E226.32381
G1 X67.917 Y58.8 E226.32705
G1 X19.279 Y58.8 E228.24808
G1 X19.28 Y59.2 E228.26388
G1 X67.98 Y59.2 E230.18735
G1 X68.017 Y59.493 E230.19902
G1 X68.02 Y59.6 E230.20324
G1 X19.28 Y59.6 E232.1283
G1 X19.28 Y60 E232.1441
G1 X68.032 Y60 E234.06963
G1 X68.033 Y60.064 E234.07216
G1 X68.031 Y60.246 E234.07934
G1 X68.017 Y60.4 E234.08545
G1 X19.28 Y60.4 E236.01039
G1 X19.28 Y60.8 E236.02619
G1 X67.968 Y60.8 E237.94919
G1 X67.928 Y61.115 E237.96173
G1 X67.912 Y61.2 E237.96515
G1 X19.281 Y61.2 E239.8859
