M73 P0
;MINX:28.0
;MAXX:74.0
;MINY:10.0
;MAXY:104.0
;MINZ:0.0
;MAXZ:41.3
;MachineType:ENTINA TINA2
;FilamentType:PLA
;Extruder0Temperature:205
;InfillDensity:20
;FLAVOR:Marlin
;TIME:7369
;FilamentUsed:8922.9
;Layer height: 0.35

;Generated with Cura_SteamEngine 3.1
M104 T0 S220
M82 ; absolute extrusion mode
;(**** start.gcode for tina2****)
M104 S150
G28 Z
G28 X Y; Home extruder
G1 X55 Y55 F1000
G1 Z10 F200
G29
G1 Z15 F100
M107 ; Turn off fan
G90 ; Absolute positioning
M82 ; Extruder in absolute mode
M109 S220.0
G92 E0 ; Reset extruder position
G1 X90 Y6 Z0.27 F2000
G1 X20 Y6 Z0.27 E15 F1000
G92 E0 ; Reset extruder position

;LAYER_COUNT:115
;LAYER:-5
M107
M203 Z5
G1 F3600 X73.102 Y12.937 Z0.349
G1 F1200 X73.229 Y13.212 E0.0334
G1 X73.331 Y13.473 E0.0643
G1 X73.426 Y13.776 E0.09932
G1 X73.48 Y13.997 E0.12441
G1 X73.54 Y14.353 E0.16422
G1 X73.59 Y14.907 E0.22556
G1 X73.6 Y15.129 E0.25007
G1 X73.597 Y55.033 E4.65044
G1 X73.573 Y55.418 E4.69298
G1 X73.534 Y55.733 E4.72798
G1 X73.483 Y55.999 E4.75784
G1 X73.399 Y56.664 E4.83176
G1 X73.399 Y57.345 E4.90686
G1 X73.462 Y57.885 E4.96681
G1 X73.542 Y58.367 E5.02069
G1 X73.59 Y58.907 E5.08047
G1 X73.6 Y59.129 E5.10498
G1 X73.596 Y99.05 E9.50722
G1 X73.572 Y99.427 E9.54888
G1 X73.535 Y99.722 E9.58167
G1 X73.479 Y100.01 E9.61402
G1 X73.404 Y100.3 E9.64705
G1 X73.32 Y100.558 E9.67697
G1 X73.209 Y100.837 E9.71008
G1 X73.087 Y101.095 E9.74156
G1 X72.944 Y101.353 E9.77408
G1 X72.792 Y101.592 E9.80532
G1 X72.61 Y101.839 E9.83915
G1 X72.441 Y102.04 E9.86811
G1 X72.224 Y102.27 E9.90298
G1 X72.018 Y102.461 E9.93396
G1 X71.795 Y102.644 E9.96577
G1 X71.561 Y102.812 E9.99754
G1 X71.302 Y102.974 E10.03122
G1 X71.063 Y103.102 E10.06112
G1 X70.788 Y103.229 E10.09452
G1 X70.527 Y103.331 E10.12542
G1 X70.224 Y103.426 E10.16044
G1 X70.003 Y103.48 E10.18553
G1 X69.647 Y103.54 E10.22534
G1 X69.093 Y103.59 E10.28668
G1 X68.871 Y103.6 E10.31119
G1 X54.076 Y103.6 E11.94269
G1 X53.573 Y103.572 E11.99824
G1 X53.275 Y103.535 E12.03136
G1 X52.991 Y103.48 E12.06326
G1 X52.7 Y103.404 E12.09642
G1 X52.44 Y103.319 E12.12659
G1 X52.163 Y103.209 E12.15945
G1 X51.363 Y102.829 E12.25712
G1 X51.354 Y102.85 E12.25964
G1 X51.21 Y102.789 E12.27688
G1 X50.552 Y102.604 E12.35226
G1 X49.877 Y102.505 E12.42749
G1 X49.291 Y102.492 E12.49213
G1 X49.291 Y102.482 E12.49323
G1 X48.093 Y102.59 E12.62587
G1 X47.871 Y102.6 E12.65038
G1 X32.95 Y102.596 E14.29578
G1 X32.573 Y102.572 E14.33743
G1 X32.275 Y102.535 E14.37055
G1 X31.991 Y102.48 E14.40245
G1 X31.7 Y102.404 E14.43561
G1 X31.44 Y102.319 E14.46578
G1 X31.163 Y102.209 E14.49864
G1 X30.904 Y102.086 E14.53026
G1 X30.647 Y101.944 E14.56264
G1 X30.408 Y101.792 E14.59387
G1 X30.161 Y101.61 E14.62771
G1 X29.96 Y101.441 E14.65667
G1 X29.727 Y101.221 E14.692
G1 X29.54 Y101.019 E14.72236
G1 X29.348 Y100.784 E14.75582
G1 X29.186 Y100.558 E14.78649
G1 X29.026 Y100.302 E14.81978
G1 X28.898 Y100.063 E14.84967
G1 X28.771 Y99.788 E14.88308
G1 X28.669 Y99.527 E14.91398
G1 X28.574 Y99.224 E14.949
G1 X28.52 Y99.003 E14.97408
G1 X28.46 Y98.647 E15.01389
G1 X28.41 Y98.093 E15.07523
G1 X28.4 Y97.871 E15.09974
G1 X28.404 Y57.95 E19.50199
G1 X28.428 Y57.573 E19.54364
G1 X28.465 Y57.275 E19.57676
G1 X28.52 Y56.991 E19.60866
G1 X28.596 Y56.7 E19.64182
G1 X28.68 Y56.442 E19.67174
G1 X28.791 Y56.163 E19.70486
G1 X28.913 Y55.905 E19.73633
G1 X29.059 Y55.642 E19.7695
G1 X29.213 Y55.4 E19.80113
G1 X29.36 Y55.202 E19.82832
G1 X29.721 Y54.638 E19.90217
G1 X30.015 Y54.021 E19.97754
G1 X30.228 Y53.373 E20.05276
G1 X30.358 Y52.702 E20.12813
G1 X30.4 Y52.029 E20.20248
G1 X30.404 Y14.95 E24.29133
G1 X30.428 Y14.573 E24.33299
G1 X30.465 Y14.275 E24.3661
G1 X30.52 Y13.991 E24.398
G1 X30.596 Y13.7 E24.43117
G1 X30.68 Y13.442 E24.46109
G1 X30.791 Y13.163 E24.4942
G1 X30.913 Y12.905 E24.52567
G1 X31.059 Y12.642 E24.55885
G1 X31.208 Y12.408 E24.58944
G1 X31.39 Y12.161 E24.62327
G1 X31.559 Y11.96 E24.65223
G1 X31.779 Y11.727 E24.68757
G1 X31.981 Y11.54 E24.71792
G1 X32.211 Y11.352 E24.75068
G1 X32.439 Y11.188 E24.78165
G1 X32.698 Y11.026 E24.81534
G1 X32.937 Y10.898 E24.84523
G1 X33.212 Y10.771 E24.87864
G1 X33.473 Y10.669 E24.90954
G1 X33.776 Y10.574 E24.94456
G1 X33.997 Y10.52 E24.96964
G1 X34.353 Y10.46 E25.00945
G1 X34.907 Y10.41 E25.07079
G1 X35.129 Y10.4 E25.0953
G1 X50.05 Y10.404 E26.7407
G1 X50.427 Y10.428 E26.78236
G1 X50.733 Y10.466 E26.81636
G1 X50.999 Y10.517 E26.84623
G1 X51.664 Y10.601 E26.92014
G1 X52.345 Y10.601 E26.99524
G1 X52.885 Y10.538 E27.05519
G1 X53.363 Y10.459 E27.10862
G1 X53.907 Y10.41 E27.16885
G1 X54.129 Y10.4 E27.19335
G1 X69.05 Y10.404 E28.83875
G1 X69.427 Y10.428 E28.88041
G1 X69.725 Y10.465 E28.91352
G1 X70.009 Y10.52 E28.94542
G1 X70.3 Y10.596 E28.97859
G1 X70.558 Y10.68 E29.00851
G1 X70.837 Y10.791 E29.04162
G1 X71.095 Y10.913 E29.07309
G1 X71.353 Y11.056 E29.10562
G1 X71.592 Y11.208 E29.13685
G1 X71.839 Y11.39 E29.17069
G1 X72.04 Y11.559 E29.19965
G1 X72.273 Y11.779 E29.23498
G1 X72.46 Y11.981 E29.26534
G1 X72.648 Y12.211 E29.2981
G1 X72.812 Y12.439 E29.32907
G1 X72.974 Y12.698 E29.36276
G1 X73.102 Y12.937 E29.39265
G1 F1680 E26.39265
G1 F3600 X72 Y11.526
G1 F1680 E29.39265
G1 F1200 X72 Y102.476 E39.42207
G1 F1680 E36.42207
G1 F3600 X70.4 Y103.371
G1 F1680 E39.42207
G1 F1200 X70.4 Y10.629 E49.6491
G1 F1680 E46.6491
G1 F3600 X68.8 Y10.404
G1 F1680 E49.6491
G1 F1200 X68.8 Y103.6 E59.92619
G1 F1680 E56.92619
G1 F3600 X67.2 Y103.6
G1 F1680 E59.92619
G1 F1200 X67.2 Y10.404 E70.20329
G1 F1680 E67.20329
G1 F3600 X65.6 Y10.404
G1 F1680 E70.20329
G1 F1200 X65.6 Y103.6 E80.48038
G1 F1680 E77.48038
G1 F3600 X64 Y103.6
G1 F1680 E80.48038
G1 F1200 X64 Y10.403 E90.75759
G1 F1680 E87.75759
G1 F3600 X62.4 Y10.403
G1 F1680 E90.75759
G1 F1200 X62.4 Y103.6 E101.03479
G1 F1680 E98.03479
G1 F3600 X60.8 Y103.6
G1 F1680 E101.03479
G1 F1200 X60.8 Y10.402 E111.3121
G1 F1680 E108.3121
G1 F3600 X59.2 Y10.402
G1 F1680 E111.3121
G1 F1200 X59.2 Y103.6 E121.58942
G1 F1680 E118.58942
G1 F3600 X57.6 Y103.6
G1 F1680 E121.58942
G1 F1200 X57.6 Y10.401 E131.86684
G1 F1680 E128.86684
G1 F3600 X56 Y10.401
G1 F1680 E131.86684
G1 F1200 X56 Y103.6 E142.14427
G1 F1680 E139.14427
G1 F3600 X54.4 Y103.6
G1 F1680 E142.14427
G1 F1200 X54.4 Y10.401 E152.42169
G1 F1680 E149.42169
G1 F3600 X52.8 Y10.547
G1 F1680 E152.42169
G1 F1200 X52.8 Y103.43 E162.66427
G1 F1680 E159.66427
G1 F3600 X51.2 Y102.786
G1 F1680 E162.66427
G1 F1200 X51.2 Y10.543 E172.83627
G1 F1680 E169.83627
G1 F3600 X49.6 Y10.404
G1 F1680 E172.83627
G1 F1200 X49.6 Y102.498 E182.99184
G1 F1680 E179.99184
G1 F3600 X48 Y102.595
G1 F1680 E182.99184
G1 F1200 X48 Y10.404 E193.15811
G1 F1680 E190.15811
G1 F3600 X46.4 Y10.404
G1 F1680 E193.15811
G1 F1200 X46.4 Y102.599 E203.32482
G1 F1680 E200.32482
G1 F3600 X44.8 Y102.599
G1 F1680 E203.32482
G1 F1200 X44.8 Y10.403 E213.49164
G1 F1680 E210.49164
G1 F3600 X43.2 Y10.403
G1 F1680 E213.49164
G1 F1200 X43.2 Y102.598 E223.65835
G1 F1680 E220.65835
G1 F3600 X41.6 Y102.598
G1 F1680 E223.65835
G1 F1200 X41.6 Y10.402 E233.82517
G1 F1680 E230.82517
G1 F3600 X40 Y10.402
G1 F1680 E233.82517
G1 F1200 X40 Y102.597 E243.99188
G1 F1680 E240.99188
G1 F3600 X38.4 Y102.597
G1 F1680 E243.99188
G1 F1200 X38.4 Y10.401 E254.1587
G1 F1680 E251.1587
G1 F3600 X36.8 Y10.401
G1 F1680 E254.1587
G1 F1200 X36.8 Y102.597 E264.32552
G1 F1680 E261.32552
G1 F3600 X35.2 Y102.596
G1 F1680 E264.32552
G1 F1200 X35.2 Y10.401 E274.49223
G1 F1680 E271.49223
G1 F3600 X33.6 Y10.629
G1 F1680 E274.49223
G1 F1200 X33.6 Y102.596 E284.63379
G1 F1680 E281.63379
G1 F3600 X32 Y102.481
G1 F1680 E284.63379
G1 F1200 X32 Y11.524 E294.66398
G1 F1680 E291.66398
G1 F3600 X30.4 Y52.029
M104 T0 S205
G1 F1680 E294.66398
G1 F1200 X30.4 Y101.786 E300.15089
G1 F1680 E297.15089
G1 F3600 X28.8 Y99.85
G1 F1680 E300.15089
G1 F1200 X28.8 Y56.143 E304.97063
G1 F1680 E301.97063
G1 F3600 X73.142 Y12.905
;TIME_ELAPSED:147.161480
;LAYER:-4
G1 X73.142 Y12.905 Z0.619
;TYPE:SUPPORT
G1 F1680 E304.97063
G1 F1980 X73.281 Y13.205 E304.99528
G1 X73.376 Y13.449 E305.0148
G1 F3600 X73.425 Y13.604
G1 F1980 X70.396 Y10.574 E305.33416
G1 X70.591 Y10.637 E305.34943
G1 X70.849 Y10.74 E305.37014
G1 X71.125 Y10.871 E305.39292
G1 X71.376 Y11.011 E305.41434
G1 X71.611 Y11.159 E305.43504
G1 X71.875 Y11.354 E305.45951
G1 X72.074 Y11.522 E305.47892
G1 X72.307 Y11.742 E305.50281
G1 X72.5 Y11.95 E305.52396
G1 X72.686 Y12.176 E305.54577
G1 X72.851 Y12.407 E305.56694
G1 X73.017 Y12.676 E305.5905
G1 X73.142 Y12.905 E305.60995
G1 F1680 E302.60995
G1 F3600 X73.649 Y15.1
G1 F1680 E305.60995
G1 F1980 X68.901 Y10.352 E306.11047
G1 X69.051 Y10.352 E306.12165
G1 X69.434 Y10.376 E306.15026
G1 X69.724 Y10.413 E306.17205
G1 X70.018 Y10.47 E306.19437
G1 X70.311 Y10.547 E306.21695
G1 X70.396 Y10.574 E306.2236
G1 F1680 E303.2236
G1 F3600 X67.628 Y10.352
G1 F1680 E306.2236
G1 F1980 X66.355 Y10.352 E306.31849
G1 X73.65 Y17.647 E307.08751
G1 X73.65 Y18.92 E307.18241
G1 X65.082 Y10.352 E308.08563
G1 X63.809 Y10.352 E308.18052
G1 X73.65 Y20.192 E309.21788
G1 X73.65 Y21.465 E309.31277
G1 X62.535 Y10.351 E310.48444
G1 X61.263 Y10.351 E310.57925
G1 X73.65 Y22.738 E311.88506
G1 X73.65 Y24.011 E311.97995
G1 X59.989 Y10.35 E313.42006
G1 X58.716 Y10.35 E313.51496
G1 X73.649 Y25.283 E315.08916
G1 X73.649 Y26.556 E315.18405
G1 X57.443 Y10.35 E316.89245
G1 X56.17 Y10.349 E316.98734
G1 X73.649 Y27.828 E318.82994
G1 X73.649 Y29.101 E318.92483
G1 X54.897 Y10.349 E320.90162
G1 X54.126 Y10.349 E320.95909
G1 X53.912 Y10.359 E320.97506
G1 X53.657 Y10.382 E320.99415
G1 X73.649 Y30.374 E323.10166
G1 X73.649 Y31.647 E323.19655
G1 X52.53 Y10.528 E325.42287
G1 X52.341 Y10.55 E325.43705
G1 X51.666 Y10.55 E325.48737
G1 X51.223 Y10.494 E325.52065
G1 X73.649 Y32.92 E327.88475
G1 X73.649 Y34.192 E327.97956
G1 X49.809 Y10.352 E330.49272
G1 X48.536 Y10.352 E330.58761
G1 X73.648 Y35.464 E333.23486
G1 X73.648 Y36.737 E333.32975
G1 X47.263 Y10.352 E336.1112
G1 X45.99 Y10.352 E336.20609
G1 X73.648 Y38.01 E339.12174
G1 X73.648 Y39.283 E339.21663
G1 X44.717 Y10.352 E342.26647
G1 X43.443 Y10.351 E342.36143
G1 X73.648 Y40.556 E345.54557
G1 X73.648 Y41.828 E345.64039
G1 X42.171 Y10.351 E348.95862
G1 X40.897 Y10.35 E349.05359
G1 X73.648 Y43.101 E352.50613
G1 X73.648 Y44.374 E352.60102
G1 X39.624 Y10.35 E356.18775
G1 X38.352 Y10.35 E356.28257
G1 X73.647 Y45.646 E360.00334
G1 X73.647 Y46.919 E360.09823
G1 X37.078 Y10.349 E363.9533
G1 X35.805 Y10.349 E364.04819
G1 X73.647 Y48.192 E368.03746
G1 X73.647 Y49.464 E368.13228
G1 X34.572 Y10.389 E372.25148
G1 X34.341 Y10.41 E372.26877
G1 X33.989 Y10.469 E372.29537
G1 X33.75 Y10.528 E372.31372
G1 X33.513 Y10.603 E372.33225
G1 X73.647 Y50.737 E376.56308
G1 X73.647 Y52.01 E376.65798
G1 X32.64 Y11.003 E380.98084
G1 X32.407 Y11.147 E381.00126
G1 X32.176 Y11.313 E381.02246
G1 X31.949 Y11.498 E381.04429
G1 X31.905 Y11.54 E381.04882
G1 X73.647 Y53.283 E385.44922
G1 X73.647 Y54.556 E385.54411
G1 X31.295 Y12.203 E390.00882
G1 X31.159 Y12.388 E390.02593
G1 X31.012 Y12.616 E390.04616
G1 X30.871 Y12.874 E390.06807
G1 X30.813 Y12.994 E390.07801
G1 X73.58 Y55.761 E394.58641
G1 X73.532 Y56.007 E394.60509
G1 X73.449 Y56.666 E394.6546
G1 X73.449 Y56.903 E394.67227
G1 X30.48 Y13.934 E399.20196
G1 X30.47 Y13.975 E399.20511
G1 X30.411 Y14.277 E399.22804
G1 X30.375 Y14.564 E399.2496
G1 X30.351 Y14.948 E399.27828
G1 X30.351 Y15.077 E399.2879
G1 X73.585 Y58.311 E403.84553
G1 X73.589 Y58.338 E403.84756
G1 X73.64 Y58.905 E403.89
G1 X73.65 Y59.126 E403.90649
G1 X73.65 Y59.65 E403.94555
G1 X30.351 Y16.35 E408.51008
G1 X30.351 Y17.623 E408.60497
G1 X73.65 Y60.922 E413.16946
G1 X73.65 Y62.195 E413.26435
G1 X30.351 Y18.896 E417.82883
G1 X30.351 Y20.168 E417.92365
G1 X73.65 Y63.468 E422.48818
G1 X73.65 Y64.741 E422.58307
G1 X30.351 Y21.441 E427.1476
G1 X30.351 Y22.714 E427.2425
G1 X73.65 Y66.013 E431.80698
G1 X73.65 Y67.286 E431.90187
G1 X30.351 Y23.987 E436.46635
G1 X30.35 Y25.259 E436.56117
G1 X73.65 Y68.558 E441.1257
G1 X73.65 Y69.831 E441.22059
G1 X30.35 Y26.532 E445.78513
G1 X30.35 Y27.804 E445.87994
G1 X73.65 Y71.104 E450.44453
G1 X73.65 Y72.377 E450.53942
G1 X30.35 Y29.077 E455.10401
G1 X30.35 Y30.35 E455.1989
G1 X73.649 Y73.649 E459.76338
G1 X73.649 Y74.922 E459.85827
G1 X30.35 Y31.623 E464.42275
G1 X30.35 Y32.896 E464.51764
G1 X73.649 Y76.194 E469.08207
G1 X73.649 Y77.467 E469.17696
G1 X30.349 Y34.168 E473.7415
G1 X30.349 Y35.44 E473.83632
G1 X73.649 Y78.74 E478.4009
G1 X73.648 Y80.012 E478.49572
G1 X30.349 Y36.713 E483.0602
G1 X30.349 Y37.986 E483.15509
G1 X73.648 Y81.285 E487.71957
G1 X73.648 Y82.558 E487.81446
G1 X30.349 Y39.259 E492.37895
G1 X30.349 Y40.532 E492.47384
G1 X73.648 Y83.831 E497.03832
G1 X73.648 Y85.103 E497.13314
G1 X30.349 Y41.804 E501.69762
G1 X30.349 Y43.076 E501.79243
G1 X73.647 Y86.375 E506.35686
G1 X73.647 Y87.648 E506.45175
G1 X30.349 Y44.349 E511.01618
G1 X30.349 Y45.622 E511.11107
G1 X73.647 Y88.921 E515.6755
G1 X73.647 Y90.194 E515.77039
G1 X30.349 Y46.895 E520.33482
G1 X30.349 Y48.168 E520.42971
G1 X73.647 Y91.467 E524.99414
G1 X73.647 Y92.739 E525.08896
G1 X30.349 Y49.44 E529.65339
G1 X30.349 Y50.713 E529.74828
G1 X73.647 Y94.011 E534.31266
G1 X73.647 Y95.284 E534.40755
G1 X30.349 Y51.986 E538.97192
G1 X30.349 Y52.026 E538.9749
G1 X30.307 Y52.694 E539.0248
G1 X30.221 Y53.132 E539.05807
G1 X73.647 Y96.557 E543.63589
G1 X73.647 Y97.83 E543.73078
G1 X29.919 Y54.102 E548.34048
G1 X29.677 Y54.612 E548.38256
G1 X29.473 Y54.929 E548.41066
G1 X73.643 Y99.099 E553.06696
G1 X73.623 Y99.434 E553.09198
G1 X73.587 Y99.721 E553.11354
G1 X73.529 Y100.016 E553.13595
G1 X73.48 Y100.209 E553.15079
G1 X28.968 Y55.697 E557.84314
G1 X28.871 Y55.873 E557.85812
G1 X28.743 Y56.143 E557.8804
G1 X28.639 Y56.4 E557.90106
G1 X28.58 Y56.581 E557.91525
G1 X73.126 Y101.128 E562.61124
G1 X72.988 Y101.376 E562.6324
G1 X72.84 Y101.611 E562.6531
G1 X72.646 Y101.872 E562.67734
G1 X72.624 Y101.899 E562.67994
G1 X28.371 Y57.645 E567.34504
G1 X28.353 Y57.947 E567.36759
G1 X28.352 Y58.899 E567.43856
G1 X71.996 Y102.543 E572.03941
G1 X71.826 Y102.683 E572.05582
G1 X71.591 Y102.851 E572.07736
G1 X71.324 Y103.018 E572.10083
G1 X71.242 Y103.062 E572.10777
G1 X28.352 Y60.172 E576.62913
G1 X28.352 Y61.445 E576.72403
G1 X70.347 Y103.439 E581.15099
G1 X70.248 Y103.47 E581.15872
G1 X70.009 Y103.529 E581.17707
G1 X69.657 Y103.589 E581.20369
G1 X69.258 Y103.624 E581.23355
G1 X28.352 Y62.718 E585.54576
G1 X28.352 Y63.991 E585.64065
G1 X68.01 Y103.649 E589.82131
G1 X66.738 Y103.649 E589.91613
G1 X28.352 Y65.263 E593.96269
G1 X28.352 Y66.535 E594.05751
G1 X65.464 Y103.648 E597.96982
G1 X64.191 Y103.648 E598.06471
G1 X28.352 Y67.808 E601.84283
G1 X28.352 Y69.081 E601.93772
G1 X62.919 Y103.648 E605.5817
G1 X61.645 Y103.647 E605.67666
G1 X28.352 Y70.354 E609.18633
G1 X28.351 Y71.626 E609.28115
G1 X60.372 Y103.647 E612.65673
G1 X59.099 Y103.647 E612.75162
G1 X28.351 Y72.899 E615.99301
G1 X28.351 Y74.171 E616.08782
G1 X57.826 Y103.647 E619.19506
G1 X56.552 Y103.646 E619.29003
G1 X28.351 Y75.444 E622.26297
G1 X28.351 Y76.717 E622.35786
G1 X55.28 Y103.646 E625.19665
G1 X54.007 Y103.646 E625.29154
G1 X28.35 Y77.989 E627.99625
G1 X28.35 Y79.262 E628.09114
G1 X52.469 Y103.381 E630.63371
G1 X52.407 Y103.361 E630.63856
G1 X52.149 Y103.259 E630.65924
G1 X51.389 Y102.898 E630.72196
G1 X51.383 Y102.917 E630.72345
G1 X51.193 Y102.835 E630.73887
G1 X50.541 Y102.653 E630.78933
G1 X50.456 Y102.64 E630.79574
G1 X28.35 Y80.535 E633.12605
G1 X28.35 Y81.808 E633.22094
G1 X49.091 Y102.548 E635.40736
G1 X48.086 Y102.64 E635.48259
G1 X47.917 Y102.647 E635.49519
G1 X28.35 Y83.08 E637.5579
G1 X28.35 Y84.353 E637.65279
G1 X46.646 Y102.649 E639.58152
G1 X45.373 Y102.649 E639.67641
G1 X28.35 Y85.625 E641.47099
G1 X28.35 Y86.898 E641.56588
G1 X44.1 Y102.648 E643.22621
G1 X42.827 Y102.648 E643.3211
G1 X28.35 Y88.171 E644.84723
G1 X28.35 Y89.444 E644.94212
G1 X41.553 Y102.647 E646.33395
G1 X40.281 Y102.647 E646.42877
G1 X28.35 Y90.716 E647.68651
G1 X28.349 Y91.988 E647.78132
G1 X39.008 Y102.647 E648.90497
G1 X37.734 Y102.647 E648.99994
G1 X28.349 Y93.261 E649.98933
G1 X28.349 Y94.534 E650.08423
G1 X36.461 Y102.647 E650.93943
G1 X35.188 Y102.646 E651.03432
G1 X28.349 Y95.807 E651.75527
