M73 P0
;MINX:13.5
;MAXX:86.5
;MINY:26.0
;MAXY:94.0
;MINZ:0.0
;MAXZ:19.3
;MachineType:ENTINA TINA2
;FilamentType:PLA
;Extruder0Temperature:200
;InfillDensity:10
;FLAVOR:Marlin
;TIME:4877
;FilamentUsed:6303.1
;Layer height: 0.35

;Generated with Cura_SteamEngine 3.1
M104 T0 S215
M82 ; absolute extrusion mode
;(**** start.gcode for tina2****)
M104 S150
G28 Z
G28 X Y; Home extruder
G1 X55 Y55 F1000
G1 Z10 F200
G29
G1 Z15 F100
M107 ; Turn off fan
G90 ; Absolute positioning
M82 ; Extruder in absolute mode
M109 S215.0
G92 E0 ; Reset extruder position
G1 X90 Y6 Z0.27 F2000
G1 X20 Y6 Z0.27 E15 F1000
G92 E0 ; Reset extruder position

;LAYER_COUNT:52
;LAYER:-5
M107
M203 Z5
G1 F3600 X80.269 Y28.472 Z0.349
G1 F1200 X81.262 Y29.169 E0.13378
G1 X81.645 Y29.488 E0.18875
G1 X82.477 Y30.248 E0.31301
G1 X82.742 Y30.519 E0.35481
G1 X82.926 Y30.732 E0.38585
G1 X83.631 Y31.657 E0.5141
G1 X83.947 Y32.09 E0.57321
G1 X84.079 Y32.284 E0.59909
G1 X84.246 Y32.568 E0.63542
G1 X84.674 Y33.377 E0.73635
G1 X84.841 Y33.737 E0.78011
G1 X84.939 Y33.995 E0.81054
G1 X85.084 Y34.412 E0.85923
G1 X85.263 Y34.867 E0.91315
G1 X85.437 Y35.449 E0.98013
G1 X85.555 Y35.95 E1.03689
G1 X85.664 Y36.533 E1.1023
G1 X85.769 Y37.219 E1.17883
G1 X85.804 Y37.562 E1.21685
G1 X85.821 Y38.23 E1.29053
G1 X85.819 Y39.555 E1.43665
G1 X85.802 Y41.261 E1.62478
G1 X85.778 Y42.215 E1.73002
G1 X85.741 Y42.879 E1.80335
G1 X85.675 Y43.418 E1.86323
G1 X85.559 Y43.984 E1.92695
G1 X85.247 Y45.17 E2.06218
G1 X85.161 Y45.451 E2.09459
G1 X84.696 Y46.563 E2.2275
G1 X84.545 Y46.868 E2.26503
G1 X84.34 Y47.238 E2.31168
G1 X83.899 Y47.977 E2.40658
G1 X83.593 Y48.439 E2.46768
G1 X83.514 Y48.543 E2.48209
G1 X82.697 Y49.49 E2.62001
G1 X82.076 Y50.13 E2.71835
G1 X81.999 Y50.2 E2.72982
G1 X81.537 Y50.686 E2.80377
G1 X81.134 Y51.237 E2.87904
G1 X80.802 Y51.834 E2.95437
G1 X80.549 Y52.468 E3.02965
G1 X80.377 Y53.129 E3.10497
G1 X80.291 Y53.807 E3.18033
G1 X80.291 Y54.495 E3.2562
G1 X80.437 Y55.442 E3.36186
G1 X80.538 Y55.87 E3.41036
G1 X80.664 Y56.533 E3.48478
G1 X80.769 Y57.219 E3.56131
G1 X80.804 Y57.562 E3.59933
G1 X80.821 Y58.23 E3.67301
G1 X80.819 Y59.555 E3.81913
G1 X80.802 Y61.261 E4.00726
G1 X80.778 Y62.215 E4.1125
G1 X80.741 Y62.879 E4.18583
G1 X80.675 Y63.418 E4.24572
G1 X80.559 Y63.984 E4.30943
G1 X80.247 Y65.17 E4.44466
G1 X80.161 Y65.451 E4.47707
G1 X79.751 Y66.445 E4.59564
G1 X79.568 Y66.822 E4.64185
G1 X79.125 Y67.611 E4.74163
G1 X79.143 Y67.62 E4.74385
G1 X79.051 Y67.796 E4.76575
G1 X78.814 Y68.436 E4.84101
G1 X78.66 Y69.102 E4.91639
G1 X78.591 Y69.781 E4.99165
G1 X78.609 Y70.463 E5.06689
G1 X78.711 Y71.138 E5.14217
G1 X78.901 Y71.799 E5.21801
G1 X79.267 Y72.606 E5.31572
G1 X79.673 Y73.375 E5.41162
G1 X79.846 Y73.748 E5.45696
G1 X80.084 Y74.412 E5.53474
G1 X80.263 Y74.867 E5.58866
G1 X80.437 Y75.449 E5.65565
G1 X80.555 Y75.95 E5.71241
G1 X80.664 Y76.533 E5.77781
G1 X80.769 Y77.219 E5.85434
G1 X80.804 Y77.562 E5.89236
G1 X80.821 Y78.23 E5.96605
G1 X80.819 Y79.555 E6.11216
G1 X80.802 Y81.261 E6.3003
G1 X80.778 Y82.215 E6.40553
G1 X80.741 Y82.879 E6.47887
G1 X80.675 Y83.418 E6.53875
G1 X80.559 Y83.984 E6.60246
G1 X80.247 Y85.17 E6.7377
G1 X80.161 Y85.451 E6.7701
G1 X79.751 Y86.445 E6.88867
G1 X79.568 Y86.822 E6.93488
G1 X79.394 Y87.142 E6.97505
G1 X78.91 Y87.959 E7.07977
G1 X78.593 Y88.439 E7.1432
G1 X78.514 Y88.543 E7.1576
G1 X77.697 Y89.49 E7.29552
G1 X77.083 Y90.123 E7.39277
G1 X76.573 Y90.585 E7.46866
G1 X76.066 Y90.985 E7.53987
G1 X75.675 Y91.218 E7.59006
G1 X75.296 Y91.465 E7.63995
G1 X75.055 Y91.634 E7.67241
G1 X74.537 Y91.951 E7.73938
G1 X73.958 Y92.249 E7.81119
G1 X73.833 Y92.296 E7.82591
G1 X72.959 Y92.637 E7.92937
G1 X72.421 Y92.821 E7.99207
G1 X71.959 Y92.955 E8.04511
G1 X71.787 Y92.998 E8.06467
G1 X70.941 Y93.174 E8.15995
G1 X70.568 Y93.229 E8.20153
G1 X69.669 Y93.321 E8.30119
G1 X69.371 Y93.34 E8.33411
G1 X68.998 Y93.346 E8.37525
G1 X67.611 Y93.31 E8.52825
G1 X66.583 Y93.319 E8.64162
G1 X66.063 Y93.314 E8.69896
G1 X66.063 Y93.324 E8.70007
G1 X65.822 Y93.334 E8.72667
G1 X65.42 Y93.324 E8.77101
G1 X65.039 Y93.294 E8.81315
G1 X64.226 Y93.186 E8.90359
G1 X64.227 Y93.18 E8.90427
G1 X63.603 Y93.075 E8.97404
G1 X63.434 Y93.042 E8.99303
G1 X62.985 Y92.936 E9.04391
G1 X62.483 Y92.8 E9.10126
G1 X61.947 Y92.622 E9.16354
G1 X61.573 Y92.475 E9.20785
G1 X60.942 Y92.188 E9.2843
G1 X60.263 Y91.844 E9.36823
G1 X60.102 Y91.754 E9.38857
G1 X59.685 Y91.54 E9.44026
G1 X59.679 Y91.553 E9.44184
G1 X59.501 Y91.468 E9.46359
G1 X58.852 Y91.254 E9.53895
G1 X58.182 Y91.124 E9.61421
G1 X57.501 Y91.079 E9.68947
G1 X56.819 Y91.121 E9.76482
G1 X56.149 Y91.249 E9.84004
G1 X55.494 Y91.461 E9.91596
G1 X55.115 Y91.653 E9.96281
G1 X55.099 Y91.628 E9.96608
G1 X54.537 Y91.951 E10.03756
G1 X53.958 Y92.249 E10.10937
G1 X53.833 Y92.296 E10.1241
G1 X52.959 Y92.637 E10.22755
G1 X52.421 Y92.821 E10.29025
G1 X51.959 Y92.955 E10.3433
G1 X51.787 Y92.998 E10.36285
G1 X50.941 Y93.174 E10.45814
G1 X50.568 Y93.229 E10.49972
G1 X49.669 Y93.321 E10.59937
G1 X49.371 Y93.34 E10.6323
G1 X48.998 Y93.346 E10.67344
G1 X47.611 Y93.31 E10.82644
G1 X46.583 Y93.319 E10.9398
G1 X46.063 Y93.314 E10.99715
G1 X46.063 Y93.324 E10.99825
G1 X45.822 Y93.334 E11.02485
G1 X45.42 Y93.324 E11.06919
G1 X45.039 Y93.294 E11.11134
G1 X44.226 Y93.186 E11.20178
G1 X44.227 Y93.18 E11.20245
G1 X43.603 Y93.075 E11.27223
G1 X43.434 Y93.042 E11.29122
G1 X42.985 Y92.936 E11.34209
G1 X42.483 Y92.8 E11.39944
G1 X41.947 Y92.622 E11.46173
G1 X41.573 Y92.475 E11.50604
G1 X40.942 Y92.188 E11.58248
G1 X40.263 Y91.844 E11.66642
G1 X40.102 Y91.754 E11.68676
G1 X39.685 Y91.54 E11.73844
G1 X39.679 Y91.553 E11.74002
G1 X39.501 Y91.468 E11.76177
G1 X38.852 Y91.254 E11.83713
G1 X38.182 Y91.124 E11.91239
G1 X37.501 Y91.079 E11.98765
G1 X36.819 Y91.121 E12.063
G1 X36.149 Y91.249 E12.13822
G1 X35.494 Y91.461 E12.21414
G1 X35.115 Y91.653 E12.26099
G1 X35.099 Y91.628 E12.26427
G1 X34.537 Y91.951 E12.33575
G1 X33.958 Y92.249 E12.40756
G1 X33.833 Y92.296 E12.42228
G1 X32.959 Y92.637 E12.52574
G1 X32.421 Y92.821 E12.58844
G1 X31.959 Y92.955 E12.64149
G1 X31.787 Y92.998 E12.66104
G1 X30.941 Y93.174 E12.75633
G1 X30.568 Y93.229 E12.7979
G1 X29.669 Y93.321 E12.89756
G1 X29.371 Y93.34 E12.93048
G1 X28.998 Y93.346 E12.97162
G1 X27.611 Y93.31 E13.12462
G1 X26.583 Y93.319 E13.23799
G1 X26.063 Y93.314 E13.29533
G1 X26.063 Y93.324 E13.29644
G1 X25.822 Y93.334 E13.32304
G1 X25.42 Y93.324 E13.36738
G1 X25.039 Y93.294 E13.40952
G1 X24.226 Y93.186 E13.49996
G1 X24.227 Y93.18 E13.50064
G1 X23.603 Y93.075 E13.57041
G1 X23.434 Y93.042 E13.5894
G1 X22.985 Y92.936 E13.64028
G1 X22.483 Y92.8 E13.69763
G1 X21.947 Y92.622 E13.75991
G1 X21.573 Y92.475 E13.80422
G1 X20.942 Y92.188 E13.88067
G1 X20.266 Y91.845 E13.96426
G1 X19.829 Y91.602 E14.0194
G1 X19.641 Y91.485 E14.04382
G1 X18.943 Y90.979 E14.13888
G1 X18.425 Y90.567 E14.21187
G1 X18.185 Y90.361 E14.24675
G1 X17.493 Y89.687 E14.35327
G1 X17.187 Y89.347 E14.40371
G1 X17.132 Y89.269 E14.41424
G1 X16.843 Y88.939 E14.46261
G1 X16.142 Y88.028 E14.58937
G1 X15.872 Y87.626 E14.64277
G1 X15.49 Y86.925 E14.73081
G1 X15.098 Y86.124 E14.82915
G1 X15.028 Y85.946 E14.85024
G1 X14.641 Y84.843 E14.97914
G1 X14.488 Y84.276 E15.0439
G1 X14.411 Y83.912 E15.08493
G1 X14.296 Y83.245 E15.15957
G1 X14.257 Y82.965 E15.19074
G1 X14.202 Y82.343 E15.2596
G1 X14.176 Y81.742 E15.32594
G1 X14.162 Y81.195 E15.38628
G1 X14.177 Y80.656 E15.44574
G1 X14.168 Y79.727 E15.54819
G1 X14.209 Y77.744 E15.76691
G1 X14.227 Y77.419 E15.8028
G1 X14.308 Y76.696 E15.88303
G1 X14.365 Y76.342 E15.92257
G1 X14.529 Y75.581 E16.00841
G1 X14.662 Y75.093 E16.06419
G1 X14.783 Y74.759 E16.10336
G1 X14.789 Y74.76 E16.10403
G1 X15.071 Y74.022 E16.19115
G1 X15.3 Y73.517 E16.2523
G1 X15.817 Y72.545 E16.37371
G1 X16.09 Y71.933 E16.4476
G1 X16.289 Y71.281 E16.52278
G1 X16.404 Y70.607 E16.59818
G1 X16.432 Y69.925 E16.67345
G1 X16.373 Y69.245 E16.74871
G1 X16.231 Y68.577 E16.82402
G1 X16.077 Y68.14 E16.87512
G1 X16.129 Y68.14 E16.88085
G1 X15.786 Y67.481 E16.96278
G1 X15.79 Y67.477 E16.9634
G1 X15.49 Y66.925 E17.03268
G1 X15.098 Y66.124 E17.13102
G1 X15.028 Y65.946 E17.15211
G1 X14.641 Y64.843 E17.28101
G1 X14.488 Y64.276 E17.34578
G1 X14.411 Y63.912 E17.3868
G1 X14.296 Y63.245 E17.46144
G1 X14.257 Y62.965 E17.49262
G1 X14.202 Y62.343 E17.56147
G1 X14.176 Y61.742 E17.62781
G1 X14.162 Y61.195 E17.68815
G1 X14.177 Y60.656 E17.74761
G1 X14.168 Y59.727 E17.85006
G1 X14.209 Y57.744 E18.06878
G1 X14.227 Y57.419 E18.10467
G1 X14.308 Y56.696 E18.1849
G1 X14.365 Y56.342 E18.22444
G1 X14.529 Y55.581 E18.31029
G1 X14.662 Y55.093 E18.36606
G1 X14.783 Y54.759 E18.40524
G1 X14.789 Y54.76 E18.40591
G1 X15.071 Y54.022 E18.49303
G1 X15.379 Y53.36 E18.57354
G1 X15.959 Y52.285 E18.70824
G1 X16.201 Y51.882 E18.76008
G1 X16.398 Y51.586 E18.79929
G1 X16.522 Y51.418 E18.82232
G1 X17.314 Y50.463 E18.95913
G1 X17.594 Y50.158 E19.00479
G1 X18.042 Y49.733 E19.07288
G1 X18.498 Y49.241 E19.14686
G1 X18.894 Y48.686 E19.22204
G1 X19.218 Y48.084 E19.29743
G1 X19.463 Y47.447 E19.37269
G1 X19.626 Y46.784 E19.44798
G1 X19.704 Y46.106 E19.52324
G1 X19.697 Y45.417 E19.59922
G1 X19.539 Y44.476 E19.70444
G1 X19.491 Y44.29 E19.72563
G1 X19.411 Y43.912 E19.76823
G1 X19.296 Y43.245 E19.84287
G1 X19.257 Y42.965 E19.87404
G1 X19.202 Y42.343 E19.9429
G1 X19.176 Y41.742 E20.00924
G1 X19.162 Y41.195 E20.06958
G1 X19.177 Y40.656 E20.12904
G1 X19.168 Y39.727 E20.23149
G1 X19.209 Y37.744 E20.45021
G1 X19.227 Y37.419 E20.4861
G1 X19.308 Y36.696 E20.56633
G1 X19.365 Y36.342 E20.60587
G1 X19.529 Y35.581 E20.69171
G1 X19.662 Y35.093 E20.74749
G1 X19.783 Y34.759 E20.78667
G1 X19.789 Y34.76 E20.78734
G1 X20.075 Y34.013 E20.87554
G1 X20.186 Y33.771 E20.9049
G1 X20.3 Y33.517 E20.9356
G1 X20.893 Y32.4 E21.07506
G1 X21.135 Y31.988 E21.12775
G1 X21.441 Y31.523 E21.18914
G1 X21.802 Y31.074 E21.25267
G1 X22.251 Y30.537 E21.32986
G1 X22.563 Y30.19 E21.38132
G1 X23.273 Y29.525 E21.48859
G1 X23.416 Y29.405 E21.50917
G1 X24.137 Y28.864 E21.60858
G1 X24.657 Y28.505 E21.67826
G1 X24.827 Y28.398 E21.70041
G1 X25.339 Y28.1 E21.76573
G1 X25.647 Y27.942 E21.80391
G1 X26.018 Y27.765 E21.84924
G1 X26.506 Y27.549 E21.90809
G1 X27.124 Y27.322 E21.98069
G1 X27.882 Y27.088 E22.06817
G1 X28.227 Y26.996 E22.10754
G1 X28.912 Y26.845 E22.18489
G1 X29.175 Y26.804 E22.21424
G1 X29.937 Y26.714 E22.29886
G1 X30.478 Y26.678 E22.35865
G1 X30.626 Y26.674 E22.37497
G1 X31.011 Y26.691 E22.41747
G1 X31.531 Y26.734 E22.47501
G1 X31.534 Y26.714 E22.47724
G1 X31.69 Y26.721 E22.49446
G1 X32.057 Y26.703 E22.53498
G1 X32.436 Y26.672 E22.57691
G1 X32.637 Y26.663 E22.5991
G1 X34.127 Y26.659 E22.76341
G1 X34.477 Y26.672 E22.80203
G1 X34.747 Y26.698 E22.83194
G1 X35.646 Y26.813 E22.93189
G1 X36.316 Y26.911 E23.00656
G1 X36.952 Y27.046 E23.07825
G1 X37.266 Y27.131 E23.11413
G1 X37.623 Y27.241 E23.15532
G1 X37.93 Y27.362 E23.19171
G1 X39.064 Y27.837 E23.32729
G1 X39.353 Y27.971 E23.36241
G1 X39.843 Y28.24 E23.42406
G1 X40.448 Y28.531 E23.49809
G1 X41.096 Y28.746 E23.57338
G1 X41.766 Y28.877 E23.64866
G1 X42.447 Y28.924 E23.72393
G1 X43.129 Y28.884 E23.79927
G1 X43.799 Y28.757 E23.87447
G1 X44.453 Y28.548 E23.95018
G1 X45.235 Y28.162 E24.04635
G1 X45.523 Y28.004 E24.08257
G1 X46.102 Y27.724 E24.1535
G1 X46.616 Y27.505 E24.21511
G1 X47.236 Y27.286 E24.28762
G1 X47.882 Y27.088 E24.36212
G1 X48.227 Y26.996 E24.4015
G1 X48.912 Y26.845 E24.47885
G1 X49.175 Y26.804 E24.5082
G1 X49.937 Y26.714 E24.59281
G1 X50.478 Y26.678 E24.6526
G1 X50.626 Y26.674 E24.66893
G1 X51.011 Y26.691 E24.71143
G1 X51.531 Y26.734 E24.76897
G1 X51.534 Y26.714 E24.7712
G1 X51.69 Y26.721 E24.78842
G1 X52.057 Y26.703 E24.82894
G1 X52.436 Y26.672 E24.87087
G1 X52.637 Y26.663 E24.89306
G1 X54.127 Y26.659 E25.05737
G1 X54.477 Y26.672 E25.09599
G1 X54.747 Y26.698 E25.1259
G1 X55.646 Y26.813 E25.22584
G1 X56.316 Y26.911 E25.30051
G1 X56.952 Y27.046 E25.37221
G1 X57.266 Y27.131 E25.40808
G1 X57.623 Y27.241 E25.44928
G1 X57.93 Y27.362 E25.48567
G1 X59.064 Y27.837 E25.62124
G1 X59.353 Y27.971 E25.65637
G1 X59.843 Y28.24 E25.71801
G1 X60.448 Y28.531 E25.79204
G1 X61.096 Y28.746 E25.86733
G1 X61.766 Y28.877 E25.94262
G1 X62.447 Y28.924 E26.01789
G1 X63.129 Y28.884 E26.09323
G1 X63.799 Y28.757 E26.16843
G1 X64.453 Y28.548 E26.24414
G1 X65.235 Y28.162 E26.34031
G1 X65.523 Y28.004 E26.37653
G1 X66.102 Y27.724 E26.44745
G1 X66.616 Y27.505 E26.50906
G1 X67.236 Y27.286 E26.58157
G1 X67.882 Y27.088 E26.65608
G1 X68.227 Y26.996 E26.69546
G1 X68.912 Y26.845 E26.77281
G1 X69.175 Y26.804 E26.80216
G1 X69.937 Y26.714 E26.88677
G1 X70.478 Y26.678 E26.94656
G1 X70.626 Y26.674 E26.96289
G1 X71.011 Y26.691 E27.00539
G1 X71.531 Y26.734 E27.06292
G1 X71.534 Y26.714 E27.06515
G1 X71.69 Y26.721 E27.08237
G1 X72.057 Y26.703 E27.12289
G1 X72.436 Y26.672 E27.16483
G1 X72.637 Y26.663 E27.18701
G1 X74.127 Y26.659 E27.35132
G1 X74.477 Y26.672 E27.38995
G1 X74.747 Y26.698 E27.41986
G1 X75.646 Y26.813 E27.5198
G1 X76.316 Y26.911 E27.59447
G1 X76.952 Y27.046 E27.66617
G1 X77.266 Y27.131 E27.70204
G1 X77.623 Y27.241 E27.74323
G1 X77.93 Y27.362 E27.77962
G1 X79.064 Y27.837 E27.9152
G1 X79.459 Y28.025 E27.96344
G1 X80.269 Y28.472 E28.06546
G1 F3600 X80 Y28.324
G1 F1200 X80 Y65.842 E32.20272
G1 F1680 E29.20272
G1 F3600 X80 Y74.178
G1 F1680 E32.20272
G1 F1200 X80 Y85.842 E33.48896
G1 F1680 E30.48896
G1 F3600 X78.4 Y88.676
G1 F1680 E33.48896
G1 F1200 X78.4 Y27.559 E40.22857
G1 F1680 E37.22857
G1 F3600 X76.8 Y27.014
G1 F1680 E40.22857
G1 F1200 X76.8 Y90.38 E47.21619
G1 F1680 E44.21619
G1 F3600 X75.2 Y91.533
G1 F1680 E47.21619
G1 F1200 X75.2 Y26.756 E54.35941
G1 F1680 E51.35941
G1 F3600 X73.6 Y26.66
G1 F1680 E54.35941
G1 F1200 X73.6 Y92.387 E61.60739
G1 F1680 E58.60739
G1 F3600 X72 Y92.944
G1 F1680 E61.60739
G1 F1200 X72 Y26.705 E68.91182
G1 F1680 E65.91182
G1 F3600 X70.4 Y26.683
G1 F1680 E68.91182
G1 F1200 X70.4 Y93.247 E76.2521
G1 F1680 E73.2521
G1 F3600 X68.8 Y93.34
G1 F1680 E76.2521
G1 F1200 X68.8 Y26.869 E83.58212
G1 F1680 E80.58212
G1 F3600 X67.2 Y27.298
G1 F1680 E83.58212
G1 F1200 X67.2 Y93.314 E90.86197
G1 F1680 E87.86197
G1 F3600 X65.6 Y93.328
G1 F1680 E90.86197
G1 F1200 X65.6 Y27.966 E98.0697
G1 F1680 E95.0697
G1 F3600 X64 Y28.692
G1 F1680 E98.0697
G1 F1200 X64 Y93.141 E105.17675
G1 F1680 E102.17675
G1 F3600 X62.4 Y92.772
G1 F1680 E105.17675
G1 F1200 X62.4 Y28.921 E112.21785
G1 F1680 E109.21785
G1 F3600 X60.8 Y28.648
G1 F1680 E112.21785
G1 F1200 X60.8 Y92.116 E119.21672
G1 F1680 E116.21672
G1 F3600 X59.2 Y91.368
G1 F1680 E119.21672
G1 F1200 X59.2 Y27.901 E126.21548
G1 F1680 E123.21548
G1 F3600 X57.6 Y27.234
G1 F1680 E126.21548
G1 F1200 X57.6 Y91.085 E133.25658
G1 F1680 E130.25658
G1 F3600 X56 Y91.298
G1 F1680 E133.25658
G1 F1200 X56 Y26.865 E140.36186
G1 F1680 E137.36186
G1 F3600 X54.4 Y26.67
G1 F1680 E140.36186
G1 F1200 X54.4 Y92.022 E147.56849
G1 F1680 E144.56849
G1 F3600 X52.8 Y92.692
G1 F1680 E147.56849
G1 F1200 X52.8 Y26.662 E154.84988
G1 F1680 E151.84988
G1 F3600 X51.2 Y26.707
G1 F1680 E154.84988
G1 F1200 X51.2 Y93.121 E162.17362
G1 F1680 E159.17362
G1 F3600 X49.6 Y93.326
G1 F1680 E162.17362
G1 F1200 X49.6 Y26.753 E169.51488
G1 F1680 E166.51488
G1 F3600 X48 Y27.056
G1 F1680 E169.51488
G1 F1200 X48 Y93.32 E176.82208
G1 F1680 E173.82208
G1 F3600 X46.4 Y93.317
G1 F1680 E176.82208
G1 F1200 X46.4 Y27.597 E184.06929
G1 F1680 E181.06929
G1 F3600 X44.8 Y28.376
G1 F1680 E184.06929
G1 F1200 X44.8 Y93.262 E191.22452
G1 F1680 E188.22452
G1 F3600 X43.2 Y92.986
G1 F1680 E191.22452
G1 F1200 X43.2 Y28.87 E198.29485
G1 F1680 E195.29485
G1 F3600 X41.6 Y28.845
G1 F1680 E198.29485
G1 F1200 X41.6 Y92.485 E205.31269
G1 F1680 E202.31269
G1 F3600 X40 Y91.701
G1 F1680 E205.31269
G1 F1200 X40 Y28.316 E212.3024
G1 F1680 E209.3024
G1 F3600 X38.4 Y27.559
G1 F1680 E212.3024
G1 F1200 X38.4 Y91.166 E219.3166
G1 F1680 E216.3166
G1 F3600 X36.8 Y91.125
G1 F1680 E219.3166
G1 F1200 X36.8 Y27.014 E226.38637
G1 F1680 E223.38637
G1 F3600 X35.2 Y26.756
G1 F1680 E226.38637
G1 F1200 X35.2 Y91.61 E233.53808
G1 F1680 E230.53808
G1 F3600 X33.6 Y92.387
G1 F1680 E233.53808
G1 F1200 X33.6 Y26.66 E240.78606
G1 F1680 E237.78606
G1 F3600 X32 Y26.705
G1 F1680 E240.78606
G1 F1200 X32 Y92.944 E248.0905
