M73 P0
;MINX:7.0
;MAXX:93.0
;MINY:17.0
;MAXY:103.0
;MINZ:0.0
;MAXZ:20.0
;MachineType:ENTINA TINA2
;FilamentType:PLA
;Extruder0Temperature:210
;InfillDensity:10
;FLAVOR:Marlin
;TIME:2355
;FilamentUsed:770.3
;Layer height: 0.1

;Generated with Cura_SteamEngine 3.1
M104 T0 S225
M82 ; absolute extrusion mode
;(**** start.gcode for tina2****)
M104 S150
G28 Z
G28 X Y; Home extruder
G1 X55 Y55 F1000
G1 Z10 F200
G29
G1 Z15 F100
M107 ; Turn off fan
G90 ; Absolute positioning
M82 ; Extruder in absolute mode
M109 S225.0
G92 E0 ; Reset extruder position
G1 X90 Y6 Z0.27 F2000
G1 X20 Y6 Z0.27 E15 F1000
G92 E0 ; Reset extruder position

;LAYER_COUNT:199
;LAYER:0
M106 S255
M203 Z5
G1 F3600 X72.606 Y18.127 Z0.299
;TYPE:SKIRT
G1 F1200 X72.92 Y18.665 E0.03248
G1 X74.834 Y22.828 E0.27136
G1 X76.048 Y25.235 E0.4119
G1 X78.721 Y30.019 E0.69761
G1 X81.665 Y34.651 E0.98375
G1 X84.859 Y39.097 E1.26916
G1 X88.291 Y43.345 E1.55387
G1 X92.359 Y47.817 E1.86906
G1 X92.669 Y48.218 E1.89548
G1 X92.913 Y48.662 E1.92189
G1 X93.084 Y49.14 E1.94836
G1 X93.178 Y49.638 E1.97478
G1 X93.189 Y50.207 E2.00445
G1 X92.965 Y53.428 E2.17279
G1 X92.91 Y53.839 E2.19441
G1 X92.379 Y56.481 E2.3349
G1 X92.277 Y56.865 E2.35562
G1 X91.354 Y59.635 E2.50784
G1 X91.216 Y59.981 E2.52726
G1 X90.177 Y62.203 E2.65514
G1 X90.074 Y62.404 E2.66692
G1 X89.344 Y63.717 E2.74524
G1 X89.21 Y63.936 E2.75862
G1 X87.535 Y66.452 E2.9162
G1 X87.354 Y66.698 E2.93213
G1 X85.635 Y68.814 E3.07426
G1 X85.429 Y69.045 E3.0904
G1 X83.704 Y70.794 E3.21847
G1 X83.515 Y70.971 E3.23197
G1 X80.926 Y73.205 E3.41025
G1 X80.758 Y73.34 E3.42149
G1 X75.502 Y77.296 E3.76446
G1 X71.309 Y80.834 E4.05048
G1 X67.323 Y84.602 E4.33645
G1 X65.441 Y86.538 E4.47721
G1 X61.783 Y90.64 E4.76375
G1 X58.377 Y94.922 E5.04901
G1 X55.201 Y99.414 E5.33582
G1 X53.698 Y101.74 E5.4802
G1 X53.39 Y102.143 E5.50665
G1 X53.023 Y102.492 E5.53305
G1 X52.605 Y102.78 E5.55952
G1 X52.148 Y102.998 E5.58591
G1 X51.661 Y103.142 E5.61239
G1 X50.992 Y103.212 E5.64746
G1 X49.007 Y103.211 E5.75095
G1 X48.502 Y103.171 E5.77736
G1 X48.009 Y103.052 E5.8038
G1 X47.541 Y102.857 E5.83023
G1 X47.109 Y102.591 E5.85668
G1 X46.724 Y102.26 E5.88315
G1 X46.337 Y101.788 E5.91497
G1 X42.798 Y96.526 E6.24558
G1 X39.48 Y92.174 E6.5309
G1 X35.924 Y88.023 E6.81586
G1 X32.126 Y84.063 E7.10193
G1 X30.163 Y82.183 E7.24363
G1 X26.042 Y78.559 E7.52974
G1 X21.727 Y75.177 E7.81557
G1 X19.096 Y73.218 E7.98658
G1 X18.929 Y73.084 E7.99775
G1 X16.673 Y71.159 E8.15236
G1 X16.456 Y70.957 E8.16782
G1 X14.319 Y68.763 E8.3275
G1 X14.105 Y68.519 E8.34442
G1 X12.194 Y66.113 E8.50461
G1 X11.998 Y65.837 E8.52225
G1 X10.705 Y63.803 E8.64791
G1 X10.597 Y63.621 E8.65894
G1 X9.882 Y62.314 E8.73661
G1 X9.795 Y62.143 E8.74662
G1 X8.853 Y60.147 E8.86169
G1 X8.719 Y59.817 E8.88025
G1 X7.942 Y57.55 E9.00519
G1 X7.865 Y57.289 E9.01938
G1 X7.441 Y55.598 E9.11027
G1 X7.39 Y55.356 E9.12317
G1 X6.986 Y52.986 E9.24851
G1 X6.946 Y52.642 E9.26656
G1 X6.796 Y50.196 E9.39433
G1 X6.805 Y49.689 E9.42076
G1 X6.893 Y49.19 E9.44718
G1 X7.059 Y48.71 E9.47366
G1 X7.298 Y48.263 E9.50009
G1 X7.666 Y47.792 E9.53125
G1 X9.57 Y45.77 E9.67605
G1 X13.155 Y41.617 E9.96208
G1 X16.499 Y37.274 E10.24784
G1 X19.595 Y32.743 E10.53395
G1 X22.414 Y28.066 E10.81865
G1 X24.979 Y23.215 E11.10474
G1 X27.085 Y18.658 E11.36646
G1 X27.334 Y18.216 E11.39291
G1 X27.648 Y17.818 E11.41934
G1 X28.022 Y17.475 E11.4458
G1 X28.444 Y17.194 E11.47223
G1 X28.905 Y16.984 E11.49864
G1 X29.394 Y16.848 E11.5251
G1 X30.008 Y16.789 E11.55726
G1 X69.994 Y16.79 E13.64194
G1 X70.5 Y16.83 E13.6684
G1 X70.993 Y16.949 E13.69484
G1 X71.461 Y17.144 E13.72128
G1 X71.893 Y17.409 E13.7477
G1 X72.278 Y17.74 E13.77417
G1 X72.606 Y18.127 E13.80062
G1 F1680 E10.80062
G1 F3600 X69.296 Y20.66
;TYPE:WALL-INNER
G1 F1680 E13.80062
G1 F1200 X69.249 Y21.382 E13.83834
G1 X68.979 Y22.751 E13.91109
G1 X68.526 Y24.103 E13.98543
G1 X67.9 Y25.416 E14.06126
G1 X67.095 Y26.695 E14.14005
G1 X66.137 Y27.893 E14.22002
G1 X65.014 Y29.028 E14.30327
G1 X63.748 Y30.077 E14.38898
G1 X62.343 Y31.032 E14.47755
G1 X60.814 Y31.883 E14.56878
G1 X59.178 Y32.619 E14.66231
G1 X57.466 Y33.225 E14.75699
M73 P1
G1 X55.657 Y33.711 E14.85465
G1 X53.8 Y34.061 E14.95317
G1 X51.917 Y34.27 E15.05194
G1 X50.34 Y34.328 E15.13421
G1 X50.34 Y50.655 E15.98543
G1 X89.296 Y50.655 E18.01641
G1 X89.153 Y52.847 E18.13093
G1 X88.595 Y55.674 E18.28116
G1 X87.665 Y58.454 E18.43399
G1 X86.378 Y61.154 E18.58993
G1 X84.734 Y63.764 E18.75075
G1 X82.768 Y66.224 E18.91493
G1 X80.475 Y68.542 E19.08491
G1 X77.89 Y70.682 E19.25987
G1 X75.031 Y72.626 E19.44012
G1 X71.926 Y74.354 E19.62538
G1 X68.605 Y75.847 E19.81521
G1 X65.12 Y77.084 E20.00801
G1 X61.462 Y78.065 E20.20546
G1 X57.702 Y78.773 E20.40494
G1 X53.876 Y79.198 E20.60563
G1 X50.34 Y79.329 E20.79011
G1 X50.34 Y99.341 E21.83344
G1 X49.66 Y99.341 E21.86889
G1 X49.66 Y79.329 E22.91222
G1 X46.123 Y79.198 E23.09675
G1 X42.298 Y78.773 E23.2974
G1 X38.538 Y78.065 E23.49687
G1 X34.876 Y77.082 E23.69455
G1 X31.394 Y75.847 E23.88716
G1 X28.073 Y74.354 E24.077
G1 X24.968 Y72.626 E24.26226
G1 X22.109 Y70.682 E24.4425
G1 X19.525 Y68.542 E24.61742
G1 X17.232 Y66.224 E24.78741
G1 X15.266 Y63.764 E24.95159
G1 X13.623 Y61.154 E25.11238
G1 X12.335 Y58.454 E25.26834
G1 X11.406 Y55.674 E25.42115
G1 X10.847 Y52.847 E25.57139
G1 X10.704 Y50.655 E25.68592
G1 X49.66 Y50.655 E27.7169
G1 X49.66 Y34.328 E28.56811
G1 X48.083 Y34.27 E28.65038
G1 X46.2 Y34.061 E28.74916
G1 X44.343 Y33.711 E28.84768
G1 X42.534 Y33.225 E28.94533
G1 X40.822 Y32.619 E29.04002
G1 X39.186 Y31.883 E29.13354
G1 X37.657 Y31.032 E29.22477
G1 X36.252 Y30.077 E29.31334
G1 X34.985 Y29.028 E29.3991
G1 X33.864 Y27.893 E29.48227
G1 X32.905 Y26.695 E29.56227
G1 X32.1 Y25.416 E29.64106
G1 X31.477 Y24.111 E29.71646
G1 X31.022 Y22.744 E29.79157
G1 X30.752 Y21.381 E29.86401
G1 X30.705 Y20.66 E29.90168
G1 X69.296 Y20.66 E31.91363
G1 F3600 X69.68 Y20.3
;TYPE:WALL-OUTER
G1 F1200 X69.606 Y21.429 E31.97262
G1 X69.328 Y22.841 E32.04765
G1 X68.859 Y24.242 E32.12467
G1 X68.215 Y25.593 E32.2027
G1 X67.391 Y26.901 E32.2833
G1 X66.407 Y28.132 E32.36546
G1 X65.257 Y29.295 E32.45073
G1 X63.965 Y30.365 E32.53819
G1 X62.529 Y31.341 E32.62871
G1 X60.981 Y32.202 E32.72106
G1 X59.315 Y32.952 E32.81631
G1 X57.566 Y33.571 E32.91304
G1 X55.736 Y34.063 E33.01183
G1 X53.854 Y34.417 E33.11167
G1 X51.943 Y34.629 E33.21192
G1 X50.7 Y34.675 E33.27676
G1 X50.7 Y50.295 E34.09112
G1 X89.68 Y50.295 E36.12335
G1 X89.51 Y52.895 E36.25919
G1 X88.944 Y55.764 E36.41165
G1 X87.998 Y58.593 E36.56717
G1 X86.693 Y61.331 E36.7253
G1 X85.03 Y63.97 E36.88792
G1 X83.038 Y66.463 E37.05429
G1 X80.717 Y68.809 E37.22634
G1 X78.107 Y70.97 E37.40301
G1 X75.217 Y72.935 E37.58521
G1 X72.093 Y74.673 E37.77158
G1 X68.742 Y76.18 E37.96314
G1 X65.22 Y77.43 E38.15799
G1 X61.541 Y78.417 E38.35657
G1 X57.756 Y79.129 E38.55737
G1 X53.903 Y79.557 E38.75948
G1 X50.7 Y79.676 E38.92658
G1 X50.7 Y99.701 E39.97059
G1 X49.3 Y99.701 E40.04358
G1 X49.3 Y79.676 E41.08759
G1 X46.096 Y79.557 E41.25475
G1 X42.244 Y79.129 E41.45681
G1 X38.459 Y78.417 E41.6576
G1 X34.779 Y77.429 E41.85625
G1 X31.257 Y76.18 E42.05108
G1 X27.906 Y74.673 E42.24264
G1 X24.782 Y72.935 E42.42902
G1 X21.892 Y70.97 E42.61122
G1 X19.283 Y68.809 E42.78784
G1 X16.962 Y66.463 E42.95989
G1 X14.97 Y63.97 E43.12626
G1 X13.308 Y61.331 E43.28885
G1 X12.002 Y58.593 E43.44701
G1 X11.057 Y55.764 E43.60251
G1 X10.49 Y52.895 E43.75498
G1 X10.32 Y50.295 E43.89082
G1 X49.3 Y50.295 E45.92305
G1 X49.3 Y34.675 E46.73741
G1 X48.057 Y34.629 E46.80225
G1 X46.146 Y34.417 E46.9025
G1 X44.264 Y34.063 E47.00234
G1 X42.434 Y33.571 E47.10113
G1 X40.685 Y32.952 E47.19786
G1 X39.019 Y32.202 E47.29311
G1 X37.471 Y31.341 E47.38546
G1 X36.035 Y30.365 E47.47598
G1 X34.742 Y29.295 E47.56348
G1 X33.594 Y28.132 E47.64868
G1 X32.609 Y26.901 E47.73087
G1 X31.785 Y25.593 E47.81147
G1 X31.141 Y24.243 E47.88945
G1 X30.674 Y22.841 E47.96649
G1 X30.395 Y21.429 E48.04153
G1 X30.32 Y20.3 E48.10052
G1 X69.68 Y20.3 E50.15256
G1 F1680 E47.15256
G1 F3600 X68.836 Y21.09
;TYPE:SKIN
G1 F1680 E50.15256
G1 F1200 X68.821 Y21.331 E50.16515
G1 X68.562 Y22.64 E50.23472
G1 X68.129 Y23.935 E50.30591
G1 X67.52 Y25.213 E50.37972
G1 X66.742 Y26.447 E50.45577
G1 X65.817 Y27.605 E50.53304
G1 X64.723 Y28.711 E50.61415
G1 X63.498 Y29.727 E50.69712
G1 X62.106 Y30.673 E50.78486
G1 X60.634 Y31.492 E50.87269
G1 X59.006 Y32.224 E50.96575
G1 X57.342 Y32.813 E51.05777
G1 X55.557 Y33.293 E51.15414
G1 X53.75 Y33.633 E51.25
M73 P2
G1 X51.882 Y33.84 E51.34799
G1 X50 Y33.911 E51.44618
G1 X48.118 Y33.84 E51.54437
G1 X46.25 Y33.633 E51.64235
G1 X44.443 Y33.293 E51.73821
G1 X42.658 Y32.813 E51.83458
G1 X40.994 Y32.224 E51.92661
G1 X39.366 Y31.492 E52.01967
G1 X37.894 Y30.673 E52.10749
G1 X36.502 Y29.727 E52.19523
G1 X35.282 Y28.716 E52.27784
G1 X34.178 Y27.598 E52.35976
G1 X33.258 Y26.447 E52.43658
G1 X32.48 Y25.213 E52.51263
G1 X31.873 Y23.942 E52.58607
G1 X31.44 Y22.638 E52.6577
G1 X31.18 Y21.33 E52.72723
G1 X31.165 Y21.09 E52.73976
G1 X68.836 Y21.09 E54.70375
G1 F1680 E51.70375
G1 F3600 X88.836 Y51.085
G1 F1680 E54.70375
G1 F1200 X88.725 Y52.796 E54.79314
G1 X88.178 Y55.563 E54.94019
G1 X87.267 Y58.29 E55.09009
G1 X85.998 Y60.951 E55.24379
G1 X84.381 Y63.516 E55.40187
G1 X82.448 Y65.936 E55.56335
G1 X80.183 Y68.226 E55.73127
G1 X77.64 Y70.332 E55.90341
G1 X74.794 Y72.266 E56.0828
G1 X71.746 Y73.963 E56.26468
G1 X68.435 Y75.45 E56.45391
G1 X64.989 Y76.674 E56.64457
G1 X61.365 Y77.646 E56.84018
G1 X57.652 Y78.345 E57.03716
G1 X53.84 Y78.768 E57.23712
G1 X50 Y78.912 E57.43746
G1 X46.159 Y78.768 E57.63785
G1 X42.348 Y78.345 E57.83776
G1 X38.635 Y77.646 E58.03474
G1 X35.007 Y76.672 E58.23058
G1 X31.564 Y75.45 E58.42106
G1 X28.253 Y73.963 E58.61029
G1 X25.205 Y72.266 E58.79216
G1 X22.359 Y70.332 E58.97156
G1 X19.817 Y68.226 E59.14366
G1 X17.552 Y65.936 E59.31158
G1 X15.619 Y63.516 E59.47306
G1 X14.003 Y60.951 E59.63111
G1 X12.733 Y58.29 E59.78483
G1 X11.823 Y55.563 E59.93471
G1 X11.275 Y52.796 E60.08177
G1 X11.164 Y51.085 E60.17116
G1 X88.836 Y51.085 E64.22062
G1 F1680 E61.22062
G1 F3600 X68.514 Y21.845
G1 F1680 E64.22062
G1 F1200 X67.959 Y21.29 E64.26154
G1 F3600 X67.337 Y21.29
G1 F1200 X68.411 Y22.365 E64.34076
G1 X68.439 Y22.393
G1 F3600 X68.278 Y22.853
G1 F1200 X66.714 Y21.29 E64.45604
G1 X66.686 Y21.262
G1 F3600 X66.092 Y21.29
G1 F1200 X68.122 Y23.32 E64.60571
G1 X68.15 Y23.348
G1 F3600 X67.967 Y23.787
G1 F1200 X65.47 Y21.29 E64.78981
G1 X65.442 Y21.262
G1 F3600 X64.848 Y21.29
G1 F1200 X67.773 Y24.215 E65.00548
G1 X67.801 Y24.243
G1 F3600 X67.572 Y24.637
G1 F1200 X64.225 Y21.29 E65.25225
G1 X64.197 Y21.262
G1 F3600 X63.603 Y21.29
G1 F1200 X67.371 Y25.058 E65.53007
G1 X67.399 Y25.086
G1 F3600 X67.136 Y25.445
G1 F1200 X62.981 Y21.29 E65.83642
G1 X62.953 Y21.262
G1 F3600 X62.359 Y21.29
G1 F1200 X66.895 Y25.827 E66.17089
G1 X66.923 Y25.855
G1 F3600 X66.655 Y26.208
G1 F1200 X61.736 Y21.29 E66.53354
G1 X61.708 Y21.262
G1 F3600 X61.114 Y21.29
G1 F1200 X66.39 Y26.566 E66.92254
G1 X66.418 Y26.594
G1 F3600 X66.114 Y26.912
G1 F1200 X60.492 Y21.29 E67.33705
G1 X60.464 Y21.262
G1 F3600 X59.87 Y21.29
G1 F1200 X65.838 Y27.258 E67.77707
G1 X65.866 Y27.286
G1 F3600 X65.548 Y27.591
G1 F1200 X59.247 Y21.29 E68.24165
G1 X59.219 Y21.262
G1 F3600 X58.625 Y21.29
G1 F1200 X65.239 Y27.904 E68.7293
G1 X65.267 Y27.932
G1 F3600 X64.93 Y28.217
G1 F1200 X58.003 Y21.29 E69.24003
G1 X57.975 Y21.262
G1 F3600 X57.381 Y21.29
G1 F1200 X64.621 Y28.53 E69.77384
G1 X64.649 Y28.558
G1 F3600 X64.283 Y28.815
G1 F1200 X56.758 Y21.29 E70.32866
G1 X56.73 Y21.262
G1 F3600 X56.136 Y21.29
G1 F1200 X63.943 Y29.097 E70.90428
G1 X63.971 Y29.125
G1 F3600 X63.603 Y29.379
G1 F1200 X55.514 Y21.29 E71.50068
G1 X55.486 Y21.262
G1 F3600 X54.891 Y21.29
G1 F1200 X63.252 Y29.651 E72.11714
G1 X63.28 Y29.679
G1 F3600 X62.881 Y29.902
G1 F1200 X54.269 Y21.29 E72.75211
G1 X54.241 Y21.262
G1 F3600 X53.647 Y21.29
G1 F1200 X62.511 Y30.153 E73.40562
G1 X62.539 Y30.181
G1 F3600 X62.14 Y30.405
G1 F1200 X53.025 Y21.29 E74.07767
G1 X52.997 Y21.262
G1 F3600 X52.402 Y21.29
G1 F1200 X61.752 Y30.639 E74.76701
G1 X61.78 Y30.667
G1 F3600 X61.352 Y30.862
G1 F1200 X51.78 Y21.29 E75.47276
G1 X51.752 Y21.262
G1 F3600 X51.158 Y21.29
G1 F1200 X60.953 Y31.085 E76.19495
G1 X60.981 Y31.113
G1 F3600 X60.553 Y31.307
G1 F1200 X50.536 Y21.29 E76.9335
G1 X50.508 Y21.262
G1 F3600 X49.913 Y21.29
G1 F1200 X60.124 Y31.5 E77.68633
G1 X60.152 Y31.528
G1 F3600 X59.695 Y31.693
G1 F1200 X49.291 Y21.29 E78.45338
G1 X49.263 Y21.262
G1 F3600 X48.669 Y21.29
G1 F1200 X59.266 Y31.886 E79.23467
G1 X59.294 Y31.914
M73 P3
G1 F3600 X58.83 Y32.073
G1 F1200 X48.047 Y21.29 E80.0297
G1 X48.019 Y21.262
G1 F3600 X47.424 Y21.29
G1 F1200 X58.37 Y32.236 E80.83675
G1 X58.398 Y32.264
G1 F3600 X57.911 Y32.398
G1 F1200 X46.802 Y21.29 E81.65579
G1 X46.774 Y21.262
G1 F3600 X46.18 Y21.29
G1 F1200 X57.451 Y32.561 E82.4868
G1 X57.479 Y32.589
G1 F3600 X56.973 Y32.705
G1 F1200 X45.558 Y21.29 E83.32844
G1 X45.53 Y21.262
G1 F3600 X44.935 Y21.29
G1 F1200 X56.482 Y32.837 E84.1798
G1 X56.51 Y32.865
G1 F3600 X55.992 Y32.968
G1 F1200 X44.313 Y21.29 E85.04086
G1 X44.285 Y21.262
G1 F3600 X43.691 Y21.29
G1 F1200 X55.501 Y33.1 E85.91162
G1 X55.529 Y33.128
G1 F3600 X54.977 Y33.198
G1 F1200 X43.069 Y21.29 E86.7896
G1 X43.041 Y21.262
G1 F3600 X42.446 Y21.29
G1 F1200 X54.453 Y33.296 E87.67484
G1 X54.481 Y33.324
G1 F3600 X53.929 Y33.395
G1 F1200 X41.824 Y21.29 E88.56735
G1 X41.796 Y21.262
G1 F3600 X41.202 Y21.29
G1 F1200 X53.383 Y33.471 E89.46546
G1 X53.411 Y33.499
G1 F3600 X52.822 Y33.533
G1 F1200 X40.58 Y21.29 E90.3681
G1 X40.552 Y21.262
G1 F3600 X39.957 Y21.29
G1 F1200 X52.262 Y33.595 E91.27536
G1 X52.29 Y33.623
G1 F3600 X51.691 Y33.646
G1 F1200 X39.335 Y21.29 E92.18637
G1 X39.307 Y21.262
G1 F3600 X38.713 Y21.29
G1 F1200 X51.092 Y33.668 E93.09904
G1 X51.12 Y33.696
G1 F3600 X50.492 Y33.691
G1 F1200 X38.091 Y21.29 E94.01337
G1 X38.063 Y21.262
G1 F3600 X37.468 Y21.29
G1 F1200 X49.884 Y33.705 E94.92877
G1 X49.912 Y33.733
G1 F3600 X49.237 Y33.681
G1 F1200 X36.846 Y21.29 E95.84236
G1 X36.818 Y21.262
G1 F3600 X36.224 Y21.29
G1 F1200 X48.59 Y33.656 E96.75411
G1 X48.618 Y33.684
G1 F3600 X47.928 Y33.616
G1 F1200 X35.602 Y21.29 E97.66292
G1 X35.574 Y21.262
G1 F3600 X34.979 Y21.29
G1 F1200 X47.229 Y33.539 E98.56608
G1 X47.257 Y33.567
G1 F3600 X46.529 Y33.462
G1 F1200 X34.357 Y21.29 E99.46352
G1 X34.329 Y21.262
G1 F3600 X33.735 Y21.29
G1 F1200 X45.787 Y33.342 E100.35212
G1 X45.815 Y33.37
G1 F1680 E97.35212
G1 F3600 X45.021 Y33.198
G1 F1680 E100.35212
G1 F1200 X33.113 Y21.29 E101.2301
G1 X33.085 Y21.262
G1 F3600 X32.49 Y21.29
G1 F1200 X44.229 Y33.028 E102.09559
G1 X44.257 Y33.056
G1 F1680 E99.09559
G1 F3600 X43.378 Y32.799
G1 F1680 E102.09559
G1 F1200 X31.868 Y21.29 E102.94419
G1 X31.84 Y21.262
G1 F3600 X31.408 Y21.452
G1 F1200 X42.501 Y32.545 E103.76208
G1 X42.529 Y32.573
G1 F1680 E100.76208
G1 F3600 X41.538 Y32.205
G1 F1680 E103.76208
G1 F1200 X31.563 Y22.229 E104.49758
G1 X31.535 Y22.201
G1 F1680 E101.49758
G1 F3600 X31.8 Y23.088
G1 F1680 E104.49758
G1 F1200 X40.489 Y31.778 E105.13826
G1 X40.517 Y31.806
G1 F1680 E102.13826
G1 F3600 X39.338 Y31.249
G1 F1680 E105.13826
G1 F1200 X32.151 Y24.062 E105.66816
G1 X32.123 Y24.034
G1 F1680 E102.66816
G1 F3600 X32.773 Y25.306
G1 F1680 E105.66816
G1 F1200 X37.908 Y30.441 E106.04676
G1 X37.936 Y30.469
G1 F1680 E103.04676
G1 F3600 X38.217 Y51.285
G1 F1680 E106.04676
G1 F1200 X63.735 Y76.802 E107.92818
G1 X63.763 Y76.83
G1 F3600 X64.225 Y76.67
G1 F1200 X38.839 Y51.285 E109.79986
G1 X38.811 Y51.257
G1 F3600 X39.462 Y51.285
G1 F1200 X64.715 Y76.538 E111.66177
G1 X64.743 Y76.566
G1 F3600 X65.188 Y76.388
G1 F1200 X40.084 Y51.285 E113.51266
G1 X40.056 Y51.257
G1 F3600 X40.706 Y51.285
G1 F1200 X65.647 Y76.226 E115.35157
G1 X65.675 Y76.254
G1 F3600 X66.106 Y76.062
G1 F1200 X41.328 Y51.285 E117.17843
G1 X41.3 Y51.257
G1 F3600 X41.951 Y51.285
G1 F1200 X66.566 Y75.9 E118.9933
G1 X66.594 Y75.928
G1 F3600 X67.025 Y75.736
G1 F1200 X42.573 Y51.285 E120.79612
G1 X42.545 Y51.257
G1 F3600 X43.195 Y51.285
G1 F1200 X67.484 Y75.574 E122.58696
G1 X67.512 Y75.602
G1 F3600 X67.943 Y75.41
