M73 P0
;MINX:7.0
;MAXX:93.0
;MINY:16.9
;MAXY:103.1
;MINZ:0.0
;MAXZ:6.3
;MachineType:ENTINA TINA2
;FilamentType:PLA
;Extruder0Temperature:205
;InfillDensity:10
;FLAVOR:Marlin
;TIME:1652
;FilamentUsed:672.1
;Layer height: 0.1

;Generated with Cura_SteamEngine 3.1
M104 T0 S220
M82 ; absolute extrusion mode
;(**** start.gcode for tina2****)
M104 S150
G28 Z
G28 X Y; Home extruder
G1 X55 Y55 F1000
G1 Z10 F200
G29
G1 Z15 F100
M107 ; Turn off fan
G90 ; Absolute positioning
M82 ; Extruder in absolute mode
M109 S220.0
G92 E0 ; Reset extruder position
G1 X90 Y6 Z0.27 F2000
G1 X20 Y6 Z0.27 E15 F1000
G92 E0 ; Reset extruder position

;LAYER_COUNT:62
;LAYER:0
M106 S255
M203 Z5
G1 F3600 X72.603 Y18.029 Z0.299
;TYPE:SKIRT
G1 F1200 X72.919 Y18.573 E0.0328
G1 X74.986 Y23.09 E0.29178
G1 X76.206 Y25.509 E0.43303
G1 X78.876 Y30.282 E0.71816
G1 X81.819 Y34.91 E1.00409
G1 X85.018 Y39.363 E1.28995
G1 X88.447 Y43.605 E1.57432
G1 X92.37 Y47.925 E1.87856
G1 X92.68 Y48.326 E1.90498
G1 X92.923 Y48.771 E1.93141
G1 X93.094 Y49.249 E1.95788
G1 X93.188 Y49.747 E1.9843
G1 X93.198 Y50.323 E2.01434
G1 X92.965 Y53.532 E2.18208
G1 X92.91 Y53.934 E2.20323
G1 X92.377 Y56.582 E2.34406
G1 X92.278 Y56.954 E2.36413
G1 X91.545 Y59.18 E2.48631
G1 X91.42 Y59.501 E2.50427
G1 X89.905 Y62.848 E2.69581
G1 X89.694 Y63.24 E2.71902
G1 X87.942 Y66.012 E2.88998
G1 X87.734 Y66.304 E2.90868
G1 X85.759 Y68.772 E3.07347
G1 X85.535 Y69.024 E3.09105
G1 X83.198 Y71.388 E3.26436
G1 X82.962 Y71.604 E3.28104
G1 X80.43 Y73.701 E3.45244
G1 X80.269 Y73.826 E3.46306
G1 X77.681 Y75.707 E3.62986
G1 X73.376 Y79.134 E3.91674
G1 X69.287 Y82.787 E4.2026
G1 X67.367 Y84.652 E4.34215
G1 X63.576 Y88.666 E4.63
G1 X60.053 Y92.848 E4.91508
G1 X56.769 Y97.224 E5.20032
G1 X53.676 Y101.869 E5.49127
G1 X53.363 Y102.267 E5.51767
G1 X52.991 Y102.612 E5.54412
G1 X52.569 Y102.894 E5.57058
G1 X52.108 Y103.106 E5.59703
G1 X51.62 Y103.243 E5.62346
G1 X51.001 Y103.304 E5.65589
G1 X49.009 Y103.307 E5.75974
G1 X48.503 Y103.268 E5.7862
G1 X48.01 Y103.15 E5.81263
G1 X47.541 Y102.956 E5.83909
G1 X47.109 Y102.69 E5.86554
G1 X46.724 Y102.361 E5.89194
G1 X46.307 Y101.846 E5.92649
G1 X44.367 Y98.871 E6.11165
G1 X41.167 Y94.421 E6.39741
G1 X37.714 Y90.15 E6.68375
G1 X34.024 Y86.081 E6.97013
G1 X32.145 Y84.176 E7.10963
G1 X28.116 Y80.428 E7.39652
G1 X23.893 Y76.921 E7.68271
G1 X19.989 Y74.023 E7.93619
G1 X19.846 Y73.911 E7.94566
G1 X16.765 Y71.343 E8.15477
G1 X16.529 Y71.125 E8.17152
G1 X14.441 Y68.997 E8.32695
G1 X14.223 Y68.752 E8.34405
G1 X12.223 Y66.248 E8.51113
G1 X12.017 Y65.957 E8.52971
G1 X10.354 Y63.324 E8.69207
G1 X10.178 Y63.008 E8.71093
M73 P1
G1 X9.136 Y60.856 E8.83559
G1 X9.04 Y60.637 E8.84805
G1 X8.438 Y59.115 E8.93338
G1 X8.36 Y58.896 E8.9455
G1 X7.629 Y56.57 E9.07262
G1 X7.54 Y56.217 E9.0916
G1 X7.041 Y53.641 E9.2284
G1 X6.989 Y53.235 E9.24974
G1 X6.801 Y50.296 E9.40327
G1 X6.808 Y49.788 E9.42976
G1 X6.895 Y49.289 E9.45617
G1 X7.06 Y48.809 E9.48263
G1 X7.297 Y48.361 E9.50905
G1 X7.636 Y47.919 E9.5381
G1 X11.246 Y43.963 E9.81731
G1 X14.718 Y39.708 E10.10363
G1 X17.922 Y35.293 E10.38803
G1 X20.887 Y30.679 E10.67397
G1 X23.586 Y25.908 E10.95975
G1 X26.003 Y21.004 E11.24478
G1 X27.062 Y18.61 E11.38126
G1 X27.304 Y18.164 E11.40772
G1 X27.612 Y17.761 E11.43416
G1 X27.979 Y17.412 E11.46056
G1 X28.397 Y17.124 E11.48703
G1 X28.855 Y16.906 E11.51347
G1 X29.341 Y16.763 E11.53989
G1 X30.007 Y16.693 E11.5748
G1 X69.991 Y16.693 E13.65938
G1 X70.497 Y16.733 E13.68584
G1 X70.99 Y16.852 E13.71228
G1 X71.458 Y17.047 E13.73871
G1 X71.89 Y17.312 E13.76513
G1 X72.275 Y17.643 E13.7916
G1 X72.603 Y18.029 E13.81801
G1 F1680 E10.81801
G1 F3600 X69.296 Y20.563
;TYPE:WALL-INNER
G1 F1680 E13.81801
G1 F1200 X69.249 Y21.285 E13.85573
G1 X68.978 Y22.654 E13.92849
G1 X68.526 Y24.006 E14.00281
G1 X67.9 Y25.319 E14.07865
G1 X67.094 Y26.599 E14.15751
G1 X66.137 Y27.796 E14.23741
G1 X65.014 Y28.93 E14.32062
G1 X63.748 Y29.98 E14.40637
G1 X62.343 Y30.934 E14.49491
G1 X60.813 Y31.786 E14.58621
G1 X59.177 Y32.522 E14.67973
G1 X57.466 Y33.129 E14.77438
G1 X55.659 Y33.613 E14.87191
G1 X53.798 Y33.965 E14.97066
G1 X51.917 Y34.172 E15.06932
G1 X50.339 Y34.232 E15.15164
G1 X50.339 Y50.75 E16.01281
G1 X89.296 Y50.75 E18.04385
G1 X89.153 Y52.942 E18.15837
G1 X88.594 Y55.77 E18.30866
G1 X87.665 Y58.549 E18.46143
G1 X86.376 Y61.256 E18.61774
G1 X84.738 Y63.852 E18.77777
G1 X82.766 Y66.32 E18.94247
G1 X80.476 Y68.637 E19.11231
G1 X77.891 Y70.778 E19.28731
G1 X75.031 Y72.72 E19.46754
G1 X71.925 Y74.45 E19.6529
G1 X68.605 Y75.943 E19.84268
G1 X65.123 Y77.177 E20.03528
G1 X61.462 Y78.161 E20.23292
G1 X57.702 Y78.869 E20.43239
G1 X53.878 Y79.293 E20.63298
G1 X50.339 Y79.424 E20.81761
G1 X50.339 Y99.437 E21.861
G1 X49.659 Y99.437 E21.89645
G1 X49.659 Y79.424 E22.93983
G1 X46.122 Y79.293 E23.12436
G1 X42.298 Y78.869 E23.32495
G1 X38.537 Y78.161 E23.52447
G1 X34.879 Y77.179 E23.72194
G1 X31.395 Y75.943 E23.91467
G1 X28.075 Y74.45 E24.10445
G1 X24.969 Y72.72 E24.28981
G1 X22.109 Y70.778 E24.47004
G1 X19.525 Y68.637 E24.64499
G1 X17.234 Y66.32 E24.81487
G1 X15.262 Y63.852 E24.97957
G1 X13.625 Y61.256 E25.13958
G1 X12.335 Y58.549 E25.29591
G1 X11.406 Y55.77 E25.44868
G1 X10.847 Y52.942 E25.59897
G1 X10.704 Y50.75 E25.71349
G1 X49.659 Y50.75 E27.74442
G1 X49.659 Y34.232 E28.60559
G1 X48.082 Y34.172 E28.68787
G1 X46.202 Y33.965 E28.78647
G1 X44.34 Y33.613 E28.88527
M73 P2
G1 X42.533 Y33.129 E28.9828
G1 X40.823 Y32.522 E29.0774
G1 X39.186 Y31.786 E29.17097
G1 X37.657 Y30.934 E29.26223
G1 X36.251 Y29.98 E29.35081
G1 X34.985 Y28.93 E29.43656
G1 X33.862 Y27.796 E29.51977
G1 X32.905 Y26.599 E29.59967
G1 X32.1 Y25.32 E29.67846
G1 X31.474 Y24.006 E29.75434
G1 X31.022 Y22.654 E29.82866
G1 X30.751 Y21.285 E29.90142
G1 X30.704 Y20.563 E29.93914
G1 X69.296 Y20.563 E31.95114
G1 F3600 X69.68 Y20.203
;TYPE:WALL-OUTER
G1 F1200 X69.606 Y21.332 E32.01013
G1 X69.327 Y22.744 E32.08517
G1 X68.859 Y24.145 E32.16218
G1 X68.215 Y25.496 E32.24021
G1 X67.39 Y26.805 E32.32088
G1 X66.407 Y28.035 E32.40296
G1 X65.257 Y29.197 E32.4882
G1 X63.965 Y30.268 E32.57569
G1 X62.529 Y31.243 E32.66618
G1 X60.98 Y32.105 E32.7586
G1 X59.314 Y32.855 E32.85386
G1 X57.566 Y33.475 E32.95055
G1 X55.738 Y33.965 E33.04922
G1 X53.852 Y34.321 E33.14928
G1 X51.943 Y34.532 E33.24941
G1 X50.699 Y34.579 E33.31432
G1 X50.699 Y50.39 E34.13863
G1 X89.68 Y50.39 E36.17091
G1 X89.51 Y52.99 E36.30675
G1 X88.943 Y55.86 E36.45927
G1 X87.998 Y58.688 E36.61473
G1 X86.694 Y61.426 E36.77283
G1 X85.029 Y64.064 E36.93547
G1 X83.036 Y66.559 E37.10195
G1 X80.719 Y68.904 E37.27382
G1 X78.108 Y71.066 E37.45056
G1 X75.217 Y73.029 E37.63274
G1 X72.092 Y74.769 E37.81922
G1 X68.742 Y76.276 E38.01073
G1 X65.22 Y77.524 E38.20554
G1 X61.541 Y78.513 E38.40415
G1 X57.756 Y79.225 E38.60494
G1 X53.904 Y79.652 E38.807
G1 X50.699 Y79.771 E38.97421
G1 X50.699 Y99.797 E40.01827
G1 X49.299 Y99.797 E40.09126
G1 X49.299 Y79.771 E41.13532
G1 X46.096 Y79.652 E41.30242
G1 X42.244 Y79.225 E41.50448
G1 X38.458 Y78.513 E41.70532
G1 X34.779 Y77.525 E41.90392
G1 X31.258 Y76.276 E42.0987
G1 X27.908 Y74.769 E42.29021
G1 X24.783 Y73.029 E42.47669
G1 X21.892 Y71.066 E42.65887
G1 X19.282 Y68.904 E42.83556
G1 X16.964 Y66.559 E43.00747
G1 X14.971 Y64.064 E43.17395
G1 X13.307 Y61.426 E43.33656
G1 X12.002 Y58.688 E43.49469
G1 X11.057 Y55.86 E43.65014
G1 X10.49 Y52.99 E43.80266
G1 X10.32 Y50.39 E43.93851
G1 X49.299 Y50.39 E45.97069
G1 X49.299 Y34.579 E46.795
G1 X48.056 Y34.532 E46.85985
G1 X46.148 Y34.321 E46.95993
G1 X44.261 Y33.965 E47.06004
G1 X42.433 Y33.475 E47.15871
G1 X40.686 Y32.855 E47.25536
G1 X39.019 Y32.105 E47.35066
G1 X37.471 Y31.243 E47.44303
G1 X36.034 Y30.268 E47.53357
G1 X34.742 Y29.197 E47.62106
G1 X33.592 Y28.035 E47.70629
G1 X32.609 Y26.805 E47.78838
G1 X31.785 Y25.497 E47.86898
G1 X31.141 Y24.145 E47.94705
G1 X30.673 Y22.744 E48.02406
G1 X30.394 Y21.332 E48.0991
G1 X30.32 Y20.203 E48.15809
G1 X69.68 Y20.203 E50.21013
G1 F1680 E47.21013
G1 F3600 X68.836 Y20.993
;TYPE:SKIN
G1 F1680 E50.21013
G1 F1200 X68.821 Y21.234 E50.22272
G1 X68.561 Y22.545 E50.2924
G1 X68.129 Y23.84 E50.36357
G1 X67.52 Y25.116 E50.43729
G1 X66.741 Y26.351 E50.51341
M73 P3
G1 X65.817 Y27.508 E50.59061
G1 X64.722 Y28.614 E50.67175
G1 X63.498 Y29.63 E50.75468
G1 X62.106 Y30.575 E50.8424
G1 X60.633 Y31.395 E50.93029
G1 X59.007 Y32.125 E51.02321
G1 X57.347 Y32.715 E51.11506
G1 X55.55 Y33.196 E51.21205
G1 X53.748 Y33.537 E51.30766
G1 X51.881 Y33.742 E51.40558
G1 X49.999 Y33.815 E51.50378
G1 X48.118 Y33.742 E51.60192
G1 X46.252 Y33.537 E51.69979
G1 X44.449 Y33.196 E51.79545
G1 X42.652 Y32.715 E51.89244
G1 X40.993 Y32.125 E51.98424
G1 X39.366 Y31.395 E52.07721
G1 X37.894 Y30.575 E52.16506
G1 X36.501 Y29.63 E52.25281
G1 X35.277 Y28.614 E52.33575
G1 X34.182 Y27.508 E52.41689
G1 X33.258 Y26.351 E52.49409
G1 X32.48 Y25.117 E52.57014
G1 X31.873 Y23.842 E52.64376
G1 X31.439 Y22.543 E52.71516
G1 X31.179 Y21.234 E52.78474
G1 X31.164 Y20.993 E52.79733
G1 X68.836 Y20.993 E54.76137
G1 F1680 E51.76137
G1 F3600 X88.836 Y51.18
G1 F1680 E54.76137
G1 F1200 X88.725 Y52.891 E54.85076
G1 X88.177 Y55.659 E54.99787
G1 X87.266 Y58.385 E55.14772
G1 X85.996 Y61.053 E55.30177
G1 X84.385 Y63.604 E55.45907
G1 X82.446 Y66.033 E55.62111
G1 X80.184 Y68.321 E55.78885
G1 X77.641 Y70.428 E55.96102
G1 X74.794 Y72.361 E56.14043
G1 X71.745 Y74.059 E56.32238
G1 X68.432 Y75.548 E56.51174
G1 X64.999 Y76.765 E56.70164
G1 X61.362 Y77.743 E56.89799
G1 X57.652 Y78.441 E57.09481
G1 X53.843 Y78.863 E57.2946
G1 X49.999 Y79.007 E57.49515
G1 X46.157 Y78.863 E57.6956
G1 X42.348 Y78.441 E57.89539
G1 X38.634 Y77.742 E58.09242
G1 X35.01 Y76.769 E58.28805
G1 X31.565 Y75.546 E58.47864
G1 X28.255 Y74.059 E58.66782
G1 X25.206 Y72.361 E58.84977
G1 X22.359 Y70.428 E59.02918
G1 X19.817 Y68.321 E59.20132
G1 X17.554 Y66.033 E59.36909
G1 X15.615 Y63.604 E59.53113
G1 X14.005 Y61.053 E59.6884
G1 X12.734 Y58.385 E59.84247
G1 X11.823 Y55.659 E59.99232
G1 X11.275 Y52.891 E60.13943
G1 X11.164 Y51.18 E60.22882
G1 X88.836 Y51.18 E64.27827
G1 F1680 E61.27827
G1 F3600 X68.542 Y21.251
G1 F1680 E64.27827
G1 F1200 X68.18 Y21.511 E64.306
G1 X68.526 Y21.857
G1 F3600 X68.395 Y22.348
G1 F1200 X67.24 Y21.193 E64.39116
G1 X67.212 Y21.165
G1 F3600 X66.617 Y21.193
G1 F1200 X68.254 Y22.829 E64.51182
G1 X68.282 Y22.857
G1 F3600 X68.098 Y23.296
G1 F1200 X65.995 Y21.193 E64.66687
G1 X65.967 Y21.165
G1 F3600 X65.373 Y21.193
G1 F1200 X67.943 Y23.763 E64.85636
G1 X67.971 Y23.791
G1 F3600 X67.742 Y24.184
G1 F1200 X64.751 Y21.193 E65.07689
G1 X64.723 Y21.165
G1 F3600 X64.128 Y21.193
G1 F1200 X67.541 Y24.605 E65.32849
G1 X67.569 Y24.633
G1 F3600 X67.34 Y25.027
G1 F1200 X63.506 Y21.193 E65.61117
G1 X63.478 Y21.165
G1 F3600 X62.884 Y21.193
G1 F1200 X67.099 Y25.408 E65.92195
G1 X67.127 Y25.436
G1 F3600 X66.858 Y25.789
G1 F1200 X62.262 Y21.193 E66.26081
G1 X62.234 Y21.165
G1 F3600 X61.639 Y21.193
M73 P4
G1 F1200 X66.617 Y26.17 E66.6278
G1 X66.645 Y26.198
G1 F3600 X66.347 Y26.522
G1 F1200 X61.017 Y21.193 E67.02075
G1 X60.989 Y21.165
G1 F3600 X60.395 Y21.193
G1 F1200 X66.07 Y26.868 E67.43917
G1 X66.098 Y26.896
G1 F3600 X65.794 Y27.215
G1 F1200 X59.773 Y21.193 E67.88314
G1 X59.745 Y21.165
G1 F3600 X59.15 Y21.193
G1 F1200 X65.5 Y27.543 E68.35133
G1 X65.528 Y27.571
G1 F3600 X65.191 Y27.855
G1 F1200 X58.528 Y21.193 E68.84255
G1 X58.5 Y21.165
G1 F3600 X57.906 Y21.193
G1 F1200 X64.881 Y28.169 E69.35686
G1 X64.909 Y28.197
G1 F3600 X64.57 Y28.479
G1 F1200 X57.284 Y21.193 E69.89406
G1 X57.256 Y21.165
G1 F3600 X56.661 Y21.193
G1 F1200 X64.23 Y28.761 E70.45209
G1 X64.258 Y28.789
G1 F3600 X63.889 Y29.043
G1 F1200 X56.039 Y21.193 E71.03087
G1 X56.011 Y21.165
G1 F3600 X55.417 Y21.193
G1 F1200 X63.549 Y29.325 E71.63045
G1 X63.577 Y29.353
G1 F3600 X63.194 Y29.593
G1 F1200 X54.795 Y21.193 E72.24975
G1 X54.767 Y21.165
G1 F3600 X54.172 Y21.193
G1 F1200 X62.824 Y29.844 E72.88763
G1 X62.852 Y29.872
G1 F3600 X62.453 Y30.095
G1 F1200 X53.55 Y21.193 E73.54401
G1 X53.522 Y21.165
G1 F3600 X52.928 Y21.193
G1 F1200 X62.082 Y30.347 E74.21894
G1 X62.11 Y30.375
G1 F3600 X61.69 Y30.577
G1 F1200 X52.306 Y21.193 E74.91082
G1 X52.278 Y21.165
G1 F3600 X51.683 Y21.193
G1 F1200 X61.289 Y30.799 E75.61908
G1 X61.317 Y30.827
G1 F3600 X60.89 Y31.022
G1 F1200 X51.061 Y21.193 E76.34377
G1 X51.033 Y21.165
G1 F3600 X50.439 Y21.193
G1 F1200 X60.486 Y31.24 E77.08454
G1 X60.514 Y31.268
G1 F3600 X60.056 Y31.433
G1 F1200 X49.817 Y21.193 E77.83951
G1 X49.789 Y21.165
G1 F3600 X49.194 Y21.193
G1 F1200 X59.627 Y31.626 E78.60874
G1 X59.655 Y31.654
G1 F3600 X59.198 Y31.819
G1 F1200 X48.572 Y21.193 E79.39219
G1 X48.544 Y21.165
G1 F3600 X47.95 Y21.193
G1 F1200 X58.757 Y32 E80.189
G1 X58.785 Y32.028
G1 F3600 X58.298 Y32.164
G1 F1200 X47.328 Y21.193 E80.99786
G1 X47.3 Y21.165
G1 F3600 X46.705 Y21.193
G1 F1200 X57.839 Y32.327 E81.81877
G1 X57.867 Y32.355
G1 F3600 X57.38 Y32.49
G1 F1200 X46.083 Y21.193 E82.6517
G1 X46.055 Y21.165
G1 F3600 X45.461 Y21.193
G1 F1200 X56.895 Y32.628 E83.49477
G1 X56.923 Y32.656
G1 F3600 X56.404 Y32.758
G1 F1200 X44.839 Y21.193 E84.34747
G1 X44.811 Y21.165
G1 F3600 X44.216 Y21.193
G1 F1200 X55.913 Y32.89 E85.20989
G1 X55.941 Y32.918
G1 F3600 X55.418 Y33.016
G1 F1200 X43.594 Y21.193 E86.08164
G1 X43.566 Y21.165
G1 F3600 X42.972 Y21.193
G1 F1200 X54.894 Y33.115 E86.96066
G1 X54.922 Y33.143
G1 F3600 X54.371 Y33.214
G1 F1200 X42.35 Y21.193 E87.84697
G1 X42.322 Y21.165
G1 F3600 X41.727 Y21.193
G1 F1200 X53.848 Y33.313 E88.74062
M73 P5
G1 X53.876 Y33.341
G1 F3600 X53.296 Y33.384
G1 F1200 X41.105 Y21.193 E89.63947
G1 X41.077 Y21.165
G1 F3600 X40.483 Y21.193
G1 F1200 X52.736 Y33.446 E90.54288
G1 X52.764 Y33.474
G1 F3600 X52.175 Y33.507
G1 F1200 X39.861 Y21.193 E91.4508
G1 X39.833 Y21.165
G1 F3600 X39.238 Y21.193
G1 F1200 X51.597 Y33.552 E92.36203
G1 X51.625 Y33.58
G1 F3600 X50.998 Y33.575
G1 F1200 X38.616 Y21.193 E93.27496
G1 X38.588 Y21.165
G1 F3600 X37.994 Y21.193
G1 F1200 X50.399 Y33.598 E94.18959
G1 X50.427 Y33.626
G1 F3600 X49.785 Y33.606
G1 F1200 X37.372 Y21.193 E95.10481
G1 X37.344 Y21.165
G1 F3600 X36.749 Y21.193
G1 F1200 X49.137 Y33.581 E96.01818
G1 X49.165 Y33.609
G1 F3600 X48.489 Y33.555
G1 F1200 X36.127 Y21.193 E96.92963
G1 X36.099 Y21.165
G1 F3600 X35.505 Y21.193
G1 F1200 X47.819 Y33.507 E97.83755
G1 X47.847 Y33.535
G1 F3600 X47.12 Y33.43
G1 F1200 X34.882 Y21.193 E98.73982
G1 X34.854 Y21.165
G1 F3600 X34.26 Y21.193
G1 F1200 X46.42 Y33.353 E99.63639
G1 X46.448 Y33.381
G1 F3600 X45.667 Y33.222
G1 F1200 X33.638 Y21.193 E100.52329
G1 X33.61 Y21.165
G1 F3600 X33.016 Y21.193
G1 F1200 X44.9 Y33.077 E101.3995
G1 X44.928 Y33.105
G1 F1680 E98.3995
G1 F3600 X44.093 Y32.893
G1 F1680 E101.3995
G1 F1200 X32.393 Y21.193 E102.26215
G1 X32.365 Y21.165
G1 F3600 X31.771 Y21.193
G1 F1200 X43.244 Y32.666 E103.10806
G1 X43.272 Y32.694
G1 F1680 E100.10806
G1 F3600 X42.352 Y32.396
G1 F1680 E103.10806
G1 F1200 X31.43 Y21.474 E103.91334
G1 X31.402 Y21.446
G1 F1680 E100.91334
G1 F3600 X31.584 Y22.25
G1 F1680 E103.91334
G1 F1200 X41.387 Y32.053 E104.63612
G1 X41.415 Y32.081
G1 F1680 E101.63612
G1 F3600 X40.312 Y31.6
G1 F1680 E104.63612
G1 F1200 X31.848 Y23.137 E105.26013
G1 X31.82 Y23.109
G1 F1680 E102.26013
G1 F3600 X32.242 Y24.153
G1 F1680 E105.26013
G1 F1200 X39.117 Y31.028 E105.76703
G1 X39.145 Y31.056
G1 F1680 E102.76703
G1 F3600 X37.602 Y30.135
G1 F1680 E105.76703
G1 F1200 X32.937 Y25.47 E106.11098
G1 X32.909 Y25.442
G1 F1680 E103.11098
G1 F3600 X32.712 Y51.379
G1 F1680 E106.11098
G1 F1200 X59.265 Y77.933 E108.06878
G1 X59.293 Y77.961
G1 F3600 X58.741 Y78.031
G1 F1200 X32.089 Y51.379 E110.03385
G1 X32.061 Y51.351
G1 F3600 X31.467 Y51.379
G1 F1200 X58.218 Y78.13 E112.00621
G1 X58.246 Y78.158
G1 F3600 X57.694 Y78.228
G1 F1200 X30.845 Y51.379 E113.9858
G1 X30.817 Y51.351
G1 F3600 X30.223 Y51.379
G1 F1200 X57.138 Y78.295 E115.97029
G1 X57.166 Y78.323
G1 F3600 X56.578 Y78.357
G1 F1200 X29.6 Y51.379 E117.95938
G1 X29.572 Y51.351
G1 F3600 X28.978 Y51.379
M73 P6
G1 F1200 X56.018 Y78.419 E119.95305
G1 X56.046 Y78.447
G1 F3600 X55.458 Y78.481
G1 F1200 X28.356 Y51.379 E121.9513
G1 X28.328 Y51.351
G1 F3600 X27.734 Y51.379
G1 F1200 X54.897 Y78.543 E123.95407
G1 X54.925 Y78.571
G1 F3600 X54.337 Y78.605
