M73 P0
;MINX:27.0
;MAXX:73.0
;MINY:37.0
;MAXY:83.0
;MINZ:0.0
;MAXZ:30.0
;MachineType:ENTINA TINA2
;FilamentType:PLA
;Extruder0Temperature:200
;InfillDensity:10
;FLAVOR:Marlin
;TIME:3184
;FilamentUsed:2053.7
;Layer height: 0.2

;Generated with Cura_SteamEngine 3.1
M104 T0 S215
M82 ; absolute extrusion mode
;(**** start.gcode for tina2****)
M104 S150
G28 Z
G28 X Y; Home extruder
G1 X55 Y55 F1000
G1 Z10 F200
G29
G1 Z15 F100
M107 ; Turn off fan
G90 ; Absolute positioning
M82 ; Extruder in absolute mode
M109 S215.0
G92 E0 ; Reset extruder position
G1 X90 Y6 Z0.27 F2000
G1 X20 Y6 Z0.27 E15 F1000
G92 E0 ; Reset extruder position

;LAYER_COUNT:150
;LAYER:0
M106 S255
M203 Z5
G1 F3600 X65.275 Y42.045 Z0.299
;TYPE:SKIRT
G1 F1200 X66.332 Y43.002 E0.07434
G1 X66.913 Y43.581 E0.1171
G1 X67.935 Y44.702 E0.19619
G1 X68.498 Y45.388 E0.24246
G1 X69.4 Y46.61 E0.32164
G1 X69.861 Y47.301 E0.36495
G1 X70.593 Y48.525 E0.4393
G1 X70.983 Y49.256 E0.4825
G1 X71.613 Y50.586 E0.55922
G1 X71.942 Y51.381 E0.60408
G1 X72.444 Y52.791 E0.68211
G1 X72.685 Y53.588 E0.72552
G1 X73.036 Y54.992 E0.80097
G1 X73.199 Y55.814 E0.84466
G1 X73.415 Y57.27 E0.9214
G1 X73.499 Y58.145 E0.96723
G1 X73.568 Y59.685 E1.0476
G1 X73.567 Y60.491 E1.08962
G1 X73.498 Y61.891 E1.1627
G1 X73.412 Y62.75 E1.2077
G1 X73.185 Y64.253 E1.28695
G1 X73.024 Y65.057 E1.3297
G1 X72.678 Y66.438 E1.40393
G1 X72.433 Y67.244 E1.44785
G1 X71.937 Y68.63 E1.52459
G1 X71.61 Y69.419 E1.56912
G1 X70.968 Y70.771 E1.64715
G1 X70.58 Y71.496 E1.69002
G1 X69.837 Y72.738 E1.76547
G1 X69.364 Y73.446 E1.80987
G1 X68.486 Y74.629 E1.88667
G1 X67.953 Y75.278 E1.93046
G1 X66.995 Y76.335 E2.00483
G1 X66.415 Y76.916 E2.04763
G1 X65.294 Y77.937 E2.12668
G1 X64.613 Y78.496 E2.17261
G1 X63.39 Y79.399 E2.25187
G1 X62.7 Y79.859 E2.29511
G1 X61.477 Y80.591 E2.36942
G1 X60.741 Y80.984 E2.41292
G1 X59.412 Y81.613 E2.48957
G1 X58.62 Y81.941 E2.53427
G1 X57.21 Y82.443 E2.6123
G1 X56.419 Y82.682 E2.65538
G1 X55.015 Y83.034 E2.73084
G1 X54.185 Y83.199 E2.77496
G1 X52.727 Y83.415 E2.8518
G1 X51.854 Y83.499 E2.89753
G1 X50.315 Y83.568 E2.97784
G1 X49.509 Y83.567 E3.01986
G1 X48.109 Y83.498 E3.09294
G1 X47.25 Y83.412 E3.13795
G1 X45.747 Y83.185 E3.2172
G1 X44.937 Y83.022 E3.26027
G1 X43.556 Y82.675 E3.33451
G1 X42.755 Y82.432 E3.37815
G1 X41.367 Y81.935 E3.45501
G1 X40.581 Y81.609 E3.49938
G1 X39.232 Y80.969 E3.57722
G1 X38.501 Y80.577 E3.62046
G1 X37.259 Y79.833 E3.69595
G1 X36.554 Y79.362 E3.74015
G1 X35.37 Y78.483 E3.81703
G1 X34.725 Y77.954 E3.86052
G1 X33.667 Y76.996 E3.93493
G1 X33.085 Y76.416 E3.97777
G1 X32.064 Y75.296 E4.05678
G1 X31.502 Y74.611 E4.10298
G1 X30.6 Y73.389 E4.18216
G1 X30.138 Y72.696 E4.22558
G1 X29.407 Y71.473 E4.29987
G1 X29.018 Y70.744 E4.34295
G1 X28.387 Y69.412 E4.41979
G1 X28.057 Y68.615 E4.46476
G1 X27.556 Y67.207 E4.54268
G1 X27.316 Y66.412 E4.58597
G1 X26.965 Y65.008 E4.66142
G1 X26.802 Y64.184 E4.70521
G1 X26.586 Y62.726 E4.78206
G1 X26.502 Y61.859 E4.82747
G1 X26.432 Y60.321 E4.90774
G1 X26.434 Y59.503 E4.95038
G1 X26.504 Y58.103 E5.02346
G1 X26.589 Y57.25 E5.06815
G1 X26.816 Y55.747 E5.1474
G1 X26.977 Y54.943 E5.19015
G1 X27.323 Y53.562 E5.26438
G1 X27.568 Y52.756 E5.30829
G1 X28.064 Y51.37 E5.38504
G1 X28.391 Y50.581 E5.42957
G1 X29.033 Y49.229 E5.5076
G1 X29.423 Y48.502 E5.55061
G1 X30.166 Y47.261 E5.62602
G1 X30.635 Y46.557 E5.67012
G1 X31.513 Y45.373 E5.74697
G1 X32.048 Y44.722 E5.7909
G1 X33.006 Y43.665 E5.86528
G1 X33.586 Y43.084 E5.90808
G1 X34.707 Y42.063 E5.98713
G1 X35.388 Y41.504 E6.03306
G1 X36.611 Y40.601 E6.11232
G1 X37.301 Y40.141 E6.15555
G1 X38.524 Y39.409 E6.22986
G1 X39.26 Y39.016 E6.27336
G1 X40.589 Y38.387 E6.35002
G1 X41.381 Y38.059 E6.39471
G1 X42.791 Y37.557 E6.47274
G1 X43.582 Y37.318 E6.51582
G1 X44.986 Y36.966 E6.59129
G1 X45.816 Y36.801 E6.6354
G1 X47.274 Y36.585 E6.71225
G1 X48.146 Y36.501 E6.75792
G1 X49.684 Y36.432 E6.83818
G1 X50.491 Y36.433 E6.88026
G1 X51.892 Y36.502 E6.95339
G1 X52.751 Y36.588 E6.9984
G1 X54.254 Y36.815 E7.07764
G1 X55.064 Y36.978 E7.12072
G1 X56.445 Y37.325 E7.19496
G1 X57.246 Y37.568 E7.2386
G1 X58.634 Y38.065 E7.31546
G1 X59.42 Y38.391 E7.35982
G1 X60.769 Y39.031 E7.43767
G1 X61.5 Y39.423 E7.48091
G1 X62.742 Y40.167 E7.55639
G1 X63.446 Y40.637 E7.60052
G1 X64.629 Y41.515 E7.67733
G1 X65.275 Y42.045 E7.72089
G1 F3600 X64.979 Y42.371
G1 F1200 X66.036 Y43.328 E7.79523
G1 X66.588 Y43.878 E7.83586
G1 X67.61 Y44.999 E7.91494
G1 X68.144 Y45.649 E7.9588
G1 X69.046 Y46.871 E8.03799
G1 X69.483 Y47.527 E8.07908
G1 X70.215 Y48.751 E8.15344
G1 X70.585 Y49.444 E8.19439
G1 X71.215 Y50.774 E8.27112
G1 X71.527 Y51.529 E8.31371
G1 X72.029 Y52.939 E8.39174
G1 X72.258 Y53.695 E8.43292
G1 X72.609 Y55.099 E8.50837
G1 X72.764 Y55.878 E8.54978
G1 X72.98 Y57.334 E8.62652
G1 X73.06 Y58.165 E8.67005
G1 X73.129 Y59.705 E8.75042
G1 X73.127 Y60.47 E8.7903
G1 X73.058 Y61.87 E8.86338
G1 X72.977 Y62.685 E8.90608
G1 X72.75 Y64.188 E8.98532
G1 X72.597 Y64.95 E9.02584
G1 X72.251 Y66.331 E9.10007
G1 X72.019 Y67.096 E9.14175
G1 X71.523 Y68.482 E9.21849
G1 X71.212 Y69.231 E9.26077
G1 X70.57 Y70.583 E9.3388
G1 X70.202 Y71.27 E9.37944
G1 X69.459 Y72.512 E9.45489
G1 X69.01 Y73.184 E9.49703
G1 X68.132 Y74.367 E9.57383
G1 X67.627 Y74.982 E9.61532
G1 X66.669 Y76.039 E9.68969
G1 X66.119 Y76.591 E9.73032
G1 X64.998 Y77.612 E9.80937
G1 X64.352 Y78.142 E9.85293
G1 X63.129 Y79.045 E9.93219
G1 X62.474 Y79.482 E9.97324
G1 X61.251 Y80.214 E10.04755
G1 X60.553 Y80.587 E10.08881
G1 X59.224 Y81.216 E10.16547
G1 X58.472 Y81.526 E10.20788
G1 X57.062 Y82.028 E10.28591
G1 X56.312 Y82.256 E10.32678
G1 X54.908 Y82.608 E10.40224
G1 X54.121 Y82.764 E10.44407
G1 X52.663 Y82.98 E10.52091
G1 X51.835 Y83.06 E10.56428
G1 X50.296 Y83.129 E10.6446
G1 X49.53 Y83.127 E10.68453
G1 X48.13 Y83.058 E10.75761
G1 X47.315 Y82.977 E10.80031
G1 X45.812 Y82.75 E10.87956
G1 X45.044 Y82.596 E10.92039
G1 X43.663 Y82.249 E10.99463
G1 X42.903 Y82.018 E11.03604
G1 X41.515 Y81.521 E11.11291
G1 X40.77 Y81.211 E11.15498
G1 X39.421 Y80.571 E11.23282
G1 X38.727 Y80.2 E11.27385
G1 X37.485 Y79.456 E11.34933
G1 X36.816 Y79.009 E11.39128
G1 X35.632 Y78.13 E11.46816
G1 X35.02 Y77.628 E11.50942
G1 X33.962 Y76.67 E11.58383
G1 X33.41 Y76.12 E11.62446
G1 X32.389 Y75 E11.70347
G1 X31.856 Y74.35 E11.7473
G1 X30.954 Y73.128 E11.82648
G1 X30.516 Y72.47 E11.86769
G1 X29.785 Y71.247 E11.94198
G1 X29.416 Y70.556 E11.98282
G1 X28.785 Y69.224 E12.05966
G1 X28.472 Y68.468 E12.10232
G1 X27.971 Y67.06 E12.18023
G1 X27.743 Y66.305 E12.22135
G1 X27.392 Y64.901 E12.2968
G1 X27.237 Y64.12 E12.33831
G1 X27.021 Y62.662 E12.41516
G1 X26.941 Y61.839 E12.45826
G1 X26.871 Y60.301 E12.53853
G1 X26.873 Y59.525 E12.57899
G1 X26.943 Y58.125 E12.65207
G1 X27.024 Y57.315 E12.69451
G1 X27.251 Y55.812 E12.77376
G1 X27.404 Y55.05 E12.81428
G1 X27.75 Y53.669 E12.8885
G1 X27.982 Y52.904 E12.93018
G1 X28.478 Y51.518 E13.00693
G1 X28.789 Y50.769 E13.04921
G1 X29.431 Y49.417 E13.12724
G1 X29.8 Y48.728 E13.16799
G1 X30.543 Y47.487 E13.2434
G1 X30.989 Y46.819 E13.28527
G1 X31.867 Y45.635 E13.36212
G1 X32.374 Y45.018 E13.40375
G1 X33.332 Y43.961 E13.47813
G1 X33.882 Y43.409 E13.51875
G1 X35.003 Y42.388 E13.5978
G1 X35.649 Y41.858 E13.64137
G1 X36.872 Y40.955 E13.72063
G1 X37.527 Y40.518 E13.76168
G1 X38.75 Y39.786 E13.83599
G1 X39.448 Y39.413 E13.87725
G1 X40.777 Y38.784 E13.9539
G1 X41.529 Y38.474 E13.99631
G1 X42.939 Y37.972 E14.07434
G1 X43.689 Y37.744 E14.11521
G1 X45.093 Y37.392 E14.19067
G1 X45.88 Y37.236 E14.2325
G1 X47.338 Y37.02 E14.30934
G1 X48.166 Y36.94 E14.35271
G1 X49.704 Y36.871 E14.43298
G1 X50.469 Y36.873 E14.47286
G1 X51.87 Y36.942 E14.54599
G1 X52.686 Y37.023 E14.58874
G1 X54.189 Y37.25 E14.66799
G1 X54.957 Y37.404 E14.70883
G1 X56.338 Y37.751 E14.78306
G1 X57.098 Y37.982 E14.82448
G1 X58.486 Y38.479 E14.90134
G1 X59.231 Y38.789 E14.94341
G1 X60.58 Y39.429 E15.02125
G1 X61.274 Y39.8 E15.06228
G1 X62.516 Y40.544 E15.13776
G1 X63.184 Y40.991 E15.17967
G1 X64.367 Y41.869 E15.25647
G1 X64.979 Y42.371 E15.29774
G1 F3600 X64.684 Y42.697
G1 F1200 X65.741 Y43.654 E15.37208
G1 X66.263 Y44.174 E15.41049
G1 X67.285 Y45.295 E15.48958
G1 X67.79 Y45.91 E15.53107
G1 X68.692 Y47.132 E15.61025
G1 X69.105 Y47.753 E15.64913
G1 X69.837 Y48.977 E15.72349
G1 X70.188 Y49.633 E15.76228
G1 X70.818 Y50.963 E15.839
G1 X71.113 Y51.676 E15.87923
G1 X71.615 Y53.086 E15.95726
G1 X71.831 Y53.801 E15.9962
G1 X72.182 Y55.205 E16.07165
G1 X72.329 Y55.943 E16.11088
G1 X72.545 Y57.399 E16.18762
G1 X72.62 Y58.184 E16.22874
G1 X72.689 Y59.724 E16.30911
G1 X72.688 Y60.448 E16.34685
G1 X72.619 Y61.848 E16.41993
G1 X72.542 Y62.619 E16.46033
G1 X72.315 Y64.122 E16.53957
G1 X72.17 Y64.843 E16.57792
G1 X71.824 Y66.224 E16.65214
G1 X71.605 Y66.947 E16.69152
G1 X71.109 Y68.333 E16.76827
G1 X70.815 Y69.042 E16.80829
G1 X70.173 Y70.394 E16.88632
G1 X69.825 Y71.044 E16.92476
G1 X69.082 Y72.286 E17.00021
G1 X68.657 Y72.922 E17.04009
G1 X67.779 Y74.105 E17.1169
G1 X67.301 Y74.687 E17.15616
G1 X66.343 Y75.744 E17.23054
G1 X65.823 Y76.266 E17.26895
G1 X64.702 Y77.287 E17.348
G1 X64.091 Y77.788 E17.38919
G1 X62.868 Y78.691 E17.46845
G1 X62.248 Y79.104 E17.50729
G1 X61.025 Y79.836 E17.5816
G1 X60.365 Y80.189 E17.62062
G1 X59.036 Y80.818 E17.69728
G1 X58.325 Y81.112 E17.73739
G1 X56.915 Y81.614 E17.81542
G1 X56.205 Y81.829 E17.8541
G1 X54.801 Y82.181 E17.92956
G1 X54.056 Y82.329 E17.96916
G1 X52.598 Y82.545 E18.046
G1 X51.815 Y82.62 E18.08701
G1 X50.276 Y82.689 E18.16733
G1 X49.552 Y82.688 E18.20508
G1 X48.152 Y82.619 E18.27815
G1 X47.381 Y82.542 E18.31855
G1 X45.878 Y82.315 E18.3978
G1 X45.152 Y82.169 E18.43641
G1 X43.771 Y81.822 E18.51064
G1 X43.051 Y81.603 E18.54988
G1 X41.663 Y81.106 E18.62674
G1 X40.959 Y80.814 E18.66648
G1 X39.61 Y80.174 E18.74432
G1 X38.953 Y79.823 E18.78315
G1 X37.711 Y79.079 E18.85864
G1 X37.078 Y78.655 E18.89836
G1 X35.894 Y77.776 E18.97524
G1 X35.316 Y77.302 E19.01421
G1 X34.258 Y76.344 E19.08862
G1 X33.736 Y75.823 E19.12707
G1 X32.715 Y74.703 E19.20608
G1 X32.21 Y74.089 E19.24753
G1 X31.308 Y72.867 E19.32672
G1 X30.894 Y72.244 E19.36571
G1 X30.163 Y71.021 E19.44
G1 X29.813 Y70.367 E19.47867
G1 X29.182 Y69.035 E19.55551
G1 X28.887 Y68.32 E19.59584
G1 X28.386 Y66.912 E19.67375
G1 X28.17 Y66.199 E19.71259
G1 X27.819 Y64.795 E19.78804
G1 X27.672 Y64.055 E19.82738
G1 X27.456 Y62.597 E19.90422
G1 X27.381 Y61.819 E19.94497
G1 X27.311 Y60.281 E20.02523
G1 X27.313 Y59.546 E20.06355
G1 X27.383 Y58.146 E20.13663
G1 X27.459 Y57.381 E20.17671
G1 X27.686 Y55.878 E20.25596
G1 X27.831 Y55.157 E20.2943
G1 X28.177 Y53.776 E20.36853
G1 X28.396 Y53.053 E20.40791
G1 X28.892 Y51.667 E20.48466
G1 X29.186 Y50.958 E20.52468
G1 X29.828 Y49.606 E20.60271
G1 X30.178 Y48.954 E20.64129
G1 X30.921 Y47.713 E20.7167
G1 X31.342 Y47.082 E20.75624
G1 X32.22 Y45.898 E20.83309
G1 X32.7 Y45.313 E20.87254
G1 X33.658 Y44.256 E20.94692
G1 X34.178 Y43.734 E20.98533
G1 X35.299 Y42.713 E21.06438
G1 X35.91 Y42.212 E21.10558
G1 X37.133 Y41.309 E21.18483
G1 X37.753 Y40.896 E21.22367
G1 X38.976 Y40.164 E21.29798
G1 X39.636 Y39.811 E21.33701
G1 X40.965 Y39.182 E21.41366
G1 X41.676 Y38.888 E21.45377
G1 X43.086 Y38.386 E21.5318
G1 X43.796 Y38.171 E21.57048
G1 X45.2 Y37.819 E21.64594
G1 X45.945 Y37.671 E21.68554
G1 X47.403 Y37.455 E21.76239
G1 X48.186 Y37.38 E21.80339
G1 X49.724 Y37.311 E21.88366
G1 X50.448 Y37.312 E21.92141
G1 X51.849 Y37.381 E21.99454
G1 X52.62 Y37.458 E22.03493
G1 X54.123 Y37.685 E22.11418
G1 X54.849 Y37.831 E22.15279
G1 X56.23 Y38.178 E22.22702
G1 X56.95 Y38.397 E22.26626
G1 X58.338 Y38.894 E22.34312
G1 X59.042 Y39.186 E22.38286
G1 X60.391 Y39.826 E22.4607
G1 X61.048 Y40.177 E22.49954
G1 X62.29 Y40.921 E22.57502
G1 X62.922 Y41.344 E22.61467
G1 X64.105 Y42.222 E22.69147
G1 X64.684 Y42.697 E22.73052
G1 F3600 X64.389 Y43.023
G1 F1200 X65.446 Y43.98 E22.80486
G1 X65.938 Y44.471 E22.84109
G1 X66.96 Y45.592 E22.92018
G1 X67.436 Y46.171 E22.95926
G1 X68.338 Y47.393 E23.03844
G1 X68.728 Y47.979 E23.07514
G1 X69.46 Y49.203 E23.1495
G1 X69.79 Y49.821 E23.18602
G1 X70.42 Y51.151 E23.26275
G1 X70.698 Y51.824 E23.30071
G1 X71.2 Y53.234 E23.37874
G1 X71.404 Y53.908 E23.41545
G1 X71.755 Y55.312 E23.49091
G1 X71.893 Y56.008 E23.5279
G1 X72.109 Y57.464 E23.60464
G1 X72.181 Y58.204 E23.6434
G1 X72.25 Y59.744 E23.72377
G1 X72.248 Y60.426 E23.75933
G1 X72.179 Y61.826 E23.8324
G1 X72.107 Y62.553 E23.87049
G1 X71.88 Y64.056 E23.94974
G1 X71.743 Y64.736 E23.9859
G1 X71.397 Y66.117 E24.06013
G1 X71.19 Y66.799 E24.09729
G1 X70.694 Y68.185 E24.17403
G1 X70.417 Y68.853 E24.21173
G1 X69.775 Y70.205 E24.28976
G1 X69.447 Y70.818 E24.32601
G1 X68.704 Y72.06 E24.40146
G1 X68.304 Y72.66 E24.43906
G1 X67.426 Y73.843 E24.51587
G1 X66.975 Y74.391 E24.55287
G1 X66.017 Y75.448 E24.62724
G1 X65.527 Y75.94 E24.66344
G1 X64.406 Y76.961 E24.74249
G1 X63.829 Y77.435 E24.78143
G1 X62.606 Y78.338 E24.86068
G1 X62.022 Y78.726 E24.89724
G1 X60.799 Y79.458 E24.97155
G1 X60.177 Y79.791 E25.00833
G1 X58.848 Y80.42 E25.08499
G1 X58.177 Y80.697 E25.12283
G1 X56.767 Y81.199 E25.20086
G1 X56.098 Y81.402 E25.23731
G1 X54.694 Y81.754 E25.31278
G1 X53.992 Y81.894 E25.3501
G1 X52.534 Y82.11 E25.42694
G1 X51.795 Y82.181 E25.46564
G1 X50.256 Y82.25 E25.54596
G1 X49.574 Y82.248 E25.58152
G1 X48.174 Y82.179 E25.6546
G1 X47.447 Y82.107 E25.69268
G1 X45.944 Y81.88 E25.77193
M73 P1
G1 X45.259 Y81.742 E25.80836
G1 X43.878 Y81.395 E25.8826
G1 X43.2 Y81.189 E25.91954
G1 X41.812 Y80.692 E25.9964
G1 X41.147 Y80.416 E26.03394
G1 X39.798 Y79.776 E26.11179
G1 X39.179 Y79.445 E26.14838
G1 X37.937 Y78.701 E26.22386
G1 X37.34 Y78.302 E26.2613
G1 X36.156 Y77.423 E26.33818
G1 X35.611 Y76.976 E26.37493
G1 X34.553 Y76.018 E26.44934
G1 X34.061 Y75.527 E26.48558
G1 X33.04 Y74.407 E26.56459
G1 X32.564 Y73.828 E26.60367
G1 X31.662 Y72.606 E26.68285
G1 X31.271 Y72.019 E26.71962
G1 X30.54 Y70.796 E26.79391
G1 X30.211 Y70.179 E26.83036
G1 X29.58 Y68.847 E26.9072
G1 X29.301 Y68.173 E26.94523
G1 X28.8 Y66.765 E27.02315
G1 X28.597 Y66.092 E27.0598
G1 X28.246 Y64.688 E27.13525
G1 X28.107 Y63.991 E27.1723
G1 X27.891 Y62.533 E27.24914
G1 X27.821 Y61.799 E27.28759
G1 X27.751 Y60.261 E27.36785
G1 X27.752 Y59.568 E27.40398
G1 X27.822 Y58.168 E27.47706
G1 X27.894 Y57.447 E27.51484
G1 X28.121 Y55.944 E27.59409
G1 X28.258 Y55.264 E27.63025
G1 X28.604 Y53.883 E27.70448
G1 X28.811 Y53.201 E27.74163
G1 X29.307 Y51.815 E27.81838
G1 X29.584 Y51.147 E27.85608
G1 X30.226 Y49.795 E27.93411
G1 X30.555 Y49.18 E27.97048
G1 X31.298 Y47.939 E28.04589
G1 X31.695 Y47.344 E28.08318
G1 X32.573 Y46.16 E28.16003
G1 X33.026 Y45.609 E28.19721
G1 X33.984 Y44.552 E28.27159
G1 X34.474 Y44.06 E28.30779
G1 X35.595 Y43.039 E28.38684
G1 X36.172 Y42.565 E28.42577
G1 X37.395 Y41.662 E28.50503
G1 X37.979 Y41.274 E28.54158
G1 X39.202 Y40.542 E28.61589
G1 X39.824 Y40.209 E28.65268
G1 X41.153 Y39.58 E28.72933
G1 X41.824 Y39.303 E28.76718
G1 X43.234 Y38.801 E28.84521
G1 X43.903 Y38.598 E28.88166
G1 X45.307 Y38.246 E28.95712
G1 X46.009 Y38.106 E28.99444
G1 X47.467 Y37.89 E29.07128
G1 X48.206 Y37.819 E29.10999
G1 X49.744 Y37.75 E29.19025
G1 X50.426 Y37.752 E29.22581
G1 X51.827 Y37.821 E29.29894
G1 X52.554 Y37.893 E29.33703
G1 X54.057 Y38.12 E29.41628
G1 X54.742 Y38.258 E29.45271
G1 X56.123 Y38.605 E29.52694
G1 X56.801 Y38.811 E29.56389
G1 X58.189 Y39.308 E29.64075
G1 X58.854 Y39.584 E29.67829
G1 X60.203 Y40.224 E29.75613
G1 X60.822 Y40.555 E29.79273
G1 X62.064 Y41.299 E29.86821
G1 X62.66 Y41.697 E29.90557
G1 X63.843 Y42.575 E29.98238
G1 X64.389 Y43.023 E30.0192
G1 F3600 X64.093 Y43.349
G1 F1200 X65.15 Y44.306 E30.09354
G1 X65.613 Y44.767 E30.1276
G1 X66.635 Y45.888 E30.20669
G1 X67.082 Y46.433 E30.24344
G1 X67.984 Y47.655 E30.32262
G1 X68.35 Y48.205 E30.35707
G1 X69.082 Y49.429 E30.43142
G1 X69.392 Y50.009 E30.46571
G1 X70.022 Y51.339 E30.54243
G1 X70.284 Y51.972 E30.57815
G1 X70.786 Y53.382 E30.65618
G1 X70.977 Y54.015 E30.69065
G1 X71.328 Y55.419 E30.7661
G1 X71.458 Y56.072 E30.80081
G1 X71.674 Y57.528 E30.87755
G1 X71.741 Y58.224 E30.91401
G1 X71.81 Y59.764 E30.99438
G1 X71.809 Y60.405 E31.02779
G1 X71.74 Y61.805 E31.10087
G1 X71.672 Y62.487 E31.13661
G1 X71.445 Y63.99 E31.21585
G1 X71.317 Y64.629 E31.24983
