M73 P0
;MINX:5.0
;MAXX:95.0
;MINY:30.9
;MAXY:89.1
;MINZ:0.0
;MAXZ:31.3
;MachineType:ENTINA TINA2
;FilamentType:PLA
;Extruder0Temperature:200
;InfillDensity:20
;FLAVOR:Marlin
;TIME:4524
;FilamentUsed:3356.5
;Layer height: 0.2

;Generated with Cura_SteamEngine 3.1
M104 T0 S215
M82 ; absolute extrusion mode
;(**** start.gcode for tina2****)
M104 S150
G28 Z
G28 X Y; Home extruder
G1 X55 Y55 F1000
G1 Z10 F200
G29
G1 Z15 F100
M107 ; Turn off fan
G90 ; Absolute positioning
M82 ; Extruder in absolute mode
M109 S215.0
G92 E0 ; Reset extruder position
G1 X90 Y6 Z0.27 F2000
G1 X20 Y6 Z0.27 E15 F1000
G92 E0 ; Reset extruder position

;LAYER_COUNT:150
;LAYER:-6
M107
M203 Z5
G1 F3600 X91.187 Y34.033 Z0.349
G1 F1200 X91.445 Y34.117 E0.02992
G1 X91.724 Y34.228 E0.06303
G1 X91.982 Y34.35 E0.0945
G1 X92.241 Y34.494 E0.12718
G1 X92.46 Y34.633 E0.15579
G1 X92.726 Y34.831 E0.19235
G1 X93.209 Y35.253 E0.26308
G1 X93.412 Y35.463 E0.29529
G1 X93.671 Y35.758 E0.33858
G1 X93.838 Y35.973 E0.3686
G1 X93.994 Y36.204 E0.39934
G1 X94.152 Y36.472 E0.43364
G1 X94.284 Y36.731 E0.4657
G1 X94.387 Y36.97 E0.4944
G1 X94.492 Y37.263 E0.52872
G1 X94.574 Y37.547 E0.56132
G1 X94.63 Y37.807 E0.59065
G1 X94.678 Y38.128 E0.62644
G1 X94.714 Y38.589 E0.67743
G1 X94.721 Y38.774 E0.69785
G1 X94.717 Y40.223 E0.85763
G1 X94.693 Y40.6 E0.89929
G1 X94.656 Y40.898 E0.93241
G1 X94.601 Y41.182 E0.9643
G1 X94.525 Y41.473 E0.99747
G1 X94.441 Y41.731 E1.02739
G1 X94.33 Y42.01 E1.0605
G1 X94.208 Y42.268 E1.09197
G1 X94.064 Y42.527 E1.12465
G1 X93.925 Y42.746 E1.15326
G1 X93.727 Y43.012 E1.18982
G1 X93.305 Y43.495 E1.26055
G1 X93.095 Y43.698 E1.29276
G1 X92.802 Y43.955 E1.33574
G1 X92.585 Y44.124 E1.36607
G1 X92.354 Y44.28 E1.39681
G1 X92.086 Y44.438 E1.43111
G1 X91.829 Y44.568 E1.46287
G1 X91.56 Y44.683 E1.49513
G1 X91.303 Y44.776 E1.52527
G1 X91.011 Y44.86 E1.55878
G1 X90.75 Y44.916 E1.58822
G1 X90.43 Y44.964 E1.6239
G1 X89.962 Y45 E1.67566
G1 X89.77 Y45.007 E1.69685
G1 X67.528 Y45.007 E4.14956
G1 X66.86 Y45.049 E4.22337
G1 X66.189 Y45.178 E4.29872
G1 X65.54 Y45.391 E4.37404
G1 X64.923 Y45.683 E4.44931
G1 X64.348 Y46.051 E4.5246
G1 X63.824 Y46.489 E4.59991
G1 X63.36 Y46.989 E4.67513
G1 X62.961 Y47.545 E4.75059
G1 X62.637 Y48.145 E4.82579
G1 X62.391 Y48.781 E4.90099
G1 X62.227 Y49.445 E4.97641
G1 X62.148 Y50.123 E5.05168
G1 X62.155 Y50.806 E5.127
G1 X62.248 Y51.482 E5.20225
G1 X62.426 Y52.141 E5.27752
G1 X62.686 Y52.772 E5.35278
G1 X63.023 Y53.367 E5.42819
G1 X63.433 Y53.913 E5.50348
G1 X63.909 Y54.404 E5.5789
G1 X64.699 Y55.122 E5.69662
G1 X65.125 Y55.559 E5.76391
G1 X66.005 Y56.527 E5.90818
G1 X66.262 Y56.842 E5.95301
G1 X67.259 Y58.189 E6.13781
G1 X67.425 Y58.445 E6.17145
G1 X68.243 Y59.818 E6.34769
G1 X68.366 Y60.054 E6.37704
G1 X68.98 Y61.351 E6.53528
G1 X69.099 Y61.622 E6.56792
G1 X69.177 Y61.822 E6.59159
G1 X69.741 Y63.416 E6.77805
G1 X69.806 Y63.65 E6.80483
G1 X70.164 Y65.086 E6.96803
G1 X70.245 Y65.495 E7.01401
G1 X70.434 Y66.764 E7.15549
G1 X70.499 Y67.353 E7.22084
G1 X70.574 Y68.891 E7.39064
G1 X70.579 Y69.11 E7.4148
G1 X70.505 Y70.752 E7.59605
G1 X70.489 Y70.971 E7.62026
G1 X70.459 Y71.224 E7.64836
G1 X70.239 Y72.696 E7.81248
G1 X70.2 Y72.916 E7.83712
G1 X69.763 Y74.667 E8.03614
G1 X69.682 Y74.923 E8.06575
G1 X69.192 Y76.296 E8.2265
G1 X69.116 Y76.498 E8.2503
G1 X68.985 Y76.797 E8.2863
G1 X68.344 Y78.147 E8.4511
G1 X68.19 Y78.43 E8.48663
G1 X67.321 Y79.88 E8.67304
G1 X67.166 Y80.104 E8.70308
G1 X66.295 Y81.277 E8.86419
G1 X65.991 Y81.647 E8.917
G1 X65.081 Y82.642 E9.06569
G1 X64.704 Y83.031 E9.12543
G1 X63.685 Y83.959 E9.27741
G1 X63.192 Y84.36 E9.34749
G1 X62.074 Y85.191 E9.5011
G1 X61.71 Y85.434 E9.54937
G1 X60.388 Y86.22 E9.71897
G1 X60.017 Y86.416 E9.76524
G1 X58.722 Y87.028 E9.92319
G1 X58.325 Y87.191 E9.97051
G1 X57.012 Y87.661 E10.1243
G1 X56.763 Y87.745 E10.15328
G1 X55.142 Y88.162 E10.33785
G1 X54.838 Y88.229 E10.37218
G1 X54.611 Y88.269 E10.3976
G1 X53.363 Y88.453 E10.53671
G1 X52.653 Y88.526 E10.61541
G1 X51.022 Y88.595 E10.79543
G1 X49.176 Y88.506 E10.99923
G1 X48.939 Y88.479 E11.02554
G1 X47.285 Y88.229 E11.21
G1 X46.873 Y88.135 E11.2566
G1 X45.416 Y87.763 E11.42243
G1 X45.212 Y87.696 E11.44611
G1 X43.686 Y87.15 E11.62483
G1 X43.3 Y86.982 E11.67125
G1 X41.975 Y86.351 E11.83309
G1 X41.678 Y86.19 E11.87034
G1 X40.25 Y85.33 E12.05417
G1 X40.01 Y85.162 E12.08647
G1 X38.92 Y84.346 E12.23662
G1 X38.429 Y83.95 E12.30618
G1 X37.425 Y83.036 E12.4559
G1 X36.999 Y82.599 E12.5232
G1 X36.076 Y81.58 E12.67481
G1 X35.834 Y81.277 E12.71758
G1 X34.954 Y80.097 E12.8799
G1 X34.714 Y79.737 E12.92761
G1 X33.935 Y78.433 E13.09511
G1 X33.839 Y78.262 E13.11674
G1 X33.688 Y77.96 E13.15397
G1 X33.107 Y76.724 E13.30458
G1 X32.946 Y76.334 E13.35111
G1 X32.458 Y74.969 E13.51096
G1 X32.383 Y74.74 E13.53753
G1 X32.284 Y74.37 E13.57977
G1 X31.918 Y72.884 E13.74853
G1 X31.879 Y72.663 E13.77328
G1 X31.687 Y71.375 E13.91688
G1 X31.625 Y70.809 E13.97967
G1 X31.549 Y69.231 E14.15389
G1 X31.55 Y68.845 E14.19645
G1 X31.623 Y67.355 E14.36096
G1 X31.666 Y66.929 E14.40817
G1 X31.884 Y65.474 E14.57041
G1 X31.939 Y65.178 E14.60361
G1 X32.318 Y63.649 E14.77732
G1 X32.381 Y63.42 E14.80351
G1 X33.011 Y61.652 E15.01049
G1 X33.139 Y61.361 E15.04554
G1 X33.77 Y60.032 E15.20778
G1 X33.945 Y59.706 E15.24858
G1 X34.798 Y58.286 E15.43125
G1 X34.967 Y58.043 E15.46389
G1 X35.861 Y56.843 E15.6289
G1 X36.165 Y56.476 E15.68145
G1 X37.042 Y55.517 E15.82476
G1 X37.421 Y55.125 E15.88489
G1 X38.212 Y54.405 E16.00284
G1 X38.679 Y53.925 E16.07669
G1 X39.09 Y53.379 E16.15205
G1 X39.429 Y52.787 E16.22728
G1 X39.69 Y52.156 E16.30258
G1 X39.87 Y51.497 E16.37791
G1 X39.965 Y50.821 E16.45319
G1 X39.974 Y50.138 E16.52851
G1 X39.897 Y49.459 E16.60387
G1 X39.735 Y48.797 E16.67902
G1 X39.49 Y48.159 E16.75439
G1 X39.167 Y47.557 E16.82972
G1 X38.771 Y47.001 E16.905
G1 X38.308 Y46.5 E16.98023
G1 X37.785 Y46.06 E17.05559
G1 X37.21 Y45.691 E17.13094
G1 X36.594 Y45.397 E17.2062
G1 X35.946 Y45.183 E17.28146
G1 X35.275 Y45.053 E17.35683
G1 X34.593 Y45.008 E17.4322
G1 X10.063 Y45.003 E20.13722
G1 X9.686 Y44.979 E20.17888
G1 X9.388 Y44.942 E20.21199
G1 X9.104 Y44.887 E20.24389
G1 X8.813 Y44.811 E20.27706
G1 X8.553 Y44.726 E20.30722
G1 X8.276 Y44.616 E20.34009
G1 X8.017 Y44.493 E20.3717
G1 X7.759 Y44.35 E20.40423
G1 X7.54 Y44.211 E20.43284
G1 X7.274 Y44.013 E20.4694
G1 X6.791 Y43.591 E20.54013
G1 X6.58 Y43.372 E20.57367
G1 X6.329 Y43.086 E20.61563
G1 X6.162 Y42.871 E20.64565
G1 X6.003 Y42.635 E20.67703
G1 X5.848 Y42.372 E20.71069
G1 X5.718 Y42.115 E20.74245
G1 X5.602 Y41.845 E20.77486
G1 X5.51 Y41.589 E20.80486
G1 X5.426 Y41.297 E20.83836
G1 X5.37 Y41.036 E20.8678
G1 X5.322 Y40.716 E20.90348
G1 X5.285 Y40.238 E20.95635
G1 X5.279 Y40.07 E20.97489
G1 X5.283 Y38.622 E21.13457
G1 X5.307 Y38.245 E21.17622
G1 X5.344 Y37.95 E21.20901
G1 X5.401 Y37.652 E21.24247
G1 X5.475 Y37.372 E21.2744
G1 X5.559 Y37.114 E21.30432
G1 X5.67 Y36.835 E21.33744
G1 X5.792 Y36.577 E21.36891
G1 X5.931 Y36.327 E21.40045
G1 X6.083 Y36.089 E21.43159
G1 X6.273 Y35.833 E21.46675
G1 X6.695 Y35.35 E21.53747
G1 X6.905 Y35.147 E21.56968
G1 X7.2 Y34.888 E21.61297
G1 X7.415 Y34.721 E21.64299
G1 X7.646 Y34.565 E21.67373
G1 X7.914 Y34.407 E21.70804
G1 X8.171 Y34.277 E21.7398
G1 X8.441 Y34.161 E21.7722
G1 X8.697 Y34.069 E21.8022
G1 X8.989 Y33.985 E21.83571
G1 X9.25 Y33.929 E21.86514
G1 X9.57 Y33.881 E21.90083
G1 X10.038 Y33.845 E21.95259
G1 X10.23 Y33.838 E21.97377
G1 X37.604 Y33.837 E24.99241
G1 X38.272 Y33.795 E25.06622
G1 X38.943 Y33.666 E25.14157
G1 X39.587 Y33.455 E25.2163
G1 X40.097 Y33.243 E25.27721
G1 X40.516 Y33.106 E25.32582
G1 X41.026 Y32.995 E25.38338
G1 X41.329 Y32.953 E25.41711
G1 X41.729 Y32.925 E25.46133
G1 X42.556 Y32.898 E25.55257
G1 X43.231 Y32.792 E25.62792
G1 X44.075 Y32.552 E25.72468
G1 X44.346 Y32.493 E25.75526
G1 X44.666 Y32.445 E25.79095
G1 X45.134 Y32.409 E25.84271
G1 X45.326 Y32.402 E25.86389
G1 X54.841 Y32.406 E26.91315
G1 X55.218 Y32.43 E26.95481
G1 X55.516 Y32.467 E26.98792
G1 X55.8 Y32.522 E27.01982
G1 X56.079 Y32.595 E27.05162
G1 X56.263 Y32.655 E27.07297
G1 X56.911 Y32.823 E27.14679
G1 X57.586 Y32.911 E27.22185
G1 X58.225 Y32.921 E27.29232
G1 X58.596 Y32.945 E27.33332
G1 X58.908 Y32.986 E27.36802
G1 X59.48 Y33.106 E27.43247
G1 X59.955 Y33.265 E27.48771
G1 X60.329 Y33.422 E27.53244
G1 X60.962 Y33.641 E27.6063
G1 X61.632 Y33.781 E27.68178
G1 X62.389 Y33.836 E27.76548
G1 X89.937 Y33.841 E30.80331
G1 X90.314 Y33.865 E30.84496
G1 X90.612 Y33.902 E30.87808
G1 X90.896 Y33.957 E30.90998
G1 X91.187 Y34.033 E30.94314
G1 F3600 X91.2 Y34.038
G1 F1200 X91.2 Y44.806 E32.13057
G1 F1680 E29.13057
G1 F3600 X89.6 Y45.007
G1 F1680 E32.13057
G1 F1200 X89.6 Y33.841 E33.36189
G1 F1680 E30.36189
G1 F3600 X88 Y33.841
G1 F1680 E33.36189
G1 F1200 X88 Y45.007 E34.59321
G1 F1680 E31.59321
G1 F3600 X86.4 Y45.007
G1 F1680 E34.59321
G1 F1200 X86.4 Y33.841 E35.82453
G1 F1680 E32.82453
G1 F3600 X84.8 Y33.841
G1 F1680 E35.82453
G1 F1200 X84.8 Y45.007 E37.05585
G1 F1680 E34.05585
G1 F3600 X83.2 Y45.007
G1 F1680 E37.05585
G1 F1200 X83.2 Y33.84 E38.28728
G1 F1680 E35.28728
G1 F3600 X81.6 Y33.84
G1 F1680 E38.28728
G1 F1200 X81.6 Y45.007 E39.51871
G1 F1680 E36.51871
G1 F3600 X80 Y45.007
G1 F1680 E39.51871
G1 F1200 X80 Y33.84 E40.75014
G1 F1680 E37.75014
G1 F3600 X78.4 Y33.839
G1 F1680 E40.75014
G1 F1200 X78.4 Y45.007 E41.98168
G1 F1680 E38.98168
G1 F3600 X76.8 Y45.007
G1 F1680 E41.98168
G1 F1200 X76.8 Y33.839 E43.21322
G1 F1680 E40.21322
G1 F3600 X75.2 Y33.839
G1 F1680 E43.21322
G1 F1200 X75.2 Y45.007 E44.44476
G1 F1680 E41.44476
G1 F3600 X73.6 Y45.007
G1 F1680 E44.44476
G1 F1200 X73.6 Y33.839 E45.6763
G1 F1680 E42.6763
G1 F3600 X72 Y33.838
G1 F1680 E45.6763
G1 F1200 X72 Y45.007 E46.90795
G1 F1680 E43.90795
G1 F3600 X70.4 Y45.007
G1 F1680 E46.90795
G1 F1200 X70.4 Y33.838 E48.1396
G1 F1680 E45.1396
G1 F3600 X68.8 Y33.838
G1 F1680 E48.1396
G1 F1200 X68.8 Y45.007 E49.37125
G1 F1680 E46.37125
G1 F3600 X67.2 Y45.028
G1 F1680 E49.37125
G1 F1200 X67.2 Y33.837 E50.60532
G1 F1680 E47.60532
G1 F3600 X65.6 Y33.837
G1 F1680 E50.60532
G1 F1200 X65.6 Y45.372 E51.87733
G1 F1680 E48.87733
G1 F3600 X64 Y46.342
G1 F1680 E51.87733
G1 F1200 X64 Y33.837 E53.25631
G1 F1680 E50.25631
G1 F3600 X62.4 Y33.837
G1 F1680 E53.25631
G1 F1200 X62.4 Y48.758 E54.90171
G1 F1680 E51.90171
G1 F3600 X62.4 Y52.045
G1 F1680 E54.90171
G1 F1200 X62.4 Y84.949 E58.53016
G1 F1680 E55.53016
G1 F3600 X60.8 Y85.976
G1 F1680 E58.53016
G1 F1200 X60.8 Y33.585 E64.30753
G1 F1680 E61.30753
G1 F3600 X59.2 Y33.048
G1 F1680 E64.30753
G1 F1200 X59.2 Y86.803 E70.2353
G1 F1680 E67.2353
G1 F3600 X57.6 Y87.451
G1 F1680 E70.2353
G1 F1200 X57.6 Y32.912 E76.24954
G1 F1680 E73.24954
G1 F3600 X56 Y32.575
G1 F1680 E76.24954
G1 F1200 X56 Y87.942 E82.35508
G1 F1680 E79.35508
G1 F3600 X54.4 Y88.301
G1 F1680 E82.35508
G1 F1200 X54.4 Y32.406 E88.51884
G1 F1680 E85.51884
G1 F3600 X52.8 Y32.406
G1 F1680 E88.51884
G1 F1200 X52.8 Y88.511 E94.70576
G1 F1680 E91.70576
G1 F3600 X51.2 Y88.588
G1 F1680 E94.70576
G1 F1200 X51.2 Y32.405 E100.90128
G1 F1680 E97.90128
G1 F3600 X49.6 Y32.404
G1 F1680 E100.90128
G1 F1200 X49.6 Y88.526 E107.09008
G1 F1680 E104.09008
G1 F3600 X48 Y88.337
G1 F1680 E107.09008
G1 F1200 X48 Y32.404 E113.25804
G1 F1680 E110.25804
G1 F3600 X46.4 Y32.403
G1 F1680 E113.25804
G1 F1200 X46.4 Y88.014 E119.39048
G1 F1680 E116.39048
G1 F3600 X44.8 Y87.548
G1 F1680 E119.39048
G1 F1200 X44.8 Y32.434 E125.46812
G1 F1680 E122.46812
G1 F3600 X43.2 Y32.796
G1 F1680 E125.46812
G1 F1200 X43.2 Y86.934 E131.43813
G1 F1680 E128.43813
G1 F3600 X41.6 Y86.143
G1 F1680 E131.43813
G1 F1200 X41.6 Y32.934 E137.3057
G1 F1680 E134.3057
G1 F3600 X40 Y33.283
G1 F1680 E137.3057
G1 F1200 X40 Y85.154 E143.02572
G1 F1680 E140.02572
G1 F3600 X38.4 Y83.923
G1 F1680 E143.02572
G1 F1200 X38.4 Y54.211 E146.30218
G1 F1680 E143.30218
G1 F3600 X36.8 Y55.781
G1 F1680 E146.30218
G1 F1200 X36.8 Y82.379 E149.23525
G1 F1680 E146.23525
G1 F3600 X35.2 Y80.426
G1 F1680 E149.23525
G1 F1200 X35.2 Y57.73 E151.73803
G1 F1680 E148.73803
G1 F3600 X33.6 Y60.39
G1 F1680 E151.73803
G1 F1200 X33.6 Y77.772 E153.65481
G1 F1680 E150.65481
G1 F3600 X32 Y73.216
G1 F1680 E153.65481
G1 F1200 X32 Y64.931 E154.56843
G1 F1680 E151.56843
G1 F3600 X38.4 Y46.599
G1 F1680 E154.56843
G1 F1200 X38.4 Y33.77 E155.98314
G1 F1680 E152.98314
G1 F3600 X36.8 Y33.837
G1 F1680 E155.98314
G1 F1200 X36.8 Y45.495 E157.26871
G1 F1680 E154.26871
G1 F3600 X35.2 Y45.048
G1 F1680 E157.26871
G1 F1200 X35.2 Y33.837 E158.50499
G1 F1680 E155.50499
G1 F3600 X33.6 Y33.837
G1 F1680 E158.50499
G1 F1200 X33.6 Y45.007 E159.73675
G1 F1680 E156.73675
G1 F3600 X32 Y45.007
G1 F1680 E159.73675
G1 F1200 X32 Y33.837 E160.96851
G1 F1680 E157.96851
G1 F3600 X30.4 Y33.837
G1 F1680 E160.96851
G1 F1200 X30.4 Y45.007 E162.20027
G1 F1680 E159.20027
G1 F3600 X28.8 Y45.006
G1 F1680 E162.20027
G1 F1200 X28.8 Y33.837 E163.43192
G1 F1680 E160.43192
G1 F3600 X27.2 Y33.837
G1 F1680 E163.43192
G1 F1200 X27.2 Y45.006 E164.66357
G1 F1680 E161.66357
G1 F3600 X25.6 Y45.006
G1 F1680 E164.66357
G1 F1200 X25.6 Y33.837 E165.89522
G1 F1680 E162.89522
G1 F3600 X24 Y33.837
G1 F1680 E165.89522
G1 F1200 X24 Y45.005 E167.12676
G1 F1680 E164.12676
G1 F3600 X22.4 Y45.005
G1 F1680 E167.12676
G1 F1200 X22.4 Y33.837 E168.3583
G1 F1680 E165.3583
G1 F3600 X20.8 Y33.837
G1 F1680 E168.3583
G1 F1200 X20.8 Y45.005 E169.58984
G1 F1680 E166.58984
G1 F3600 X19.2 Y45.004
G1 F1680 E169.58984
G1 F1200 X19.2 Y33.837 E170.82127
G1 F1680 E167.82127
G1 F3600 X17.6 Y33.837
G1 F1680 E170.82127
G1 F1200 X17.6 Y45.004 E172.0527
G1 F1680 E169.0527
G1 F3600 X16 Y45.004
G1 F1680 E172.0527
G1 F1200 X16 Y33.837 E173.28413
G1 F1680 E170.28413
G1 F3600 X14.4 Y33.837
G1 F1680 E173.28413
G1 F1200 X14.4 Y45.003 E174.51545
G1 F1680 E171.51545
G1 F3600 X12.8 Y45.003
G1 F1680 E174.51545
G1 F1200 X12.8 Y33.837 E175.74677
G1 F1680 E172.74677
G1 F3600 X11.2 Y33.837
G1 F1680 E175.74677
G1 F1200 X11.2 Y45.003 E176.97809
G1 F1680 E173.97809
G1 F3600 X9.6 Y44.968
G1 F1680 E176.97809
G1 F1200 X9.6 Y33.878 E178.20103
G1 F1680 E175.20103
G1 F3600 X8 Y34.363
G1 F1680 E178.20103
G1 F1200 X8 Y44.483 E179.317
G1 F1680 E176.317
G1 F3600 X6.4 Y43.166
G1 F1680 E179.317
G1 F1200 X6.4 Y35.687 E180.14174
G1 F1680 E177.14174
G1 F3600 X64 Y54.487
G1 F1680 E180.14174
G1 F1200 X64 Y83.673 E183.3602
G1 F1680 E180.3602
G1 F3600 X65.6 Y82.075
G1 F1680 E183.3602
G1 F1200 X65.6 Y56.082 E186.22655
G1 F1680 E183.22655
G1 F3600 X67.2 Y58.11
G1 F1680 E186.22655
G1 F1200 X67.2 Y80.055 E188.64651
G1 F1680 E185.64651
G1 F3600 X68.8 Y77.187
M104 T0 S200
G1 F1680 E188.64651
G1 F1200 X68.8 Y60.971 E190.43471
G1 F1680 E187.43471
G1 F3600 X70.4 Y66.536
G1 F1680 E190.43471
G1 F1200 X70.4 Y71.619 E190.99523
G1 F1680 E187.99523
G1 F3600 X92.8 Y43.957
G1 F1680 E190.99523
G1 F1200 X92.8 Y34.896 E191.99443
G1 F1680 E188.99443
G1 F3600 X94.4 Y37.007
G1 F1680 E191.99443
G1 F1200 X94.4 Y41.835 E192.52683
G1 F1680 E189.52683
G1 F3600 X91.199 Y33.984
;TIME_ELAPSED:105.102534
;LAYER:-5
G1 X91.199 Y33.984 Z0.619
;TYPE:SUPPORT
G1 F1680 E192.52683
G1 F1980 X91.289 Y34.013 E192.53388
G1 X91.479 Y34.074 E192.54875
G1 X91.736 Y34.178 E192.56942
G1 X92.012 Y34.309 E192.59219
G1 X92.263 Y34.447 E192.61354
G1 X92.488 Y34.59 E192.63342
G1 X92.761 Y34.793 E192.65878
G1 X93.244 Y35.217 E192.70668
G1 X93.449 Y35.428 E192.72861
G1 X93.695 Y35.708 E192.7564
G1 X93.883 Y35.95 E192.77924
G1 X94.037 Y36.177 E192.79969
G1 X94.201 Y36.456 E192.82381
G1 X94.332 Y36.714 E192.84538
G1 X94.434 Y36.953 E192.86475
G1 X94.545 Y37.263 E192.88929
G1 F3600 X94.549 Y37.273
M73 P1
G1 F1980 X91.289 Y34.013 E193.23296
G1 F3600 X91.199 Y33.984
G1 F1980 X90.905 Y33.907 E193.25561
G1 X90.61 Y33.849 E193.27802
G1 X90.321 Y33.813 E193.29973
G1 X89.938 Y33.789 E193.32833
G1 X89.792 Y33.789 E193.33922
G1 X94.771 Y38.768 E193.86409
G1 X94.767 Y40.037 E193.95869
G1 X88.519 Y33.789 E194.61734
G1 X87.247 Y33.789 E194.71215
G1 X94.65 Y41.193 E195.49261
G1 X94.572 Y41.485 E195.51514
G1 X94.482 Y41.765 E195.53707
G1 X94.378 Y42.023 E195.5578
G1 X94.324 Y42.14 E195.56741
G1 X85.973 Y33.789 E196.44775
G1 X84.7 Y33.789 E196.54264
G1 X93.847 Y42.936 E197.5069
G1 X93.764 Y43.047 E197.51723
