M73 P0
;MINX:26.0
;MAXX:69.3
;MINY:27.1
;MAXY:100.4
;MINZ:0.0
;MAXZ:5.8
;MachineType:ENTINA TINA2
;FilamentType:PLA
;Extruder0Temperature:200
;InfillDensity:10
;FLAVOR:Marlin
;TIME:2375
;FilamentUsed:1224.1
;Layer height: 0.1

;Generated with Cura_SteamEngine 3.1
M104 T0 S215
M82 ; absolute extrusion mode
;(**** start.gcode for tina2****)
M104 S150
G28 Z
G28 X Y; Home extruder
G1 X55 Y55 F1000
G1 Z10 F200
G29
G1 Z15 F100
M107 ; Turn off fan
G90 ; Absolute positioning
M82 ; Extruder in absolute mode
M109 S215.0
G92 E0 ; Reset extruder position
G1 X90 Y6 Z0.27 F2000
G1 X20 Y6 Z0.27 E15 F1000
G92 E0 ; Reset extruder position

;LAYER_COUNT:44
;LAYER:-8
M107
M203 Z5
G1 F3600 X67.025 Y35.423 Z0.349
G1 F1200 X67.267 Y35.648 E0.03644
G1 X67.631 Y36.058 E0.0969
G1 X67.83 Y36.321 E0.13327
G1 X68.07 Y36.697 E0.18246
G1 X68.171 Y36.877 E0.20522
G1 X68.364 Y37.271 E0.2536
G1 X68.489 Y37.595 E0.29189
G1 X68.6 Y37.933 E0.33112
G1 X68.685 Y38.299 E0.37256
G1 X68.755 Y38.701 E0.41756
G1 X68.766 Y38.798 E0.42832
G1 X68.796 Y39.283 E0.48191
G1 X68.784 Y39.721 E0.53022
G1 X68.739 Y40.144 E0.57713
G1 X68.611 Y40.759 E0.64641
G1 X68.321 Y41.624 E0.74701
G1 X68.337 Y41.629 E0.74886
G1 X68.286 Y41.799 E0.76843
G1 X68.172 Y42.47 E0.84348
G1 X68.165 Y42.605 E0.85839
G1 X68.153 Y42.605 E0.85972
G1 X68.126 Y43.446 E0.9525
G1 X68.098 Y43.719 E0.98277
G1 X67.963 Y44.703 E1.09229
G1 X67.898 Y45.064 E1.13274
G1 X67.342 Y47.171 E1.37304
G1 X67.209 Y47.583 E1.42078
G1 X66.302 Y50.16 E1.72205
G1 X66.139 Y50.57 E1.7707
G1 X65.259 Y52.69 E2.02382
G1 X65.107 Y53.025 E2.06439
G1 X63.928 Y55.388 E2.3556
G1 X63.787 Y55.647 E2.38812
G1 X62.447 Y57.885 E2.67577
G1 X61.103 Y59.826 E2.93611
G1 X60.691 Y60.365 E3.01093
G1 X59.352 Y62.049 E3.24818
G1 X59.043 Y62.409 E3.30049
G1 X58.596 Y62.902 E3.37388
G1 X58.178 Y63.427 E3.44788
G1 X57.824 Y64.01 E3.52309
G1 X57.546 Y64.634 E3.59843
G1 X57.349 Y65.288 E3.67375
G1 X57.236 Y65.961 E3.749
G1 X57.208 Y66.643 E3.82427
G1 X57.268 Y67.322 E3.89944
G1 X57.389 Y67.903 E3.96488
G1 X57.838 Y69.592 E4.1576
G1 X57.904 Y69.887 E4.19094
G1 X58.276 Y71.832 E4.40931
G1 X58.313 Y72.083 E4.43729
G1 X58.354 Y72.436 E4.47647
G1 X58.454 Y73.504 E4.59476
G1 X58.473 Y73.941 E4.643
G1 X58.442 Y75.095 E4.7703
G1 X58.409 Y75.521 E4.81742
G1 X58.198 Y76.746 E4.95449
G1 X58.126 Y77.086 E4.99282
G1 X57.999 Y77.513 E5.04194
G1 X57.615 Y78.661 E5.17543
G1 X57.503 Y78.961 E5.21074
G1 X57.409 Y79.174 E5.23642
G1 X56.77 Y80.527 E5.40142
G1 X56.572 Y80.896 E5.4476
G1 X55.612 Y82.493 E5.65308
G1 X55.43 Y82.762 E5.68889
G1 X55.084 Y83.336 E5.7628
G1 X54.807 Y83.96 E5.83809
G1 X54.612 Y84.614 E5.91334
G1 X54.499 Y85.288 E5.9887
G1 X54.474 Y85.971 E6.06407
G1 X54.535 Y86.649 E6.13914
G1 X54.667 Y87.268 E6.20893
G1 X54.759 Y87.61 E6.24799
G1 X54.895 Y88.258 E6.321
G1 X54.969 Y88.73 E6.37369
G1 X55.036 Y89.393 E6.44717
G1 X55.055 Y89.759 E6.48759
G1 X55.058 Y90.202 E6.53644
G1 X55.046 Y90.619 E6.58244
G1 X55.001 Y91.11 E6.63681
G1 X54.905 Y91.773 E6.71069
G1 X54.795 Y92.311 E6.77124
G1 X54.609 Y93 E6.84994
G1 X54.437 Y93.531 E6.91149
G1 X54.173 Y94.2 E6.9908
G1 X53.975 Y94.64 E7.04401
G1 X53.458 Y95.628 E7.16697
G1 X53.249 Y95.974 E7.21155
G1 X52.54 Y97.03 E7.35181
G1 X52.253 Y97.413 E7.40459
G1 X51.586 Y98.219 E7.51996
G1 X51.326 Y98.499 E7.56209
G1 X51.126 Y98.689 E7.59251
G1 X50.889 Y98.886 E7.6265
G1 X50.683 Y99.036 E7.6546
G1 X50.402 Y99.216 E7.6914
G1 X50.183 Y99.337 E7.71899
G1 X49.897 Y99.472 E7.75386
G1 X49.634 Y99.576 E7.78505
G1 X49.38 Y99.658 E7.81448
G1 X49.058 Y99.737 E7.85104
G1 X48.495 Y99.831 E7.91399
G1 X48.323 Y99.852 E7.9331
G1 X47.926 Y99.876 E7.97696
G1 X47.386 Y99.878 E8.0365
G1 X46.962 Y99.854 E8.08333
G1 X46.439 Y99.787 E8.14148
G1 X46.165 Y99.732 E8.1723
G1 X45.866 Y99.651 E8.20646
G1 X45.605 Y99.563 E8.23683
G1 X45.335 Y99.453 E8.26898
G1 X45.076 Y99.326 E8.30079
G1 X44.818 Y99.179 E8.33354
G1 X44.572 Y99.018 E8.36596
G1 X44.378 Y98.873 E8.39266
G1 X44.097 Y98.628 E8.43378
G1 X43.716 Y98.24 E8.49374
G1 X43.572 Y98.08 E8.51748
G1 X42.93 Y97.293 E8.62948
G1 X42.673 Y96.943 E8.67736
G1 X42.025 Y95.974 E8.80591
G1 X41.747 Y95.501 E8.86641
G1 X41.315 Y94.671 E8.96959
G1 X41.094 Y94.175 E9.02947
G1 X40.823 Y93.478 E9.11194
G1 X40.7 Y93.097 E9.15609
G1 X40.642 Y92.901 E9.17863
G1 X40.489 Y92.327 E9.24413
G1 X40.378 Y91.791 E9.3045
G1 X40.286 Y91.183 E9.37231
G1 X40.238 Y90.685 E9.42748
G1 X40.219 Y90.121 E9.48971
G1 X40.222 Y89.761 E9.52941
G1 X40.24 Y89.402 E9.56904
G1 X40.309 Y88.706 E9.64617
G1 X40.389 Y88.205 E9.70212
G1 X40.515 Y87.619 E9.76822
G1 X40.608 Y87.275 E9.80751
G1 X40.749 Y86.62 E9.8814
G1 X40.808 Y85.94 E9.95666
G1 X40.78 Y85.258 E10.03193
G1 X40.665 Y84.584 E10.10733
G1 X40.468 Y83.931 E10.18255
G1 X40.188 Y83.307 E10.25797
G1 X40.023 Y83.04 E10.29258
G1 X40.03 Y83.033 E10.29367
G1 X39.687 Y82.506 E10.36301
G1 X39.514 Y82.255 E10.39663
G1 X39.228 Y81.788 E10.45702
G1 X38.401 Y80.327 E10.64215
G1 X38.266 Y80.037 E10.67742
G1 X37.69 Y78.734 E10.83452
G1 X37.591 Y78.485 E10.86407
G1 X37.484 Y78.165 E10.90128
G1 X37.154 Y77.07 E11.02739
G1 X37.067 Y76.729 E11.0662
G1 X36.973 Y76.198 E11.12567
G1 X36.852 Y75.314 E11.22406
G1 X36.819 Y74.954 E11.26392
G1 X36.811 Y74.608 E11.30209
G1 X36.822 Y73.583 E11.41512
G1 X36.853 Y73.13 E11.4652
G1 X37.053 Y71.527 E11.64334
G1 X37.115 Y71.154 E11.68503
G1 X37.569 Y69.079 E11.91926
G1 X37.655 Y68.736 E11.95826
G1 X37.865 Y68.015 E12.04107
G1 X38.011 Y67.361 E12.11496
G1 X38.075 Y66.681 E12.19028
G1 X38.052 Y65.998 E12.26564
G1 X37.943 Y65.324 E12.34093
G1 X37.749 Y64.669 E12.41626
G1 X37.475 Y64.044 E12.49152
G1 X37.125 Y63.458 E12.56679
G1 X36.716 Y62.936 E12.63991
G1 X36.055 Y62.194 E12.7495
G1 X35.801 Y61.895 E12.79276
G1 X34.289 Y59.982 E13.06165
G1 X33.994 Y59.576 E13.11699
G1 X32.869 Y57.938 E13.33612
G1 X32.614 Y57.542 E13.38806
G1 X31.436 Y55.54 E13.64421
G1 X31.171 Y55.044 E13.70622
G1 X30.226 Y53.136 E13.94102
G1 X29.973 Y52.572 E14.00918
G1 X28.962 Y50.112 E14.30247
G1 X28.846 Y49.801 E14.33908
G1 X28.003 Y47.361 E14.62375
G1 X27.86 Y46.908 E14.67613
G1 X27.401 Y45.137 E14.87788
G1 X27.293 Y44.564 E14.94218
G1 X27.168 Y43.559 E15.05386
G1 X27.147 Y43.331 E15.07911
G1 X27.134 Y42.94 E15.12225
G1 X27.081 Y42.272 E15.19614
G1 X26.941 Y41.608 E15.27098
G1 X26.764 Y41.064 E15.33406
G1 X26.637 Y40.643 E15.38255
G1 X26.568 Y40.304 E15.4207
G1 X26.532 Y40.086 E15.44507
G1 X26.486 Y39.61 E15.4978
G1 X26.482 Y39.282 E15.53398
G1 X26.528 Y38.667 E15.60198
G1 X26.571 Y38.399 E15.63191
G1 X26.658 Y38.009 E15.67598
G1 X26.85 Y37.429 E15.74335
G1 X26.977 Y37.131 E15.77907
G1 X27.164 Y36.77 E15.8239
G1 X27.375 Y36.429 E15.86812
G1 X27.705 Y35.986 E15.92904
G1 X27.996 Y35.663 E15.97698
G1 X28.18 Y35.488 E16.00498
G1 X28.351 Y35.34 E16.02992
G1 X28.767 Y35.018 E16.08793
G1 X29.076 Y34.824 E16.12817
G1 X29.416 Y34.636 E16.17101
G1 X29.827 Y34.456 E16.22049
G1 X30.157 Y34.338 E16.25914
G1 X30.544 Y34.232 E16.30338
G1 X30.725 Y34.194 E16.32378
G1 X31.193 Y34.119 E16.37605
G1 X31.516 Y34.095 E16.41176
G1 X31.738 Y34.088 E16.43626
G1 X32.399 Y34.127 E16.50927
G1 X32.629 Y34.158 E16.53487
G1 X33.74 Y34.397 E16.66018
G1 X34.093 Y34.488 E16.70038
G1 X34.809 Y34.703 E16.78282
G1 X35.462 Y34.854 E16.85673
G1 X36.141 Y34.923 E16.93199
G1 X36.824 Y34.907 E17.00733
G1 X37.499 Y34.805 E17.08261
G1 X38.156 Y34.618 E17.15794
G1 X38.784 Y34.349 E17.23328
G1 X39.372 Y34.003 E17.30851
G1 X39.913 Y33.586 E17.38383
G1 X40.397 Y33.105 E17.45908
G1 X40.816 Y32.566 E17.53436
G1 X41.162 Y31.982 E17.60922
G1 X41.533 Y31.186 E17.70606
G1 X41.677 Y30.932 E17.73826
G1 X42.016 Y30.399 E17.80792
G1 X42.196 Y30.154 E17.84144
G1 X42.562 Y29.713 E17.90464
G1 X43.075 Y29.206 E17.98418
G1 X43.273 Y29.034 E18.0131
G1 X43.665 Y28.737 E18.06733
G1 X44.03 Y28.499 E18.11538
G1 X44.205 Y28.395 E18.13783
G1 X44.734 Y28.128 E18.20317
G1 X44.897 Y28.055 E18.22287
G1 X45.384 Y27.871 E18.28028
G1 X45.597 Y27.806 E18.30484
G1 X46.183 Y27.657 E18.37151
G1 X46.311 Y27.632 E18.38589
G1 X46.896 Y27.551 E18.45102
G1 X47.226 Y27.523 E18.48754
G1 X47.819 Y27.515 E18.55294
G1 X48.194 Y27.532 E18.59433
G1 X48.87 Y27.613 E18.66941
G1 X49.14 Y27.66 E18.69963
G1 X49.649 Y27.791 E18.75759
G1 X49.933 Y27.879 E18.79038
G1 X50.302 Y28.017 E18.83382
G1 X50.489 Y28.099 E18.85634
G1 X51.001 Y28.355 E18.91946
G1 X51.259 Y28.505 E18.95237
G1 X51.776 Y28.849 E19.02085
G1 X52.096 Y29.102 E19.06584
G1 X52.284 Y29.273 E19.09386
G1 X52.74 Y29.732 E19.16521
G1 X52.925 Y29.95 E19.19674
G1 X53.253 Y30.378 E19.2562
G1 X53.382 Y30.57 E19.28171
G1 X53.637 Y30.99 E19.33589
G1 X53.789 Y31.28 E19.372
G1 X53.993 Y31.734 E19.42689
G1 X54.305 Y32.327 E19.50078
G1 X54.697 Y32.886 E19.57607
G1 X55.157 Y33.391 E19.65139
G1 X55.677 Y33.834 E19.72672
G1 X56.248 Y34.208 E19.802
G1 X56.862 Y34.507 E19.8773
G1 X57.509 Y34.726 E19.95263
G1 X58.177 Y34.861 E20.02778
G1 X58.859 Y34.912 E20.1032
G1 X59.544 Y34.875 E20.17885
G1 X59.765 Y34.831 E20.20369
G1 X59.769 Y34.847 E20.20551
G1 X60.453 Y34.69 E20.2829
G1 X62.389 Y34.209 E20.50288
G1 X62.818 Y34.136 E20.55087
G1 X62.986 Y34.116 E20.56953
G1 X63.53 Y34.088 E20.6296
G1 X63.848 Y34.1 E20.66469
G1 X64.122 Y34.124 E20.69502
G1 X64.614 Y34.203 E20.74997
G1 X65.15 Y34.346 E20.81114
G1 X65.53 Y34.487 E20.85584
G1 X65.934 Y34.674 E20.90493
G1 X66.346 Y34.91 E20.95729
G1 X66.573 Y35.061 E20.98735
G1 X66.865 Y35.288 E21.02814
G1 X67.025 Y35.423 E21.05122
G1 F3600 X67.2 Y35.586
G1 F1200 X67.2 Y47.609 E22.37705
G1 F1680 E19.37705
G1 F3600 X65.6 Y51.869
G1 F1680 E22.37705
G1 F1200 X65.6 Y34.52 E24.29019
G1 F1680 E21.29019
M73 P1
G1 F3600 X64 Y34.114
G1 F1680 E24.29019
G1 F1200 X64 Y55.244 E26.62028
G1 F1680 E23.62028
G1 F3600 X62.4 Y57.953
G1 F1680 E26.62028
G1 F1200 X62.4 Y34.207 E29.23885
G1 F1680 E26.23885
G1 F3600 X60.8 Y34.603
G1 F1680 E29.23885
G1 F1200 X60.8 Y60.223 E32.06407
G1 F1680 E29.06407
G1 F3600 X59.2 Y62.227
G1 F1680 E32.06407
G1 F1200 X59.2 Y34.893 E35.07829
G1 F1680 E32.07829
G1 F3600 X57.6 Y34.745
G1 F1680 E35.07829
G1 F1200 X57.6 Y64.513 E38.36093
G1 F1680 E35.36093
G1 F3600 X57.6 Y68.697
G1 F1680 E38.36093
G1 F1200 X57.6 Y78.702 E39.46422
G1 F1680 E36.46422
G1 F3600 X56 Y81.848
G1 F1680 E39.46422
G1 F1200 X56 Y34.046 E44.73554
G1 F1680 E41.73554
G1 F3600 X54.4 Y32.463
G1 F1680 E44.73554
G1 F1200 X54.4 Y93.625 E51.48011
G1 F1680 E48.48011
G1 F3600 X52.8 Y96.643
G1 F1680 E51.48011
G1 F1200 X52.8 Y29.803 E58.85083
G1 F1680 E55.85083
G1 F3600 X51.2 Y28.471
G1 F1680 E58.85083
G1 F1200 X51.2 Y98.619 E66.58633
G1 F1680 E63.58633
G1 F3600 X49.6 Y99.587
G1 F1680 E66.58633
G1 F1200 X49.6 Y27.779 E74.50488
G1 F1680 E71.50488
G1 F3600 X48 Y27.524
G1 F1680 E74.50488
G1 F1200 X48 Y99.872 E82.48298
G1 F1680 E79.48298
G1 F3600 X46.4 Y99.779
G1 F1680 E82.48298
G1 F1200 X46.4 Y27.619 E90.44035
G1 F1680 E87.44035
G1 F3600 X44.8 Y28.098
G1 F1680 E90.44035
G1 F1200 X44.8 Y99.167 E98.27741
G1 F1680 E95.27741
G1 F3600 X43.2 Y97.623
G1 F1680 E98.27741
G1 F1200 X43.2 Y29.097 E105.83405
G1 F1680 E102.83405
G1 F3600 X41.6 Y31.067
G1 F1680 E105.83405
G1 F1200 X41.6 Y95.218 E112.90823
G1 F1680 E109.90823
G1 F3600 X40 Y82.986
G1 F1680 E112.90823
G1 F1200 X40 Y33.499 E118.36536
G1 F1680 E115.36536
G1 F3600 X38.4 Y34.513
G1 F1680 E118.36536
G1 F1200 X38.4 Y80.324 E123.41712
G1 F1680 E120.41712
G1 F3600 X36.8 Y63.043
G1 F1680 E123.41712
G1 F1200 X36.8 Y34.907 E126.51979
G1 F1680 E123.51979
G1 F3600 X35.2 Y34.794
G1 F1680 E126.51979
G1 F1200 X35.2 Y61.134 E129.42441
G1 F1680 E126.42441
G1 F3600 X33.6 Y59.002
G1 F1680 E129.42441
G1 F1200 X33.6 Y34.367 E132.14101
G1 F1680 E129.14101
G1 F3600 X32 Y34.104
M104 T0 S200
G1 F1680 E132.14101
G1 F1200 X32 Y56.498 E134.61048
G1 F1680 E131.61048
G1 F3600 X30.4 Y53.487
G1 F1680 E134.61048
G1 F1200 X30.4 Y34.271 E136.72951
G1 F1680 E133.72951
G1 F3600 X28.8 Y34.997
G1 F1680 E136.72951
G1 F1200 X28.8 Y49.667 E138.34723
G1 F1680 E135.34723
G1 F3600 X27.2 Y43.816
G1 F1680 E138.34723
G1 F1200 X27.2 Y36.711 E139.13072
G1 F1680 E136.13072
G1 F3600 X67.059 Y35.385
;TIME_ELAPSED:71.365574
;LAYER:-7
G1 X67.059 Y35.385 Z0.619
;TYPE:SUPPORT
G1 F1680 E139.13072
G1 F1980 X67.301 Y35.609 E139.15531
G1 X67.547 Y35.881 E139.18264
G1 X67.676 Y36.034 E139.19756
G1 X67.892 Y36.319 E139.22422
G1 X68.117 Y36.679 E139.25586
G1 X68.215 Y36.853 E139.27075
G1 X68.378 Y37.181 E139.29805
G1 X68.498 Y37.47 E139.32138
G1 X68.631 Y37.864 E139.35237
G1 X68.67 Y38.004 E139.36321
G1 F3600 X68.704 Y38.157
G1 F1980 X64.727 Y34.18 E139.78245
G1 X65.167 Y34.298 E139.81641
G1 X65.547 Y34.438 E139.8466
G1 X65.844 Y34.571 E139.87085
G1 X66.366 Y34.863 E139.91544
G1 X66.612 Y35.027 E139.93748
G1 X66.905 Y35.254 E139.96511
G1 X67.059 Y35.385 E139.98018
G1 F1680 E136.98018
G1 F3600 X68.704 Y38.157
G1 F1680 E139.98018
G1 F1980 X68.763 Y38.428 E140.00085
G1 X68.816 Y38.802 E140.02901
G1 X68.846 Y39.281 E140.06478
G1 X68.839 Y39.565 E140.08596
G1 X63.32 Y34.046 E140.66776
G1 X62.991 Y34.064 E140.69232
G1 X62.8 Y34.086 E140.70665
G1 X62.378 Y34.158 E140.73856
G1 X62.203 Y34.202 E140.75201
G1 X68.679 Y40.677 E141.43465
G1 X68.656 Y40.782 E141.44266
G1 X68.385 Y41.592 E141.50633
G1 X68.4 Y41.596 E141.50748
G1 X68.383 Y41.654 E141.51199
G1 X61.184 Y34.455 E142.27089
G1 X60.439 Y34.641 E142.32813
G1 X60.161 Y34.705 E142.34939
G1 X68.199 Y42.743 E143.19674
G1 X68.175 Y43.451 E143.24955
G1 X68.149 Y43.711 E143.26903
G1 X68.119 Y43.936 E143.28595
G1 X59.034 Y34.851 E144.24367
G1 X58.858 Y34.861 E144.25681
G1 X58.182 Y34.81 E144.30734
G1 X57.604 Y34.694 E144.35128
G1 X67.953 Y45.043 E145.44225
G1 X67.947 Y45.075 E145.44468
G1 X67.897 Y45.285 E145.46077
G1 X67.692 Y46.055 E145.52017
G1 X49.282 Y27.645 E147.46091
G1 X49.139 Y27.608 E147.47192
G1 X48.883 Y27.563 E147.49129
G1 X48.37 Y27.496 E147.52986
G1 X47.961 Y27.468 E147.56042
G1 X47.832 Y27.468 E147.57003
G1 X67.424 Y47.059 E149.63532
G1 X67.387 Y47.196 E149.6459
G1 X67.256 Y47.6 E149.67756
G1 X67.11 Y48.018 E149.71056
G1 X46.628 Y27.536 E151.86973
G1 X46.398 Y27.565 E151.88701
G1 X46.172 Y27.606 E151.90413
G1 X45.577 Y27.758 E151.94991
G1 X66.778 Y48.959 E154.18487
G1 X66.446 Y49.9 E154.25925
G1 X44.655 Y28.109 E156.55641
G1 X44.179 Y28.351 E156.59621
G1 X44.076 Y28.41 E156.60506
G1 X43.839 Y28.565 E156.62617
G1 X66.09 Y50.816 E158.97182
G1 X65.717 Y51.716 E159.04444
G1 X43.109 Y29.108 E161.42772
G1 X43.028 Y29.178 E161.4357
G1 X42.468 Y29.74 E161.49484
G1 X65.344 Y52.616 E163.90638
G1 X65.304 Y52.709 E163.91392
G1 X65.157 Y53.035 E163.94058
G1 X64.935 Y53.48 E163.97765
G1 X41.915 Y30.46 E166.40436
G1 X41.625 Y30.916 E166.44465
G1 X41.482 Y31.171 E166.46644
G1 X41.441 Y31.259 E166.47368
G1 X64.512 Y54.329 E168.90572
G1 X64.088 Y55.179 E168.97652
G1 X41.022 Y32.113 E171.40809
G1 X40.773 Y32.536 E171.44467
G1 X40.51 Y32.874 E171.4766
G1 X63.635 Y55.998 E173.91433
G1 X63.16 Y56.796 E173.98355
G1 X39.896 Y33.532 E176.43599
G1 X39.879 Y33.547 E176.43768
G1 X39.343 Y33.96 E176.48812
G1 X39.16 Y34.069 E176.504
G1 X62.685 Y57.593 E178.9839
G1 X62.574 Y57.778 E178.99998
G1 X62.458 Y57.96 E179.01607
G1 X62.18 Y58.361 E179.05244
G1 X38.313 Y34.495 E181.56839
G1 X38.138 Y34.57 E181.58258
G1 X37.487 Y34.755 E181.63303
G1 X37.325 Y34.779 E181.64524
G1 X61.659 Y59.113 E184.21047
G1 X61.139 Y59.86 E184.27832
G1 F3600 X61.137 Y59.864
G1 F1980 X36.145 Y34.872 E186.91292
G1 F3600 X36.142 Y34.872
G1 F1980 X35.469 Y34.803 E186.96335
G1 X34.821 Y34.653 E187.01293
G1 X34.58 Y34.58 E187.0317
G1 X60.582 Y60.582 E189.77277
G1 X60.018 Y61.291 E189.8403
G1 X32.888 Y34.161 E192.70028
G1 X32.647 Y34.108 E192.71868
G1 X32.411 Y34.076 E192.73643
G1 X31.739 Y34.035 E192.78662
G1 X31.512 Y34.042 E192.80355
G1 X31.498 Y34.044 E192.8046
G1 X59.454 Y62 E195.75166
G1 X59.397 Y62.071 E195.75844
G1 X59.08 Y62.443 E195.79488
G1 X58.863 Y62.682 E195.81894
G1 X30.4 Y34.219 E198.81944
G1 X30.154 Y34.285 E198.83843
G1 X29.801 Y34.411 E198.86637
G1 X29.467 Y34.558 E198.89357
G1 X58.283 Y63.375 E201.93134
G1 X58.219 Y63.455 E201.93898
G1 X57.868 Y64.033 E201.98938
G1 X57.808 Y64.172 E202.00067
G1 X28.665 Y35.029 E205.07286
G1 X28.226 Y35.375 E205.11452
G1 X27.986 Y35.599 E205.13899
G1 X27.974 Y35.611 E205.14026
G1 X57.459 Y65.096 E208.2485
