M73 P0
;MINX:20.0
;MAXX:80.0
;MINY:30.0
;MAXY:90.0
;MINZ:0.0
;MAXZ:81.3
;MachineType:ENTINA TINA2
;FilamentType:PLA
;Extruder0Temperature:200
;InfillDensity:20
;FLAVOR:Marlin
;TIME:3489
;FilamentUsed:3209.2
;Layer height: 0.2

;Generated with Cura_SteamEngine 3.1
M104 T0 S215
M82 ; absolute extrusion mode
;(**** start.gcode for tina2****)
M104 S150
G28 Z
G28 X Y; Home extruder
G1 X55 Y55 F1000
G1 Z10 F200
G29
G1 Z15 F100
M107 ; Turn off fan
G90 ; Absolute positioning
M82 ; Extruder in absolute mode
M109 S215.0
G92 E0 ; Reset extruder position
G1 X90 Y6 Z0.27 F2000
G1 X20 Y6 Z0.27 E15 F1000
G92 E0 ; Reset extruder position

;LAYER_COUNT:400
;LAYER:-6
M107
M203 Z5
G1 F3600 X67.93 Y38.624 Z0.349
G1 F1200 X69.591 Y40.134 E0.24754
G1 X69.926 Y40.472 E0.30002
G1 X71.451 Y42.158 E0.55071
G1 X71.76 Y42.541 E0.60498
G1 X73.091 Y44.338 E0.85158
G1 X73.345 Y44.72 E0.90216
G1 X74.518 Y46.681 E1.15415
G1 X74.739 Y47.102 E1.20658
G1 X75.708 Y49.158 E1.45722
G1 X75.841 Y49.476 E1.49523
G1 X76.621 Y51.649 E1.74983
G1 X76.749 Y52.062 E1.79751
G1 X77.328 Y54.37 E2.05991
G1 X77.415 Y54.823 E2.11077
G1 X77.749 Y57.092 E2.36368
G1 X77.791 Y57.544 E2.41374
G1 X77.9 Y59.836 E2.66677
G1 X77.896 Y60.306 E2.7186
G1 X77.784 Y62.549 E2.96626
G1 X77.735 Y63.022 E3.0187
G1 X77.402 Y65.256 E3.26777
G1 X77.327 Y65.63 E3.30983
G1 X76.784 Y67.813 E3.5579
G1 X76.622 Y68.351 E3.61986
G1 X75.841 Y70.524 E3.87449
G1 X75.66 Y70.95 E3.92553
G1 X74.697 Y72.982 E4.1735
G1 X74.475 Y73.395 E4.2252
G1 X73.313 Y75.331 E4.47419
G1 X73.025 Y75.754 E4.53063
G1 X71.675 Y77.568 E4.77998
G1 X71.377 Y77.929 E4.8316
G1 X69.866 Y79.591 E5.0793
G1 X69.528 Y79.926 E5.13177
G1 X67.842 Y81.451 E5.38247
G1 X67.452 Y81.765 E5.43768
G1 X65.653 Y83.097 E5.68452
G1 X65.28 Y83.345 E5.73392
G1 X63.319 Y84.518 E5.9859
G1 X62.898 Y84.739 E6.03833
G1 X60.842 Y85.708 E6.28897
G1 X60.524 Y85.841 E6.32698
G1 X58.292 Y86.642 E6.58849
G1 X57.93 Y86.751 E6.63017
G1 X55.63 Y87.328 E6.89166
G1 X55.177 Y87.415 E6.94253
G1 X52.908 Y87.749 E7.19544
G1 X52.456 Y87.791 E7.2455
G1 X50.154 Y87.9 E7.49963
G1 X49.694 Y87.896 E7.55036
G1 X47.444 Y87.783 E7.79879
G1 X46.978 Y87.735 E7.85045
G1 X44.734 Y87.4 E8.10065
G1 X44.37 Y87.327 E8.14159
G1 X42.176 Y86.781 E8.39091
G1 X41.649 Y86.622 E8.45161
G1 X39.476 Y85.84 E8.70628
G1 X39.158 Y85.708 E8.74425
G1 X37.102 Y84.739 E8.99489
G1 X36.681 Y84.518 E9.04732
G1 X34.72 Y83.345 E9.2993
G1 X34.347 Y83.097 E9.3487
G1 X32.548 Y81.765 E9.59554
G1 X32.158 Y81.451 E9.65075
G1 X30.472 Y79.926 E9.90145
G1 X30.134 Y79.591 E9.95392
G1 X28.623 Y77.929 E10.20162
G1 X28.325 Y77.568 E10.25324
G1 X26.975 Y75.754 E10.50259
G1 X26.687 Y75.331 E10.55903
G1 X25.525 Y73.395 E10.80802
G1 X25.303 Y72.982 E10.85972
G1 X24.34 Y70.95 E11.10769
G1 X24.11 Y70.396 E11.17384
G1 X23.358 Y68.292 E11.42023
G1 X23.249 Y67.93 E11.46192
G1 X22.672 Y65.63 E11.72341
G1 X22.585 Y65.177 E11.77428
G1 X22.25 Y62.9 E12.02807
G1 X22.208 Y62.444 E12.07857
G1 X22.1 Y60.164 E12.33028
G1 X22.104 Y59.694 E12.38211
G1 X22.216 Y57.451 E12.62976
G1 X22.265 Y56.978 E12.6822
G1 X22.598 Y54.744 E12.93127
G1 X22.673 Y54.37 E12.97334
G1 X23.216 Y52.187 E13.2214
G1 X23.378 Y51.649 E13.28336
G1 X24.159 Y49.476 E13.53799
G1 X24.34 Y49.05 E13.58903
G1 X25.315 Y46.994 E13.83996
G1 X25.525 Y46.605 E13.8887
G1 X26.687 Y44.669 E14.1377
G1 X26.975 Y44.246 E14.19413
G1 X28.325 Y42.432 E14.44348
G1 X28.615 Y42.08 E14.49378
G1 X30.134 Y40.409 E14.7428
G1 X30.472 Y40.074 E14.79528
G1 X32.158 Y38.549 E15.04597
G1 X32.548 Y38.235 E15.10118
G1 X34.347 Y36.903 E15.34803
G1 X34.72 Y36.655 E15.39742
G1 X36.681 Y35.482 E15.6494
G1 X37.102 Y35.261 E15.70184
G1 X39.158 Y34.292 E15.95248
G1 X39.476 Y34.159 E15.99049
G1 X41.708 Y33.358 E16.25199
G1 X42.07 Y33.249 E16.29368
G1 X44.37 Y32.672 E16.55517
G1 X44.823 Y32.585 E16.60604
G1 X47.092 Y32.251 E16.85894
G1 X47.544 Y32.209 E16.909
G1 X49.846 Y32.1 E17.16314
G1 X50.306 Y32.104 E17.21386
G1 X52.556 Y32.217 E17.46229
G1 X53.022 Y32.265 E17.51395
G1 X55.266 Y32.6 E17.76415
G1 X55.63 Y32.673 E17.80509
G1 X57.824 Y33.219 E18.05441
G1 X58.351 Y33.378 E18.11511
G1 X60.524 Y34.159 E18.36974
G1 X60.95 Y34.34 E18.42079
G1 X62.982 Y35.303 E18.66875
G1 X63.395 Y35.525 E18.72046
G1 X65.331 Y36.687 E18.96945
G1 X65.754 Y36.975 E19.02588
G1 X67.568 Y38.325 E19.27524
G1 X67.93 Y38.624 E19.32701
G1 F1680 E16.32701
G1 F3600 X67.2 Y38.052
G1 F1680 E19.32701
G1 F1200 X67.2 Y81.952 E24.16804
G1 F1680 E21.16804
G1 F3600 X65.6 Y83.133
G1 F1680 E24.16804
G1 F1200 X65.6 Y36.871 E29.26953
G1 F1680 E26.26953
G1 F3600 X64 Y35.889
G1 F1680 E29.26953
G1 F1200 X64 Y84.111 E34.58717
G1 F1680 E31.58717
G1 F3600 X62.4 Y84.974
G1 F1680 E34.58717
G1 F1200 X62.4 Y35.028 E40.09491
G1 F1680 E37.09491
G1 F3600 X60.8 Y34.277
G1 F1680 E40.09491
G1 F1200 X60.8 Y85.726 E45.7684
G1 F1680 E42.7684
G1 F3600 X59.2 Y86.317
G1 F1680 E45.7684
G1 F1200 X59.2 Y33.684 E51.57245
G1 F1680 E48.57245
G1 F3600 X57.6 Y33.164
G1 F1680 E51.57245
G1 F1200 X57.6 Y86.834 E57.49085
G1 F1680 E54.49085
G1 F3600 X56 Y87.236
G1 F1680 E57.49085
G1 F1200 X56 Y32.766 E63.49747
G1 F1680 E60.49747
G1 F3600 X54.4 Y32.471
G1 F1680 E63.49747
G1 F1200 X54.4 Y87.53 E69.56905
G1 F1680 E66.56905
G1 F3600 X52.8 Y87.76
G1 F1680 E69.56905
G1 F1200 X52.8 Y32.243 E75.69113
G1 F1680 E72.69113
G1 F3600 X51.2 Y32.149
G1 F1680 E75.69113
G1 F1200 X51.2 Y87.851 E81.83361
G1 F1680 E78.83361
G1 F3600 X49.6 Y87.891
G1 F1680 E81.83361
G1 F1200 X49.6 Y32.111 E87.98469
G1 F1680 E84.98469
G1 F3600 X48 Y32.187
G1 F1680 E87.98469
G1 F1200 X48 Y87.81 E94.11846
G1 F1680 E91.11846
G1 F3600 X46.4 Y87.648
G1 F1680 E94.11846
G1 F1200 X46.4 Y32.352 E100.21617
G1 F1680 E97.21617
G1 F3600 X44.8 Y32.589
G1 F1680 E100.21617
G1 F1200 X44.8 Y87.409 E106.26139
G1 F1680 E103.26139
G1 F3600 X43.2 Y87.035
G1 F1680 E106.26139
G1 F1200 X43.2 Y32.965 E112.2239
G1 F1680 E109.2239
G1 F3600 X41.6 Y33.396
G1 F1680 E112.2239
G1 F1200 X41.6 Y86.604 E118.09136
G1 F1680 E115.09136
G1 F3600 X40 Y86.028
G1 F1680 E118.09136
G1 F1200 X40 Y33.97 E123.83201
G1 F1680 E120.83201
G1 F3600 X38.4 Y34.649
G1 F1680 E123.83201
G1 F1200 X38.4 Y85.35 E129.42301
G1 F1680 E126.42301
G1 F3600 X36.8 Y84.58
G1 F1680 E129.42301
G1 F1200 X36.8 Y35.419 E134.84419
G1 F1680 E131.84419
G1 F3600 X35.2 Y36.367
G1 F1680 E134.84419
G1 F1200 X35.2 Y83.632 E140.05629
G1 F1680 E137.05629
G1 F3600 X33.6 Y82.543
G1 F1680 E140.05629
G1 F1200 X33.6 Y37.456 E145.02821
G1 F1680 E142.02821
G1 F3600 X32 Y38.691
G1 F1680 E145.02821
G1 F1200 X32 Y81.308 E149.72775
G1 F1680 E146.72775
G1 F3600 X30.4 Y79.854
G1 F1680 E149.72775
G1 F1200 X30.4 Y40.145 E154.10662
G1 F1680 E151.10662
G1 F3600 X28.8 Y41.876
G1 F1680 E154.10662
G1 F1200 X28.8 Y78.123 E158.10372
G1 F1680 E155.10372
G1 F3600 X27.2 Y76.056
G1 F1680 E158.10372
G1 F1200 X27.2 Y43.943 E161.64495
G1 F1680 E158.64495
G1 F3600 X25.6 Y46.48
G1 F1680 E161.64495
G1 F1200 X25.6 Y73.519 E164.62665
G1 F1680 E161.62665
G1 F3600 X24 Y70.088
G1 F1680 E164.62665
G1 F1200 X24 Y49.918 E166.85088
G1 F1680 E163.85088
G1 F3600 X22.4 Y56.072
G1 F1680 E166.85088
G1 F1200 X22.4 Y63.919 E167.7162
G1 F1680 E164.7162
G1 F3600 X68.8 Y80.585
G1 F1680 E167.7162
G1 F1200 X68.8 Y39.415 E172.25618
G1 F1680 E169.25618
G1 F3600 X70.4 Y40.997
G1 F1680 E172.25618
G1 F1200 X70.4 Y79.004 E176.44736
G1 F1680 E173.44736
G1 F3600 X72 Y77.132
G1 F1680 E176.44736
G1 F1200 X72 Y42.866 E180.22601
G1 F1680 E177.22601
G1 F3600 X73.6 Y45.147
M104 T0 S200
G1 F1680 E180.22601
G1 F1200 X73.6 Y74.853 E183.50181
G1 F1680 E180.50181
G1 F3600 X75.2 Y71.921
G1 F1680 E183.50181
G1 F1200 X75.2 Y48.081 E186.13074
G1 F1680 E183.13074
G1 F3600 X76.8 Y52.266
G1 F1680 E186.13074
G1 F1200 X76.8 Y67.749 E187.83811
G1 F1680 E184.83811
G1 F3600 X67.952 Y38.576
;TIME_ELAPSED:95.511837
;LAYER:-5
G1 X67.952 Y38.576 Z0.619
;TYPE:SUPPORT
G1 F1680 E187.83811
G1 F1980 X67.606 Y38.291 E187.87152
G1 X67.445 Y38.171 E187.88649
G1 X71.84 Y42.566 E188.3498
G1 F3600 X71.803 Y42.516
G1 F1980 X71.49 Y42.125 E188.38714
G1 X69.963 Y40.438 E188.55675
G1 X69.626 Y40.097 E188.59249
G1 X67.952 Y38.576 E188.76109
G1 F3600 X67.445 Y38.171
G1 F1980 X65.782 Y36.932 E188.91567
G1 X65.365 Y36.65 E188.9532
G1 X63.583 Y35.581 E189.1081
G1 X74.427 Y46.425 E190.25125
G1 X74.513 Y46.57 E190.26381
G1 X74.725 Y46.963 E190.2971
G1 X75.661 Y48.932 E190.45961
G1 X61.072 Y34.344 E191.9975
G1 X60.861 Y34.244 E192.0149
G1 X60.424 Y34.066 E192.05008
G1 X59.021 Y33.565 E192.16113
G1 X76.434 Y50.978 E193.99677
G1 X76.668 Y51.63 E194.0484
G1 X76.796 Y52.048 E194.08099
G1 X76.986 Y52.803 E194.13902
G1 X57.192 Y33.009 E196.22566
G1 X55.64 Y32.623 E196.34487
G1 X55.507 Y32.597 E196.35497
G1 X77.402 Y54.491 E198.66304
G1 X77.449 Y54.725 E198.68083
G1 X77.641 Y56.004 E198.77724
G1 X53.996 Y32.358 E201.26989
G1 X53.039 Y32.216 E201.34201
G1 X52.53 Y32.166 E201.38014
G1 X77.835 Y57.47 E204.04768
G1 X77.902 Y58.81 E204.14769
G1 X51.19 Y32.099 E206.96355
G1 X50.154 Y32.049 E207.04087
G1 X49.871 Y32.052 E207.06197
G1 X77.95 Y60.13 E210.02194
G1 X77.95 Y60.154 E210.02373
G1 X77.894 Y61.347 E210.11275
G1 X48.651 Y32.105 E213.19543
G1 X47.439 Y32.165 E213.28588
G1 X77.831 Y62.557 E216.48974
G1 X77.783 Y63.039 E216.52585
G1 X77.687 Y63.686 E216.5746
G1 X46.313 Y32.312 E219.88198
G1 X45.206 Y32.478 E219.96542
G1 X77.522 Y64.795 E223.37215
G1 X77.466 Y65.175 E223.40078
G1 X77.375 Y65.642 E223.43625
G1 X77.32 Y65.865 E223.45337
G1 X44.133 Y32.678 E226.95186
G1 X43.115 Y32.933 E227.03009
G1 X77.066 Y66.884 E230.60913
G1 X76.829 Y67.836 E230.68226
G1 X76.81 Y67.901 E230.68731
G1 X42.098 Y33.188 E234.34662
G1 X42.047 Y33.201 E234.35054
G1 X41.63 Y33.331 E234.3831
G1 X41.143 Y33.506 E234.42168
G1 X76.494 Y68.857 E238.1483
G1 X76.158 Y69.794 E238.2225
G1 X40.206 Y33.842 E242.01247
G1 X39.456 Y34.112 E242.07189
G1 X39.279 Y34.187 E242.08622
G1 X75.812 Y70.721 E245.9375
G1 X75.753 Y70.861 E245.94882
G1 X75.41 Y71.592 E246.00902
G1 X38.407 Y34.588 E249.90984
G1 X37.543 Y34.998 E249.98113
G1 X75.002 Y72.457 E253.92997
G1 X74.788 Y72.911 E253.96738
G1 X74.581 Y73.308 E254.00076
G1 X36.693 Y35.42 E257.99482
G1 X36.569 Y35.486 E258.00529
G1 X35.892 Y35.892 E258.06414
G1 X74.105 Y74.105 E262.09246
G1 X73.628 Y74.901 E262.16164
G1 X35.096 Y36.369 E266.22359
G1 X34.701 Y36.606 E266.25793
G1 X34.316 Y36.862 E266.29239
G1 X73.136 Y75.682 E270.38471
G1 X73.071 Y75.777 E270.39329
G1 X72.596 Y76.414 E270.45252
G1 X33.585 Y37.403 E274.56497
G1 X32.853 Y37.944 E274.63282
G1 X72.053 Y77.144 E278.76519
G1 X71.709 Y77.606 E278.80813
G1 X71.498 Y77.862 E278.83286
G1 X32.136 Y38.5 E282.98231
G1 X32.125 Y38.508 E282.98332
G1 X31.467 Y39.104 E283.0495
G1 X70.896 Y78.533 E287.20602
G1 X70.289 Y79.199 E287.27319
G1 X30.799 Y39.708 E291.43618
G1 X30.438 Y40.034 E291.47244
G1 X30.144 Y40.327 E291.50338
G1 X69.671 Y79.853 E295.67018
G1 X69.561 Y79.963 E295.68177
G1 X69.007 Y80.463 E295.7374
G1 X29.535 Y40.99 E299.8985
G1 X28.929 Y41.657 E299.96568
G1 X68.34 Y81.068 E304.12029
G1 X67.874 Y81.49 E304.16716
G1 X67.66 Y81.661 E304.18757
G1 X28.336 Y42.337 E308.33302
G1 X28.291 Y42.392 E308.33832
G1 X27.79 Y43.064 E308.4008
G1 X66.935 Y82.208 E312.52732
G1 X66.204 Y82.75 E312.59516
G1 X27.246 Y43.793 E316.70197
G1 X26.929 Y44.221 E316.74167
G1 X26.716 Y44.535 E316.76995
G1 X65.463 Y83.283 E320.85462
G1 X65.299 Y83.392 E320.8693
G1 X64.674 Y83.766 E320.92359
G1 X26.231 Y45.323 E324.97617
G1 X25.754 Y46.119 E325.04534
G1 X63.879 Y84.243 E329.06434
G1 X63.43 Y84.513 E329.10339
G1 X63.069 Y84.707 E329.13394
G1 X25.291 Y46.928 E333.11646
G1 X25.269 Y46.969 E333.11993
G1 X24.88 Y47.79 E333.18765
G1 X62.209 Y85.119 E337.12279
G1 X61.345 Y85.528 E337.19405
G1 X24.47 Y48.653 E341.08132
G1 X24.294 Y49.027 E341.11214
G1 X24.112 Y49.456 E341.14687
G1 X24.082 Y49.538 E341.15338
G1 X60.46 Y85.916 E344.98827
G1 X59.524 Y86.252 E345.0624
G1 X23.746 Y50.475 E348.83398
G1 X23.41 Y51.411 E348.90811
G1 X58.588 Y86.589 E352.61649
G1 X58.368 Y86.668 E352.63392
G1 X57.951 Y86.797 E352.66645
G1 X57.608 Y86.882 E352.6928
G1 X23.113 Y52.388 E356.32913
G1 X22.859 Y53.406 E356.40734
G1 X56.591 Y87.138 E359.96329
G1 X55.708 Y87.36 E360.03116
G1 X55.568 Y87.388 E360.0418
G1 X22.608 Y54.428 E363.51637
G1 X22.532 Y54.823 E363.54635
G1 X22.428 Y55.521 E363.59895
G1 X54.476 Y87.568 E366.97733
G1 X53.369 Y87.734 E367.06077
G1 X22.263 Y56.629 E370.33984
G1 X22.215 Y56.958 E370.36462
G1 X22.156 Y57.551 E370.40904
G1 X22.145 Y57.783 E370.42636
G1 X52.212 Y87.85 E373.59595
G1 X51 Y87.911 E373.68641
G1 X22.087 Y58.998 E376.73435
G1 X22.049 Y59.843 E376.7974
G1 X22.051 Y60.235 E376.82662
G1 X49.762 Y87.946 E379.74785
G1 X48.426 Y87.883 E379.84755
G1 X22.116 Y61.572 E382.62114
G1 X22.166 Y62.559 E382.69481
G1 X22.203 Y62.933 E382.72283
G1 X47.063 Y87.792 E385.34346
G1 X46.96 Y87.783 E385.35116
G1 X45.575 Y87.577 E385.45554
G1 X22.422 Y64.424 E387.89628
G1 X22.549 Y65.273 E387.96027
G1 X22.638 Y65.708 E387.99336
G1 X22.707 Y65.982 E388.01443
G1 X44.015 Y87.29 E390.26067
G1 X42.32 Y86.868 E390.39087
G1 X23.133 Y67.681 E392.41352
G1 X23.2 Y67.944 E392.43375
G1 X23.33 Y68.368 E392.46681
G1 X23.77 Y69.59 E392.56362
G1 X40.41 Y86.23 E394.31777
G1 X39.575 Y85.933 E394.38384
G1 X39.137 Y85.754 E394.41911
G1 X38.235 Y85.328 E394.49347
G1 X24.668 Y71.762 E395.92361
G1 X25.258 Y73.005 E396.02618
G1 X25.48 Y73.421 E396.06133
G1 X26.119 Y74.485 E396.15384
G1 X35.506 Y83.872 E397.1434
G1 X34.632 Y83.349 E397.21932
G1 X34.216 Y83.066 E397.25683
G1 X32.393 Y81.708 E397.42627
G1 X32.036 Y81.414 E397.46075
G1 X30.373 Y79.901 E397.62834
G1 X30.03 Y79.556 E397.6646
G1 X28.502 Y77.863 E397.8346
G1 X28.195 Y77.481 E397.87113
G1 X26.86 Y75.68 E398.03824
G1 X26.607 Y75.298 E398.07239
G1 F1680 E395.07239
G1 F3600 X67.975 Y38.4
;TIME_ELAPSED:182.481647
;LAYER:-4
M106 S255
G1 X67.975 Y38.4 Z0.869
G1 F1680 E398.07239
G1 F2400 X68.417 Y38.8 E398.09594
G1 X31.581 Y38.8 E399.55083
G1 X31.139 Y39.2 E399.57437
G1 X68.858 Y39.2 E401.06414
G1 X69.3 Y39.6 E401.08768
G1 X30.697 Y39.6 E402.61236
G1 X30.34 Y39.922 E402.63135
G1 X30.262 Y40 E402.63571
G1 X69.74 Y40 E404.19495
G1 X70.076 Y40.34 E404.21383
G1 X70.131 Y40.4 E404.21704
G1 X29.871 Y40.4 E405.80717
G1 X29.509 Y40.8 E405.82848
G1 X70.492 Y40.8 E407.44716
G1 X70.854 Y41.2 E407.46846
G1 X29.146 Y41.2 E409.11578
G1 X28.784 Y41.6 E409.13709
G1 X71.216 Y41.6 E410.813
G1 X71.577 Y42 E410.83428
G1 X28.422 Y42 E412.53875
G1 X28.393 Y42.031 E412.54043
G1 X28.168 Y42.305 E412.55443
G1 X28.098 Y42.4 E412.55909
G1 X71.901 Y42.4 E414.28915
G1 X72.199 Y42.8 E414.30885
G1 X27.8 Y42.8 E416.06245
G1 X27.503 Y43.2 E416.08213
G1 X72.496 Y43.2 E417.85919
G1 X72.794 Y43.6 E417.87889
G1 X27.205 Y43.6 E419.6795
G1 X26.908 Y44 E419.69917
G1 X73.092 Y44 E421.52327
G1 X73.187 Y44.129 E421.5296
G1 X73.372 Y44.4 E421.54256
G1 X26.627 Y44.4 E423.38882
G1 X26.52 Y44.556 E423.39629
G1 X26.374 Y44.8 E423.40752
G1 X73.624 Y44.8 E425.27373
G1 X73.864 Y45.2 E425.29215
G1 X26.134 Y45.2 E427.17732
G1 X25.894 Y45.6 E427.19574
G1 X74.104 Y45.6 E429.09986
G1 X74.343 Y46 E429.11827
G1 X25.654 Y46 E431.04131
G1 X25.414 Y46.4 E431.05973
G1 X74.583 Y46.4 E433.00173
G1 X74.694 Y46.586 E433.01029
G1 X74.809 Y46.8 E433.01988
G1 X25.192 Y46.8 E434.97957
G1 X25.14 Y46.895 E434.98385
G1 X24.996 Y47.2 E434.99717
G1 X75.004 Y47.2 E436.97231
G1 X75.193 Y47.6 E436.98978
G1 X24.807 Y47.6 E438.97985
G1 X24.618 Y48 E438.99732
G1 X75.382 Y48 E441.00232
G1 X75.571 Y48.4 E441.01979
G1 X24.428 Y48.4 E443.03976
G1 X24.239 Y48.8 E443.05723
G1 X75.76 Y48.8 E445.09213
G1 X75.888 Y49.072 E445.104
G1 X75.941 Y49.2 E445.10947
G1 X24.058 Y49.2 E447.15866
G1 X23.922 Y49.53 E447.17276
G1 X23.897 Y49.6 E447.1757
G1 X76.102 Y49.6 E449.23761
G1 X76.245 Y50 E449.25438
G1 X23.755 Y50 E451.32755
G1 X23.612 Y50.4 E451.34433
G1 X76.388 Y50.4 E453.42879
G1 X76.531 Y50.8 E453.44557
G1 X23.469 Y50.8 E455.54133
G1 X23.326 Y51.2 E455.5581
G1 X76.674 Y51.2 E457.66516
G1 X76.808 Y51.576 E457.68092
G1 X76.816 Y51.6 E457.68192
G1 X23.184 Y51.6 E459.80019
G1 X23.061 Y52 E459.81672
G1 X76.939 Y52 E461.94471
G1 X77.04 Y52.4 E461.96101
G1 X22.96 Y52.4 E464.09697
G1 X22.859 Y52.8 E464.11327
G1 X77.14 Y52.8 E466.25717
G1 X77.241 Y53.2 E466.27346
