M73 P0
;MINX:2.5
;MAXX:97.5
;MINY:9.3
;MAXY:110.7
;MINZ:0.0
;MAXZ:5.2
;MachineType:ENTINA TINA2
;FilamentType:PLA
;Extruder0Temperature:200
;InfillDensity:10
;FLAVOR:Marlin
;TIME:2116
;FilamentUsed:1501.7
;Layer height: 0.2

;Generated with Cura_SteamEngine 3.1
M104 T0 S215
M82 ; absolute extrusion mode
;(**** start.gcode for tina2****)
M104 S150
G28 Z
G28 X Y; Home extruder
G1 X55 Y55 F1000
G1 Z10 F200
G29
G1 Z15 F100
M107 ; Turn off fan
G90 ; Absolute positioning
M82 ; Extruder in absolute mode
M109 S215.0
G92 E0 ; Reset extruder position
G1 X90 Y6 Z0.27 F2000
G1 X20 Y6 Z0.27 E15 F1000
G92 E0 ; Reset extruder position

;LAYER_COUNT:26
;LAYER:0
M106 S255
M203 Z5
G1 F3600 X91.833 Y29.776 Z0.299
;TYPE:SKIRT
G1 F1200 X95.462 Y30.925 E0.19846
G1 X95.932 Y31.116 E0.22491
G1 X96.366 Y31.378 E0.25134
G1 X96.754 Y31.705 E0.27779
G1 X97.085 Y32.089 E0.30422
G1 X97.352 Y32.52 E0.33065
G1 X97.548 Y32.988 E0.35711
G1 X97.669 Y33.48 E0.38352
G1 X97.71 Y33.995 E0.41046
G1 X97.71 Y37.402 E0.58808
G1 X97.67 Y37.908 E0.61454
G1 X97.551 Y38.401 E0.64098
G1 X97.371 Y38.84 E0.66572
G1 X95.16 Y43.269 E0.9238
G1 X92.965 Y48.316 E1.21074
G1 X91.973 Y50.883 E1.35421
G1 X90.949 Y53.761 E1.51347
G1 X90.882 Y53.932 E1.52305
G1 X90.176 Y55.608 E1.61786
G1 X90.024 Y55.921 E1.636
G1 X89.059 Y57.659 E1.73964
G1 X88.803 Y58.051 E1.76405
G1 X86.82 Y60.647 E1.93436
G1 X86.432 Y61.07 E1.96429
G1 X82.496 Y64.662 E2.2421
G1 X78.607 Y68.516 E2.52755
G1 X74.93 Y72.595 E2.81386
G1 X71.505 Y76.857 E3.09892
G1 X68.326 Y81.307 E3.38404
G1 X65.387 Y85.954 E3.6707
G1 X62.739 Y90.718 E3.95486
G1 X60.351 Y95.652 E4.24064
G1 X58.249 Y100.708 E4.52611
G1 X56.109 Y106.768 E4.86117
G1 X55.9 Y107.238 E4.88799
G1 X55.623 Y107.746 E4.91815
G1 X55.346 Y108.17 E4.94456
G1 X55.097 Y108.457 E4.96437
G1 X54.352 Y109.218 E5.01989
G1 X53.97 Y109.551 E5.04631
G1 X53.672 Y109.747 E5.06491
G1 X52.96 Y110.162 E5.10787
G1 X52.435 Y110.408 E5.1381
G1 X51.913 Y110.597 E5.16704
G1 X51.201 Y110.766 E5.20519
G1 X50.377 Y110.865 E5.24846
G1 X49.87 Y110.886 E5.27492
G1 X49.601 Y110.864 E5.28899
G1 X48.786 Y110.764 E5.3318
G1 X48.289 Y110.663 E5.35824
G1 X47.885 Y110.517 E5.38063
G1 X46.909 Y110.089 E5.4362
G1 X46.329 Y109.759 E5.47099
G1 X45.869 Y109.43 E5.50047
G1 X45.481 Y109.103 E5.52693
G1 X45.224 Y108.817 E5.54697
G1 X44.55 Y107.971 E5.60336
G1 X44.197 Y107.424 E5.6373
G1 X43.945 Y106.928 E5.66631
G1 X43.723 Y106.363 E5.69796
G1 X42.42 Y101.853 E5.94271
G1 X40.633 Y96.667 E6.22868
G1 X38.559 Y91.599 E6.51417
G1 X36.204 Y86.661 E6.79939
G1 X33.578 Y81.872 E7.08414
G1 X30.665 Y77.204 E7.37101
G1 X27.521 Y72.75 E7.65524
G1 X24.111 Y68.458 E7.94103
G1 X20.466 Y64.366 E8.22674
G1 X16.58 Y60.471 E8.51358
G1 X14.614 Y58.664 E8.6528
G1 X10.41 Y55.102 E8.94007
G1 X10.05 Y54.745 E8.9665
G1 X9.75 Y54.335 E8.99299
G1 X9.487 Y53.804 E9.02388
G1 X8.018 Y49.998 E9.23658
G1 X5.809 Y44.988 E9.52204
G1 X2.652 Y38.89 E9.88004
G1 X2.455 Y38.422 E9.90651
G1 X2.333 Y37.93 E9.93294
G1 X2.292 Y37.346 E9.96346
G1 X2.352 Y34.269 E10.12391
G1 X2.401 Y33.765 E10.15031
G1 X2.53 Y33.274 E10.17678
G1 X2.734 Y32.81 E10.2032
G1 X3.008 Y32.383 E10.22965
G1 X3.346 Y32.005 E10.25609
G1 X3.739 Y31.684 E10.28255
G1 X4.177 Y31.429 E10.30897
G1 X4.564 Y31.274 E10.3307
G1 X8.918 Y29.84 E10.5697
G1 X14.025 Y27.871 E10.85505
G1 X19.026 Y25.61 E11.14119
G1 X23.878 Y23.078 E11.42652
G1 X28.573 Y20.277 E11.71155
G1 X33.111 Y17.212 E11.99705
G1 X37.468 Y13.895 E12.28254
G1 X42.128 Y9.889 E12.60292
G1 X42.537 Y9.59 E12.62933
G1 X42.989 Y9.359 E12.6558
G1 X43.471 Y9.201 E12.68224
G1 X43.972 Y9.121 E12.70869
G1 X44.227 Y9.111 E12.722
G1 X55.768 Y9.111 E13.32369
G1 X56.274 Y9.151 E13.35015
G1 X56.767 Y9.27 E13.37659
G1 X57.235 Y9.465 E13.40303
G1 X57.837 Y9.864 E13.44068
G1 X63.049 Y14.235 E13.79532
G1 X67.464 Y17.498 E14.08154
G1 X72.035 Y20.493 E14.36645
G1 X76.779 Y23.231 E14.65201
G1 X81.649 Y25.684 E14.9363
G1 X86.67 Y27.87 E15.22181
G1 X91.833 Y29.776 E15.50874
G1 F1680 E12.50874
G1 F3600 X91.819 Y34.813
;TYPE:WALL-INNER
G1 F1680 E15.50874
G1 F1320 X93.84 Y34.688 E15.6143
G1 X93.84 Y36.863 E15.7277
G1 X57.627 Y43.675 E17.64878
G1 X53.721 Y48.554 E17.97462
G1 X53.735 Y48.866 E17.99091
G1 X51.858 Y48.866 E18.08877
G1 X50.944 Y50.175 E18.172
G1 X51.313 Y50.885 E18.21372
G1 X53.864 Y50.885 E18.34671
G1 X54.164 Y55.071 E18.56551
G1 X54.449 Y60.575 E18.85285
G1 X54.623 Y66.084 E19.14021
G1 X54.686 Y71.596 E19.42759
G1 X54.637 Y77.107 E19.71492
G1 X54.477 Y82.616 E20.00226
G1 X54.207 Y88.134 E20.29028
G1 X53.827 Y93.62 E20.57698
G1 X53.336 Y99.11 E20.86435
G1 X52.737 Y104.559 E21.15014
G1 X52.57 Y105.237 E21.18655
G1 X52.262 Y105.826 E21.2212
G1 X51.821 Y106.325 E21.25592
G1 X51.283 Y106.696 E21.28999
G1 X50.654 Y106.935 E21.32507
G1 X50 Y107.015 E21.35942
G1 X49.346 Y106.935 E21.39377
G1 X48.717 Y106.696 E21.42885
G1 X48.179 Y106.325 E21.46292
G1 X47.738 Y105.826 E21.49764
G1 X47.43 Y105.237 E21.5323
G1 X47.263 Y104.559 E21.5687
G1 X46.664 Y99.11 E21.8545
G1 X46.173 Y93.62 E22.14186
G1 X45.793 Y88.134 E22.42856
G1 X45.523 Y82.616 E22.71659
G1 X45.363 Y77.107 E23.00392
G1 X45.314 Y71.609 E23.29057
G1 X45.377 Y66.097 E23.57796
G1 X45.551 Y60.589 E23.86527
M73 P1
G1 X45.836 Y55.071 E24.15333
G1 X46.136 Y50.885 E24.37213
G1 X48.7 Y50.885 E24.5058
G1 X49.07 Y50.168 E24.54787
G1 X48.137 Y48.866 E24.63138
G1 X46.265 Y48.866 E24.72898
G1 X46.279 Y48.554 E24.74526
G1 X42.373 Y43.675 E25.0711
G1 X6.16 Y36.863 E26.99219
G1 X6.16 Y35.05 E27.08671
G1 X8.232 Y35.265 E27.19531
G1 X11.523 Y35.422 E27.36708
G1 X14.817 Y35.397 E27.53882
G1 X18.104 Y35.188 E27.71054
G1 X21.375 Y34.797 E27.88229
G1 X24.618 Y34.225 E28.05397
G1 X27.827 Y33.474 E28.22579
G1 X30.987 Y32.546 E28.3975
G1 X34.091 Y31.444 E28.56922
G1 X37.129 Y30.17 E28.74097
G1 X40.092 Y28.731 E28.9127
G1 X43.341 Y26.924 E29.10653
G1 X44.883 Y22.167 E29.36724
G1 X44.883 Y12.981 E29.84615
G1 X47.746 Y12.981 E29.99541
G1 X47.53 Y25.972 E30.6728
G1 X48.405 Y26.863 E30.7379
G1 X51.602 Y26.863 E30.90458
G1 X52.47 Y25.97 E30.96951
G1 X52.254 Y12.981 E31.64679
G1 X55.117 Y12.981 E31.79605
G1 X55.117 Y22.167 E32.27496
G1 X56.672 Y26.964 E32.53787
G1 X60.34 Y28.713 E32.74973
G1 X63.658 Y30.093 E32.93708
G1 X67.041 Y31.302 E33.12438
G1 X70.483 Y32.339 E33.31179
G1 X73.971 Y33.201 E33.49911
G1 X77.498 Y33.885 E33.68642
G1 X81.056 Y34.389 E33.87377
G1 X84.636 Y34.711 E34.06116
G1 X88.226 Y34.854 E34.24848
G1 X91.819 Y34.813 E34.43581
G1 F1680 E31.43581
G1 F3600 X51.559 Y54.205
G1 F1680 E34.43581
G1 F1320 X48.441 Y54.205 E34.59837
G1 X48.441 Y87.132 E36.31503
G1 X51.559 Y87.132 E36.47759
G1 X51.559 Y54.205 E38.19424
G1 F3600 X51.199 Y54.565
;TYPE:WALL-OUTER
G1 F1320 X48.801 Y54.565 E38.31926
G1 X48.801 Y86.772 E39.99838
G1 X51.199 Y86.772 E40.1234
G1 X51.199 Y54.565 E41.80253
G1 F1680 E38.80253
G1 F3600 X51.532 Y50.525
G1 F1680 E41.80253
G1 F1320 X54.199 Y50.525 E41.94157
G1 X54.524 Y55.052 E42.17819
G1 X54.809 Y60.564 E42.46595
G1 X54.983 Y66.08 E42.75367
G1 X55.046 Y71.599 E43.04142
G1 X54.997 Y77.117 E43.32912
G1 X54.837 Y82.634 E43.61687
G1 X54.567 Y88.152 E43.90489
G1 X54.186 Y93.652 E44.19232
G1 X53.694 Y99.149 E44.48006
G1 X53.092 Y104.624 E44.76722
G1 X52.91 Y105.364 E44.80695
G1 X52.561 Y106.031 E44.84619
G1 X52.063 Y106.595 E44.88542
G1 X51.448 Y107.019 E44.92437
G1 X50.744 Y107.286 E44.96362
G1 X50 Y107.377 E45.0027
G1 X49.256 Y107.286 E45.04178
G1 X48.552 Y107.019 E45.08103
G1 X47.937 Y106.595 E45.11997
G1 X47.439 Y106.031 E45.1592
G1 X47.09 Y105.364 E45.19845
G1 X46.908 Y104.624 E45.23818
G1 X46.306 Y99.149 E45.52534
G1 X45.814 Y93.652 E45.81307
G1 X45.433 Y88.152 E46.1005
G1 X45.163 Y82.634 E46.38853
G1 X45.003 Y77.117 E46.67628
G1 X44.954 Y71.605 E46.96366
G1 X45.017 Y66.086 E47.25141
G1 X45.191 Y60.57 E47.53914
G1 X45.476 Y55.052 E47.8272
G1 X45.801 Y50.525 E48.06383
G1 X48.481 Y50.525 E48.20355
G1 X48.649 Y50.199 E48.22267
G1 X47.952 Y49.226 E48.28507
G1 X45.887 Y49.226 E48.39273
G1 X45.913 Y48.673 E48.42159
G1 X42.175 Y44.004 E48.73341
G1 X5.8 Y37.162 E50.66309
G1 X5.8 Y35.022 E50.77466
G1 X5.833 Y34.654 E50.79392
G1 X8.259 Y34.906 E50.92108
G1 X11.53 Y35.062 E51.09181
G1 X14.804 Y35.037 E51.2625
G1 X18.071 Y34.829 E51.43317
G1 X21.322 Y34.441 E51.60387
G1 X24.546 Y33.872 E51.77455
G1 X27.735 Y33.126 E51.9453
G1 X30.876 Y32.203 E52.11598
G1 X33.961 Y31.108 E52.28665
G1 X36.981 Y29.842 E52.45737
G1 X39.926 Y28.412 E52.62805
G1 X43.042 Y26.678 E52.81397
G1 X44.523 Y22.11 E53.06432
G1 X44.523 Y12.621 E53.55904
G1 X48.112 Y12.621 E53.74615
G1 X47.892 Y25.827 E54.43474
G1 X48.556 Y26.503 E54.48414
G1 X51.45 Y26.503 E54.63502
G1 X52.108 Y25.826 E54.68424
G1 X51.888 Y12.621 E55.37279
G1 X55.477 Y12.621 E55.5599
G1 X55.477 Y22.11 E56.05461
G1 X56.967 Y26.706 E56.3065
G1 X60.487 Y28.384 E56.5098
G1 X63.788 Y29.757 E56.69619
G1 X67.154 Y30.96 E56.88255
G1 X70.578 Y31.992 E57.069
G1 X74.048 Y32.849 E57.25534
G1 X77.558 Y33.53 E57.44175
G1 X81.097 Y34.031 E57.62809
G1 X84.659 Y34.352 E57.81455
G1 X88.231 Y34.494 E58.00093
G1 X91.806 Y34.453 E58.18732
G1 X94.2 Y34.305 E58.31237
G1 X94.2 Y37.162 E58.46132
G1 X57.825 Y44.004 E60.391
G1 X54.087 Y48.673 E60.70282
G1 X54.113 Y49.226 E60.73168
G1 X52.046 Y49.226 E60.83945
G1 X51.364 Y50.202 E60.90152
G1 X51.532 Y50.525 E60.9205
G1 F1680 E57.9205
G1 F3600 X51.051 Y51.315
;TYPE:SKIN
G1 F1680 E60.9205
G1 F1320 X53.465 Y51.315 E61.04636
G1 X53.731 Y55.029 E61.24048
G1 X54.019 Y60.589 E61.53075
G1 X54.193 Y66.089 E61.81763
G1 X54.256 Y71.592 E62.10455
G1 X54.207 Y77.095 E62.39146
G1 X54.047 Y82.595 E62.67833
G1 X53.772 Y88.205 E62.97116
G1 X53.399 Y93.581 E63.25211
G1 X52.908 Y99.063 E63.53906
G1 X52.312 Y104.484 E63.82339
G1 X52.164 Y105.086 E63.85571
G1 X51.906 Y105.58 E63.88477
G1 X51.534 Y106.001 E63.91405
G1 X51.082 Y106.312 E63.94266
G1 X50.546 Y106.516 E63.97256
G1 X50 Y106.583 E64.00124
G1 X49.454 Y106.516 E64.02992
G1 X48.918 Y106.312 E64.05982
G1 X48.466 Y106.001 E64.08842
G1 X48.094 Y105.58 E64.11771
G1 X47.836 Y105.086 E64.14677
G1 X47.688 Y104.484 E64.17909
G1 X47.092 Y99.063 E64.46342
G1 X46.601 Y93.581 E64.75037
G1 X46.228 Y88.205 E65.03132
G1 X45.953 Y82.595 E65.32415
G1 X45.793 Y77.095 E65.61101
G1 X45.744 Y71.614 E65.89678
G1 X45.807 Y66.111 E66.1837
G1 X45.981 Y60.611 E66.47059
G1 X46.269 Y55.028 E66.76204
G1 X46.535 Y51.315 E66.95612
G1 X48.962 Y51.315 E67.08265
G1 X49.573 Y50.131 E67.15211
G1 X48.358 Y48.436 E67.26084
G1 X46.714 Y48.436 E67.34655
G1 X46.715 Y48.411 E67.34786
G1 X42.609 Y43.282 E67.69039
G1 X6.59 Y36.507 E69.60118
G1 X6.59 Y35.527 E69.65227
G1 X8.199 Y35.693 E69.7366
M73 P2
G1 X11.515 Y35.852 E69.90968
G1 X14.832 Y35.827 E70.08262
G1 X18.143 Y35.616 E70.25559
G1 X21.438 Y35.223 E70.42859
G1 X24.704 Y34.647 E70.60149
G1 X27.937 Y33.89 E70.77461
G1 X31.12 Y32.955 E70.94756
G1 X34.246 Y31.845 E71.12051
G1 X37.307 Y30.562 E71.29355
G1 X40.291 Y29.112 E71.46651
G1 X43.698 Y27.217 E71.66976
G1 X45.313 Y22.235 E71.94281
G1 X45.313 Y13.411 E72.40285
G1 X47.308 Y13.411 E72.50686
G1 X47.097 Y26.144 E73.17079
G1 X48.225 Y27.293 E73.25473
G1 X51.784 Y27.293 E73.44028
G1 X52.902 Y26.142 E73.52394
G1 X52.692 Y13.411 E74.18776
G1 X54.687 Y13.411 E74.29177
G1 X54.687 Y22.235 E74.75181
G1 X56.32 Y27.273 E75.02793
G1 X60.164 Y29.106 E75.24995
G1 X63.503 Y30.494 E75.43847
G1 X66.906 Y31.711 E75.62689
G1 X70.369 Y32.754 E75.81545
G1 X73.879 Y33.621 E76.00394
G1 X77.427 Y34.309 E76.19237
G1 X81.007 Y34.817 E76.38088
G1 X84.608 Y35.141 E76.56938
G1 X88.22 Y35.284 E76.75784
G1 X91.835 Y35.243 E76.94632
G1 X93.41 Y35.146 E77.02859
G1 X93.41 Y36.507 E77.09954
G1 X57.391 Y43.282 E79.01033
G1 X53.285 Y48.411 E79.35287
G1 X53.286 Y48.436 E79.35417
G1 X51.634 Y48.436 E79.4403
G1 X50.442 Y50.142 E79.5488
G1 X51.051 Y51.315 E79.61771
G1 F1680 E76.61771
G1 F3600 X51.989 Y53.775
G1 F1680 E79.61771
G1 F1320 X48.011 Y53.775 E79.8251
G1 X48.011 Y87.562 E81.58659
G1 X51.989 Y87.562 E81.79399
G1 X51.989 Y53.775 E83.55548
G1 F1680 E80.55548
G1 F3600 X92.641 Y35.394
G1 F1680 E83.55548
G1 F1320 X93.209 Y35.962 E83.59736
G1 F3600 X93.005 Y36.38
G1 F1320 X92.055 Y35.43 E83.66741
G1 X92.027 Y35.402
G1 F3600 X91.45 Y35.447
G1 F1320 X92.481 Y36.478 E83.74342
G1 X92.509 Y36.506
G1 F3600 X91.957 Y36.577
G1 F1320 X90.835 Y35.455 E83.82615
G1 X90.807 Y35.427
G1 F3600 X90.219 Y35.461
G1 F1320 X91.434 Y36.676 E83.91573
G1 X91.462 Y36.704
G1 F3600 X90.91 Y36.774
G1 F1320 X89.604 Y35.468 E84.01202
G1 X89.576 Y35.44
G1 F3600 X88.989 Y35.475
G1 F1320 X90.386 Y36.872 E84.11502
G1 X90.414 Y36.9
G1 F3600 X89.863 Y36.971
G1 F1320 X88.374 Y35.482 E84.22481
G1 X88.346 Y35.454
G1 F3600 X87.734 Y35.465
G1 F1320 X89.339 Y37.07 E84.34314
G1 X89.367 Y37.098
G1 F3600 X88.815 Y37.168
G1 F1320 X87.086 Y35.439 E84.47062
G1 X87.058 Y35.411
G1 F3600 X86.438 Y35.414
G1 F1320 X88.291 Y37.266 E84.60721
G1 X88.319 Y37.294
G1 F3600 X87.768 Y37.365
G1 F1320 X85.791 Y35.388 E84.75297
G1 X85.763 Y35.36
G1 F3600 X85.143 Y35.363
G1 F1320 X87.244 Y37.463 E84.90785
G1 X87.272 Y37.491
G1 F3600 X86.72 Y37.562
G1 F1320 X84.49 Y35.332 E85.07226
G1 X84.462 Y35.304
G1 F3600 X83.806 Y35.27
G1 F1320 X86.197 Y37.661 E85.24855
G1 X86.225 Y37.689
G1 F3600 X85.673 Y37.759
G1 F1320 X83.122 Y35.208 E85.43664
G1 X83.094 Y35.18
G1 F3600 X82.438 Y35.147
G1 F1320 X85.149 Y37.857 E85.63649
G1 X85.177 Y37.885
G1 F3600 X84.625 Y37.956
G1 F1320 X81.754 Y35.085 E85.84817
G1 X81.726 Y35.057
G1 F3600 X81.071 Y35.025
G1 F1320 X84.101 Y38.055 E86.07157
G1 X84.129 Y38.083
G1 F3600 X83.577 Y38.153
G1 F1320 X80.351 Y34.926 E86.30946
G1 X80.323 Y34.898
G1 F3600 X79.625 Y34.823
G1 F1320 X83.054 Y38.252 E86.56228
G1 X83.082 Y38.28
G1 F3600 X82.53 Y38.35
G1 F1320 X78.9 Y34.72 E86.82992
G1 X78.872 Y34.692
G1 F3600 X78.174 Y34.617
G1 F1320 X82.006 Y38.448 E87.11242
G1 X82.034 Y38.476
G1 F3600 X81.483 Y38.547
G1 F1320 X77.448 Y34.513 E87.40989
G1 X77.42 Y34.485
G1 F3600 X76.68 Y34.367
G1 F1320 X80.959 Y38.646 E87.72538
G1 X80.987 Y38.674
G1 F3600 X80.435 Y38.744
G1 F1320 X75.908 Y34.217 E88.05916
G1 X75.88 Y34.189
G1 F3600 X75.137 Y34.068
G1 F1320 X79.912 Y38.843 E88.41122
G1 X79.94 Y38.871
G1 F3600 X79.388 Y38.941
G1 F1320 X74.365 Y33.919 E88.78153
G1 X74.337 Y33.891
G1 F3600 X73.577 Y33.753
G1 F1320 X78.864 Y39.04 E89.17134
G1 X78.892 Y39.068
G1 F3600 X78.34 Y39.138
G1 F1320 X72.751 Y33.549 E89.58342
G1 X72.723 Y33.521
G1 F1680 E86.58342
G1 F3600 X71.924 Y33.345
G1 F1680 E89.58342
G1 F1320 X77.817 Y39.237 E90.01788
G1 X77.845 Y39.265
G1 F3600 X77.293 Y39.335
G1 F1320 X71.098 Y33.14 E90.47464
G1 X71.07 Y33.112
G1 F1680 E87.47464
G1 F3600 X70.268 Y32.932
G1 F1680 E90.47464
G1 F1320 X76.769 Y39.433 E90.95396
G1 X76.797 Y39.461
G1 F3600 X76.245 Y39.532
G1 F1320 X69.377 Y32.664 E91.46034
G1 X69.349 Y32.636
G1 F1680 E88.46034
G1 F3600 X68.486 Y32.396
G1 F1680 E91.46034
G1 F1320 X75.721 Y39.631 E91.99378
G1 X75.749 Y39.659
G1 F3600 X75.197 Y39.729
G1 F1320 X67.596 Y32.128 E92.5542
G1 X67.568 Y32.1
G1 F1680 E89.5542
G1 F3600 X66.694 Y31.848
G1 F1680 E92.5542
G1 F1320 X74.674 Y39.828 E93.14257
G1 X74.702 Y39.856
G1 F3600 X74.15 Y39.926
G1 F1320 X65.724 Y31.5 E93.76382
G1 X65.696 Y31.472
G1 F1680 E90.76382
G1 F3600 X64.756 Y31.154
G1 F1680 E93.76382
G1 F1320 X73.626 Y40.025 E94.41785
G1 X73.654 Y40.053
G1 F3600 X73.103 Y40.124
G1 F1320 X63.787 Y30.807 E95.10476
G1 X63.759 Y30.779
G1 F1680 E92.10476
G1 F3600 X62.759 Y30.402
G1 F1680 E95.10476
G1 F1320 X72.579 Y40.222 E95.82879
G1 X72.607 Y40.25
G1 F3600 X72.055 Y40.32
G1 F1320 X61.695 Y29.96 E96.59264
G1 X61.667 Y29.932
G1 F1680 E93.59264
G1 F3600 X60.629 Y29.516
M73 P3
G1 F1680 E96.59264
G1 F1320 X71.532 Y40.419 E97.39652
G1 X71.56 Y40.447
G1 F3600 X71.008 Y40.517
G1 F1320 X59.503 Y29.013 E98.24475
G1 X59.475 Y28.985
G1 F1680 E95.24475
G1 F3600 X58.313 Y28.445
G1 F1680 E98.24475
G1 F1320 X70.484 Y40.616 E99.14212
G1 X70.512 Y40.644
G1 F3600 X69.96 Y40.714
G1 F1320 X57.124 Y27.878 E100.08853
G1 X57.096 Y27.85
G1 F1680 E97.08853
G1 F3600 X55.913 Y26.667
G1 F1680 E100.08853
G1 F1320 X53.062 Y23.816 E100.29873
G1 X53.034 Y23.788
G1 F3600 X53.072 Y24.448
G1 F1320 X69.437 Y40.813 E101.50533
G1 X69.465 Y40.841
G1 F3600 X68.913 Y40.911
G1 F1320 X53.083 Y25.081 E102.67248
