M73 P0
;MINX:2.0
;MAXX:100.0
;MINY:14.0
;MAXY:119.0
;MINZ:0.0
;MAXZ:17.3
;MachineType:ENTINA TINA2
;FilamentType:PLA
;Extruder0Temperature:200
;InfillDensity:10
;FLAVOR:Marlin
;TIME:14799
;FilamentUsed:10955.1
;Layer height: 0.2

;Generated with Cura_SteamEngine 3.1
M104 T0 S215
M82 ; absolute extrusion mode
;(**** start.gcode for tina2****)
M104 S150
G28 Z
G28 X Y; Home extruder
G1 X55 Y55 F1000
G1 Z10 F200
G29
G1 Z15 F100
M107 ; Turn off fan
G90 ; Absolute positioning
M82 ; Extruder in absolute mode
M109 S215.0
G92 E0 ; Reset extruder position
G1 X90 Y6 Z0.27 F2000
G1 X20 Y6 Z0.27 E15 F1000
G92 E0 ; Reset extruder position

;LAYER_COUNT:80
;LAYER:-6
M107
M203 Z5
G1 F3600 X88.366 Y17.803 Z0.349
G1 F1200 X88.611 Y17.985 E0.03366
G1 X89.105 Y18.414 E0.10581
G1 X89.47 Y18.822 E0.16617
G1 X89.637 Y19.037 E0.19619
G1 X89.793 Y19.268 E0.22693
G1 X89.951 Y19.536 E0.26124
G1 X90.083 Y19.795 E0.2933
G1 X90.186 Y20.034 E0.32199
G1 X90.293 Y20.332 E0.35691
G1 X90.373 Y20.611 E0.38892
G1 X90.429 Y20.872 E0.41835
G1 X90.477 Y21.192 E0.45404
G1 X90.513 Y21.653 E0.50503
G1 X90.52 Y21.838 E0.52544
G1 X90.517 Y23.074 E0.66174
G1 X90.494 Y23.453 E0.70361
G1 X90.455 Y23.766 E0.73839
G1 X90.4 Y24.05 E0.77029
G1 X90.324 Y24.341 E0.80346
G1 X90.019 Y25.263 E0.91055
G1 X89.889 Y25.933 E0.98581
G1 X89.844 Y26.614 E1.06107
G1 X89.886 Y27.296 E1.13642
G1 X90.014 Y27.966 E1.21164
G1 X90.224 Y28.616 E1.28697
G1 X90.516 Y29.234 E1.36234
G1 X90.883 Y29.809 E1.43756
G1 X91.32 Y30.334 E1.51289
G1 X91.819 Y30.8 E1.58818
G1 X92.373 Y31.198 E1.6634
G1 X92.973 Y31.525 E1.73876
G1 X93.61 Y31.772 E1.8141
G1 X94.271 Y31.937 E1.88922
G1 X94.905 Y32.015 E1.95966
G1 X95.217 Y32.033 E1.99413
G1 X95.49 Y32.067 E2.02446
G1 X95.777 Y32.12 E2.05665
G1 X96.06 Y32.193 E2.08888
G1 X96.35 Y32.287 E2.1225
G1 X96.609 Y32.389 E2.15319
G1 X96.861 Y32.507 E2.18388
G1 X97.141 Y32.661 E2.21911
G1 X97.341 Y32.788 E2.24524
G1 X97.623 Y32.996 E2.28388
G1 X98.101 Y33.41 E2.35361
G1 X98.47 Y33.822 E2.41461
G1 X98.637 Y34.037 E2.44463
G1 X98.793 Y34.268 E2.47536
G1 X98.951 Y34.536 E2.50967
G1 X99.083 Y34.795 E2.54173
G1 X99.186 Y35.034 E2.57043
G1 X99.293 Y35.332 E2.60534
G1 X99.372 Y35.608 E2.637
G1 X99.43 Y35.874 E2.66702
G1 X99.477 Y36.19 E2.70225
G1 X99.513 Y36.653 E2.75346
G1 X99.52 Y36.838 E2.77388
G1 X99.516 Y38.091 E2.91205
G1 X99.492 Y38.468 E2.95371
G1 X99.455 Y38.766 E2.98682
G1 X99.4 Y39.05 E3.01872
G1 X99.324 Y39.341 E3.05189
G1 X99.24 Y39.599 E3.08181
G1 X99.129 Y39.878 E3.11492
G1 X98.738 Y40.702 E3.2155
G1 X98.529 Y41.344 E3.28995
G1 X98.399 Y42.014 E3.36521
G1 X98.353 Y42.698 E3.44081
G1 X98.41 Y43.487 E3.52804
G1 X98.477 Y43.942 E3.57876
G1 X98.513 Y44.403 E3.62975
G1 X98.52 Y44.588 E3.65017
G1 X98.516 Y45.841 E3.78834
G1 X98.492 Y46.218 E3.83
G1 X98.455 Y46.516 E3.86311
G1 X98.4 Y46.8 E3.89501
G1 X98.327 Y47.081 E3.92703
G1 X98.24 Y47.349 E3.9581
G1 X98.129 Y47.628 E3.99121
G1 X98.007 Y47.886 E4.02268
G1 X97.864 Y48.144 E4.05521
G1 X97.72 Y48.37 E4.08476
G1 X97.545 Y48.605 E4.11707
G1 X97.179 Y49.167 E4.19103
G1 X96.882 Y49.782 E4.26634
G1 X96.665 Y50.43 E4.3417
G1 X96.532 Y51.1 E4.41702
G1 X96.483 Y51.776 E4.49177
G1 X96.52 Y52.603 E4.58305
G1 X96.516 Y53.841 E4.71957
G1 X96.492 Y54.218 E4.76123
G1 X96.455 Y54.516 E4.79434
G1 X96.4 Y54.8 E4.82624
G1 X96.324 Y55.091 E4.85941
G1 X96.2 Y55.469 E4.90328
G1 X96.032 Y56.118 E4.97721
G1 X95.944 Y56.795 E5.05249
G1 X95.944 Y57.478 E5.12781
G1 X96.03 Y58.158 E5.20339
G1 X96.243 Y58.943 E5.29309
G1 X96.288 Y59.065 E5.30743
G1 X96.372 Y59.358 E5.34104
G1 X96.43 Y59.624 E5.37106
G1 X96.477 Y59.94 E5.40629
G1 X96.513 Y60.403 E5.4575
G1 X96.52 Y60.588 E5.47792
G1 X96.516 Y61.841 E5.61609
G1 X96.492 Y62.218 E5.65775
G1 X96.455 Y62.516 E5.69086
G1 X96.4 Y62.801 E5.72287
G1 X96.186 Y63.621 E5.81632
G1 X96.195 Y63.624 E5.81737
G1 X96.107 Y64.313 E5.89396
G1 X96.109 Y64.995 E5.96917
G1 X96.196 Y65.668 E6.044
G1 X96.304 Y66.12 E6.09525
G1 X96.368 Y66.341 E6.12062
G1 X96.43 Y66.624 E6.15257
G1 X96.477 Y66.94 E6.1878
G1 X96.513 Y67.403 E6.23901
G1 X96.52 Y67.588 E6.25943
G1 X96.516 Y68.841 E6.3976
G1 X96.492 Y69.218 E6.43926
G1 X96.455 Y69.516 E6.47237
G1 X96.4 Y69.801 E6.50438
G1 X96.186 Y70.621 E6.59783
G1 X96.195 Y70.624 E6.59888
G1 X96.107 Y71.313 E6.67547
G1 X96.109 Y71.995 E6.75068
G1 X96.196 Y72.668 E6.82551
G1 X96.304 Y73.12 E6.87676
G1 X96.368 Y73.341 E6.90213
G1 X96.43 Y73.624 E6.93408
G1 X96.477 Y73.94 E6.96931
G1 X96.513 Y74.403 E7.02052
G1 X96.52 Y74.588 E7.04094
G1 X96.516 Y75.841 E7.17911
G1 X96.492 Y76.218 E7.22077
G1 X96.455 Y76.516 E7.25388
G1 X96.4 Y76.801 E7.28589
G1 X96.186 Y77.621 E7.37934
G1 X96.195 Y77.624 E7.38039
G1 X96.107 Y78.313 E7.45698
G1 X96.109 Y78.995 E7.53219
G1 X96.196 Y79.668 E7.60702
G1 X96.304 Y80.12 E7.65827
G1 X96.368 Y80.341 E7.68364
G1 X96.43 Y80.624 E7.71559
G1 X96.477 Y80.94 E7.75082
G1 X96.513 Y81.403 E7.80203
G1 X96.52 Y81.588 E7.82245
G1 X96.516 Y82.841 E7.96062
G1 X96.492 Y83.218 E8.00228
G1 X96.455 Y83.516 E8.03539
G1 X96.4 Y83.801 E8.0674
G1 X96.186 Y84.621 E8.16085
G1 X96.195 Y84.624 E8.1619
G1 X96.107 Y85.313 E8.2385
G1 X96.109 Y85.995 E8.3137
G1 X96.196 Y86.668 E8.38853
G1 X96.304 Y87.12 E8.43978
G1 X96.368 Y87.341 E8.46515
G1 X96.43 Y87.624 E8.4971
G1 X96.477 Y87.94 E8.53233
G1 X96.513 Y88.403 E8.58354
G1 X96.52 Y88.588 E8.60396
G1 X96.516 Y89.841 E8.74213
G1 X96.492 Y90.218 E8.78379
G1 X96.455 Y90.516 E8.8169
G1 X96.4 Y90.801 E8.84891
G1 X96.186 Y91.621 E8.94236
G1 X96.195 Y91.624 E8.94341
G1 X96.107 Y92.313 E9.02001
G1 X96.109 Y92.995 E9.09521
G1 X96.196 Y93.668 E9.17005
G1 X96.304 Y94.12 E9.22129
G1 X96.368 Y94.341 E9.24666
G1 X96.43 Y94.624 E9.27861
G1 X96.477 Y94.94 E9.31384
G1 X96.513 Y95.403 E9.36505
G1 X96.52 Y95.588 E9.38547
G1 X96.516 Y96.841 E9.52364
G1 X96.492 Y97.218 E9.5653
G1 X96.455 Y97.516 E9.59841
G1 X96.4 Y97.8 E9.63031
G1 X96.324 Y98.091 E9.66348
G1 X96.2 Y98.469 E9.70735
G1 X96.032 Y99.118 E9.78127
G1 X95.944 Y99.795 E9.85656
G1 X95.944 Y100.478 E9.93188
G1 X96.03 Y101.158 E10.00746
G1 X96.243 Y101.943 E10.09715
G1 X96.288 Y102.065 E10.11149
G1 X96.372 Y102.358 E10.14511
G1 X96.43 Y102.624 E10.17513
G1 X96.477 Y102.94 E10.21036
G1 X96.513 Y103.403 E10.26157
G1 X96.52 Y103.588 E10.28198
G1 X96.516 Y104.841 E10.42016
G1 X96.492 Y105.218 E10.46182
G1 X96.455 Y105.516 E10.49493
G1 X96.4 Y105.8 E10.52683
G1 X96.324 Y106.091 E10.55999
G1 X96.24 Y106.349 E10.58992
G1 X96.129 Y106.628 E10.62303
G1 X96.007 Y106.886 E10.6545
G1 X95.863 Y107.145 E10.68718
G1 X95.724 Y107.364 E10.71578
G1 X95.526 Y107.63 E10.75235
G1 X95.106 Y108.111 E10.82276
G1 X94.725 Y108.453 E10.87922
G1 X94.611 Y108.541 E10.8951
G1 X94.107 Y108.983 E10.96903
G1 X93.655 Y109.495 E11.04434
G1 X93.27 Y110.06 E11.11974
G1 X92.961 Y110.668 E11.19494
G1 X92.73 Y111.311 E11.27029
G1 X92.583 Y111.977 E11.3455
G1 X92.522 Y112.633 E11.41815
G1 X92.493 Y113.209 E11.48175
G1 X92.455 Y113.516 E11.51586
G1 X92.4 Y113.8 E11.54776
G1 X92.324 Y114.091 E11.58093
G1 X92.24 Y114.349 E11.61085
G1 X92.129 Y114.628 E11.64396
G1 X92.007 Y114.886 E11.67543
G1 X91.863 Y115.145 E11.70811
G1 X91.724 Y115.364 E11.73671
G1 X91.521 Y115.636 E11.77414
G1 X91.229 Y115.978 E11.82373
G1 X91.106 Y116.111 E11.84371
G1 X90.706 Y116.468 E11.90283
G1 X90.489 Y116.637 E11.93316
G1 X90.258 Y116.793 E11.9639
G1 X89.99 Y116.951 E11.9982
G1 X89.733 Y117.081 E12.02996
G1 X89.464 Y117.196 E12.06222
G1 X89.207 Y117.289 E12.09236
G1 X88.915 Y117.373 E12.12587
G1 X88.654 Y117.429 E12.15531
G1 X88.334 Y117.477 E12.19099
G1 X87.866 Y117.513 E12.24275
G1 X87.674 Y117.52 E12.26394
G1 X59.042 Y117.516 E15.4213
G1 X58.665 Y117.492 E15.46296
G1 X58.367 Y117.455 E15.49607
G1 X58.083 Y117.4 E15.52797
G1 X57.792 Y117.324 E15.56114
G1 X57.532 Y117.239 E15.5913
G1 X57.255 Y117.129 E15.62417
G1 X56.992 Y117.004 E15.65628
G1 X56.739 Y116.864 E15.68816
G1 X56.515 Y116.721 E15.71747
G1 X56.241 Y116.518 E15.75507
G1 X55.79 Y116.125 E15.82104
G1 X55.44 Y115.738 E15.87858
G1 X55.263 Y115.514 E15.91006
G1 X55.184 Y115.399 E15.92545
G1 X54.77 Y114.872 E15.99935
G1 X54.284 Y114.393 E16.0746
G1 X53.74 Y113.98 E16.14992
G1 X53.149 Y113.637 E16.22527
G1 X52.519 Y113.372 E16.30064
G1 X51.862 Y113.19 E16.37582
G1 X51.186 Y113.092 E16.45114
G1 X50.503 Y113.079 E16.52647
G1 X49.825 Y113.152 E16.60167
G1 X49.16 Y113.311 E16.67707
G1 X48.522 Y113.553 E16.75232
G1 X47.918 Y113.872 E16.82764
G1 X47.361 Y114.266 E16.90288
G1 X46.856 Y114.727 E16.97828
G1 X46.414 Y115.248 E17.05362
G1 X46.026 Y115.849 E17.13251
G1 X45.86 Y116.15 E17.17041
G1 X45.724 Y116.363 E17.19828
G1 X45.521 Y116.637 E17.23588
G1 X45.229 Y116.978 E17.28539
G1 X45.106 Y117.111 E17.30537
G1 X44.706 Y117.468 E17.36449
G1 X44.489 Y117.637 E17.39482
G1 X44.258 Y117.793 E17.42556
G1 X43.99 Y117.951 E17.45987
G1 X43.733 Y118.081 E17.49163
G1 X43.464 Y118.196 E17.52389
G1 X43.207 Y118.289 E17.55403
G1 X42.915 Y118.373 E17.58753
G1 X42.654 Y118.429 E17.61697
G1 X42.334 Y118.477 E17.65265
G1 X41.866 Y118.513 E17.70441
G1 X41.674 Y118.52 E17.7256
G1 X13.042 Y118.516 E20.88296
G1 X12.665 Y118.492 E20.92462
G1 X12.367 Y118.455 E20.95773
G1 X12.083 Y118.4 E20.98963
G1 X11.792 Y118.324 E21.0228
G1 X11.532 Y118.239 E21.05296
G1 X11.255 Y118.129 E21.08583
G1 X10.996 Y118.006 E21.11745
G1 X10.739 Y117.864 E21.14983
G1 X10.515 Y117.721 E21.17913
G1 X10.241 Y117.518 E21.21674
G1 X9.79 Y117.125 E21.2827
G1 X9.44 Y116.738 E21.34024
G1 X9.266 Y116.518 E21.37117
G1 X9.096 Y116.269 E21.40442
G1 X8.956 Y116.037 E21.4343
G1 X8.813 Y115.759 E21.46878
G1 X8.702 Y115.505 E21.49934
G1 X8.608 Y115.251 E21.52921
G1 X8.519 Y114.948 E21.56403
G1 X8.456 Y114.672 E21.59525
G1 X8.412 Y114.39 E21.62673
G1 X8.368 Y113.884 E21.68274
G1 X8.359 Y113.694 E21.70371
G1 X8.285 Y113.029 E21.7775
G1 X8.125 Y112.364 E21.85292
G1 X7.882 Y111.727 E21.9281
G1 X7.56 Y111.124 E22.00349
G1 X7.165 Y110.567 E22.07879
G1 X6.703 Y110.065 E22.15402
G1 X6.181 Y109.624 E22.22937
G1 X5.613 Y109.257 E22.30395
G1 X5.277 Y109.083 E22.34567
G1 X5.098 Y108.998 E22.36752
G1 X4.856 Y108.864 E22.39803
G1 X4.636 Y108.724 E22.42678
G1 X4.37 Y108.526 E22.46335
G1 X3.887 Y108.104 E22.53408
G1 X3.53 Y107.704 E22.5932
G1 X3.363 Y107.489 E22.62322
G1 X3.204 Y107.253 E22.6546
G1 X3.049 Y106.99 E22.68827
G1 X2.919 Y106.733 E22.72003
G1 X2.803 Y106.463 E22.75243
G1 X2.711 Y106.207 E22.78243
G1 X2.627 Y105.915 E22.81594
G1 X2.571 Y105.654 E22.84537
G1 X2.523 Y105.334 E22.88105
G1 X2.486 Y104.856 E22.93392
G1 X2.48 Y104.688 E22.95246
G1 X2.484 Y103.434 E23.09075
G1 X2.508 Y103.057 E23.1324
G1 X2.545 Y102.759 E23.16552
G1 X2.602 Y102.463 E23.19876
G1 X2.668 Y102.209 E23.2277
G1 X2.8 Y101.81 E23.27404
G1 X2.968 Y101.161 E23.34797
G1 X3.056 Y100.484 E23.42325
G1 X3.056 Y99.801 E23.49857
G1 X2.971 Y99.121 E23.57414
G1 X2.757 Y98.333 E23.66418
G1 X2.71 Y98.205 E23.67922
G1 X2.627 Y97.915 E23.71248
G1 X2.571 Y97.654 E23.74192
G1 X2.523 Y97.334 E23.7776
G1 X2.486 Y96.856 E23.83047
G1 X2.48 Y96.688 E23.84901
G1 X2.484 Y95.434 E23.98729
G1 X2.508 Y95.057 E24.02895
G1 X2.545 Y94.759 E24.06206
G1 X2.6 Y94.474 E24.09407
G1 X2.814 Y93.654 E24.18752
G1 X2.805 Y93.651 E24.18857
G1 X2.893 Y92.962 E24.26517
G1 X2.891 Y92.28 E24.34037
G1 X2.804 Y91.607 E24.41521
G1 X2.695 Y91.151 E24.46691
G1 X2.629 Y90.925 E24.49287
G1 X2.571 Y90.654 E24.52343
G1 X2.523 Y90.334 E24.55911
G1 X2.486 Y89.856 E24.61198
G1 X2.48 Y89.688 E24.63052
G1 X2.484 Y88.434 E24.7688
G1 X2.508 Y88.057 E24.81046
G1 X2.545 Y87.759 E24.84358
G1 X2.6 Y87.474 E24.87558
G1 X2.814 Y86.654 E24.96904
G1 X2.805 Y86.651 E24.97008
G1 X2.893 Y85.962 E25.04668
G1 X2.891 Y85.28 E25.12189
G1 X2.804 Y84.607 E25.19672
G1 X2.695 Y84.151 E25.24842
G1 X2.629 Y83.925 E25.27438
G1 X2.571 Y83.654 E25.30494
G1 X2.523 Y83.334 E25.34063
G1 X2.486 Y82.856 E25.3935
G1 X2.48 Y82.688 E25.41203
G1 X2.484 Y81.434 E25.55032
G1 X2.508 Y81.057 E25.59197
G1 X2.545 Y80.759 E25.62509
G1 X2.6 Y80.474 E25.6571
G1 X2.814 Y79.654 E25.75055
G1 X2.805 Y79.651 E25.7516
G1 X2.893 Y78.962 E25.82819
G1 X2.891 Y78.28 E25.9034
G1 X2.804 Y77.607 E25.97823
G1 X2.695 Y77.151 E26.02993
G1 X2.629 Y76.925 E26.0559
G1 X2.571 Y76.654 E26.08646
G1 X2.523 Y76.334 E26.12214
G1 X2.486 Y75.856 E26.17501
G1 X2.48 Y75.688 E26.19355
G1 X2.484 Y74.434 E26.33183
G1 X2.508 Y74.057 E26.37349
G1 X2.545 Y73.759 E26.4066
G1 X2.6 Y73.474 E26.43861
G1 X2.814 Y72.654 E26.53206
G1 X2.805 Y72.651 E26.53311
G1 X2.893 Y71.962 E26.6097
G1 X2.891 Y71.28 E26.68491
G1 X2.804 Y70.607 E26.75974
G1 X2.695 Y70.151 E26.81145
G1 X2.629 Y69.925 E26.83741
G1 X2.571 Y69.654 E26.86797
G1 X2.523 Y69.334 E26.90365
G1 X2.486 Y68.856 E26.95652
G1 X2.48 Y68.688 E26.97506
G1 X2.484 Y67.434 E27.11334
G1 X2.508 Y67.057 E27.155
G1 X2.545 Y66.759 E27.18811
G1 X2.6 Y66.474 E27.22012
G1 X2.814 Y65.654 E27.31357
G1 X2.805 Y65.651 E27.31462
G1 X2.893 Y64.962 E27.39122
G1 X2.891 Y64.28 E27.46642
G1 X2.804 Y63.607 E27.54126
G1 X2.695 Y63.151 E27.59296
G1 X2.629 Y62.925 E27.61892
G1 X2.571 Y62.654 E27.64948
G1 X2.523 Y62.334 E27.68516
G1 X2.486 Y61.856 E27.73803
G1 X2.48 Y61.688 E27.75657
G1 X2.484 Y60.434 E27.89485
G1 X2.508 Y60.057 E27.93651
G1 X2.545 Y59.759 E27.96963
G1 X2.602 Y59.463 E28.00287
G1 X2.668 Y59.209 E28.03181
G1 X2.8 Y58.81 E28.07815
G1 X2.968 Y58.161 E28.15208
G1 X3.056 Y57.484 E28.22736
G1 X3.056 Y56.801 E28.30268
G1 X2.971 Y56.121 E28.37825
G1 X2.757 Y55.333 E28.46829
G1 X2.71 Y55.205 E28.48333
G1 X2.627 Y54.915 E28.51659
G1 X2.571 Y54.654 E28.54603
G1 X2.523 Y54.334 E28.58171
G1 X2.486 Y53.856 E28.63458
G1 X2.48 Y53.688 E28.65312
G1 X2.484 Y52.434 E28.7914
G1 X2.508 Y52.057 E28.83306
G1 X2.545 Y51.759 E28.86617
G1 X2.6 Y51.475 E28.89807
G1 X2.676 Y51.184 E28.93124
G1 X2.76 Y50.926 E28.96116
G1 X2.866 Y50.658 E28.99294
G1 X3.295 Y49.759 E29.10279
G1 X3.509 Y49.11 E29.17814
G1 X3.639 Y48.44 E29.25341
G1 X3.683 Y47.759 E29.32866
G1 X3.641 Y47.081 E29.40357
G1 X3.584 Y46.747 E29.44093
G1 X3.523 Y46.334 E29.48697
G1 X3.486 Y45.856 E29.53984
G1 X3.48 Y45.688 E29.55838
G1 X3.484 Y44.434 E29.69666
G1 X3.508 Y44.057 E29.73832
G1 X3.545 Y43.759 E29.77143
G1 X3.602 Y43.463 E29.80467
G1 X3.67 Y43.201 E29.83452
G1 X3.757 Y42.937 E29.86517
G1 X3.925 Y42.288 E29.9391
G1 X4.013 Y41.611 E30.01438
G1 X4.013 Y40.928 E30.0897
G1 X3.927 Y40.248 E30.16528
G1 X3.892 Y40.119 E30.18002
G1 X3.899 Y40.119 E30.1808
G1 X3.629 Y39.175 E30.28907
G1 X3.571 Y38.904 E30.31963
G1 X3.523 Y38.584 E30.35531
G1 X3.486 Y38.106 E30.40818
G1 X3.48 Y37.938 E30.42672
G1 X3.484 Y36.684 E30.565
G1 X3.508 Y36.307 E30.60666
G1 X3.545 Y36.009 E30.63977
G1 X3.602 Y35.713 E30.67302
G1 X3.668 Y35.459 E30.70196
G1 X3.8 Y35.06 E30.7483
G1 X3.968 Y34.411 E30.82223
G1 X4.056 Y33.734 E30.89751
G1 X4.056 Y33.051 E30.97283
G1 X3.971 Y32.371 E31.0484
G1 X3.757 Y31.583 E31.13844
G1 X3.71 Y31.455 E31.15348
G1 X3.627 Y31.165 E31.18674
G1 X3.571 Y30.904 E31.21618
G1 X3.523 Y30.584 E31.25186
G1 X3.486 Y30.106 E31.30473
G1 X3.48 Y29.938 E31.32327
G1 X3.484 Y28.684 E31.46155
G1 X3.508 Y28.307 E31.50321
G1 X3.545 Y28.009 E31.53632
G1 X3.6 Y27.725 E31.56822
G1 X3.676 Y27.434 E31.60139
G1 X3.76 Y27.176 E31.63131
G1 X3.871 Y26.897 E31.66442
G1 X3.993 Y26.639 E31.69589
G1 X4.139 Y26.376 E31.72906
G1 X4.276 Y26.161 E31.75718
G1 X4.474 Y25.895 E31.79374
G1 X4.894 Y25.414 E31.86416
G1 X5.296 Y25.055 E31.92359
G1 X5.511 Y24.888 E31.95361
G1 X5.742 Y24.732 E31.98435
G1 X6.01 Y24.574 E32.01866
G1 X6.267 Y24.444 E32.05042
G1 X6.537 Y24.328 E32.08282
G1 X6.793 Y24.236 E32.11282
G1 X7.079 Y24.154 E32.14563
G1 X7.478 Y24.066 E32.19069
G1 X8.123 Y23.88 E32.26471
G1 X8.749 Y23.61 E32.33989
G1 X9.338 Y23.264 E32.41522
G1 X9.877 Y22.844 E32.49057
G1 X10.36 Y22.362 E32.56582
G1 X10.777 Y21.822 E32.64106
G1 X11.124 Y21.233 E32.71644
G1 X11.392 Y20.606 E32.79163
G1 X11.574 Y19.97 E32.86458
G1 X11.776 Y19.37 E32.9344
G1 X11.835 Y19.231 E32.95105
G1 X12.083 Y18.736 E33.0121
G1 X12.381 Y18.26 E33.07403
G1 X12.809 Y17.727 E33.14941
G1 X13.095 Y17.433 E33.19464
G1 X13.435 Y17.144 E33.24385
G1 X13.647 Y16.986 E33.273
G1 X13.996 Y16.752 E33.31934
G1 X14.399 Y16.536 E33.36976
G1 X14.631 Y16.433 E33.39775
G1 X15.207 Y16.221 E33.46544
G1 X15.677 Y16.11 E33.51869
G1 X15.918 Y16.066 E33.54571
