M73 P0
;MINX:7.0
;MAXX:100.0
;MINY:19.5
;MAXY:108.1
;MINZ:0.0
;MAXZ:19.8
;MachineType:ENTINA TINA2
;FilamentType:PLA
;Extruder0Temperature:200
;InfillDensity:10
;FLAVOR:Marlin
;TIME:9469
;FilamentUsed:9229.7
;Layer height: 0.2

;Generated with Cura_SteamEngine 3.1
M104 T0 S215
M82 ; absolute extrusion mode
;(**** start.gcode for tina2****)
M104 S150
G28 Z
G28 X Y; Home extruder
G1 X55 Y55 F1000
G1 Z10 F200
G29
G1 Z15 F100
M107 ; Turn off fan
G90 ; Absolute positioning
M82 ; Extruder in absolute mode
M109 S215.0
G92 E0 ; Reset extruder position
G1 X90 Y6 Z0.27 F2000
G1 X20 Y6 Z0.27 E15 F1000
G92 E0 ; Reset extruder position

;LAYER_COUNT:93
;LAYER:-6
M107
M203 Z5
G1 F3600 X94.521 Y25.63 Z0.349
G1 F1200 X95.121 Y25.809 E0.06905
G1 X95.649 Y26.031 E0.13221
G1 X95.973 Y26.204 E0.17271
G1 X96.224 Y26.357 E0.20513
G1 X96.605 Y26.617 E0.25599
G1 X96.936 Y26.893 E0.30352
G1 X97.027 Y26.979 E0.31732
G1 X97.508 Y27.383 E0.38659
G1 X97.63 Y27.474 E0.40338
G1 X98.111 Y27.894 E0.47379
G1 X98.47 Y28.296 E0.53323
G1 X98.637 Y28.511 E0.56325
G1 X98.793 Y28.742 E0.59399
G1 X98.951 Y29.01 E0.62829
G1 X99.083 Y29.269 E0.66035
G1 X99.186 Y29.508 E0.68905
G1 X99.293 Y29.806 E0.72396
G1 X99.373 Y30.085 E0.75597
G1 X99.429 Y30.346 E0.78541
G1 X99.477 Y30.666 E0.82109
G1 X99.513 Y31.127 E0.87208
G1 X99.52 Y31.312 E0.8925
G1 X99.516 Y101.943 E8.68126
G1 X99.492 Y102.318 E8.72269
G1 X99.455 Y102.614 E8.75559
G1 X99.401 Y102.898 E8.78747
G1 X99.324 Y103.191 E8.82088
G1 X99.241 Y103.446 E8.85045
G1 X99.129 Y103.728 E8.88391
G1 X99.007 Y103.986 E8.91538
G1 X98.863 Y104.245 E8.94806
G1 X98.724 Y104.464 E8.97666
G1 X98.526 Y104.73 E9.01323
G1 X98.106 Y105.211 E9.08365
G1 X97.714 Y105.561 E9.1416
G1 X97.383 Y105.817 E9.18774
G1 X97.087 Y106.066 E9.23039
G1 X96.768 Y106.35 E9.27749
G1 X96.312 Y106.692 E9.34035
G1 X95.845 Y106.969 E9.40022
G1 X95.265 Y107.237 E9.47068
G1 X94.896 Y107.366 E9.51379
G1 X94.372 Y107.5 E9.57343
G1 X94.119 Y107.55 E9.60187
G1 X93.576 Y107.608 E9.66209
G1 X93.264 Y107.616 E9.6965
G1 X57.676 Y107.617 E13.62093
G1 X57.418 Y107.607 E13.64941
G1 X56.967 Y107.56 E13.69941
G1 X56.416 Y107.45 E13.76137
G1 X56.197 Y107.394 E13.7863
G1 X55.704 Y107.221 E13.84391
G1 X55.597 Y107.177 E13.85667
G1 X55.266 Y107.019 E13.89712
G1 X55.051 Y106.901 E13.92416
G1 X54.55 Y106.592 E13.98907
G1 X54.143 Y106.267 E14.04651
G1 X53.681 Y105.85 E14.11514
G1 X53.67 Y105.861 E14.11685
G1 X53.481 Y105.7 E14.14423
G1 X53.309 Y105.573 E14.16781
G1 X52.746 Y105.209 E14.24174
G1 X52.132 Y104.913 E14.3169
G1 X51.483 Y104.696 E14.39237
G1 X50.813 Y104.565 E14.46765
G1 X50.115 Y104.518 E14.54479
G1 X14.011 Y104.52 E18.52613
G1 X13.609 Y104.506 E18.57048
G1 X13.354 Y104.486 E18.59869
G1 X12.982 Y104.438 E18.64005
G1 X12.763 Y104.4 E18.66456
G1 X12.488 Y104.339 E18.69562
G1 X12.278 Y104.285 E18.71953
G1 X11.92 Y104.178 E18.76074
G1 X11.396 Y103.976 E18.82267
G1 X11.262 Y103.916 E18.83886
G1 X10.807 Y103.68 E18.89538
G1 X10.412 Y103.442 E18.94623
G1 X10.054 Y103.186 E18.99477
G1 X9.745 Y102.936 E19.0386
G1 X9.58 Y102.791 E19.06282
G1 X9.352 Y102.572 E19.09768
G1 X9.064 Y102.255 E19.14491
G1 X8.717 Y101.819 E19.20636
G1 X8.573 Y101.613 E19.23408
G1 X8.407 Y101.345 E19.26884
G1 X8.223 Y101.018 E19.31022
G1 X8.041 Y100.645 E19.35598
G1 X7.896 Y100.284 E19.39888
G1 X7.812 Y100.051 E19.4262
G1 X7.699 Y99.664 E19.47065
G1 X7.6 Y99.237 E19.51899
G1 X7.544 Y98.892 E19.55753
G1 X7.512 Y98.618 E19.58795
G1 X7.489 Y98.294 E19.62377
G1 X7.48 Y97.988 E19.65753
G1 X7.483 Y26.376 E27.55447
G1 X7.507 Y25.923 E27.60449
G1 X7.527 Y25.74 E27.62479
G1 X7.608 Y25.222 E27.68261
G1 X7.741 Y24.685 E27.74362
G1 X7.867 Y24.288 E27.78955
G1 X8.08 Y23.773 E27.851
G1 X8.306 Y23.333 E27.90555
G1 X8.561 Y22.91 E27.96002
G1 X8.65 Y22.778 E27.97757
G1 X8.92 Y22.416 E28.02737
G1 X9.382 Y21.899 E28.10383
G1 X9.945 Y21.397 E28.18701
G1 X10.407 Y21.062 E28.24994
G1 X10.85 Y20.795 E28.30698
G1 X11.443 Y20.505 E28.37977
G1 X11.768 Y20.375 E28.41837
G1 X12.126 Y20.259 E28.45987
G1 X12.611 Y20.134 E28.5151
G1 X12.747 Y20.105 E28.53044
G1 X13.287 Y20.023 E28.59067
G1 X13.42 Y20.009 E28.60541
G1 X13.872 Y19.985 E28.65533
G1 X51.523 Y19.981 E32.80725
G1 X52.091 Y20.008 E32.86996
G1 X52.758 Y20.104 E32.94427
G1 X53.397 Y20.264 E33.01691
G1 X53.969 Y20.469 E33.08392
G1 X54.203 Y20.571 E33.11207
G1 X54.62 Y20.776 E33.16331
G1 X54.833 Y20.899 E33.19043
G1 X55.386 Y21.268 E33.26374
G1 X55.823 Y21.622 E33.32576
G1 X56.108 Y21.886 E33.3686
G1 X56.428 Y22.235 E33.42081
G1 X56.771 Y22.666 E33.48155
G1 X56.97 Y22.956 E33.52034
G1 X57.361 Y23.502 E33.59439
G1 X57.825 Y24.002 E33.66962
G1 X58.35 Y24.439 E33.74494
G1 X58.925 Y24.807 E33.82022
G1 X59.541 Y25.1 E33.89544
G1 X60.191 Y25.313 E33.97087
G1 X60.862 Y25.442 E34.04622
G1 X61.53 Y25.484 E34.12003
G1 X93.33 Y25.483 E37.62674
G1 X93.572 Y25.492 E37.65345
G1 X94.1 Y25.55 E37.71202
G1 X94.521 Y25.63 E37.75928
G1 F3600 X94.4 Y25.608
G1 F1200 X94.4 Y107.493 E46.78906
G1 F1680 E43.78906
G1 F3600 X92.8 Y107.617
G1 F1680 E46.78906
G1 F1200 X92.8 Y25.483 E55.84631
G1 F1680 E52.84631
G1 F3600 X91.2 Y25.483
G1 F1680 E55.84631
G1 F1200 X91.2 Y107.617 E64.90355
G1 F1680 E61.90355
G1 F3600 X89.6 Y107.617
G1 F1680 E64.90355
G1 F1200 X89.6 Y25.483 E73.96079
G1 F1680 E70.96079
G1 F3600 X88 Y25.483
G1 F1680 E73.96079
G1 F1200 X88 Y107.617 E83.01803
G1 F1680 E80.01803
G1 F3600 X86.4 Y107.617
G1 F1680 E83.01803
G1 F1200 X86.4 Y25.483 E92.07528
G1 F1680 E89.07528
G1 F3600 X84.8 Y25.483
G1 F1680 E92.07528
G1 F1200 X84.8 Y107.617 E101.13252
G1 F1680 E98.13252
G1 F3600 X83.2 Y107.617
G1 F1680 E101.13252
G1 F1200 X83.2 Y25.483 E110.18976
G1 F1680 E107.18976
G1 F3600 X81.6 Y25.483
G1 F1680 E110.18976
G1 F1200 X81.6 Y107.617 E119.24701
G1 F1680 E116.24701
G1 F3600 X80 Y107.617
G1 F1680 E119.24701
G1 F1200 X80 Y25.483 E128.30425
G1 F1680 E125.30425
G1 F3600 X78.4 Y25.483
G1 F1680 E128.30425
G1 F1200 X78.4 Y107.617 E137.36149
G1 F1680 E134.36149
G1 F3600 X76.8 Y107.617
G1 F1680 E137.36149
G1 F1200 X76.8 Y25.483 E146.41873
G1 F1680 E143.41873
G1 F3600 X75.2 Y25.483
G1 F1680 E146.41873
G1 F1200 X75.2 Y107.617 E155.47598
G1 F1680 E152.47598
G1 F3600 X73.6 Y107.617
G1 F1680 E155.47598
G1 F1200 X73.6 Y25.483 E164.53322
G1 F1680 E161.53322
G1 F3600 X72 Y25.483
G1 F1680 E164.53322
G1 F1200 X72 Y107.617 E173.59046
G1 F1680 E170.59046
G1 F3600 X70.4 Y107.617
G1 F1680 E173.59046
G1 F1200 X70.4 Y25.483 E182.64771
G1 F1680 E179.64771
G1 F3600 X68.8 Y25.483
G1 F1680 E182.64771
G1 F1200 X68.8 Y107.617 E191.70495
G1 F1680 E188.70495
G1 F3600 X67.2 Y107.617
G1 F1680 E191.70495
G1 F1200 X67.2 Y25.483 E200.76219
G1 F1680 E197.76219
G1 F3600 X65.6 Y25.483
G1 F1680 E200.76219
G1 F1200 X65.6 Y107.617 E209.81943
G1 F1680 E206.81943
G1 F3600 X64 Y107.617
G1 F1680 E209.81943
G1 F1200 X64 Y25.483 E218.87668
G1 F1680 E215.87668
G1 F3600 X62.4 Y25.483
G1 F1680 E218.87668
G1 F1200 X62.4 Y107.617 E227.93392
G1 F1680 E224.93392
G1 F3600 X60.8 Y107.617
G1 F1680 E227.93392
G1 F1200 X60.8 Y25.431 E236.9969
G1 F1680 E233.9969
G1 F3600 X59.2 Y24.938
G1 F1680 E236.9969
G1 F1200 X59.2 Y107.617 E246.11424
G1 F1680 E243.11424
G1 F3600 X57.6 Y107.614
G1 F1680 E246.11424
G1 F1200 X57.6 Y23.76 E255.36115
G1 F1680 E252.36115
G1 F3600 X56 Y21.786
G1 F1680 E255.36115
G1 F1200 X56 Y107.324 E264.79377
G1 F1680 E261.79377
G1 F3600 X54.4 Y106.472
G1 F1680 E264.79377
G1 F1200 X54.4 Y20.668 E274.25572
G1 F1680 E271.25572
G1 F3600 X52.8 Y20.115
G1 F1680 E274.25572
G1 F1200 X52.8 Y105.243 E283.64312
G1 F1680 E280.64312
G1 F3600 X51.2 Y104.64
G1 F1680 E283.64312
G1 F1200 X51.2 Y19.981 E292.97881
G1 F1680 E289.97881
G1 F3600 X49.6 Y19.981
G1 F1680 E292.97881
G1 F1200 X49.6 Y104.519 E302.30115
G1 F1680 E299.30115
G1 F3600 X48 Y104.519
G1 F1680 E302.30115
G1 F1200 X48 Y19.981 E311.62349
G1 F1680 E308.62349
G1 F3600 X46.4 Y19.981
G1 F1680 E311.62349
G1 F1200 X46.4 Y104.519 E320.94583
G1 F1680 E317.94583
G1 F3600 X44.8 Y104.519
G1 F1680 E320.94583
G1 F1200 X44.8 Y19.981 E330.26817
G1 F1680 E327.26817
G1 F3600 X43.2 Y19.981
G1 F1680 E330.26817
G1 F1200 X43.2 Y104.519 E339.59051
G1 F1680 E336.59051
G1 F3600 X41.6 Y104.519
G1 F1680 E339.59051
G1 F1200 X41.6 Y19.982 E348.91274
G1 F1680 E345.91274
G1 F3600 X40 Y19.982
G1 F1680 E348.91274
G1 F1200 X40 Y104.519 E358.23498
G1 F1680 E355.23498
G1 F3600 X38.4 Y104.519
G1 F1680 E358.23498
G1 F1200 X38.4 Y19.982 E367.55721
G1 F1680 E364.55721
G1 F3600 X36.8 Y19.982
G1 F1680 E367.55721
G1 F1200 X36.8 Y104.519 E376.87944
G1 F1680 E373.87944
G1 F3600 X35.2 Y104.519
G1 F1680 E376.87944
G1 F1200 X35.2 Y19.982 E386.20167
G1 F1680 E383.20167
G1 F3600 X33.6 Y19.982
G1 F1680 E386.20167
G1 F1200 X33.6 Y104.519 E395.5239
G1 F1680 E392.5239
G1 F3600 X32 Y104.52
G1 F1680 E395.5239
G1 F1200 X32 Y19.983 E404.84613
G1 F1680 E401.84613
G1 F3600 X30.4 Y19.983
G1 F1680 E404.84613
G1 F1200 X30.4 Y104.52 E414.16836
G1 F1680 E411.16836
G1 F3600 X28.8 Y104.52
G1 F1680 E414.16836
G1 F1200 X28.8 Y19.983 E423.49059
G1 F1680 E420.49059
G1 F3600 X27.2 Y19.983
G1 F1680 E423.49059
G1 F1200 X27.2 Y104.52 E432.81283
G1 F1680 E429.81283
G1 F3600 X25.6 Y104.52
G1 F1680 E432.81283
G1 F1200 X25.6 Y19.983 E442.13506
G1 F1680 E439.13506
G1 F3600 X24 Y19.983
G1 F1680 E442.13506
G1 F1200 X24 Y104.52 E451.45729
G1 F1680 E448.45729
G1 F3600 X22.4 Y104.52
G1 F1680 E451.45729
G1 F1200 X22.4 Y19.984 E460.77941
G1 F1680 E457.77941
G1 F3600 X20.8 Y19.984
G1 F1680 E460.77941
G1 F1200 X20.8 Y104.52 E470.10153
G1 F1680 E467.10153
G1 F3600 X19.2 Y104.52
G1 F1680 E470.10153
G1 F1200 X19.2 Y19.984 E479.42365
G1 F1680 E476.42365
G1 F3600 X17.6 Y19.984
G1 F1680 E479.42365
G1 F1200 X17.6 Y104.52 E488.74577
G1 F1680 E485.74577
G1 F3600 X16 Y104.52
G1 F1680 E488.74577
G1 F1200 X16 Y19.984 E498.06789
G1 F1680 E495.06789
G1 F3600 X14.4 Y19.984
G1 F1680 E498.06789
G1 F1200 X14.4 Y104.52 E507.39001
G1 F1680 E504.39001
G1 F3600 X12.8 Y104.406
G1 F1680 E507.39001
G1 F1200 X12.8 Y20.096 E516.68721
G1 F1680 E513.68721
G1 F3600 X11.2 Y20.623
G1 F1680 E516.68721
G1 F1200 X11.2 Y103.883 E525.86863
G1 F1680 E522.86863
G1 F3600 X9.6 Y102.808
G1 F1680 E525.86863
G1 F1200 X9.6 Y21.704 E534.81229
G1 F1680 E531.81229
G1 F3600 X8 Y23.966
G1 F1680 E534.81229
G1 F1200 X8 Y100.542 E543.25663
G1 F1680 E540.25663
G1 F3600 X96 Y106.878
G1 F1680 E543.25663
G1 F1200 X96 Y26.221 E552.15099
G1 F1680 E549.15099
G1 F3600 X97.6 Y27.452
G1 F1680 E552.15099
G1 F1200 X97.6 Y105.65 E560.7742
G1 F1680 E557.7742
G1 F3600 X99.2 Y103.55
M104 T0 S200
G1 F1680 E560.7742
G1 F1200 X99.2 Y29.547 E568.9348
G1 F1680 E565.9348
G1 F3600 X94.524 Y25.578
;TIME_ELAPSED:273.226282
;LAYER:-5
G1 X94.524 Y25.578 Z0.619
;TYPE:SUPPORT
G1 F1680 E568.9348
G1 F1980 X95.136 Y25.76 E568.9824
G1 X95.741 Y26.017 E569.0314
G1 X96.108 Y26.223 E569.06277
G1 X96.476 Y26.473 E569.09593
G1 X96.677 Y26.609 E569.11402
G1 X97.06 Y26.94 E569.15175
G1 X97.538 Y27.342 E569.19831
G1 X97.661 Y27.434 E569.20976
G1 X98.008 Y27.73 E569.24376
G1 X98.156 Y27.868 E569.25884
G1 X98.494 Y28.246 E569.29664
G1 X98.682 Y28.487 E569.31942
G1 X98.836 Y28.715 E569.33993
G1 X99 Y28.994 E569.36406
G1 F3600 X99.004 Y29
G1 F1980 X96.476 Y26.473 E569.6305
G1 F1680 E566.6305
G1 F3600 X94.524 Y25.578
G1 F1680 E569.6305
G1 F1980 X94.259 Y25.528 E569.6506
G1 X99.539 Y30.808 E570.20721
G1 X99.563 Y31.125 E570.23091
G1 X99.57 Y31.312 E570.24485
G1 X99.57 Y32.112 E570.30449
G1 X92.89 Y25.432 E571.00868
G1 X91.617 Y25.432 E571.10357
G1 X99.57 Y33.385 E571.94196
G1 X99.57 Y34.658 E572.03685
G1 X90.344 Y25.432 E573.00943
G1 X89.072 Y25.432 E573.10425
G1 X99.57 Y35.93 E574.21092
G1 X99.57 Y37.203 E574.30582
G1 X87.799 Y25.432 E575.54669
G1 X86.526 Y25.432 E575.64158
G1 X99.57 Y38.476 E577.01665
G1 X99.57 Y39.749 E577.11154
G1 X85.253 Y25.432 E578.6208
G1 X83.98 Y25.432 E578.7157
G1 X99.57 Y41.022 E580.35916
G1 X99.57 Y42.294 E580.45397
G1 X82.708 Y25.432 E582.23153
G1 X81.435 Y25.432 E582.32642
G1 X99.57 Y43.567 E584.23817
G1 X99.57 Y44.84 E584.33306
G1 X80.162 Y25.432 E586.37901
G1 X78.889 Y25.432 E586.4739
G1 X99.569 Y46.112 E588.65394
G1 X99.569 Y47.385 E588.74883
G1 X77.616 Y25.432 E591.06306
G1 X76.344 Y25.433 E591.15788
G1 X99.569 Y48.658 E593.60621
G1 X99.569 Y49.93 E593.70102
G1 X75.072 Y25.433 E596.28344
G1 X73.799 Y25.433 E596.37833
G1 X99.569 Y51.203 E599.09495
G1 X99.569 Y52.476 E599.18984
G1 X72.526 Y25.433 E602.04065
G1 X71.253 Y25.433 E602.13554
G1 X99.569 Y53.749 E605.12055
G1 X99.569 Y55.022 E605.21544
G1 X69.98 Y25.433 E608.33464
G1 X68.708 Y25.433 E608.42946
G1 X99.569 Y56.294 E611.68276
G1 X99.569 Y57.567 E611.77765
G1 X67.435 Y25.433 E615.16514
G1 X66.162 Y25.433 E615.26003
G1 X99.569 Y58.84 E618.78172
G1 X99.569 Y60.112 E618.87654
G1 X64.889 Y25.433 E622.53237
G1 X63.616 Y25.433 E622.62726
G1 X99.569 Y61.385 E626.41729
G1 X99.569 Y62.658 E626.51219
G1 X62.344 Y25.433 E630.43636
G1 X61.531 Y25.433 E630.49696
G1 X61.04 Y25.402 E630.53363
G1 X99.569 Y63.93 E634.59522
G1 X99.569 Y65.203 E634.69011
G1 X59.29 Y24.925 E638.93618
G1 X58.948 Y24.762 E638.96442
G1 X58.378 Y24.398 E639.01483
G1 X57.859 Y23.965 E639.06522
G1 X57.399 Y23.469 E639.11564
G1 X56.723 Y22.517 E639.20268
G1 X56.467 Y22.202 E639.23293
G1 X56.148 Y21.855 E639.26807
G1 X55.855 Y21.583 E639.29787
G1 X55.415 Y21.227 E639.34006
G1 X54.788 Y20.815 E639.39598
G1 X54.632 Y20.725 E639.40941
G1 X54.271 Y20.547 E639.43941
G1 X53.863 Y20.373 E639.47247
G1 X53.412 Y20.216 E639.50807
G1 X53.273 Y20.18 E639.51877
G1 X99.569 Y66.476 E644.39919
G1 X99.569 Y67.749 E644.49408
G1 X51.758 Y19.938 E649.53421
G1 X51.627 Y19.931 E649.54399
G1 X50.478 Y19.931 E649.62964
G1 X99.569 Y69.022 E654.8047
G1 X99.569 Y70.294 E654.89951
G1 X49.206 Y19.931 E660.20867
G1 X47.933 Y19.931 E660.30356
G1 X99.569 Y71.567 E665.74691
G1 X99.569 Y72.84 E665.8418
G1 X46.66 Y19.931 E671.41934
G1 X45.387 Y19.931 E671.51423
G1 X99.568 Y74.112 E677.22587
G1 X99.568 Y75.385 E677.32076
G1 X44.114 Y19.931 E683.1666
G1 X42.842 Y19.931 E683.26141
G1 X99.568 Y76.658 E689.24139
G1 X99.568 Y77.93 E689.33621
G1 X41.569 Y19.931 E695.45033
G1 X40.296 Y19.931 E695.54522
G1 X99.568 Y79.203 E701.79354
G1 X99.568 Y80.476 E701.88843
G1 X39.023 Y19.931 E708.27095
G1 X37.751 Y19.931 E708.36576
G1 X99.568 Y81.749 E714.88242
G1 X99.568 Y83.022 E714.97731
G1 X36.478 Y19.931 E721.62817
G1 X35.205 Y19.931 E721.72306
G1 X99.568 Y84.294 E728.50806
G1 X99.568 Y85.567 E728.60295
G1 X33.932 Y19.931 E735.52215
G1 X32.659 Y19.931 E735.61704
G1 X99.568 Y86.84 E742.67043
G1 X99.567 Y88.112 E742.76525
G1 X31.387 Y19.931 E749.95268
G1 X30.114 Y19.931 E750.04757
G1 X99.567 Y89.385 E757.3692
G1 X99.567 Y90.658 E757.46409
G1 X28.841 Y19.931 E764.91992
G1 X27.568 Y19.931 E765.01481
G1 X99.567 Y91.93 E772.60478
G1 X99.567 Y93.203 E772.69967
G1 X26.295 Y19.931 E780.42384
G1 X25.023 Y19.931 E780.51865
G1 X99.567 Y94.476 E788.37696
G1 X99.567 Y95.749 E788.47186
G1 X23.75 Y19.931 E796.46436
G1 X22.477 Y19.931 E796.55925
G1 X99.567 Y97.022 E804.68596
G1 X99.567 Y98.294 E804.78077
G1 X21.204 Y19.931 E813.04162
G1 X19.931 Y19.931 E813.13651
G1 X99.567 Y99.567 E821.53156
G1 X99.567 Y100.84 E821.62645
G1 X18.659 Y19.931 E830.15564
G1 X17.386 Y19.931 E830.25053
G1 X99.557 Y102.102 E838.91281
G1 X99.542 Y102.324 E838.92939
G1 X99.507 Y102.613 E838.95109
G1 X99.45 Y102.909 E838.97356
G1 X99.376 Y103.194 E838.99551
G1 X16.113 Y19.931 E847.77291
G1 X14.84 Y19.931 E847.8678
G1 X99.004 Y104.095 E856.74017
G1 X98.908 Y104.267 E856.75486
G1 X98.765 Y104.493 E856.77479
G1 X98.564 Y104.765 E856.8
G1 X98.488 Y104.852 E856.80861
G1 X13.584 Y19.948 E865.759
G1 X13.521 Y19.95 E865.7637
G1 X13.278 Y19.971 E865.78188
G1 X12.738 Y20.054 E865.8226
G1 X12.59 Y20.086 E865.83389
G1 X12.479 Y20.115 E865.84244
G1 X97.861 Y105.498 E874.84327
G1 X97.761 Y105.588 E874.8533
G1 X97.415 Y105.856 E874.88592
G1 X97.16 Y106.069 E874.91069
G1 X11.511 Y20.421 E883.93956
G1 X11.346 Y20.491 E883.95292
G1 X10.912 Y20.703 E883.98892
G1 X10.717 Y20.809 E884.00547
G1 X10.661 Y20.844 E884.01039
G1 X96.459 Y106.642 E893.05502
G1 X96.329 Y106.739 E893.06711
G1 X95.989 Y106.944 E893.0967
G1 X95.728 Y107.082 E893.11871
G1 X95.658 Y107.113 E893.12442
G1 X9.906 Y21.361 E902.1642
G1 F3600 X9.9 Y21.365
