M73 P0
;MachineType:WEEDO TINA2
;FilamentType:PLA
;Extruder0Temperature:200
;InfillDensity:10
;FLAVOR:Marlin
;TIME:2718
;FilamentUsed:1669.9
;Layer height: 0.15

;Generated with Cura_SteamEngine 3.1
M104 S215
M82 ; absolute extrusion mode
;(**** start.gcode for WEEDO TINA2****)
M104 S150
G28 Z
G28 X Y; Home extruder
G1 X55 Y55 F1000
G1 Z10 F200
G29
G1 Z15 F100
M107 ; Turn off fan
G90 ; Absolute positioning
M82 ; Extruder in absolute mode
M109 S215.0
G92 E0 ; Reset extruder position
G1 X90 Y6 Z0.27 F2000
G1 X20 Y6 Z0.27 E15 F1000
G92 E0 ; Reset extruder position

;LAYER_COUNT:22
;LAYER:-7
M107
M203 Z5
G1 F3600 X68.327 Y36.02 Z0.349
G1 F1200 X68.467 Y36.163 E0.02207
G1 X68.934 Y36.685 E0.09931
G1 X69.071 Y36.852 E0.12312
G1 X69.256 Y37.112 E0.15831
G1 X69.481 Y37.461 E0.2041
G1 X69.704 Y37.877 E0.25615
G1 X69.818 Y38.117 E0.28545
G1 X69.837 Y38.117 E0.28755
G1 X70.027 Y38.46 E0.33079
G1 X70.485 Y39.074 E0.41526
G1 X70.718 Y39.344 E0.45459
G1 X70.879 Y39.553 E0.48368
G1 X71.121 Y39.917 E0.53188
G1 X71.264 Y40.163 E0.56326
G1 X71.516 Y40.652 E0.62392
G1 X71.861 Y41.227 E0.69787
G1 X72.272 Y41.75 E0.77122
G1 X72.519 Y42.027 E0.81214
G1 X72.644 Y42.181 E0.83401
G1 X72.759 Y42.349 E0.85647
G1 X73.054 Y42.826 E0.91831
G1 X73.161 Y43.016 E0.94236
G1 X73.388 Y43.526 E1.00392
G1 X73.477 Y43.76 E1.03153
G1 X73.675 Y44.45 E1.11069
G1 X73.69 Y44.45 E1.11234
G1 X73.783 Y44.741 E1.14603
G1 X73.99 Y45.205 E1.20206
G1 X74.174 Y45.571 E1.24723
G1 X74.3 Y45.866 E1.2826
G1 X74.384 Y46.102 E1.31023
G1 X74.482 Y46.454 E1.35052
G1 X74.7 Y47.088 E1.42445
G1 X75.003 Y47.699 E1.49966
G1 X75.321 Y48.187 E1.56389
G1 X75.494 Y48.423 E1.59616
G1 X75.924 Y48.938 E1.67014
G1 X76.467 Y49.436 E1.75139
G1 X76.795 Y49.697 E1.79761
G1 X76.982 Y49.867 E1.82548
G1 X77.675 Y50.569 E1.93426
G1 X77.796 Y50.703 E1.95417
G1 X78.059 Y51.029 E2.00036
G1 X78.333 Y51.399 E2.05113
G1 X78.749 Y51.925 E2.12508
G1 X79.088 Y52.256 E2.17733
G1 X79.071 Y52.273 E2.17998
G1 X80.309 Y53.257 E2.35437
G1 X80.508 Y53.425 E2.38309
G1 X81.112 Y53.969 E2.47273
G1 X81.342 Y54.193 E2.50813
G1 X81.873 Y54.748 E2.59283
G1 X82.153 Y55.066 E2.63956
G1 X82.721 Y55.784 E2.74051
G1 X82.942 Y56.092 E2.78232
G1 X83.28 Y56.619 E2.85136
G1 X83.477 Y56.964 E2.89517
G1 X83.629 Y57.25 E2.93088
G1 X83.814 Y57.638 E2.97828
G1 X83.94 Y57.927 E3.01305
G1 X84.079 Y58.279 E3.05478
G1 X84.186 Y58.58 E3.09001
G1 X84.309 Y58.977 E3.13584
G1 X84.42 Y59.404 E3.18449
G1 X84.464 Y59.599 E3.20654
G1 X84.558 Y60.15 E3.26818
G1 X84.585 Y60.41 E3.297
G1 X84.6 Y60.766 E3.3363
G1 X84.595 Y61.037 E3.36618
G1 X84.541 Y61.713 E3.44097
G1 X84.431 Y62.452 E3.52336
G1 X84.334 Y62.978 E3.58234
G1 X84.19 Y63.584 E3.65103
G1 X84.122 Y63.812 E3.67726
G1 X83.912 Y64.379 E3.74394
G1 X83.805 Y64.627 E3.77372
G1 X83.736 Y64.765 E3.79074
G1 X83.445 Y65.293 E3.85722
G1 X83.305 Y65.519 E3.88654
G1 X83.17 Y65.703 E3.9117
G1 X82.747 Y66.228 E3.98605
G1 X82.516 Y66.48 E4.02375
G1 X82.136 Y66.828 E4.08057
G1 X81.908 Y67.008 E4.1126
G1 X81.436 Y67.327 E4.17542
G1 X80.852 Y67.672 E4.25022
G1 X80.613 Y67.803 E4.28028
G1 X79.936 Y68.149 E4.36412
G1 X79.619 Y68.295 E4.4026
G1 X79.312 Y68.423 E4.43928
G1 X78.953 Y68.558 E4.48158
G1 X78.624 Y68.667 E4.5198
G1 X78.251 Y68.774 E4.56259
G1 X77.931 Y68.853 E4.59893
G1 X77.432 Y68.949 E4.65497
G1 X77.073 Y68.999 E4.69494
G1 X76.905 Y69.016 E4.71356
G1 X76.288 Y69.049 E4.7817
G1 X74.595 Y69.044 E4.96839
G1 X73.026 Y69.049 E5.14141
G1 X72.813 Y69.04 E5.16492
G1 X72.186 Y68.987 E5.23431
G1 X71.992 Y68.961 E5.2559
G1 X70.935 Y68.777 E5.37421
G1 X69.642 Y68.491 E5.52024
G1 X68.275 Y68.12 E5.67644
G1 X67.157 Y67.763 E5.80586
G1 X65.892 Y67.309 E5.95406
G1 X65.56 Y67.178 E5.99342
G1 X64.923 Y66.969 E6.06735
G1 X64.252 Y66.841 E6.14268
G1 X63.571 Y66.798 E6.21792
G1 X62.889 Y66.841 E6.29328
G1 X62.218 Y66.971 E6.36865
G1 X61.57 Y67.184 E6.44387
G1 X60.954 Y67.477 E6.51909
G1 X60.383 Y67.842 E6.59382
G1 X60.084 Y68.08 E6.63597
G1 X59.968 Y68.162 E6.65163
G1 X59.389 Y68.534 E6.72752
G1 X59.21 Y68.633 E6.75008
G1 X58.823 Y68.802 E6.79665
G1 X58.616 Y68.88 E6.82104
G1 X58.368 Y68.958 E6.84971
G1 X58.191 Y68.997 E6.86969
G1 X57.535 Y69.11 E6.9431
G1 X57.377 Y69.129 E6.96065
G1 X56.926 Y69.139 E7.01039
G1 X56.651 Y69.128 E7.04074
G1 X56.384 Y69.102 E7.07033
G1 X55.88 Y69.003 E7.12697
G1 X55.607 Y68.93 E7.15813
G1 X55.295 Y68.827 E7.19436
G1 X54.84 Y68.625 E7.24926
G1 X54.598 Y68.497 E7.27945
G1 X54.179 Y68.236 E7.33388
G1 X53.821 Y67.95 E7.38441
G1 X53.579 Y67.729 E7.42055
G1 X53.059 Y67.307 E7.4944
G1 X52.479 Y66.948 E7.56962
G1 X51.858 Y66.664 E7.64492
G1 X51.206 Y66.462 E7.72019
G1 X50.534 Y66.342 E7.79547
G1 X49.852 Y66.309 E7.87076
G1 X49.171 Y66.362 E7.94609
G1 X48.502 Y66.5 E8.02141
G1 X47.856 Y66.722 E8.09674
G1 X47.243 Y67.023 E8.17205
G1 X46.676 Y67.399 E8.24707
G1 X46.251 Y67.756 E8.30828
G1 X46.082 Y67.913 E8.33372
G1 X45.869 Y68.09 E8.36426
G1 X45.666 Y68.236 E8.39183
G1 X45.364 Y68.422 E8.43094
G1 X44.739 Y68.734 E8.50797
G1 X44.627 Y68.773 E8.52105
G1 X43.991 Y68.963 E8.59425
G1 X43.76 Y69.014 E8.62034
G1 X43.371 Y69.066 E8.66361
G1 X43.147 Y69.084 E8.68839
G1 X42.924 Y69.092 E8.713
G1 X42.392 Y69.063 E8.77175
G1 X42.021 Y69.011 E8.81307
G1 X41.827 Y68.97 E8.83493
G1 X41.458 Y68.871 E8.87706
G1 X41.206 Y68.787 E8.90635
G1 X40.965 Y68.694 E8.93484
G1 X40.825 Y68.625 E8.95205
G1 X40.296 Y68.339 E9.01837
G1 X40.111 Y68.22 E9.04262
G1 X39.368 Y67.663 E9.14502
G1 X39.362 Y67.671 E9.14613
G1 X39.31 Y67.633 E9.15323
G1 X38.714 Y67.301 E9.22846
G1 X38.08 Y67.047 E9.30378
G1 X37.419 Y66.875 E9.37909
G1 X36.741 Y66.789 E9.45446
G1 X36.058 Y66.789 E9.52978
G1 X35.376 Y66.875 E9.60558
G1 X34.498 Y67.124 E9.70622
G1 X33.948 Y67.331 E9.77102
G1 X32.631 Y67.778 E9.92439
G1 X31.093 Y68.223 E10.10095
G1 X30.014 Y68.479 E10.22324
G1 X29.364 Y68.619 E10.29656
G1 X28.365 Y68.807 E10.40866
G1 X27.025 Y68.994 E10.55785
G1 X26.843 Y69.012 E10.57802
G1 X26.359 Y69.045 E10.63152
G1 X25.02 Y69.049 E10.77918
G1 X24.812 Y69.04 E10.80214
G1 X24.206 Y68.99 E10.86919
G1 X24.038 Y68.969 E10.88786
G1 X22.682 Y68.742 E11.03947
G1 X22.327 Y68.667 E11.07948
G1 X21.637 Y68.498 E11.15782
G1 X21.319 Y68.407 E11.19429
G1 X20.615 Y68.172 E11.27614
G1 X20.251 Y68.034 E11.31907
G1 X19.943 Y67.902 E11.35602
G1 X19.566 Y67.725 E11.40195
G1 X19.28 Y67.576 E11.43751
G1 X18.846 Y67.322 E11.49296
G1 X18.557 Y67.134 E11.53098
G1 X18.168 Y66.855 E11.58377
G1 X17.905 Y66.642 E11.62109
G1 X17.604 Y66.376 E11.66539
G1 X17.388 Y66.167 E11.69853
G1 X16.97 Y65.708 E11.76699
G1 X16.768 Y65.459 E11.80235
G1 X16.4 Y64.933 E11.87314
G1 X16.344 Y64.844 E11.88473
G1 X16.166 Y64.535 E11.92406
G1 X15.935 Y64.077 E11.98062
G1 X15.785 Y63.736 E12.0217
G1 X15.615 Y63.257 E12.07775
G1 X15.54 Y62.989 E12.10844
G1 X15.478 Y62.692 E12.1419
G1 X15.438 Y62.405 E12.17385
G1 X15.406 Y61.961 E12.22294
G1 X15.4 Y61.782 E12.24269
G1 X15.404 Y60.508 E12.38318
G1 X15.427 Y60.14 E12.42384
G1 X15.471 Y59.817 E12.45979
G1 X15.571 Y59.344 E12.5131
G1 X15.711 Y58.848 E12.56993
G1 X15.798 Y58.587 E12.60027
G1 X15.914 Y58.278 E12.63667
G1 X16.075 Y57.891 E12.68289
G1 X16.22 Y57.579 E12.72083
G1 X16.364 Y57.295 E12.75594
G1 X16.531 Y56.987 E12.79458
G1 X16.758 Y56.615 E12.84264
G1 X17.155 Y56.029 E12.92069
G1 X17.466 Y55.613 E12.97797
G1 X17.997 Y54.982 E13.06891
G1 X18.189 Y54.776 E13.09996
G1 X18.708 Y54.252 E13.18129
G1 X18.975 Y53.998 E13.22193
G1 X19.557 Y53.485 E13.30748
G1 X20.544 Y52.695 E13.44689
G1 X20.917 Y52.368 E13.50159
G1 X22.619 Y50.732 E13.76193
G1 X22.786 Y50.58 E13.78683
G1 X23.704 Y49.688 E13.92798
G1 X24.325 Y48.97 E14.03266
G1 X24.87 Y48.205 E14.13624
G1 X24.865 Y48.196 E14.13737
G1 X25.074 Y47.879 E14.17925
G1 X25.376 Y47.264 E14.2548
G1 X25.627 Y46.497 E14.34379
G1 X25.682 Y46.289 E14.36752
G1 X25.814 Y45.854 E14.41765
G1 X25.863 Y45.716 E14.4338
G1 X26.054 Y45.257 E14.48862
G1 X26.141 Y45.068 E14.51156
G1 X26.439 Y44.531 E14.57929
G1 X26.742 Y43.901 E14.65638
G1 X26.907 Y43.518 E14.70237
G1 X27.094 Y43.146 E14.74828
G1 X27.253 Y42.861 E14.78427
G1 X27.515 Y42.442 E14.83876
G1 X27.849 Y41.976 E14.90198
G1 X28.228 Y41.421 E14.9761
G1 X28.564 Y40.752 E15.05865
G1 X28.73 Y40.361 E15.10549
G1 X28.866 Y40.083 E15.13962
G1 X29.202 Y39.493 E15.21449
G1 X29.381 Y39.234 E15.24921
G1 X29.644 Y38.898 E15.29626
G1 X29.999 Y38.384 E15.36515
G1 X30.01 Y38.39 E15.36653
G1 X30.466 Y37.529 E15.47397
G1 X30.632 Y37.261 E15.50873
G1 X31.039 Y36.692 E15.58588
G1 X31.201 Y36.498 E15.61375
G1 X31.466 Y36.211 E15.65683
G1 X31.68 Y36.005 E15.68958
G1 X31.877 Y35.84 E15.71792
G1 X32.146 Y35.646 E15.75449
G1 X32.635 Y35.346 E15.81776
G1 X32.789 Y35.261 E15.83715
G1 X34.38 Y34.472 E16.03299
G1 X34.574 Y34.357 E16.05786
G1 X34.583 Y34.373 E16.05988
G1 X35.28 Y33.935 E16.15066
G1 X35.875 Y33.636 E16.22409
G1 X36.182 Y33.503 E16.26099
G1 X36.727 Y33.315 E16.32456
G1 X37.04 Y33.225 E16.36048
G1 X37.507 Y33.121 E16.41323
G1 X37.838 Y33.064 E16.45027
G1 X38.297 Y33.009 E16.50125
G1 X38.614 Y32.986 E16.5363
G1 X39.038 Y32.92 E16.58362
G1 X39.038 Y32.957 E16.5877
G1 X39.627 Y32.823 E16.65431
G1 X39.978 Y32.752 E16.6938
G1 X40.337 Y32.691 E16.73396
G1 X40.662 Y32.649 E16.77009
G1 X41.03 Y32.615 E16.81085
G1 X41.489 Y32.596 E16.86151
G1 X41.814 Y32.598 E16.89735
G1 X42.407 Y32.637 E16.96288
G1 X42.742 Y32.678 E17.0001
G1 X43.142 Y32.754 E17.04499
G1 X43.575 Y32.825 E17.09338
G1 X44.237 Y32.926 E17.16723
G1 X44.845 Y33.061 E17.23591
G1 X45.387 Y33.216 E17.29807
G1 X45.964 Y33.42 E17.36556
G1 X46.516 Y33.654 E17.43167
G1 X46.713 Y33.755 E17.45609
G1 X46.881 Y33.852 E17.47748
G1 X47.177 Y34.008 E17.51438
G1 X47.752 Y34.29 E17.585
G1 X47.755 Y34.284 E17.58574
G1 X48.39 Y34.499 E17.65967
G1 X49.059 Y34.635 E17.73495
G1 X49.74 Y34.687 E17.81026
G1 X50.422 Y34.651 E17.88558
G1 X51.094 Y34.53 E17.96087
G1 X51.745 Y34.325 E18.03614
G1 X52.362 Y34.041 E18.11104
G1 X52.78 Y33.79 E18.1648
G1 X53.029 Y33.628 E18.19756
G1 X53.467 Y33.388 E18.25264
G1 X53.748 Y33.26 E18.28669
G1 X54.28 Y33.066 E18.34913
G1 X54.547 Y32.99 E18.37974
G1 X55.067 Y32.867 E18.43867
G1 X55.362 Y32.818 E18.47164
G1 X56.073 Y32.73 E18.55065
G1 X56.073 Y32.706 E18.55329
G1 X56.446 Y32.638 E18.5951
G1 X56.877 Y32.526 E18.64421
G1 X57.178 Y32.467 E18.67804
G1 X57.511 Y32.424 E18.71506
G1 X57.886 Y32.401 E18.75649
G1 X58.023 Y32.4 E18.7716
G1 X58.516 Y32.427 E18.82605
G1 X58.829 Y32.47 E18.86089
G1 X59.346 Y32.58 E18.91917
G1 X59.729 Y32.688 E18.96306
G1 X60.386 Y32.842 E19.03747
G1 X61.262 Y32.915 E19.1344
G1 X61.719 Y32.921 E19.1848
G1 X62.417 Y33.012 E19.26243
G1 X62.575 Y33.041 E19.28014
G1 X63.338 Y33.267 E19.36789
G1 X63.632 Y33.378 E19.40255
G1 X63.816 Y33.46 E19.42476
G1 X64.351 Y33.729 E19.4908
G1 X64.542 Y33.835 E19.51488
G1 X64.861 Y34.036 E19.55646
G1 X65.444 Y34.361 E19.63007
G1 X66.301 Y34.706 E19.73194
G1 X66.799 Y34.935 E19.79239
G1 X67.141 Y35.124 E19.83548
G1 X67.377 Y35.273 E19.86625
G1 X67.541 Y35.388 E19.88834
G1 X68.058 Y35.786 E19.96029
G1 X68.327 Y36.02 E19.99961
G1 F3600 X68.8 Y36.536
G1 F1200 X68.8 Y68.262 E23.49816
G1 F3600 X70.4 Y68.658
G1 F1200 X70.4 Y38.961 E26.77297
G1 F3600 X72 Y41.404
G1 F1200 X72 Y68.962 E29.8119
G1 F3600 X73.6 Y69.048
G1 F1200 X73.6 Y44.189 E32.5532
G1 F3600 X75.2 Y48.002
M73 P1
G1 F1200 X75.2 Y69.045 E34.87369
G1 F3600 X76.8 Y69.022
G1 F1200 X76.8 Y49.702 E37.00419
G1 F3600 X78.4 Y51.484
G1 F1200 X78.4 Y68.732 E38.90619
G1 F3600 X80 Y68.117
G1 F1200 X80 Y53.012 E40.57188
G1 F3600 X81.6 Y54.463
G1 F1200 X81.6 Y67.217 E41.97831
G1 F3600 X83.2 Y65.663
G1 F1200 X83.2 Y56.495 E42.98931
G1 F3600 X67.2 Y67.776
G1 F1200 X67.2 Y35.162 E46.58578
G1 F3600 X65.6 Y34.424
G1 F1200 X65.6 Y67.193 E50.19935
G1 F3600 X64 Y66.825
G1 F1200 X64 Y33.553 E53.86838
G1 F3600 X62.4 Y33.01
G1 F1200 X62.4 Y66.936 E57.60954
G1 F3600 X60.8 Y67.576
G1 F1200 X60.8 Y32.877 E61.43594
G1 F3600 X59.2 Y32.549
G1 F1200 X59.2 Y68.638 E65.41561
G1 F3600 X57.6 Y69.099
G1 F1200 X57.6 Y32.418 E69.46057
G1 F3600 X56 Y32.739
G1 F1200 X56 Y69.026 E73.46209
G1 F3600 X54.4 Y68.373
G1 F1200 X54.4 Y33.031 E77.35939
G1 F3600 X52.8 Y33.776
G1 F1200 X52.8 Y67.146 E81.03923
G1 F3600 X51.2 Y66.46
G1 F1200 X51.2 Y34.496 E84.56403
G1 F3600 X49.6 Y34.677
G1 F1200 X49.6 Y66.329 E88.05442
G1 F3600 X48 Y66.673
G1 F1200 X48 Y34.367 E91.61693
G1 F3600 X46.4 Y33.605
G1 F1200 X46.4 Y67.631 E95.36911
G1 F3600 X44.8 Y68.704
G1 F1200 X44.8 Y33.052 E99.3006
G1 F3600 X43.2 Y32.764
G1 F1200 X43.2 Y69.08 E103.30531
G1 F3600 X41.6 Y68.909
G1 F1200 X41.6 Y32.597 E107.30958
G1 F3600 X40 Y32.748
G1 F1200 X40 Y68.136 E111.21196
G1 F3600 X38.4 Y67.175
G1 F1200 X38.4 Y33.001 E114.98046
G1 F3600 X36.8 Y33.294
G1 F1200 X36.8 Y66.796 E118.67486
G1 F3600 X35.2 Y66.925
G1 F1200 X35.2 Y33.985 E122.30728
G1 F3600 X33.6 Y34.858
G1 F1200 X33.6 Y67.45 E125.90133
G1 F3600 X32 Y67.961
G1 F1200 X32 Y35.751 E129.45326
G1 F3600 X30.4 Y37.653
G1 F1200 X30.4 Y68.388 E132.84253
G1 F3600 X28.8 Y68.726
G1 F1200 X28.8 Y40.217 E135.98633
G1 F3600 X27.2 Y42.956
G1 F1200 X27.2 Y68.97 E138.855
G1 F3600 X25.6 Y69.048
G1 F1200 X25.6 Y46.579 E141.33274
G1 F3600 X24 Y49.345
G1 F1200 X24 Y68.962 E143.49599
G1 F3600 X22.4 Y68.682
M104 S200
G1 F1200 X22.4 Y50.942 E145.45225
G1 F3600 X20.8 Y52.47
G1 F1200 X20.8 Y68.233 E147.19049
G1 F3600 X19.2 Y67.529
G1 F1200 X19.2 Y53.799 E148.70456
G1 F3600 X17.6 Y55.453
G1 F1200 X17.6 Y66.372 E149.90864
G1 F3600 X16 Y64.205
G1 F1200 X16 Y58.071 E150.58506
G1 F3600 X68.346 Y35.969
;TIME_ELAPSED:72.677913
;LAYER:-6
G1 X68.346 Y35.969 Z0.619
;TYPE:SUPPORT
G1 F1980 X68.515 Y36.14 E150.60298
G1 X68.978 Y36.657 E150.65471
G1 X69.208 Y36.952 E150.6826
G1 X69.514 Y37.418 E150.72415
G1 X69.701 Y37.755 E150.75288
G1 F3600 X69.817 Y37.997
G1 F1980 X66.61 Y34.79 E151.09096
G1 X66.822 Y34.889 E151.1084
G1 X67.025 Y34.997 E151.12554
G1 X67.405 Y35.23 E151.15876
G1 X67.576 Y35.351 E151.17438
G1 X68.083 Y35.742 E151.2221
G1 X68.346 Y35.969 E151.248
G1 F3600 X66.61 Y34.79
G1 F1980 X66.436 Y34.709 E151.26231
G1 X65.466 Y34.315 E151.34035
G1 X64.887 Y33.992 E151.38977
G1 X64.559 Y33.786 E151.41864
G1 X64.387 Y33.69 E151.43333
G1 X64.086 Y33.539 E151.45843
G1 X72.628 Y42.081 E152.35891
G1 X72.683 Y42.149 E152.36543
G1 X72.791 Y42.306 E152.37963
G1 X73.096 Y42.799 E152.42284
G1 X73.208 Y42.999 E152.43993
G1 X73.274 Y43.136 E152.45127
G1 X73.435 Y43.507 E152.48141
G1 X73.517 Y43.722 E152.49857
G1 X73.713 Y44.399 E152.5511
G1 X73.726 Y44.398 E152.55207
G1 X73.751 Y44.477 E152.55825
G1 X62.208 Y32.934 E153.77509
G1 X61.719 Y32.869 E153.81186
G1 X61.264 Y32.864 E153.84578
G1 X60.83 Y32.828 E153.87824
G1 X74.577 Y46.575 E155.32742
G1 X74.746 Y47.067 E155.36619
G1 X75.046 Y47.673 E155.4166
G1 X75.362 Y48.158 E155.45975
G1 X75.533 Y48.391 E155.48129
G1 X75.96 Y48.902 E155.53093
G1 X76.499 Y49.397 E155.58548
G1 X76.815 Y49.648 E155.61556
G1 X76.947 Y49.76 E155.62847
G1 X77.237 Y50.049 E155.65898
G1 X77.71 Y50.533 E155.70943
G1 X77.822 Y50.657 E155.72189
G1 X78.094 Y50.992 E155.75405
G1 X78.373 Y51.369 E155.78901
G1 X78.786 Y51.891 E155.83863
G1 X79.159 Y52.255 E155.87748
G1 X79.146 Y52.267 E155.8788
G1 X79.784 Y52.781 E155.93987
G1 X80.399 Y53.266 E155.99825
G1 X80.598 Y53.436 E156.01776
G1 X81.163 Y53.948 E156.0746
G1 X81.448 Y54.228 E156.10438
G1 X81.993 Y54.803 E156.16343
G1 X82.283 Y55.145 E156.19686
G1 X82.761 Y55.752 E156.25445
G1 X82.979 Y56.057 E156.2824
G1 X83.323 Y56.593 E156.32987
G1 F3600 X83.325 Y56.596
G1 F1980 X59.232 Y32.503 E158.8697
G1 X58.846 Y32.42 E158.89913
G1 X58.512 Y32.376 E158.92424
G1 X58.149 Y32.352 E158.95136
G1 X57.945 Y32.348 E158.96657
G1 X57.809 Y32.353 E158.97671
G1 X84.33 Y58.875 E161.77255
G1 X84.355 Y58.955 E161.7788
G1 X84.469 Y59.392 E161.81246
G1 X84.549 Y59.779 E161.84192
G1 X84.61 Y60.164 E161.87098
G1 X84.635 Y60.408 E161.88926
G1 X84.637 Y60.454 E161.89269
G1 X56.702 Y32.519 E164.83754
G1 X56.434 Y32.587 E164.85815
G1 X56.021 Y32.664 E164.88946
G1 X56.021 Y32.683 E164.89088
G1 X55.642 Y32.731 E164.91936
G1 X84.594 Y61.684 E167.97146
G1 X84.592 Y61.707 E167.97318
G1 X84.521 Y62.204 E168.01061
G1 X84.42 Y62.782 E168.05434
G1 X54.57 Y32.932 E171.20106
G1 X54.532 Y32.941 E171.20397
G1 X54.251 Y33.021 E171.22575
