M73 P0
;MINX:17.2
;MAXX:82.8
;MINY:27.4
;MAXY:92.6
;MINZ:0.0
;MAXZ:6.4
;MachineType:ENTINA TINA2
;FilamentType:PLA
;Extruder0Temperature:200
;InfillDensity:10
;FLAVOR:Marlin
;TIME:2344
;FilamentUsed:2184.0
;Layer height: 0.2

;Generated with Cura_SteamEngine 3.1
M104 T0 S215
M82 ; absolute extrusion mode
;(**** start.gcode for tina2****)
M104 S150
G28 Z
G28 X Y; Home extruder
G1 X55 Y55 F1000
G1 Z10 F200
G29
G1 Z15 F100
M107 ; Turn off fan
G90 ; Absolute positioning
M82 ; Extruder in absolute mode
M109 S215.0
G92 E0 ; Reset extruder position
G1 X90 Y6 Z0.27 F2000
G1 X20 Y6 Z0.27 E15 F1000
G92 E0 ; Reset extruder position

;LAYER_COUNT:26
;LAYER:-6
M107
M203 Z5
G1 F3600 X75.412 Y32.221 Z0.349
G1 F1200 X75.776 Y32.517 E0.05174
G1 X76.528 Y33.196 E0.16346
G1 X76.883 Y33.547 E0.21852
G1 X77.552 Y34.281 E0.32803
G1 X77.875 Y34.669 E0.3837
G1 X78.54 Y35.564 E0.50666
G1 X78.818 Y35.987 E0.56248
G1 X79.33 Y36.845 E0.67266
G1 X79.556 Y37.274 E0.72613
G1 X80 Y38.22 E0.84137
G1 X80.184 Y38.674 E0.89539
G1 X80.516 Y39.606 E1.00449
G1 X80.654 Y40.072 E1.05808
G1 X80.906 Y41.085 E1.1732
G1 X80.998 Y41.569 E1.22752
G1 X81.144 Y42.573 E1.3394
G1 X81.187 Y43.054 E1.39266
G1 X81.234 Y44.051 E1.50272
G1 X81.232 Y44.519 E1.55433
G1 X81.177 Y45.588 E1.67237
G1 X81.13 Y46.036 E1.72204
G1 X80.976 Y47.064 E1.83667
G1 X80.909 Y47.402 E1.87467
G1 X80.659 Y48.414 E1.98962
G1 X80.52 Y48.882 E2.04346
G1 X80.129 Y49.968 E2.17074
G1 X79.947 Y50.398 E2.22223
G1 X79.514 Y51.309 E2.33346
G1 X79.293 Y51.72 E2.38492
G1 X78.751 Y52.62 E2.50077
G1 X78.488 Y53.009 E2.55255
G1 X77.929 Y53.762 E2.65597
G1 X77.64 Y54.118 E2.70653
G1 X76.954 Y54.878 E2.81943
G1 X76.61 Y55.226 E2.87339
G1 X75.858 Y55.912 E2.98564
G1 X75.481 Y56.225 E3.03967
G1 X74.841 Y56.703 E3.12776
G1 X74.328 Y57.136 E3.20179
G1 X73.867 Y57.639 E3.27703
G1 X73.473 Y58.196 E3.35227
G1 X73.151 Y58.799 E3.42765
G1 X72.909 Y59.437 E3.50289
G1 X72.749 Y60.101 E3.57821
G1 X72.674 Y60.779 E3.65343
G1 X72.685 Y61.462 E3.72876
G1 X72.783 Y62.138 E3.80408
G1 X72.964 Y62.796 E3.87934
G1 X73.228 Y63.427 E3.95477
G1 X73.569 Y64.018 E4.03001
G1 X73.657 Y64.134 E4.04607
G1 X73.64 Y64.146 E4.04836
G1 X74.257 Y64.901 E4.15588
G1 X74.879 Y65.744 E4.27141
G1 X75.15 Y66.156 E4.32579
G1 X75.69 Y67.06 E4.44191
G1 X75.908 Y67.472 E4.49331
G1 X76.359 Y68.43 E4.61007
G1 X76.543 Y68.88 E4.66368
G1 X76.904 Y69.905 E4.78352
G1 X77.027 Y70.316 E4.83083
G1 X77.286 Y71.356 E4.94902
G1 X77.378 Y71.833 E5.00259
G1 X77.509 Y72.721 E5.10157
G1 X77.564 Y73.229 E5.15792
G1 X77.618 Y74.273 E5.2732
G1 X77.622 Y74.743 E5.32503
G1 X77.572 Y75.828 E5.4448
G1 X77.53 Y76.286 E5.49552
G1 X77.378 Y77.341 E5.61306
G1 X77.288 Y77.812 E5.66594
G1 X77.036 Y78.827 E5.78126
G1 X76.904 Y79.272 E5.83245
G1 X76.543 Y80.297 E5.95229
G1 X76.366 Y80.732 E6.00407
G1 X75.912 Y81.697 E6.12168
G1 X75.688 Y82.12 E6.17446
G1 X75.154 Y83.014 E6.28929
G1 X74.884 Y83.426 E6.34361
G1 X74.19 Y84.361 E6.47202
G1 X73.897 Y84.715 E6.52269
G1 X73.187 Y85.495 E6.639
G1 X72.842 Y85.836 E6.69249
G1 X72.068 Y86.536 E6.80757
G1 X71.7 Y86.836 E6.85993
G1 X70.844 Y87.469 E6.97733
G1 X70.435 Y87.738 E7.03131
G1 X69.545 Y88.269 E7.1456
G1 X69.123 Y88.493 E7.19828
G1 X68.171 Y88.941 E7.31431
G1 X67.707 Y89.13 E7.36956
G1 X66.798 Y89.455 E7.47601
G1 X66.371 Y89.587 E7.5253
G1 X65.334 Y89.851 E7.6433
G1 X64.872 Y89.946 E7.69531
G1 X63.806 Y90.105 E7.81416
G1 X63.354 Y90.151 E7.86426
G1 X62.308 Y90.205 E7.97976
G1 X61.847 Y90.209 E8.0306
G1 X60.749 Y90.159 E8.15181
G1 X60.302 Y90.118 E8.20131
G1 X59.233 Y89.963 E8.32042
G1 X58.808 Y89.882 E8.36813
G1 X57.769 Y89.625 E8.48616
G1 X57.208 Y89.457 E8.55074
G1 X56.189 Y89.089 E8.67021
G1 X55.779 Y88.918 E8.7192
G1 X54.816 Y88.461 E8.83674
G1 X54.4 Y88.237 E8.88885
G1 X53.452 Y87.666 E9.01088
G1 X53.094 Y87.424 E9.05854
G1 X52.243 Y86.788 E9.17569
G1 X51.964 Y86.558 E9.21556
G1 X51.421 Y86.166 E9.28942
G1 X50.821 Y85.839 E9.36477
G1 X50.185 Y85.59 E9.44009
G1 X49.523 Y85.424 E9.51535
G1 X48.845 Y85.342 E9.59066
G1 X48.162 Y85.346 E9.66598
G1 X47.486 Y85.437 E9.74119
G1 X46.826 Y85.612 E9.81649
G1 X46.193 Y85.869 E9.89183
G1 X45.595 Y86.206 E9.96752
G1 X44.92 Y86.726 E10.06148
G1 X44.143 Y87.427 E10.17688
G1 X43.785 Y87.717 E10.22769
G1 X43.037 Y88.273 E10.33046
G1 X42.627 Y88.549 E10.38497
G1 X41.742 Y89.081 E10.49883
G1 X41.321 Y89.308 E10.55158
G1 X40.383 Y89.753 E10.66607
G1 X39.971 Y89.926 E10.71534
G1 X38.966 Y90.289 E10.83317
G1 X38.514 Y90.427 E10.88529
G1 X37.538 Y90.673 E10.99628
G1 X37.052 Y90.774 E11.05102
G1 X36.031 Y90.927 E11.16487
G1 X35.566 Y90.975 E11.21642
G1 X34.54 Y91.028 E11.32971
G1 X34.079 Y91.032 E11.38055
G1 X33 Y90.983 E11.49966
G1 X32.552 Y90.941 E11.54928
G1 X31.484 Y90.786 E11.66828
G1 X31.06 Y90.703 E11.71593
G1 X29.95 Y90.427 E11.84206
G1 X29.487 Y90.284 E11.89549
G1 X28.508 Y89.931 E12.01026
G1 X28.064 Y89.745 E12.06334
G1 X27.132 Y89.301 E12.17718
G1 X26.714 Y89.075 E12.22958
G1 X25.808 Y88.529 E12.34623
G1 X25.429 Y88.272 E12.39673
G1 X24.678 Y87.715 E12.49983
G1 X24.306 Y87.414 E12.5526
G1 X23.506 Y86.69 E12.67159
G1 X23.182 Y86.367 E12.72204
G1 X22.502 Y85.62 E12.83343
G1 X22.134 Y85.172 E12.89736
G1 X21.515 Y84.331 E13.01252
G1 X21.252 Y83.932 E13.06521
G1 X20.725 Y83.047 E13.1788
G1 X20.508 Y82.638 E13.22986
G1 X20.057 Y81.678 E13.34682
G1 X19.88 Y81.24 E13.39891
G1 X19.54 Y80.283 E13.51091
G1 X19.423 Y79.9 E13.55507
G1 X19.147 Y78.79 E13.6812
G1 X19.064 Y78.366 E13.72884
G1 X18.908 Y77.293 E13.84841
G1 X18.866 Y76.838 E13.8988
G1 X18.818 Y75.781 E14.01548
G1 X18.822 Y75.31 E14.06742
G1 X18.874 Y74.291 E14.17994
G1 X18.923 Y73.819 E14.23227
G1 X19.074 Y72.808 E14.34499
G1 X19.175 Y72.32 E14.39994
G1 X19.424 Y71.332 E14.5123
G1 X19.566 Y70.87 E14.5656
G1 X19.922 Y69.884 E14.6812
G1 X20.097 Y69.467 E14.73107
G1 X20.542 Y68.529 E14.84556
G1 X20.766 Y68.113 E14.89766
G1 X21.299 Y67.226 E15.01177
G1 X21.571 Y66.821 E15.06557
G1 X22.133 Y66.065 E15.16945
G1 X22.407 Y65.727 E15.21743
G1 X23.135 Y64.917 E15.33753
G1 X23.483 Y64.566 E15.39203
G1 X24.225 Y63.89 E15.50272
G1 X24.678 Y63.517 E15.56743
G1 X25.455 Y62.943 E15.67396
G1 X26.161 Y62.47 E15.76767
G1 X26.153 Y62.454 E15.76964
G1 X26.373 Y62.293 E15.7997
G1 X26.87 Y61.824 E15.87506
G1 X27.303 Y61.296 E15.95036
G1 X27.665 Y60.717 E16.02566
G1 X27.952 Y60.098 E16.1009
G1 X28.158 Y59.447 E16.1762
G1 X28.281 Y58.775 E16.25153
G1 X28.318 Y58.093 E16.32685
G1 X28.268 Y57.412 E16.40215
G1 X28.133 Y56.743 E16.47741
G1 X27.915 Y56.096 E16.5527
G1 X27.614 Y55.478 E16.6285
G1 X27.327 Y55.059 E16.6845
G1 X27.344 Y55.042 E16.68716
G1 X27.015 Y54.621 E16.74608
G1 X26.414 Y53.806 E16.85774
G1 X26.169 Y53.437 E16.90659
G1 X25.628 Y52.528 E17.02324
G1 X25.418 Y52.126 E17.07325
G1 X24.981 Y51.194 E17.18676
G1 X24.815 Y50.792 E17.23472
G1 X24.498 Y49.903 E17.3388
G1 X24.363 Y49.465 E17.38934
G1 X24.105 Y48.443 E17.50558
G1 X24.007 Y47.95 E17.56101
G1 X23.855 Y46.91 E17.67691
G1 X23.813 Y46.433 E17.72972
G1 X23.766 Y45.447 E17.83857
G1 X23.768 Y44.983 E17.88974
G1 X23.822 Y43.929 E18.00612
G1 X23.866 Y43.503 E18.05335
G1 X24.013 Y42.513 E18.16371
G1 X24.112 Y42.029 E18.21819
G1 X24.363 Y41.035 E18.33124
G1 X24.498 Y40.597 E18.38179
G1 X24.844 Y39.637 E18.49432
G1 X25.031 Y39.193 E18.54744
G1 X25.466 Y38.276 E18.65936
G1 X25.693 Y37.857 E18.71191
G1 X26.197 Y37.019 E18.81975
G1 X26.49 Y36.587 E18.87731
G1 X27.095 Y35.778 E18.98871
G1 X27.377 Y35.437 E19.03751
G1 X28.062 Y34.685 E19.14968
G1 X28.411 Y34.34 E19.2038
G1 X29.148 Y33.675 E19.31326
G1 X29.53 Y33.365 E19.36751
G1 X30.334 Y32.771 E19.47774
G1 X30.705 Y32.524 E19.52689
G1 X31.613 Y31.983 E19.64345
G1 X32.024 Y31.768 E19.6946
G1 X32.95 Y31.333 E19.80742
G1 X33.287 Y31.194 E19.84762
G1 X34.247 Y30.848 E19.96014
G1 X34.685 Y30.713 E20.01069
G1 X35.679 Y30.462 E20.12374
G1 X36.193 Y30.357 E20.18159
G1 X37.153 Y30.216 E20.28859
G1 X37.598 Y30.171 E20.33791
G1 X38.633 Y30.118 E20.4522
G1 X39.088 Y30.116 E20.50237
G1 X40.083 Y30.163 E20.61222
G1 X40.584 Y30.208 E20.66768
G1 X41.637 Y30.363 E20.78505
G1 X42.121 Y30.462 E20.83953
G1 X43.115 Y30.713 E20.95259
G1 X43.553 Y30.848 E21.00313
G1 X44.442 Y31.166 E21.10724
G1 X44.85 Y31.333 E21.15586
G1 X45.776 Y31.768 E21.26868
G1 X46.178 Y31.978 E21.31869
G1 X47.087 Y32.519 E21.43534
G1 X47.456 Y32.764 E21.48419
G1 X48.347 Y33.426 E21.60659
G1 X48.899 Y33.805 E21.68043
G1 X49.505 Y34.118 E21.75564
G1 X50.147 Y34.352 E21.83099
G1 X50.813 Y34.503 E21.9063
G1 X51.493 Y34.569 E21.98164
G1 X52.175 Y34.548 E22.05688
G1 X52.849 Y34.442 E22.13212
G1 X53.505 Y34.251 E22.20746
G1 X54.131 Y33.98 E22.28269
G1 X54.72 Y33.63 E22.35824
G1 X55.291 Y33.181 E22.43834
G1 X56.024 Y32.517 E22.54741
G1 X56.388 Y32.221 E22.59914
G1 X57.141 Y31.661 E22.70262
G1 X57.637 Y31.332 E22.76826
G1 X58.495 Y30.82 E22.87844
G1 X58.924 Y30.594 E22.93191
G1 X59.87 Y30.15 E23.04715
G1 X60.324 Y29.966 E23.10117
G1 X61.256 Y29.634 E23.21027
G1 X61.73 Y29.494 E23.26477
G1 X62.748 Y29.241 E23.38044
G1 X63.061 Y29.179 E23.41563
G1 X64.107 Y29.021 E23.53229
G1 X64.554 Y28.974 E23.58185
G1 X65.631 Y28.918 E23.70078
G1 X66.09 Y28.916 E23.75139
G1 X67.096 Y28.963 E23.86245
G1 X67.577 Y29.006 E23.9157
G1 X68.581 Y29.152 E24.02758
G1 X69.052 Y29.24 E24.08042
G1 X70.187 Y29.526 E24.20949
G1 X70.611 Y29.657 E24.25843
G1 X71.62 Y30.022 E24.37675
G1 X72.048 Y30.203 E24.428
G1 X72.959 Y30.636 E24.53923
G1 X73.37 Y30.857 E24.59069
G1 X74.27 Y31.399 E24.70654
G1 X74.659 Y31.662 E24.75832
G1 X75.412 Y32.221 E24.86174
G1 F3600 X75.2 Y32.064
G1 F1200 X75.2 Y56.435 E27.54922
G1 F1680 E24.54922
G1 F3600 X76.8 Y55.034
G1 F1680 E27.54922
G1 F1200 X76.8 Y33.465 E29.92772
G1 F1680 E26.92772
G1 F3600 X78.4 Y35.376
G1 F1680 E29.92772
G1 F1200 X78.4 Y53.128 E31.88531
G1 F1680 E28.88531
G1 F3600 X80 Y50.273
G1 F1680 E31.88531
G1 F1200 X80 Y38.22 E33.21444
G1 F1680 E30.21444
G1 F3600 X73.6 Y30.996
G1 F1680 E33.21444
G1 F1200 X73.6 Y58.017 E36.19415
G1 F1680 E33.19415
G1 F3600 X73.6 Y64.059
G1 F1680 E36.19415
G1 F1200 X73.6 Y85.042 E38.50803
G1 F1680 E35.50803
G1 F3600 X72 Y86.592
G1 F1680 E38.50803
G1 F1200 X72 Y30.183 E44.72848
G1 F1680 E41.72848
G1 F3600 X70.4 Y29.592
G1 F1680 E44.72848
G1 F1200 X70.4 Y87.759 E51.14278
G1 F1680 E48.14278
G1 F3600 X68.8 Y88.645
G1 F1680 E51.14278
G1 F1200 X68.8 Y29.193 E57.69879
G1 F1680 E54.69879
G1 F3600 X67.2 Y28.973
G1 F1680 E57.69879
G1 F1200 X67.2 Y89.312 E64.35261
G1 F1680 E61.35261
G1 F3600 X65.6 Y89.784
G1 F1680 E64.35261
G1 F1200 X65.6 Y28.919 E71.06444
G1 F1680 E68.06444
M73 P1
G1 F3600 X64 Y29.037
G1 F1680 E71.06444
G1 F1200 X64 Y90.077 E77.79556
G1 F1680 E74.79556
G1 F3600 X62.4 Y90.201
G1 F1680 E77.79556
G1 F1200 X62.4 Y29.327 E84.50838
G1 F1680 E81.50838
G1 F3600 X60.8 Y29.796
G1 F1680 E84.50838
G1 F1200 X60.8 Y90.161 E91.16507
G1 F1680 E88.16507
G1 F3600 X59.2 Y89.956
G1 F1680 E91.16507
G1 F1200 X59.2 Y30.464 E97.72549
G1 F1680 E94.72549
G1 F3600 X57.6 Y31.356
G1 F1680 E97.72549
G1 F1200 X57.6 Y89.574 E104.14542
G1 F1680 E101.14542
G1 F3600 X56 Y89.01
G1 F1680 E104.14542
G1 F1200 X56 Y32.538 E110.37281
G1 F1680 E107.37281
G1 F3600 X54.4 Y33.82
G1 F1680 E110.37281
G1 F1200 X54.4 Y88.237 E116.37359
G1 F1680 E113.37359
G1 F3600 X52.8 Y87.204
G1 F1680 E116.37359
G1 F1200 X52.8 Y34.449 E122.19109
G1 F1680 E119.19109
G1 F3600 X51.2 Y34.541
G1 F1680 E122.19109
G1 F1200 X51.2 Y86.045 E127.87064
G1 F1680 E124.87064
G1 F3600 X49.6 Y85.443
G1 F1680 E127.87064
G1 F1200 X49.6 Y34.153 E133.5266
G1 F1680 E130.5266
G1 F3600 X48 Y33.169
G1 F1680 E133.5266
G1 F1200 X48 Y85.368 E139.28279
G1 F1680 E136.28279
G1 F3600 X46.4 Y85.785
G1 F1680 E139.28279
G1 F1200 X46.4 Y32.111 E145.20163
G1 F1680 E142.20163
G1 F3600 X44.8 Y31.313
G1 F1680 E145.20163
G1 F1200 X44.8 Y86.835 E151.32427
G1 F1680 E148.32427
G1 F3600 X43.2 Y88.152
G1 F1680 E151.32427
G1 F1200 X43.2 Y30.74 E157.65531
G1 F1680 E154.65531
G1 F3600 X41.6 Y30.358
G1 F1680 E157.65531
G1 F1200 X41.6 Y89.158 E164.13942
G1 F1680 E161.13942
G1 F3600 X40 Y89.914
G1 F1680 E164.13942
G1 F1200 X40 Y30.16 E170.72874
G1 F1680 E167.72874
G1 F3600 X38.4 Y30.129
G1 F1680 E170.72874
G1 F1200 X38.4 Y90.456 E177.38123
G1 F1680 E174.38123
G1 F3600 X36.8 Y90.812
G1 F1680 E177.38123
G1 F1200 X36.8 Y30.267 E184.05777
G1 F1680 E181.05777
G1 F3600 X35.2 Y30.582
G1 F1680 E184.05777
G1 F1200 X35.2 Y90.994 E190.71964
G1 F1680 E187.71964
G1 F3600 X33.6 Y91.01
G1 F1680 E190.71964
G1 F1200 X33.6 Y31.081 E197.32825
G1 F1680 E194.32825
G1 F3600 X32 Y31.78
G1 F1680 E197.32825
G1 F1200 X32 Y90.86 E203.84324
G1 F1680 E200.84324
G1 F3600 X30.4 Y90.538
G1 F1680 E203.84324
G1 F1200 X30.4 Y32.727 E210.21829
G1 F1680 E207.21829
G1 F3600 X28.8 Y33.989
G1 F1680 E210.21829
G1 F1200 X28.8 Y90.036 E216.39881
G1 F1680 E213.39881
G1 F3600 X27.2 Y89.333
G1 F1680 E216.39881
G1 F1200 X27.2 Y61.421 E219.47678
G1 F1680 E216.47678
G1 F3600 X25.6 Y62.845
G1 F1680 E219.47678
G1 F1200 X25.6 Y88.387 E222.2934
G1 F1680 E219.2934
G1 F3600 X24 Y87.137
G1 F1680 E222.2934
G1 F1200 X24 Y64.094 E224.83444
G1 F1680 E221.83444
G1 F3600 X22.4 Y65.735
G1 F1680 E224.83444
G1 F1200 X22.4 Y85.495 E227.01346
G1 F1680 E224.01346
G1 F3600 X20.8 Y83.172
G1 F1680 E227.01346
G1 F1200 X20.8 Y68.056 E228.68036
G1 F1680 E225.68036
G1 F3600 X19.2 Y72.22
G1 F1680 E228.68036
G1 F1200 X19.2 Y79.003 E229.42835
G1 F1680 E226.42835
G1 F3600 X27.2 Y54.857
G1 F1680 E229.42835
G1 F1200 X27.2 Y35.651 E231.54627
G1 F1680 E228.54627
G1 F3600 X25.6 Y38.028
G1 F1680 E231.54627
G1 F1200 X25.6 Y52.474 E233.13929
G1 F1680 E230.13929
G1 F3600 X24 Y47.902
M104 T0 S200
G1 F1680 E233.13929
G1 F1200 X24 Y42.6 E233.72396
G1 F1680 E230.72396
G1 F3600 X75.2 Y66.24
G1 F1680 E233.72396
G1 F1200 X75.2 Y82.937 E235.5652
G1 F1680 E232.5652
G1 F3600 X76.8 Y79.568
G1 F1680 E235.5652
G1 F1200 X76.8 Y69.61 E236.66331
G1 F1680 E233.66331
G1 F3600 X75.511 Y32.236
;TIME_ELAPSED:120.444063
;LAYER:-5
G1 X75.511 Y32.236 Z0.619
;TYPE:SUPPORT
G1 F1680 E236.66331
G1 F1980 X75.8 Y32.471 E236.69108
G1 X76.562 Y33.159 E236.7676
G1 X76.918 Y33.51 E236.80487
G1 X77.589 Y34.246 E236.87911
G1 X77.914 Y34.636 E236.91695
G1 F3600 X77.923 Y34.648
G1 F1980 X75.511 Y32.236 E237.17122
G1 F1680 E234.17122
G1 F3600 X77.923 Y34.648
G1 F1680 E237.17122
G1 F1980 X78.529 Y35.462 E237.24687
G1 X78.787 Y35.843 E237.28117
G1 X79.379 Y36.831 E237.36702
G1 X79.601 Y37.252 E237.4025
G1 X79.912 Y37.91 E237.45675
G1 X72.241 Y30.239 E238.26541
G1 X72.069 Y30.157 E238.27961
G1 X71.639 Y29.973 E238.31448
G1 X70.632 Y29.61 E238.39427
G1 X70.208 Y29.479 E238.42735
G1 X80.666 Y39.937 E239.52981
G1 X80.704 Y40.065 E239.53976
G1 X80.924 Y40.937 E239.6068
G1 X81.02 Y41.402 E239.64219
G1 X81.049 Y41.592 E239.65652
G1 X68.553 Y29.096 E240.97382
G1 X67.582 Y28.954 E241.04697
G1 X67.095 Y28.912 E241.0834
G1 X81.235 Y43.051 E242.57396
G1 X81.282 Y43.97 E242.64255
G1 X81.284 Y44.373 E242.67259
G1 X65.777 Y28.866 E244.3073
G1 X65.627 Y28.866 E244.31848
G1 X64.56 Y28.922 E244.39813
G1 X81.225 Y45.587 E246.15491
G1 X81.194 Y45.933 E246.18081
G1 X81.081 Y46.715 E246.23971
G1 X63.435 Y29.07 E248.09985
G1 X63.051 Y29.128 E248.1288
G1 X62.587 Y29.224 E248.16412
G1 X62.371 Y29.279 E248.18074
G1 X80.87 Y47.777 E250.13081
G1 X80.704 Y48.436 E250.18146
G1 X80.602 Y48.782 E250.20835
G1 X61.367 Y29.547 E252.23606
G1 X61.251 Y29.581 E252.24507
G1 X60.423 Y29.876 E252.31059
G1 X80.27 Y49.723 E254.40282
G1 X80.175 Y49.987 E254.42373
G1 X79.992 Y50.42 E254.45877
G1 X79.897 Y50.623 E254.47548
G1 X59.529 Y30.254 E256.62268
G1 X58.811 Y30.593 E256.68187
G1 X58.671 Y30.67 E256.69378
G1 X79.478 Y51.477 E258.8872
G1 X79.331 Y51.753 E258.91051
G1 X79.014 Y52.285 E258.95668
G1 X57.864 Y31.136 E261.18621
G1 X57.615 Y31.285 E261.20784
G1 X57.192 Y31.561 E261.24549
G1 X57.092 Y31.636 E261.25481
G1 X78.512 Y53.057 E263.51291
G1 X77.972 Y53.789 E263.58071
G1 X56.36 Y32.177 E265.859
G1 F3600 X56.355 Y32.181
G1 F1980 X55.99 Y32.478 E265.89408
G1 X55.674 Y32.764 E265.92585
G1 X77.385 Y54.475 E268.21457
G1 X76.99 Y54.913 E268.25853
G1 X76.771 Y55.134 E268.28173
G1 X54.99 Y33.352 E270.57788
G1 X54.69 Y33.587 E270.60629
G1 X54.228 Y33.863 E270.6464
G1 X76.112 Y55.747 E272.95337
G1 X75.89 Y55.949 E272.97574
