M73 P0
;MINX:9.0
;MAXX:91.0
;MINY:30.0
;MAXY:90.0
;MINZ:0.0
;MAXZ:3.3
;MachineType:ENTINA TINA2
;FilamentType:PLA
;Extruder0Temperature:200
;InfillDensity:10
;FLAVOR:Marlin
;TIME:2230
;FilamentUsed:1698.5
;Layer height: 0.2

;Generated with Cura_SteamEngine 3.1
M104 T0 S215
M82 ; absolute extrusion mode
;(**** start.gcode for tina2****)
M104 S150
G28 Z
G28 X Y; Home extruder
G1 X55 Y55 F1000
G1 Z10 F200
G29
G1 Z15 F100
M107 ; Turn off fan
G90 ; Absolute positioning
M82 ; Extruder in absolute mode
M109 S215.0
G92 E0 ; Reset extruder position
G1 X90 Y6 Z0.27 F2000
G1 X20 Y6 Z0.27 E15 F1000
G92 E0 ; Reset extruder position

;LAYER_COUNT:16
;LAYER:0
M106 S255
M203 Z5
G1 F3600 X82.475 Y30.158 Z0.299
;TYPE:SKIRT
G1 F1200 X82.906 Y30.426 E0.02646
G1 X83.29 Y30.757 E0.05289
G1 X83.617 Y31.145 E0.07935
G1 X83.92 Y31.663 E0.11063
G1 X85.615 Y35.309 E0.32025
G1 X88.171 Y40.194 E0.60769
G1 X89.58 Y42.706 E0.75785
G1 X89.792 Y43.166 E0.78426
G1 X89.937 Y43.696 E0.8129
G1 X90.157 Y44.886 E0.876
G1 X90.21 Y45.39 E0.90242
G1 X90.198 Y45.755 E0.92146
G1 X89.949 Y48.569 E1.06874
G1 X89.658 Y54.058 E1.35531
G1 X89.678 Y59.547 E1.64148
G1 X90.005 Y65.004 E1.9265
G1 X90.648 Y70.478 E2.21385
G1 X91.155 Y73.687 E2.38322
G1 X91.195 Y74.174 E2.4087
G1 X91.198 Y74.773 E2.43993
G1 X91.129 Y75.451 E2.47546
G1 X90.956 Y76.275 E2.51935
G1 X90.813 Y76.761 E2.54577
G1 X90.65 Y77.121 E2.56637
G1 X86.392 Y85.155 E3.04042
G1 X84.926 Y88.323 E3.22241
G1 X84.678 Y88.765 E3.24883
G1 X84.363 Y89.163 E3.27529
G1 X83.989 Y89.506 E3.30175
G1 X83.567 Y89.786 E3.32815
G1 X83.105 Y89.997 E3.35463
G1 X82.616 Y90.132 E3.38108
G1 X81.992 Y90.191 E3.41376
G1 X68.086 Y90.14 E4.13876
G1 X64.876 Y90.219 E4.30616
G1 X64.792 Y90.22 E4.31054
G1 X56.986 Y90.208 E4.71751
G1 X56.481 Y90.167 E4.74392
G1 X56.199 Y90.109 E4.75893
G1 X49.132 Y88.317 E5.13903
G1 X46.507 Y87.793 E5.27859
G1 X41.087 Y86.942 E5.56462
G1 X35.642 Y86.4 E5.8499
G1 X30.157 Y86.167 E6.13612
G1 X17.019 Y86.209 E6.82108
G1 X16.514 Y86.171 E6.84748
G1 X16.02 Y86.053 E6.87396
G1 X15.551 Y85.86 E6.9004
G1 X15.119 Y85.596 E6.9268
G1 X14.733 Y85.266 E6.95327
G1 X14.403 Y84.881 E6.97971
G1 X14.139 Y84.448 E7.00615
G1 X13.945 Y83.979 E7.03261
G1 X13.828 Y83.486 E7.05903
G1 X13.789 Y82.993 E7.08481
G1 X13.78 Y76.255 E7.4361
G1 X13.623 Y70.713 E7.72515
G1 X13.162 Y65.281 E8.00936
G1 X12.387 Y59.846 E8.29559
G1 X11.307 Y54.459 E8.58203
G1 X10.677 Y51.891 E8.71988
G1 X8.92 Y45.905 E9.04513
G1 X8.816 Y45.408 E9.0716
G1 X8.79 Y44.977 E9.09411
G1 X8.814 Y41.371 E9.28212
G1 X8.857 Y40.865 E9.30859
G1 X8.967 Y40.412 E9.33289
G1 X9.115 Y39.949 E9.35824
G1 X9.307 Y39.479 E9.38471
G1 X9.572 Y39.043 E9.41131
G1 X9.825 Y38.693 E9.43382
G1 X10.159 Y38.301 E9.46067
G1 X15.34 Y33.126 E9.84245
G1 X15.726 Y32.797 E9.86889
G1 X16.032 Y32.601 E9.88783
G1 X16.616 Y32.271 E9.92281
G1 X17.076 Y32.057 E9.94926
G1 X17.714 Y31.891 E9.98363
G1 X18.14 Y31.826 E10.00609
G1 X18.624 Y31.789 E10.0314
G1 X36.096 Y31.78 E10.94231
G1 X41.637 Y31.623 E11.23131
G1 X47.067 Y31.161 E11.51542
G1 X52.533 Y30.382 E11.80327
G1 X55.412 Y29.845 E11.95596
G1 X56.018 Y29.79 E11.98768
G1 X69.918 Y29.86 E12.71237
G1 X73.124 Y29.781 E12.87957
G1 X73.212 Y29.78 E12.88416
G1 X81.009 Y29.801 E13.29066
G1 X81.514 Y29.842 E13.31707
G1 X82.007 Y29.962 E13.34353
G1 X82.475 Y30.158 E13.36998
G1 F1680 E10.36998
G1 F3600 X80.341 Y33.66
;TYPE:WALL-INNER
G1 F1680 E13.36998
G1 F1320 X80.341 Y41.666 E13.78737
G1 X80.376 Y41.963 E13.80296
G1 X80.494 Y42.278 E13.8205
G1 X80.701 Y42.569 E13.83912
G1 X80.895 Y42.75 E13.85295
G1 X81.105 Y42.879 E13.8658
G1 X81.342 Y42.978 E13.87919
G1 X81.656 Y43.035 E13.89583
G1 X81.985 Y43.022 E13.913
G1 X82.259 Y42.941 E13.92789
G1 X82.597 Y42.811 E13.94677
G1 X82.786 Y42.752 E13.9571
G1 X83.005 Y42.705 E13.96877
G1 X83.249 Y42.672 E13.98161
G1 X83.485 Y42.662 E13.99392
G1 X83.895 Y42.689 E14.01535
G1 X84.107 Y42.727 E14.02658
G1 X84.458 Y42.829 E14.04563
G1 X84.699 Y42.925 E14.05916
G1 X84.792 Y42.97 E14.06454
G1 X85.001 Y43.09 E14.07711
G1 X85.2 Y43.225 E14.08964
G1 X85.439 Y43.426 E14.10593
G1 X85.6 Y43.59 E14.11791
G1 X85.738 Y43.755 E14.12912
G1 X85.888 Y43.966 E14.14262
G1 X86.045 Y44.245 E14.15931
G1 X86.156 Y44.495 E14.17357
G1 X86.252 Y44.798 E14.19014
G1 X86.311 Y45.096 E14.20598
G1 X86.339 Y45.416 E14.22273
G1 X86.334 Y45.662 E14.23555
G1 X86.311 Y45.904 E14.24823
G1 X86.247 Y46.221 E14.26509
G1 X86.151 Y46.518 E14.28136
G1 X86.017 Y46.817 E14.29844
G1 X85.862 Y47.076 E14.31418
G1 X85.68 Y47.321 E14.33009
G1 X85.471 Y47.543 E14.34599
G1 X85.218 Y47.759 E14.36333
G1 X84.986 Y47.918 E14.37799
G1 X84.799 Y48.025 E14.38923
G1 X84.571 Y48.129 E14.40229
G1 X84.281 Y48.229 E14.41828
G1 X84.051 Y48.285 E14.43063
G1 X83.804 Y48.322 E14.44365
G1 X83.579 Y48.339 E14.45541
G1 X83.263 Y48.329 E14.47189
G1 X83.107 Y48.312 E14.48007
G1 X82.775 Y48.245 E14.49773
G1 X82.548 Y48.174 E14.51013
G1 X82.114 Y48.008 E14.53436
G1 X81.846 Y47.963 E14.54853
G1 X81.529 Y47.977 E14.56507
G1 X81.28 Y48.043 E14.5785
G1 X81.043 Y48.151 E14.59208
G1 X80.784 Y48.341 E14.60882
G1 X80.576 Y48.586 E14.62558
G1 X80.454 Y48.817 E14.6392
G1 X80.37 Y49.091 E14.65414
G1 X80.343 Y49.324 E14.66637
G1 X80.341 Y57.34 E15.08429
G1 X72.494 Y57.336 E15.49339
G1 X72.463 Y57.321 E15.49519
G1 X72.428 Y57.277 E15.49812
G1 X72.424 Y57.246 E15.49975
G1 X72.439 Y57.182 E15.50317
G1 X72.588 Y56.783 E15.52538
G1 X72.683 Y56.431 E15.54439
G1 X72.744 Y56.085 E15.5627
G1 X72.776 Y55.808 E15.57724
G1 X72.782 Y55.335 E15.6019
G1 X72.739 Y54.872 E15.62615
G1 X72.7 Y54.645 E15.63816
G1 X72.613 Y54.301 E15.65665
G1 X72.496 Y53.95 E15.67594
G1 X72.356 Y53.633 E15.69401
G1 X72.191 Y53.321 E15.71241
G1 X72.049 Y53.098 E15.72619
G1 X71.839 Y52.814 E15.74461
G1 X71.592 Y52.532 E15.76415
G1 X71.246 Y52.209 E15.78883
G1 X70.87 Y51.928 E15.8133
G1 X70.438 Y51.678 E15.83932
G1 X70.024 Y51.495 E15.86292
G1 X69.68 Y51.382 E15.8818
G1 X69.316 Y51.293 E15.90134
G1 X68.845 Y51.229 E15.92612
G1 X68.368 Y51.217 E15.95099
G1 X67.892 Y51.258 E15.9759
G1 X67.436 Y51.349 E16.00015
G1 X67.031 Y51.476 E16.02227
G1 X66.727 Y51.6 E16.03939
G1 X66.522 Y51.699 E16.05126
G1 X66.118 Y51.936 E16.07568
G1 X65.745 Y52.217 E16.10003
G1 X65.413 Y52.528 E16.12374
G1 X65.232 Y52.727 E16.13777
G1 X64.961 Y53.083 E16.16109
G1 X64.814 Y53.313 E16.17532
G1 X64.626 Y53.677 E16.19668
G1 X64.504 Y53.948 E16.21218
G1 X64.39 Y54.291 E16.23102
G1 X64.298 Y54.653 E16.2505
G1 X64.231 Y55.124 E16.2753
G1 X64.216 Y55.601 E16.30018
G1 X64.252 Y56.066 E16.32449
G1 X64.287 Y56.293 E16.33647
G1 X64.37 Y56.639 E16.35502
G1 X64.475 Y56.975 E16.37337
G1 X64.553 Y57.165 E16.38408
G1 X64.576 Y57.256 E16.38897
G1 X64.569 Y57.283 E16.39043
G1 X64.531 Y57.324 E16.39334
G1 X64.508 Y57.333 E16.39463
G1 X64.45 Y57.34 E16.39768
G1 X56.659 Y57.34 E16.80386
G1 X56.658 Y49.321 E17.22193
G1 X56.629 Y49.071 E17.23506
G1 X56.569 Y48.869 E17.24604
G1 X56.43 Y48.595 E17.26206
G1 X56.267 Y48.396 E17.27547
G1 X56.086 Y48.237 E17.28803
G1 X55.94 Y48.143 E17.29708
G1 X55.726 Y48.045 E17.30936
G1 X55.5 Y47.986 E17.32153
G1 X55.308 Y47.962 E17.33162
G1 X55.075 Y47.973 E17.34378
G1 X54.837 Y48.021 E17.35644
G1 X54.557 Y48.135 E17.3722
G1 X54.297 Y48.223 E17.38651
G1 X54.075 Y48.28 E17.39846
G1 X53.903 Y48.309 E17.40756
G1 X53.577 Y48.337 E17.42461
G1 X53.268 Y48.329 E17.44073
G1 X52.947 Y48.285 E17.45762
G1 X52.719 Y48.228 E17.46987
G1 X52.494 Y48.156 E17.48219
G1 X52.2 Y48.026 E17.49895
G1 X52.005 Y47.914 E17.51067
G1 X51.782 Y47.761 E17.52477
G1 X51.55 Y47.565 E17.54061
G1 X51.377 Y47.386 E17.55359
G1 X51.246 Y47.227 E17.56433
G1 X51.143 Y47.084 E17.57351
G1 X51.008 Y46.862 E17.58706
G1 X50.909 Y46.665 E17.59855
G1 X50.826 Y46.455 E17.61033
G1 X50.751 Y46.21 E17.62369
G1 X50.712 Y46.045 E17.63252
G1 X50.689 Y45.909 E17.63972
G1 X50.666 Y45.651 E17.65322
G1 X50.661 Y45.421 E17.66521
G1 X50.668 Y45.261 E17.67356
G1 X50.697 Y45.047 E17.68482
G1 X50.75 Y44.789 E17.69855
G1 X50.792 Y44.643 E17.70647
G1 X50.917 Y44.322 E17.72443
G1 X51.055 Y44.053 E17.7402
G1 X51.14 Y43.919 E17.74847
G1 X51.275 Y43.736 E17.76033
G1 X51.44 Y43.545 E17.77348
G1 X51.548 Y43.437 E17.78145
G1 X51.736 Y43.276 E17.79435
G1 X52.002 Y43.089 E17.8113
G1 X52.195 Y42.978 E17.82291
G1 X52.525 Y42.834 E17.84168
G1 X52.741 Y42.766 E17.85349
G1 X52.947 Y42.715 E17.86455
G1 X53.249 Y42.673 E17.88045
G1 X53.592 Y42.662 E17.89834
G1 X53.738 Y42.671 E17.90597
G1 X54.047 Y42.713 E17.92222
G1 X54.27 Y42.768 E17.9342
G1 X54.537 Y42.858 E17.94889
G1 X54.705 Y42.927 E17.95836
G1 X54.894 Y42.993 E17.96879
G1 X55.139 Y43.035 E17.98175
G1 X55.314 Y43.035 E17.99088
G1 X55.543 Y43.007 E18.00291
G1 X55.784 Y42.935 E18.01602
G1 X56.007 Y42.818 E18.02915
G1 X56.193 Y42.677 E18.04132
G1 X56.332 Y42.535 E18.05168
G1 X56.468 Y42.336 E18.06424
G1 X56.571 Y42.124 E18.07653
G1 X56.627 Y41.935 E18.08681
G1 X56.658 Y41.676 E18.10041
G1 X56.659 Y33.66 E18.51832
G1 X64.506 Y33.664 E18.92743
G1 X64.537 Y33.679 E18.92922
G1 X64.564 Y33.706 E18.93122
G1 X64.574 Y33.737 E18.93291
G1 X64.565 Y33.8 E18.93623
G1 X64.427 Y34.176 E18.95711
G1 X64.338 Y34.479 E18.97358
G1 X64.251 Y34.935 E18.99778
G1 X64.219 Y35.354 E19.01969
G1 X64.217 Y35.647 E19.03496
G1 X64.234 Y35.912 E19.04881
G1 X64.304 Y36.374 E19.07317
G1 X64.423 Y36.821 E19.09729
G1 X64.529 Y37.106 E19.11314
G1 X64.719 Y37.514 E19.1366
G1 X64.884 Y37.796 E19.15364
G1 X65.083 Y38.088 E19.17206
G1 X65.252 Y38.295 E19.18599
G1 X65.576 Y38.632 E19.21036
G1 X65.926 Y38.926 E19.23419
G1 X66.146 Y39.082 E19.24826
G1 X66.544 Y39.314 E19.27227
G1 X67.014 Y39.518 E19.29899
G1 X67.237 Y39.595 E19.31129
G1 X67.681 Y39.707 E19.33516
G1 X68.142 Y39.77 E19.35942
G1 X68.594 Y39.784 E19.38299
G1 X69.048 Y39.75 E19.40673
G1 X69.322 Y39.706 E19.4212
G1 X69.678 Y39.62 E19.44029
G1 X70.147 Y39.454 E19.46623
G1 X70.446 Y39.319 E19.48333
G1 X70.76 Y39.14 E19.50218
G1 X71.051 Y38.942 E19.52053
G1 X71.27 Y38.77 E19.53504
G1 X71.612 Y38.447 E19.55957
G1 X71.911 Y38.094 E19.58369
G1 X72.117 Y37.796 E19.60257
G1 X72.3 Y37.48 E19.62161
G1 X72.398 Y37.277 E19.63336
G1 X72.531 Y36.95 E19.65177
G1 X72.637 Y36.614 E19.67014
G1 X72.702 Y36.344 E19.68462
G1 X72.768 Y35.894 E19.70833
G1 X72.784 Y35.546 E19.72649
G1 X72.777 Y35.186 E19.74526
G1 X72.731 Y34.828 E19.76408
G1 X72.664 Y34.484 E19.78235
G1 X72.588 Y34.214 E19.79698
G1 X72.424 Y33.76 E19.82214
G1 X72.424 Y33.743 E19.82303
G1 X72.446 Y33.695 E19.82578
G1 X72.481 Y33.669 E19.82805
G1 X72.548 Y33.66 E19.83158
G1 X80.341 Y33.66 E20.23787
G1 F3600 X80.701 Y33.3
;TYPE:WALL-OUTER
G1 F1320 X80.701 Y41.645 E20.67294
G1 X80.728 Y41.877 E20.68511
G1 X80.815 Y42.108 E20.69798
G1 X80.973 Y42.331 E20.71223
M73 P1
G1 X81.114 Y42.462 E20.72227
G1 X81.27 Y42.558 E20.73182
G1 X81.445 Y42.631 E20.7417
G1 X81.681 Y42.674 E20.75421
G1 X81.926 Y42.664 E20.76699
G1 X82.143 Y42.6 E20.77879
G1 X82.467 Y42.475 E20.79689
G1 X82.695 Y42.403 E20.80936
G1 X82.951 Y42.349 E20.823
G1 X83.218 Y42.313 E20.83704
G1 X83.484 Y42.301 E20.85093
G1 X83.94 Y42.331 E20.87475
G1 X84.192 Y42.377 E20.88811
G1 X84.578 Y42.489 E20.90906
G1 X84.832 Y42.59 E20.92331
G1 X84.961 Y42.652 E20.93077
G1 X85.193 Y42.785 E20.94472
G1 X85.419 Y42.939 E20.95897
G1 X85.685 Y43.162 E20.97707
G1 X85.865 Y43.347 E20.99053
G1 X86.026 Y43.538 E21.00355
G1 X86.189 Y43.769 E21.01829
G1 X86.368 Y44.086 E21.03727
G1 X86.493 Y44.367 E21.0533
G1 X86.601 Y44.708 E21.07195
G1 X86.669 Y45.05 E21.09013
G1 X86.699 Y45.401 E21.1085
G1 X86.694 Y45.676 E21.12284
G1 X86.667 Y45.961 E21.13776
G1 X86.596 Y46.313 E21.15648
G1 X86.489 Y46.645 E21.17467
G1 X86.337 Y46.982 E21.19394
G1 X86.159 Y47.281 E21.21209
G1 X85.957 Y47.552 E21.22971
G1 X85.718 Y47.806 E21.24789
G1 X85.442 Y48.042 E21.26682
G1 X85.169 Y48.229 E21.28407
G1 X84.966 Y48.345 E21.29626
G1 X84.708 Y48.462 E21.31103
G1 X84.378 Y48.576 E21.32924
G1 X84.126 Y48.638 E21.34277
G1 X83.843 Y48.68 E21.35768
G1 X83.586 Y48.699 E21.37112
G1 X83.237 Y48.689 E21.38932
G1 X83.05 Y48.668 E21.39913
G1 X82.686 Y48.594 E21.4185
G1 X82.435 Y48.516 E21.4322
G1 X82.019 Y48.357 E21.45542
G1 X81.824 Y48.324 E21.46573
G1 X81.584 Y48.335 E21.47825
G1 X81.401 Y48.383 E21.48812
G1 X81.226 Y48.463 E21.49815
G1 X81.031 Y48.606 E21.51076
G1 X80.876 Y48.789 E21.52326
G1 X80.788 Y48.955 E21.53305
G1 X80.724 Y49.165 E21.5445
G1 X80.703 Y49.345 E21.55395
G1 X80.701 Y57.7 E21.98954
G1 X72.529 Y57.7 E22.41559
G1 X72.433 Y57.691 E22.42061
G1 X72.361 Y57.673 E22.42448
G1 X72.262 Y57.623 E22.43027
G1 X72.185 Y57.558 E22.43552
G1 X72.135 Y57.494 E22.43975
G1 X72.097 Y57.425 E22.44386
G1 X72.076 Y57.359 E22.44747
G1 X72.064 Y57.277 E22.45179
G1 X72.065 Y57.203 E22.45565
G1 X72.092 Y57.085 E22.46196
G1 X72.245 Y56.673 E22.48487
G1 X72.331 Y56.353 E22.50215
G1 X72.388 Y56.033 E22.5191
G1 X72.416 Y55.785 E22.53211
G1 X72.422 Y55.349 E22.55484
G1 X72.382 Y54.919 E22.57736
G1 X72.348 Y54.72 E22.58788
G1 X72.267 Y54.402 E22.60499
G1 X72.16 Y54.08 E22.62268
G1 X72.032 Y53.79 E22.63921
G1 X71.88 Y53.502 E22.65618
G1 X71.752 Y53.302 E22.66856
G1 X71.558 Y53.04 E22.68556
G1 X71.333 Y52.783 E22.70337
G1 X71.015 Y52.486 E22.72605
G1 X70.671 Y52.229 E22.74844
G1 X70.274 Y51.999 E22.77236
G1 X69.895 Y51.831 E22.79397
G1 X69.581 Y51.728 E22.8112
G1 X69.249 Y51.647 E22.82902
G1 X68.816 Y51.588 E22.8518
G1 X68.379 Y51.577 E22.87459
G1 X67.943 Y51.615 E22.89741
G1 X67.525 Y51.698 E22.91963
G1 X67.153 Y51.815 E22.93996
G1 X66.874 Y51.929 E22.95567
G1 X66.692 Y52.017 E22.96621
G1 X66.318 Y52.236 E22.98881
G1 X65.977 Y52.493 E23.01107
G1 X65.67 Y52.781 E23.03301
G1 X65.509 Y52.958 E23.04549
G1 X65.256 Y53.29 E23.06725
G1 X65.126 Y53.493 E23.07982
G1 X64.95 Y53.833 E23.09978
G1 X64.84 Y54.079 E23.11383
G1 X64.736 Y54.392 E23.13102
G1 X64.652 Y54.723 E23.14883
G1 X64.59 Y55.155 E23.17158
G1 X64.576 Y55.593 E23.19443
G1 X64.61 Y56.024 E23.21697
G1 X64.641 Y56.224 E23.22752
G1 X64.717 Y56.543 E23.24462
G1 X64.814 Y56.853 E23.26155
G1 X64.893 Y57.046 E23.27242
G1 X64.932 Y57.179 E23.27965
G1 X64.938 Y57.272 E23.28451
G1 X64.926 Y57.352 E23.28872
G1 X64.901 Y57.427 E23.29285
G1 X64.87 Y57.486 E23.29632
G1 X64.782 Y57.588 E23.30334
G1 X64.705 Y57.642 E23.30825
G1 X64.595 Y57.686 E23.31442
G1 X64.474 Y57.7 E23.32077
G1 X56.299 Y57.7 E23.74698
G1 X56.298 Y49.342 E24.18273
G1 X56.275 Y49.144 E24.19312
G1 X56.233 Y49.003 E24.20079
G1 X56.127 Y48.793 E24.21305
G1 X56.007 Y48.647 E24.22291
G1 X55.869 Y48.525 E24.23251
G1 X55.767 Y48.46 E24.23882
G1 X55.604 Y48.385 E24.24817
G1 X55.432 Y48.34 E24.25744
G1 X55.294 Y48.323 E24.26469
G1 X55.119 Y48.331 E24.27382
G1 X54.941 Y48.367 E24.28329
G1 X54.673 Y48.476 E24.29837
G1 X54.403 Y48.568 E24.31324
G1 X54.146 Y48.633 E24.32706
G1 X53.947 Y48.667 E24.33759
G1 X53.589 Y48.698 E24.35632
G1 X53.236 Y48.688 E24.37474
G1 X52.879 Y48.639 E24.39352
G1 X52.623 Y48.576 E24.40727
G1 X52.368 Y48.494 E24.42123
G1 X52.039 Y48.348 E24.44
G1 X51.807 Y48.215 E24.45394
G1 X51.568 Y48.051 E24.46905
G1 X51.302 Y47.827 E24.48718
G1 X51.108 Y47.625 E24.50178
G1 X50.959 Y47.445 E24.51397
G1 X50.842 Y47.283 E24.52438
G1 X50.7 Y47.049 E24.53865
G1 X50.578 Y46.807 E24.55278
G1 X50.487 Y46.576 E24.56573
G1 X50.401 Y46.298 E24.5809
G1 X50.361 Y46.127 E24.59005
G1 X50.331 Y45.952 E24.59931
G1 X50.306 Y45.677 E24.61371
G1 X50.301 Y45.405 E24.62789
G1 X50.309 Y45.23 E24.63702
G1 X50.342 Y44.983 E24.65002
G1 X50.399 Y44.706 E24.66476
G1 X50.451 Y44.526 E24.67453
G1 X50.587 Y44.176 E24.6941
G1 X50.743 Y43.873 E24.71187
G1 X50.845 Y43.712 E24.72181
G1 X50.992 Y43.513 E24.73471
G1 X51.18 Y43.295 E24.74972
G1 X51.3 Y43.175 E24.75856
G1 X51.515 Y42.991 E24.77332
G1 X51.807 Y42.786 E24.79192
G1 X52.031 Y42.657 E24.80539
G1 X52.395 Y42.498 E24.8261
G1 X52.655 Y42.416 E24.84032
G1 X52.878 Y42.361 E24.85229
G1 X53.217 Y42.314 E24.87013
G1 X53.589 Y42.302 E24.88954
G1 X53.783 Y42.313 E24.89967
G1 X54.115 Y42.359 E24.91714
G1 X54.364 Y42.42 E24.93051
G1 X54.671 Y42.523 E24.94739
G1 X54.833 Y42.59 E24.95653
G1 X54.985 Y42.643 E24.96492
G1 X55.17 Y42.675 E24.97471
G1 X55.292 Y42.675 E24.98107
G1 X55.469 Y42.653 E24.99037
G1 X55.648 Y42.6 E25.0001
G1 X55.813 Y42.513 E25.00983
G1 X55.954 Y42.406 E25.01906
