M73 P0
;MINX:36.6
;MAXX:63.4
;MINY:46.6
;MAXY:73.4
;MINZ:0.0
;MAXZ:11.3
;MachineType:ENTINA TINA2
;FilamentType:PLA
;Extruder0Temperature:200
;InfillDensity:10
;FLAVOR:Marlin
;TIME:1163
;FilamentUsed:525.9
;Layer height: 0.1

;Generated with Cura_SteamEngine 3.1
M104 T0 S215
M82 ; absolute extrusion mode
;(**** start.gcode for tina2****)
M104 S150
G28 Z
G28 X Y; Home extruder
G1 X55 Y55 F1000
G1 Z10 F200
G29
G1 Z15 F100
M107 ; Turn off fan
G90 ; Absolute positioning
M82 ; Extruder in absolute mode
M109 S215.0
G92 E0 ; Reset extruder position
G1 X90 Y6 Z0.27 F2000
G1 X20 Y6 Z0.27 E15 F1000
G92 E0 ; Reset extruder position

;LAYER_COUNT:99
;LAYER:-8
M107
M203 Z5
G1 F3600 X57.64 Y49.594 Z0.349
G1 F1200 X58.098 Y49.982 E0.06619
G1 X58.22 Y50.094 E0.08446
G1 X59.906 Y51.78 E0.34739
G1 X60.018 Y51.902 E0.36565
G1 X60.411 Y52.366 E0.43271
G1 X60.525 Y52.526 E0.45437
G1 X60.884 Y53.129 E0.53176
G1 X61.954 Y55.23 E0.79176
G1 X62.03 Y55.393 E0.81159
G1 X62.245 Y55.904 E0.87273
G1 X62.288 Y56.052 E0.88972
G1 X62.435 Y56.638 E0.95634
G1 X62.475 Y56.832 E0.97819
G1 X62.844 Y59.163 E1.23844
G1 X62.864 Y59.333 E1.25731
G1 X62.913 Y60 E1.33106
G1 X62.864 Y60.667 E1.40481
G1 X62.844 Y60.837 E1.42369
G1 X62.478 Y63.151 E1.68204
G1 X62.436 Y63.356 E1.70511
G1 X62.245 Y64.096 E1.78939
G1 X62.03 Y64.607 E1.85052
G1 X61.954 Y64.77 E1.87036
G1 X60.891 Y66.858 E2.12873
G1 X60.797 Y67.026 E2.14996
G1 X60.472 Y67.554 E2.21833
G1 X60.411 Y67.634 E2.22942
G1 X60.019 Y68.097 E2.29632
G1 X59.906 Y68.22 E2.31474
G1 X58.221 Y69.905 E2.57752
G1 X58.087 Y70.028 E2.59758
G1 X57.65 Y70.398 E2.66072
G1 X57.549 Y70.475 E2.67472
G1 X57.026 Y70.797 E2.74245
G1 X56.871 Y70.884 E2.76205
G1 X54.77 Y71.954 E3.02205
G1 X54.609 Y72.029 E3.04164
G1 X54.126 Y72.233 E3.09946
G1 X53.948 Y72.288 E3.12
G1 X53.356 Y72.436 E3.18729
G1 X53.158 Y72.477 E3.20959
G1 X50.84 Y72.844 E3.46839
G1 X50.667 Y72.864 E3.48759
G1 X50 Y72.913 E3.56135
G1 X49.333 Y72.864 E3.6351
G1 X49.16 Y72.844 E3.6543
G1 X46.842 Y72.477 E3.9131
G1 X46.644 Y72.436 E3.9354
G1 X45.904 Y72.245 E4.01967
G1 X45.391 Y72.029 E4.08105
G1 X45.23 Y71.954 E4.10064
G1 X43.129 Y70.884 E4.36064
G1 X42.526 Y70.525 E4.43803
G1 X42.35 Y70.397 E4.46203
M73 P1
G1 X41.913 Y70.028 E4.5251
G1 X41.779 Y69.905 E4.54516
G1 X40.094 Y68.22 E4.80793
G1 X39.981 Y68.097 E4.82635
G1 X39.528 Y67.554 E4.90433
G1 X39.203 Y67.026 E4.9727
G1 X39.109 Y66.858 E4.99393
G1 X38.046 Y64.77 E5.25231
G1 X37.97 Y64.607 E5.27214
G1 X37.755 Y64.096 E5.33327
G1 X37.712 Y63.948 E5.35027
G1 X37.564 Y63.356 E5.41756
G1 X37.522 Y63.151 E5.44064
G1 X37.156 Y60.837 E5.69898
G1 X37.136 Y60.667 E5.71786
G1 X37.087 Y60 E5.79161
G1 X37.136 Y59.333 E5.86536
G1 X37.156 Y59.163 E5.88424
G1 X37.522 Y56.849 E6.14258
G1 X37.565 Y56.638 E6.16633
G1 X37.755 Y55.904 E6.24994
G1 X37.97 Y55.393 E6.31107
G1 X38.046 Y55.23 E6.3309
G1 X39.109 Y53.142 E6.58928
G1 X39.203 Y52.974 E6.61051
G1 X39.528 Y52.446 E6.67888
G1 X39.589 Y52.366 E6.68997
G1 X39.982 Y51.902 E6.75702
G1 X40.094 Y51.78 E6.77529
G1 X41.78 Y50.094 E7.03822
G1 X41.902 Y49.982 E7.05648
G1 X42.36 Y49.594 E7.12268
G1 X42.526 Y49.475 E7.1452
G1 X43.129 Y49.116 E7.22259
G1 X45.23 Y48.046 E7.48259
G1 X45.393 Y47.97 E7.50242
G1 X45.904 Y47.755 E7.56356
G1 X46.052 Y47.712 E7.58055
G1 X46.644 Y47.564 E7.64784
G1 X46.842 Y47.523 E7.67014
G1 X49.16 Y47.156 E7.92894
G1 X49.333 Y47.136 E7.94814
G1 X50 Y47.087 E8.02189
G1 X50.667 Y47.136 E8.09565
G1 X50.84 Y47.156 E8.11485
G1 X53.158 Y47.523 E8.37365
G1 X53.356 Y47.564 E8.39595
G1 X54.096 Y47.755 E8.48022
G1 X54.607 Y47.97 E8.54136
G1 X54.77 Y48.046 E8.56119
G1 X56.871 Y49.116 E8.82119
G1 X57.474 Y49.475 E8.89858
G1 X57.64 Y49.594 E8.9211
G1 F3600 X57.6 Y49.566
G1 F1200 X57.6 Y70.437 E11.22263
G1 F1680 E8.22263
G1 F3600 X56 Y71.328
G1 F1680 E11.22263
G1 F1200 X56 Y48.673 E13.72089
G1 F1680 E10.72089
G1 F3600 X54.4 Y47.883
G1 F1680 E13.72089
G1 F1200 X54.4 Y72.118 E16.39338
G1 F1680 E13.39338
G1 F3600 X52.8 Y72.534
G1 F1680 E16.39338
G1 F1200 X52.8 Y47.467 E19.15761
G1 F1680 E16.15761
G1 F3600 X51.2 Y47.213
G1 F1680 E19.15761
G1 F1200 X51.2 Y72.788 E21.97787
G1 F1680 E18.97787
G1 F3600 X49.6 Y72.883
G1 F1680 E21.97787
G1 F1200 X49.6 Y47.116 E24.8193
G1 F1680 E21.8193
G1 F3600 X48 Y47.339
G1 F1680 E24.8193
G1 F1200 X48 Y72.66 E27.61155
G1 F1680 E24.61155
G1 F3600 X46.4 Y72.373
G1 F1680 E27.61155
G1 F1200 X46.4 Y47.625 E30.34061
M73 P2
G1 F1680 E27.34061
G1 F3600 X44.8 Y48.264
G1 F1680 E30.34061
G1 F1200 X44.8 Y71.735 E32.92885
G1 F1680 E29.92885
G1 F3600 X43.2 Y70.92
G1 F1680 E32.92885
G1 F1200 X43.2 Y49.079 E35.33734
G1 F1680 E32.33734
G1 F3600 X41.6 Y50.274
G1 F1680 E35.33734
G1 F1200 X41.6 Y69.726 E37.48239
G1 F1680 E34.48239
G1 F3600 X40 Y68.117
G1 F1680 E37.48239
G1 F1200 X40 Y51.882 E39.27269
G1 F1680 E36.27269
G1 F3600 X38.4 Y54.534
M104 T0 S200
G1 F1680 E39.27269
G1 F1200 X38.4 Y65.465 E40.4781
G1 F1680 E37.4781
G1 F3600 X59.2 Y68.926
G1 F1680 E40.4781
G1 F1200 X59.2 Y51.074 E42.44671
G1 F1680 E39.44671
G1 F3600 X60.8 Y52.988
G1 F1680 E42.44671
G1 F1200 X60.8 Y67.021 E43.99418
G1 F1680 E40.99418
G1 F3600 X62.4 Y63.496
G1 F1680 E43.99418
G1 F1200 X62.4 Y56.499 E44.76577
G1 F1680 E41.76577
G1 F3600 X58.129 Y49.942
;TIME_ELAPSED:25.354201
;LAYER:-7
G1 X58.129 Y49.942 Z0.619
;TYPE:SUPPORT
G1 F1680 E44.76577
G1 F1980 X58.254 Y50.058 E44.77848
G1 X59.94 Y51.743 E44.95616
G1 X60.055 Y51.869 E44.96888
G1 X60.512 Y52.414 E45.0219
G1 X60.833 Y52.936 E45.06757
G1 X60.934 Y53.116 E45.08296
G1 F3600 X61.123 Y53.486
G1 F1980 X56.513 Y48.876 E45.56894
G1 X56.882 Y49.064 E45.59981
G1 X57.062 Y49.165 E45.61519
G1 X57.584 Y49.486 E45.66087
G1 X58.129 Y49.942 E45.71384
G1 F1680 E42.71384
G1 F3600 X61.123 Y53.486
G1 F1680 E45.71384
G1 F1980 X62.005 Y55.218 E45.85872
G1 X62.279 Y55.857 E45.91055
G1 X62.307 Y55.943 E45.91729
G1 X54.062 Y47.698 E46.78646
G1 X53.356 Y47.511 E46.8409
G1 X53.175 Y47.475 E46.85466
G1 X52.451 Y47.36 E46.9093
G1 X62.639 Y57.548 E47.9833
G1 X62.878 Y59.06 E48.0974
G1 X50.939 Y47.12 E49.35604
G1 X50.852 Y47.106 E49.36261
G1 X50.656 Y47.084 E49.37731
G1 X49.998 Y47.036 E49.42649
G1 X49.61 Y47.065 E49.45549
G1 X62.935 Y60.389 E50.86013
G1 X62.915 Y60.657 E50.88016
G1 X62.892 Y60.845 E50.89428
G1 X62.787 Y61.514 E50.94476
G1 X48.484 Y47.212 E52.45249
G1 X47.386 Y47.386 E52.53536
G1 X62.614 Y62.614 E54.14066
G1 X62.525 Y63.174 E54.18293
G1 X62.487 Y63.356 E54.19679
G1 X62.403 Y63.676 E54.22145
G1 X46.319 Y47.592 E55.91699
G1 X46.024 Y47.666 E55.93966
G1 X45.857 Y47.717 E55.95268
G1 X45.379 Y47.924 E55.99151
M73 P3
G1 X62.074 Y64.62 E57.75151
G1 X62.005 Y64.78 E57.76449
G1 X61.653 Y65.471 E57.8223
G1 X44.527 Y48.346 E59.62763
G1 X43.684 Y48.775 E59.69814
G1 X61.224 Y66.315 E61.54717
G1 X60.934 Y66.881 E61.59457
G1 X60.833 Y67.063 E61.61009
G1 X60.782 Y67.146 E61.61735
G1 X42.852 Y49.216 E63.50749
G1 X42.415 Y49.486 E63.54578
G1 X42.106 Y49.743 E63.57574
G1 X60.255 Y67.892 E65.48896
G1 X60.058 Y68.126 E65.51177
G1 X59.942 Y68.254 E65.52464
G1 X59.643 Y68.553 E65.55616
G1 X41.445 Y50.355 E67.47455
G1 X40.809 Y50.991 E67.5416
G1 X59.007 Y69.189 E69.45999
G1 X58.37 Y69.826 E69.52714
G1 X40.172 Y51.627 E71.44559
G1 X40.057 Y51.743 E71.45776
G1 X39.943 Y51.867 E71.47032
G1 X39.577 Y52.305 E71.51286
G1 X57.693 Y70.421 E73.42261
G1 X57.586 Y70.511 E73.43303
G1 X57.064 Y70.833 E73.47875
G1 X56.915 Y70.915 E73.49143
G1 X39.082 Y53.083 E75.37129
G1 X39.064 Y53.116 E75.37409
G1 X38.651 Y53.925 E75.4418
G1 X56.072 Y71.346 E77.27828
G1 X55.229 Y71.775 E77.34879
G1 X38.222 Y54.768 E79.14163
G1 X37.994 Y55.217 E79.17917
G1 X37.814 Y55.633 E79.21295
G1 X54.364 Y72.183 E80.95762
G1 X54.141 Y72.28 E80.97574
G1 X53.975 Y72.332 E80.98871
G1 X53.387 Y72.479 E81.03389
G1 X37.519 Y56.611 E82.70666
G1 X37.512 Y56.642 E82.70903
G1 X37.475 Y56.823 E82.7228
G1 X37.335 Y57.7 E82.789
G1 X52.298 Y72.662 E84.36631
G1 X51.199 Y72.836 E84.44925
G1 X37.161 Y58.799 E85.92905
G1 X37.106 Y59.153 E85.95576
G1 X37.084 Y59.342 E85.96994
G1 X37.038 Y59.949 E86.01532
G1 X50.049 Y72.959 E87.38686
G1 X49.999 Y72.963 E87.39059
G1 X49.343 Y72.915 E87.43962
G1 X49.146 Y72.892 E87.45441
G1 X48.626 Y72.809 E87.49366
G1 X37.188 Y61.371 E88.69943
G1 X37.429 Y62.885 E88.81371
G1 X47.114 Y72.57 E89.83468
G1 X46.823 Y72.524 E89.85664
G1 X46.644 Y72.487 E89.87026
G1 X45.857 Y72.279 E89.93094
G1 X45.319 Y72.048 E89.97458
G1 X37.949 Y64.678 E90.75151
G1 X37.993 Y64.78 E90.75979
G1 X39.064 Y66.882 E90.93565
G1 X39.165 Y67.062 E90.95103
G1 X39.332 Y67.334 E90.97482
G1 X42.663 Y70.664 E91.32592
G1 X42.413 Y70.511 E91.34777
G1 X41.879 Y70.065 E91.39963
G1 X41.744 Y69.94 E91.41334
G1 X40.058 Y68.254 E91.59108
G1 X39.94 Y68.127 E91.604
G1 X39.486 Y67.584 E91.65676
G1 F1680 E88.65676
G1 F3600 X58.227 Y49.829
;TIME_ELAPSED:45.531049
;LAYER:-6
M106 S255
G1 X58.227 Y49.829 Z0.869
G1 F1680 E91.65676
G1 F2400 X57.954 Y49.6 E91.67083
G1 X42.045 Y49.6 E92.29918
M73 P4
G1 X42.321 Y49.369 E92.3134
G1 X42.595 Y49.2 E92.32611
G1 X57.403 Y49.2 E92.91097
G1 X57.129 Y49.031 E92.92369
G1 X56.955 Y48.934 E92.93156
G1 X56.692 Y48.8 E92.94322
G1 X43.306 Y48.8 E93.47191
G1 X44.092 Y48.4 E93.50675
G1 X55.907 Y48.4 E93.9734
G1 X55.122 Y48 E94.00819
G1 X44.877 Y48 E94.41284
G1 X45.145 Y47.863 E94.42472
G1 X45.308 Y47.787 E94.43183
G1 X45.753 Y47.6 E94.45089
G1 X54.244 Y47.6 E94.78626
G1 X54.165 Y47.566 E94.78965
G1 X53.396 Y47.367 E94.82103
G1 X53.199 Y47.327 E94.82897
G1 X52.396 Y47.2 E94.86108
G1 X47.603 Y47.2 E95.05038
G1 X49.126 Y46.959 E95.11128
G1 X49.325 Y46.935 E95.1192
G1 X49.999 Y46.885 E95.14589
G1 X50.673 Y46.934 E95.17258
G1 X50.872 Y46.959 E95.18051
G1 F1680 E92.18051
G1 F3600 X58.227 Y49.829
G1 F1680 E95.18051
G1 F2400 X58.367 Y49.957 E95.188
G1 X58.41 Y50 E95.1904
G1 X41.588 Y50 E95.85481
G1 X41.188 Y50.4 E95.87715
G1 X58.81 Y50.4 E96.57316
G1 X59.21 Y50.8 E96.5955
G1 X40.788 Y50.8 E97.3231
G1 X40.388 Y51.2 E97.34544
G1 X59.61 Y51.2 E98.10464
G1 X60.01 Y51.6 E98.12699
G1 X39.988 Y51.6 E98.91778
G1 X39.951 Y51.637 E98.91985
G1 X39.829 Y51.771 E98.92701
G1 X39.638 Y52 E98.93879
G1 X60.361 Y52 E99.75727
G1 X60.629 Y52.321 E99.77379
G1 X60.678 Y52.4 E99.77746
G1 X39.321 Y52.4 E100.62098
G1 X39.074 Y52.8 E100.63955
G1 X60.925 Y52.8 E101.50259
G1 X60.963 Y52.862 E101.50546
G1 X61.061 Y53.037 E101.51338
G1 X61.145 Y53.2 E101.52062
G1 X38.855 Y53.2 E102.401
G1 X38.651 Y53.6 E102.41873
G1 X61.348 Y53.6 E103.31518
G1 X61.552 Y54 E103.33292
G1 X38.447 Y54 E104.24548
G1 X38.243 Y54.4 E104.26322
G1 X61.756 Y54.4 E105.1919
G1 X61.96 Y54.8 E105.20963
G1 X38.039 Y54.8 E106.15442
G1 X37.86 Y55.151 E106.16999
G1 X37.839 Y55.2 E106.17209
G1 X62.161 Y55.2 E107.13272
G1 X62.208 Y55.301 E107.13712
G1 X62.334 Y55.6 E107.14994
G1 X37.666 Y55.6 E108.12424
G1 X37.58 Y55.799 E108.1328
G1 X37.518 Y56 E108.14111
G1 X62.481 Y56 E109.12705
G1 X62.581 Y56.4 E109.14334
G1 X37.418 Y56.4 E110.13719
G1 X37.366 Y56.606 E110.14558
G1 X37.327 Y56.8 E110.15339
G1 X62.672 Y56.8 E111.15443
G1 X62.735 Y57.2 E111.17042
G1 X37.264 Y57.2 E112.17644
G1 X37.201 Y57.6 E112.19243
G1 X62.798 Y57.6 E113.20342
G1 X62.862 Y58 E113.21942
G1 X37.137 Y58 E114.23547
G1 X37.074 Y58.4 E114.25146
G1 X62.925 Y58.4 E115.27248
G1 X62.988 Y58.8 E115.28847
M73 P5
G1 X37.011 Y58.8 E116.31447
G1 X36.958 Y59.13 E116.32767
G1 X36.95 Y59.2 E116.33046
G1 X63.049 Y59.2 E117.36127
G1 X63.064 Y59.325 E117.36624
G1 X63.086 Y59.6 E117.37714
G1 X36.915 Y59.6 E118.4108
G1 X36.885 Y60 E118.42664
G1 X63.112 Y60 E119.46252
G1 X63.083 Y60.4 E119.47836
G1 X36.912 Y60.4 E120.51202
G1 X36.934 Y60.673 E120.52283
G1 X36.949 Y60.8 E120.52789
G1 X63.048 Y60.8 E121.5587
G1 X63.04 Y60.868 E121.56141
G1 X62.987 Y61.2 E121.57469
G1 X37.01 Y61.2 E122.60068
G1 X37.073 Y61.6 E122.61668
G1 X62.924 Y61.6 E123.6377
G1 X62.86 Y62 E123.6537
G1 X37.137 Y62 E124.66966
G1 X37.2 Y62.4 E124.68566
G1 X62.797 Y62.4 E125.69665
G1 X62.734 Y62.8 E125.71264
G1 X37.263 Y62.8 E126.71865
G1 X37.327 Y63.2 E126.73465
G1 X62.67 Y63.2 E127.73561
G1 X62.632 Y63.392 E127.74334
G1 X62.58 Y63.6 E127.75181
G1 X37.418 Y63.6 E128.74562
G1 X37.518 Y64 E128.7619
G1 X62.48 Y64 E129.74781
G1 X62.418 Y64.199 E129.75604
G1 X62.331 Y64.4 E129.7647
G1 X37.664 Y64.4 E130.73895
G1 X37.787 Y64.69 E130.75139
G1 X37.838 Y64.8 E130.75618
G1 X62.158 Y64.8 E131.71674
G1 X62.138 Y64.847 E131.71875
G1 X61.958 Y65.2 E131.7344
G1 X38.039 Y65.2 E132.67912
G1 X38.243 Y65.6 E132.69685
G1 X61.754 Y65.6 E133.62545
G1 X61.55 Y66 E133.64319
G1 X38.447 Y66 E134.55567
G1 X38.651 Y66.4 E134.57341
G1 X61.346 Y66.4 E135.46978
G1 X61.142 Y66.8 E135.48751
G1 X38.855 Y66.8 E136.36777
G1 X38.934 Y66.955 E136.37464
G1 X39.031 Y67.129 E136.38251
G1 X39.074 Y67.2 E136.38579
G1 X60.923 Y67.2 E137.24874
G1 X60.677 Y67.6 E137.26729
G1 X39.32 Y67.6 E138.11082
G1 X39.367 Y67.675 E138.11431
G1 X39.639 Y68 E138.13105
G1 X60.358 Y68 E138.94938
G1 X60.169 Y68.227 E138.96104
G1 X60.047 Y68.361 E138.9682
G1 X60.008 Y68.4 E138.97038
G1 X39.99 Y68.4 E139.76102
G1 X40.39 Y68.8 E139.78336
G1 X59.608 Y68.8 E140.5424
G1 X59.208 Y69.2 E140.56475
G1 X40.79 Y69.2 E141.29219
G1 X41.19 Y69.6 E141.31453
G1 X58.808 Y69.6 E142.01038
G1 X58.408 Y70 E142.03272
G1 X41.59 Y70 E142.69697
G1 X41.631 Y70.041 E142.69926
G1 X41.771 Y70.169 E142.70676
G1 X42.048 Y70.4 E142.721
G1 X57.949 Y70.4 E143.34903
G1 X57.668 Y70.635 E143.3635
G1 X57.4 Y70.8 E143.37593
G1 X42.597 Y70.8 E143.9606
G1 X42.862 Y70.963 E143.97289
G1 X43.043 Y71.064 E143.98107
G1 X43.309 Y71.2 E143.99287
G1 X56.688 Y71.2 E144.5213
G1 X55.903 Y71.6 E144.55609
G1 X44.094 Y71.6 E145.02251
M73 P6
G1 X44.88 Y72 E145.05734
G1 X55.117 Y72 E145.46166
G1 X54.853 Y72.135 E145.47338
G1 X54.691 Y72.21 E145.48043
G1 X54.24 Y72.4 E145.49976
G1 X45.758 Y72.4 E145.83476
G1 X45.833 Y72.432 E145.83798
G1 X46.602 Y72.631 E145.86936
G1 X46.799 Y72.671 E145.8773
G1 X47.614 Y72.8 E145.90989
G1 X52.383 Y72.8 E146.09825
G1 X50.872 Y73.039 E146.15867
G1 X50.673 Y73.063 E146.16658
G1 X49.999 Y73.113 E146.19328
G1 X49.325 Y73.064 E146.21997
G1 X49.126 Y73.039 E146.22789
G1 F1680 E143.22789
G1 F3600 X57.999 Y49.639
;TIME_ELAPSED:81.545887
;LAYER:-5
G1 X57.999 Y49.639 Z1.119
G1 F1680 E146.22789
G1 F2400 X57.999 Y70.36 E147.04629
G1 X58.227 Y70.169 E147.05804
G1 X58.367 Y70.041 E147.06553
G1 X58.399 Y70.009 E147.06732
G1 X58.399 Y49.989 E147.85804
G1 X58.799 Y50.389 E147.88038
G1 X58.799 Y69.609 E148.6395
G1 X59.199 Y69.209 E148.66185
G1 X59.199 Y50.789 E149.38937
G1 X59.599 Y51.189 E149.41171
G1 X59.599 Y68.809 E150.10764
G1 X59.999 Y68.409 E150.12998
G1 X59.999 Y51.589 E150.79431
G1 X60.041 Y51.631 E150.79666
G1 X60.169 Y51.771 E150.80415
G1 X60.399 Y52.046 E150.81831
G1 X60.399 Y67.953 E151.44658
G1 X60.631 Y67.675 E151.46088
G1 X60.799 Y67.402 E151.47354
G1 X60.799 Y52.597 E152.05828
G1 X60.963 Y52.862 E152.07059
G1 X61.061 Y53.037 E152.07852
G1 X61.199 Y53.308 E152.09053
G1 X61.199 Y66.691 E152.61911
G1 X61.599 Y65.905 E152.65394
G1 X61.599 Y54.093 E153.12047
G1 X61.999 Y54.879 E153.1553
G1 X61.999 Y65.12 E153.55979
G1 X62.138 Y64.847 E153.57189
G1 X62.399 Y64.243 E153.59788
G1 X62.399 Y55.755 E153.93312
G1 X62.431 Y55.831 E153.93638
G1 X62.477 Y55.987 E153.9428
G1 X62.63 Y56.597 E153.96764
G1 X62.671 Y56.799 E153.97578
G1 X62.799 Y57.608 E154.00813
G1 X62.799 Y62.391 E154.19704
G1 F1680 E151.19704
G1 F3600 X63.04 Y60.868
G1 F1680 E154.19704
G1 F2400 X63.064 Y60.673 E154.2048
G1 X63.113 Y59.999 E154.23149
G1 X63.108 Y59.884 E154.23604
G1 X63.064 Y59.325 E154.25819
G1 X63.039 Y59.123 E154.26623
G1 X62.799 Y57.608 E154.32681
G1 F1680 E151.32681
G1 F3600 X57.999 Y49.639
G1 F1680 E154.32681
G1 F2400 X57.677 Y49.369 E154.34341
G1 X57.599 Y49.321 E154.34702
G1 X57.599 Y70.678 E155.19055
G1 X57.199 Y70.925 E155.20912
G1 X57.199 Y49.075 E156.07211
G1 X57.129 Y49.031 E156.07538
G1 X56.955 Y48.934 E156.08325
G1 X56.799 Y48.855 E156.09015
G1 X56.799 Y71.144 E156.97049
G1 X56.399 Y71.348 E156.98822
G1 X56.399 Y48.651 E157.88467
G1 X55.999 Y48.447 E157.90241
M73 P7
G1 X55.999 Y71.552 E158.81497
G1 X55.599 Y71.755 E158.83269
G1 X55.599 Y48.244 E159.76129
G1 X55.199 Y48.04 E159.77902
G1 X55.199 Y71.959 E160.72374
G1 X54.853 Y72.135 E160.73907
G1 X54.799 Y72.16 E160.74142
