M73 P0
;MINX:10.0
;MAXX:90.0
;MINY:20.0
;MAXY:100.0
;MINZ:0.0
;MAXZ:3.3
;MachineType:ENTINA TINA2
;FilamentType:PLA
;Extruder0Temperature:200
;InfillDensity:10
;FLAVOR:Marlin
;TIME:3183
;FilamentUsed:4894.7
;Layer height: 0.35

;Generated with Cura_SteamEngine 3.1
M104 T0 S215
M82 ; absolute extrusion mode
;(**** start.gcode for tina2****)
M104 S150
G28 Z
G28 X Y; Home extruder
G1 X55 Y55 F1000
G1 Z10 F200
G29
G1 Z15 F100
M107 ; Turn off fan
G90 ; Absolute positioning
M82 ; Extruder in absolute mode
M109 S215.0
G92 E0 ; Reset extruder position
G1 X90 Y6 Z0.27 F2000
G1 X20 Y6 Z0.27 E15 F1000
G92 E0 ; Reset extruder position

;LAYER_COUNT:6
;LAYER:-5
M107
M203 Z5
G1 F3600 X75.321 Y29.669 Z0.349
G1 F1200 X77.95 Y32.059 E0.3918
G1 X80.32 Y34.667 E0.78041
G1 X80.73 Y35.166 E0.85163
G1 X82.723 Y37.85 E1.22028
G1 X82.883 Y38.081 E1.25126
G1 X84.675 Y41.071 E1.63567
G1 X84.996 Y41.659 E1.70954
G1 X86.439 Y44.711 E2.08182
G1 X86.533 Y44.929 E2.108
G1 X87.744 Y48.304 E2.5034
G1 X87.833 Y48.582 E2.53559
G1 X88.718 Y52.1 E2.93562
G1 X88.764 Y52.315 E2.95987
G1 X88.805 Y52.548 E2.98596
G1 X89.3 Y55.896 E3.35917
G1 X89.333 Y56.183 E3.39103
G1 X89.349 Y56.413 E3.41645
G1 X89.513 Y59.759 E3.78587
G1 X89.519 Y59.995 E3.8119
G1 X89.513 Y60.231 E3.83794
G1 X89.334 Y63.809 E4.23299
G1 X89.302 Y64.09 E4.26418
G1 X88.794 Y67.513 E4.64578
G1 X88.717 Y67.899 E4.68918
G1 X87.832 Y71.418 E5.08932
G1 X87.759 Y71.651 E5.11625
G1 X86.596 Y74.906 E5.49741
G1 X86.442 Y75.282 E5.54222
G1 X85.003 Y78.327 E5.91361
G1 X84.691 Y78.909 E5.98643
G1 X82.861 Y81.955 E6.37828
G1 X80.794 Y84.748 E6.76145
G1 X80.331 Y85.321 E6.84269
M73 P1
G1 X77.949 Y87.942 E7.23324
G1 X75.333 Y90.32 E7.62309
G1 X74.831 Y90.733 E7.69478
G1 X72.162 Y92.714 E8.06131
G1 X71.777 Y92.973 E8.11248
G1 X68.983 Y94.647 E8.47165
G1 X68.337 Y94.998 E8.55273
G1 X65.358 Y96.407 E8.91612
G1 X64.906 Y96.597 E8.97019
G1 X61.724 Y97.734 E9.34281
G1 X61.418 Y97.833 E9.37828
G1 X57.989 Y98.696 E9.7682
G1 X57.685 Y98.764 E9.80255
G1 X57.452 Y98.805 E9.82864
G1 X54.083 Y99.303 E10.20419
G1 X53.81 Y99.334 E10.23449
G1 X50.252 Y99.512 E10.62733
G1 X50.014 Y99.518 E10.65359
G1 X49.773 Y99.513 E10.68017
G1 X46.318 Y99.343 E11.06163
G1 X45.859 Y99.295 E11.11252
G1 X42.487 Y98.794 E11.48844
G1 X42.101 Y98.717 E11.53185
G1 X38.582 Y97.832 E11.93199
G1 X38.276 Y97.734 E11.96742
G1 X35.094 Y96.597 E12.34004
G1 X34.695 Y96.431 E12.38769
G1 X31.663 Y94.998 E12.75751
G1 X31.079 Y94.684 E12.83062
G1 X28.086 Y92.886 E13.21565
G1 X27.838 Y92.714 E13.24893
G1 X25.245 Y90.788 E13.60512
G1 X24.677 Y90.329 E13.68565
G1 X22.051 Y87.942 E14.07699
G1 X19.68 Y85.333 E14.46575
G1 X19.26 Y84.822 E14.53869
G1 X17.267 Y82.136 E14.90752
G1 X17.112 Y81.912 E14.93755
G1 X15.325 Y78.929 E15.32101
G1 X14.997 Y78.327 E15.39661
G1 X13.558 Y75.282 E15.768
G1 X13.403 Y74.906 E15.81285
G1 X12.24 Y71.651 E16.19401
G1 X12.167 Y71.418 E16.22094
G1 X11.304 Y67.989 E16.61086
G1 X11.235 Y67.68 E16.64578
G1 X11.195 Y67.452 E16.6713
G1 X10.7 Y64.104 E17.04451
G1 X10.671 Y63.863 E17.07128
G1 X10.652 Y63.587 E17.10179
G1 X10.487 Y60.231 E17.47231
G1 X10.481 Y60.005 E17.49724
G1 X10.487 Y59.769 E17.52328
G1 X10.666 Y56.194 E17.918
G1 X10.7 Y55.896 E17.95108
G1 X11.195 Y52.548 E18.32429
G1 X11.27 Y52.155 E18.36841
G1 X12.106 Y48.81 E18.74862
G1 X12.241 Y48.349 E18.80159
G1 X13.401 Y45.102 E19.18181
G1 X13.491 Y44.872 E19.20905
G1 X13.593 Y44.642 E19.23679
M73 P2
G1 X14.997 Y41.673 E19.59896
G1 X15.312 Y41.086 E19.67242
G1 X17.132 Y38.056 E20.06219
G1 X17.271 Y37.858 E20.08887
G1 X19.206 Y35.252 E20.4468
G1 X19.669 Y34.679 E20.52804
G1 X22.058 Y32.051 E20.91969
G1 X24.667 Y29.68 E21.30845
G1 X25.178 Y29.26 E21.38139
G1 X27.85 Y27.277 E21.74832
G1 X28.093 Y27.11 E21.78083
G1 X28.27 Y26.999 E21.80387
G1 X31.071 Y25.325 E22.16371
G1 X31.665 Y25.001 E22.23832
G1 X34.695 Y23.568 E22.60794
G1 X35.094 Y23.403 E22.65555
G1 X38.276 Y22.266 E23.02817
G1 X38.582 Y22.167 E23.06363
G1 X42.011 Y21.304 E23.45356
G1 X42.315 Y21.236 E23.48791
G1 X42.548 Y21.195 E23.514
G1 X45.92 Y20.697 E23.88987
G1 X46.19 Y20.666 E23.91984
G1 X49.748 Y20.488 E24.31269
G1 X49.986 Y20.482 E24.33894
G1 X50.227 Y20.487 E24.36552
G1 X53.682 Y20.657 E24.74698
G1 X54.141 Y20.705 E24.79787
G1 X57.513 Y21.206 E25.1738
G1 X57.899 Y21.283 E25.2172
G1 X61.418 Y22.168 E25.61734
G1 X61.724 Y22.266 E25.65277
G1 X64.906 Y23.403 E26.02539
G1 X65.305 Y23.569 E26.07305
G1 X68.335 Y25.001 E26.44261
G1 X68.921 Y25.316 E26.51598
G1 X71.77 Y27.023 E26.88223
G1 X72.15 Y27.277 E26.93263
G1 X74.748 Y29.206 E27.28946
G1 X75.321 Y29.669 E27.37069
G1 F3600 X75.2 Y29.572
G1 F1200 X75.2 Y90.43 E34.08175
G1 F1680 E31.08175
G1 F3600 X73.6 Y91.647
G1 F1680 E34.08175
G1 F1200 X73.6 Y28.354 E41.06132
G1 F1680 E38.06132
G1 F3600 X72 Y27.177
G1 F1680 E41.06132
G1 F1200 X72 Y92.823 E48.30036
G1 F1680 E45.30036
G1 F3600 X70.4 Y93.799
G1 F1680 E48.30036
G1 F1200 X70.4 Y26.203 E55.75444
G1 F1680 E52.75444
G1 F3600 X68.8 Y25.251
G1 F1680 E55.75444
G1 F1200 X68.8 Y94.747 E63.41804
G1 F1680 E60.41804
G1 F3600 X67.2 Y95.536
G1 F1680 E63.41804
G1 F1200 X67.2 Y24.465 E71.25533
M73 P3
G1 F1680 E68.25533
G1 F3600 X65.6 Y23.709
G1 F1680 E71.25533
G1 F1200 X65.6 Y96.293 E79.25945
G1 F1680 E76.25945
G1 F3600 X64 Y96.921
G1 F1680 E79.25945
G1 F1200 X64 Y23.08 E87.40219
G1 F1680 E84.40219
G1 F3600 X62.4 Y22.508
G1 F1680 E87.40219
G1 F1200 X62.4 Y97.493 E95.67109
G1 F1680 E92.67109
G1 F3600 X60.8 Y97.989
G1 F1680 E95.67109
G1 F1200 X60.8 Y22.013 E104.04926
G1 F1680 E101.04926
G1 F3600 X59.2 Y21.611
G1 F1680 E104.04926
G1 F1200 X59.2 Y98.392 E112.51621
G1 F1680 E109.51621
G1 F3600 X57.6 Y98.779
G1 F1680 E112.51621
G1 F1200 X57.6 Y21.224 E121.06851
G1 F1680 E118.06851
G1 F3600 X56 Y20.982
G1 F1680 E121.06851
G1 F1200 X56 Y99.02 E129.67407
G1 F1680 E126.67407
G1 F3600 X54.4 Y99.257
G1 F1680 E129.67407
G1 F1200 X54.4 Y20.744 E138.33201
G1 F1680 E135.33201
G1 F3600 X52.8 Y20.614
G1 F1680 E138.33201
G1 F1200 X52.8 Y99.385 E147.0184
G1 F1680 E144.0184
G1 F3600 X51.2 Y99.465
G1 F1680 E147.0184
G1 F1200 X51.2 Y20.535 E155.72233
G1 F1680 E152.72233
G1 F3600 X49.6 Y20.495
G1 F1680 E155.72233
G1 F1200 X49.6 Y99.504 E164.43496
G1 F1680 E161.43496
G1 F3600 X48 Y99.425
G1 F1680 E164.43496
G1 F1200 X48 Y20.575 E173.13007
G1 F1680 E170.13007
G1 F3600 X46.4 Y20.655
G1 F1680 E173.13007
G1 F1200 X46.4 Y99.347 E181.80775
G1 F1680 E178.80775
G1 F3600 X44.8 Y99.137
G1 F1680 E181.80775
G1 F1200 X44.8 Y20.862 E190.43944
G1 F1680 E187.43944
G1 F3600 X43.2 Y21.098
G1 F1680 E190.43944
G1 F1200 X43.2 Y98.899 E199.01887
G1 F1680 E196.01887
G1 F3600 X41.6 Y98.591
M73 P4
G1 F1680 E199.01887
G1 F1200 X41.6 Y21.407 E207.53025
G1 F1680 E204.53025
G1 F3600 X40 Y21.81
G1 F1680 E207.53025
G1 F1200 X40 Y98.188 E215.95276
G1 F1680 E212.95276
G1 F3600 X38.4 Y97.773
G1 F1680 E215.95276
G1 F1200 X38.4 Y22.225 E224.28374
G1 F1680 E221.28374
G1 F3600 X36.8 Y22.793
G1 F1680 E224.28374
G1 F1200 X36.8 Y97.206 E232.48956
G1 F1680 E229.48956
G1 F3600 X35.2 Y96.634
G1 F1680 E232.48956
G1 F1200 X35.2 Y23.365 E240.56922
G1 F1680 E237.56922
G1 F3600 X33.6 Y24.085
G1 F1680 E240.56922
G1 F1200 X33.6 Y95.913 E248.48998
G1 F1680 E245.48998
G1 F3600 X32 Y95.157
G1 F1680 E248.48998
G1 F1200 X32 Y24.842 E256.24389
G1 F1680 E253.24389
G1 F3600 X30.4 Y25.726
G1 F1680 E256.24389
G1 F1200 X30.4 Y94.276 E263.80318
G1 F1680 E260.80318
G1 F3600 X28.8 Y93.314
G1 F1680 E263.80318
G1 F1200 X28.8 Y26.682 E271.15095
G1 F1680 E268.15095
G1 F3600 X27.2 Y27.759
G1 F1680 E271.15095
G1 F1200 X27.2 Y92.24 E278.26153
G1 F1680 E275.26153
G1 F3600 X25.6 Y91.051
G1 F1680 E278.26153
G1 F1200 X25.6 Y28.946 E285.11009
G1 F1680 E282.11009
G1 F3600 X24 Y30.286
G1 F1680 E285.11009
G1 F1200 X24 Y89.713 E291.66334
G1 F1680 E288.66334
G1 F3600 X22.4 Y88.259
G1 F1680 E291.66334
G1 F1200 X22.4 Y31.74 E297.89592
G1 F1680 E294.89592
G1 F3600 X20.8 Y33.434
G1 F1680 E297.89592
G1 F1200 X20.8 Y86.565 E303.75489
G1 F1680 E300.75489
G1 F3600 X19.2 Y84.741
G1 F1680 E303.75489
G1 F1200 X19.2 Y35.26 E309.21135
G1 F1680 E306.21135
G1 F3600 X17.6 Y37.414
G1 F1680 E309.21135
G1 F1200 X17.6 Y82.584 E314.19243
M73 P5
G1 F1680 E311.19243
G1 F3600 X16 Y80.055
G1 F1680 E314.19243
G1 F1200 X16 Y39.94 E318.61607
G1 F1680 E315.61607
G1 F3600 X14.4 Y42.935
G1 F1680 E318.61607
G1 F1200 X14.4 Y77.063 E322.3795
G1 F1680 E319.3795
G1 F3600 X12.8 Y73.218
G1 F1680 E322.3795
G1 F1200 X12.8 Y46.784 E325.29448
G1 F1680 E322.29448
G1 F3600 X11.2 Y52.521
G1 F1680 E325.29448
G1 F1200 X11.2 Y67.48 E326.94407
G1 F1680 E323.94407
G1 F3600 X76.8 Y88.987
G1 F1680 E326.94407
G1 F1200 X76.8 Y31.014 E333.33698
G1 F1680 E330.33698
G1 F3600 X78.4 Y32.555
G1 F1680 E333.33698
G1 F1200 X78.4 Y87.446 E339.39003
G1 F1680 E336.39003
G1 F3600 X80 Y85.686
G1 F1680 E339.39003
G1 F1200 X80 Y34.315 E345.05492
G1 F1680 E342.05492
G1 F3600 X81.6 Y36.338
G1 F1680 E345.05492
G1 F1200 X81.6 Y83.659 E350.27319
G1 F1680 E347.27319
G1 F3600 X83.2 Y81.391
G1 F1680 E350.27319
G1 F1200 X83.2 Y38.61 E354.99082
G1 F1680 E351.99082
G1 F3600 X84.8 Y41.3
G1 F1680 E354.99082
G1 F1200 X84.8 Y78.706 E359.11573
G1 F1680 E356.11573
G1 F3600 X86.4 Y75.371
M104 T0 S200
G1 F1680 E359.11573
G1 F1200 X86.4 Y44.629 E362.50577
G1 F1680 E359.50577
G1 F3600 X88 Y49.246
G1 F1680 E362.50577
G1 F1200 X88 Y70.75 E364.87711
G1 F1680 E361.87711
G1 F3600 X76.422 Y30.602
;TIME_ELAPSED:179.210803
;LAYER:-4
G1 X76.422 Y30.602 Z0.619
;TYPE:SUPPORT
G1 F1680 E364.87711
G1 F1980 X77.976 Y32.014 E365.03362
G1 F1680 E362.03362
G1 F3600 X76.422 Y30.602
G1 F1680 E365.03362
G1 F1980 X79.394 Y33.574 E365.34692
G1 X80.358 Y34.634 E365.45372
M73 P6
G1 X80.769 Y35.134 E365.50197
G1 X82.764 Y37.821 E365.75143
G1 X82.925 Y38.053 E365.77248
G1 X83.41 Y38.862 E365.84279
G1 X71.125 Y26.577 E367.13785
G1 X68.952 Y25.274 E367.32672
G1 X68.362 Y24.957 E367.37664
G1 X68.115 Y24.84 E367.39702
G1 X85.158 Y41.884 E369.1937
G1 X86.299 Y44.297 E369.39267
G1 X65.7 Y23.698 E371.56417
G1 X65.384 Y23.548 E371.59024
G1 X65.074 Y23.414 E371.61541
G1 X63.623 Y22.893 E371.73034
G1 X87.111 Y46.381 E374.20639
G1 X87.791 Y48.286 E374.35716
G1 X87.814 Y48.357 E374.36273
G1 X61.642 Y22.185 E377.12172
G1 X61.495 Y22.136 E377.13327
G1 X61.206 Y22.058 E377.15558
G1 X59.922 Y21.738 E377.25422
G1 X88.263 Y50.08 E380.24192
G1 X88.688 Y51.777 E380.37232
G1 X58.228 Y21.317 E383.58335
G1 X57.721 Y21.19 E383.62231
G1 X56.671 Y21.033 E383.70144
G1 X88.971 Y53.333 E387.10644
G1 X89.193 Y54.827 E387.21902
G1 X55.174 Y20.808 E390.80523
G1 X54.15 Y20.655 E390.88241
G1 X53.816 Y20.614 E390.90749
G1 X53.701 Y20.609 E390.91607
G1 X89.391 Y56.298 E394.67838
G1 X89.399 Y56.41 E394.68675
G1 X89.46 Y57.64 E394.77854
G1 X52.362 Y20.542 E398.68933
G1 X51.022 Y20.475 E398.78934
G1 X89.525 Y58.978 E402.84824
G1 X89.563 Y59.757 E402.90638
G1 X89.569 Y59.996 E402.9242
G1 X89.563 Y60.234 E402.94194
G1 X89.561 Y60.287 E402.9459
G1 X49.713 Y20.439 E407.14658
G1 X48.501 Y20.499 E407.23704
G1 X89.499 Y61.498 E411.55901
G1 X89.439 Y62.71 E411.64946
G1 X47.289 Y20.56 E416.09282
G1 X46.182 Y20.614 E416.17543
G1 X46.082 Y20.627 E416.18295
G1 X89.371 Y63.916 E420.74638
G1 X89.347 Y64.123 E420.76191
G1 X89.212 Y65.029 E420.83019
G1 X44.968 Y20.785 E425.49429
G1 X43.859 Y20.949 E425.57786
G1 X89.046 Y66.136 E430.34137
G1 X88.881 Y67.243 E430.4248
G1 X42.751 Y21.114 E435.28766
G1 X42.546 Y21.143 E435.30309
G1 X42.166 Y21.214 E435.33191
G1 X41.696 Y21.331 E435.36801
G1 X88.664 Y68.3 E440.31933
G1 X88.411 Y69.319 E440.39759
M73 P7
G1 X40.678 Y21.586 E445.42949
G1 X39.659 Y21.84 E445.50778
G1 X88.157 Y70.338 E450.62032
G1 X87.941 Y71.207 E450.68707
G1 X87.901 Y71.354 E450.69843
G1 X38.644 Y22.097 E455.89099
G1 X38.572 Y22.116 E455.89654
G1 X38.313 Y22.198 E455.91679
G1 X37.694 Y22.42 E455.96581
G1 X87.58 Y72.306 E461.22468
G1 X87.244 Y73.244 E461.29895
G1 X36.756 Y22.756 E466.62128
G1 X35.819 Y23.091 E466.69545
G1 X86.909 Y74.181 E472.08124
G1 X86.646 Y74.915 E472.13936
G1 X86.569 Y75.114 E472.15527
G1 X34.885 Y23.43 E477.60367
G1 X34.868 Y23.437 E477.60505
G1 X34.614 Y23.549 E477.62574
G1 X34.015 Y23.833 E477.67515
G1 X86.167 Y75.984 E483.17284
G1 X85.758 Y76.849 E483.24417
G1 X33.151 Y24.241 E488.78993
G1 X32.287 Y24.65 E488.86118
G1 X85.35 Y77.713 E494.45496
G1 X85.048 Y78.35 E494.50751
G1 X84.932 Y78.568 E494.52592
G1 X31.432 Y25.068 E500.16577
G1 X30.986 Y25.31 E500.20359
G1 X30.621 Y25.53 E500.23536
G1 X84.468 Y79.377 E505.91179
G1 X83.99 Y80.172 E505.98093
G1 X29.825 Y26.007 E511.69088
G1 X29.029 Y26.483 E511.76002
G1 X83.513 Y80.967 E517.5036
G1 X83.035 Y81.762 E517.57275
G1 X28.234 Y26.961 E523.34974
G1 X28.195 Y26.983 E523.35308
G1 X27.82 Y27.234 E523.38672
G1 X27.484 Y27.484 E523.41793
G1 X82.514 Y82.514 E529.21907
G1 X81.972 Y83.244 E529.28684
G1 X26.754 Y28.026 E535.1078
G1 X26.023 Y28.569 E535.17568
G1 X81.43 Y83.976 E541.01656
G1 X80.888 Y84.706 E541.08433
G1 X25.293 Y29.111 E546.94503
G1 X25.136 Y29.227 E546.95958
G1 X24.634 Y29.64 E547.00804
G1 X24.59 Y29.681 E547.01252
G1 X80.318 Y85.41 E552.88729
G1 X79.712 Y86.076 E552.95441
G1 X23.923 Y30.287 E558.83556
G1 X23.256 Y30.893 E558.90273
G1 X79.106 Y86.743 E564.79031
G1 X78.5 Y87.41 E564.85749
G1 X22.589 Y31.499 E570.7515
G1 X22.014 Y32.021 E570.80939
G1 X21.93 Y32.112 E570.81862
G1 X77.884 Y88.067 E576.71721
G1 X77.218 Y88.673 E576.78433
G1 X21.324 Y32.78 E582.6765
M73 P8
G1 X20.718 Y33.446 E582.74362
G1 X76.552 Y89.28 E588.62951
G1 X75.885 Y89.885 E588.69663
G1 X20.112 Y34.113 E594.57604
G1 X19.641 Y34.633 E594.62834
G1 X19.514 Y34.788 E594.64328
G1 X75.211 Y90.484 E600.51468
G1 X74.864 Y90.771 E600.54824
G1 X74.497 Y91.043 E600.58229
G1 X18.955 Y35.501 E606.4374
G1 X18.413 Y36.232 E606.50524
G1 X73.766 Y91.585 E612.34042
G1 X73.036 Y92.128 E612.40824
G1 X17.87 Y36.962 E618.22372
G1 X17.328 Y37.693 E618.29155
G1 X72.305 Y92.67 E624.0871
G1 X72.189 Y92.756 E624.09786
G1 X71.946 Y92.925 E624.11993
G1 X71.534 Y93.171 E624.1557
G1 X16.826 Y38.463 E629.92289
G1 X16.349 Y39.259 E629.99206
G1 X70.738 Y93.648 E635.72562
G1 X69.942 Y94.125 E635.7948
G1 X15.871 Y40.054 E641.49484
G1 X15.393 Y40.849 E641.56399
G1 X69.147 Y94.603 E647.23061
G1 X68.952 Y94.719 E647.24752
G1 X68.363 Y95.042 E647.2976
G1 X68.329 Y95.057 E647.30037
G1 X14.94 Y41.669 E652.92846
G1 X14.532 Y42.533 E652.99968
G1 X67.465 Y95.466 E658.57976
G1 X66.6 Y95.875 E658.65108
G1 X14.123 Y43.397 E664.18314
G1 X13.715 Y44.262 E664.25443
G1 X65.736 Y96.283 E669.73836
G1 X65.385 Y96.45 E669.76734
G1 X65.13 Y96.561 E669.78807
G1 X64.923 Y96.643 E669.80467
G1 X64.849 Y96.669 E669.81051
G1 X13.331 Y45.15 E675.24148
G1 X12.995 Y46.087 E675.31568
G1 X63.911 Y97.004 E680.68318
G1 X62.974 Y97.339 E680.75735
G1 X12.658 Y47.024 E686.0615
G1 X12.322 Y47.96 E686.13563
G1 X62.035 Y97.674 E691.37631
G1 X61.685 Y97.799 E691.40401
G1 X61.427 Y97.882 E691.42422
G1 X61.207 Y97.942 E691.44121
G1 X61.066 Y97.977 E691.45204
G1 X12.022 Y48.933 E696.62215
G1 X11.767 Y49.951 E696.70038
G1 X60.047 Y98.231 E701.78994
G1 X59.029 Y98.485 E701.86815
G1 X11.513 Y50.969 E706.87718
G1 X11.258 Y51.987 E706.95541
G1 X58.01 Y98.739 E711.8839
G1 X57.832 Y98.784 E711.89758
G1 X57.451 Y98.854 E711.92646
G1 X56.929 Y98.932 E711.9658
G1 X11.066 Y53.068 E716.80063
M73 P9
G1 X10.902 Y54.177 E716.88419
G1 X55.821 Y99.096 E721.61945
G1 X54.713 Y99.26 E721.70294
G1 X10.738 Y55.285 E726.33869
G1 X10.651 Y55.877 E726.38329
G1 X10.615 Y56.188 E726.40663
G1 X10.603 Y56.423 E726.42417
G1 X53.576 Y99.396 E730.95428
G1 X52.363 Y99.456 E731.04481
G1 X10.542 Y57.635 E735.45348
G1 X10.481 Y58.847 E735.54394
G1 X51.151 Y99.517 E739.83128
G1 X50.254 Y99.562 E739.89823
G1 X49.984 Y99.568 E739.91836
G1 X49.927 Y99.566 E739.92261
G1 X10.431 Y60.07 E744.08619
G1 X10.436 Y60.233 E744.09835
G1 X10.492 Y61.404 E744.18573
G1 X48.592 Y99.504 E748.20215
G1 X47.253 Y99.437 E748.30208
G1 X10.558 Y62.742 E752.17039
G1 X10.6 Y63.589 E752.2336
G1 X10.62 Y63.878 E752.25519
G1 X10.647 Y64.094 E752.27142
G1 X10.649 Y64.106 E752.27233
G1 X45.891 Y99.349 E755.98751
G1 X45.847 Y99.344 E755.99081
G1 X44.395 Y99.125 E756.10027
G1 X10.869 Y65.599 E759.6345
G1 X11.09 Y67.093 E759.74708
G1 X42.898 Y98.9 E763.10016
