M73 P0
;MINX:36.6
;MAXX:73.0
;MINY:46.6
;MAXY:83.0
;MINZ:0.0
;MAXZ:17.0
;MachineType:ENTINA TINA2
;FilamentType:PLA
;Extruder0Temperature:200
;InfillDensity:10
;FLAVOR:Marlin
;TIME:1399
;FilamentUsed:1321.1
;Layer height: 0.2

;Generated with Cura_SteamEngine 3.1
M104 T0 S215
M82 ; absolute extrusion mode
;(**** start.gcode for tina2****)
M104 S150
G28 Z
G28 X Y; Home extruder
G1 X55 Y55 F1000
G1 Z10 F200
G29
G1 Z15 F100
M107 ; Turn off fan
G90 ; Absolute positioning
M82 ; Extruder in absolute mode
M109 S215.0
G92 E0 ; Reset extruder position
G1 X90 Y6 Z0.27 F2000
G1 X20 Y6 Z0.27 E15 F1000
G92 E0 ; Reset extruder position

;LAYER_COUNT:79
;LAYER:-6
M107
M203 Z5
G1 F3600 X64.987 Y50.225 Z0.349
G1 F1200 X65.279 Y50.431 E0.03941
G1 X65.739 Y50.811 E0.1052
G1 X65.895 Y50.952 E0.12839
G1 X68.67 Y53.727 E0.56115
G1 X68.989 Y54.082 E0.61378
G1 X69.205 Y54.371 E0.65357
G1 X69.539 Y54.897 E0.72228
G1 X69.636 Y55.067 E0.74387
G1 X71.409 Y58.546 E1.17446
G1 X71.606 Y58.988 E1.22782
G1 X71.726 Y59.341 E1.26893
G1 X71.874 Y59.921 E1.33494
G1 X71.919 Y60.141 E1.3597
G1 X72.527 Y63.983 E1.78865
G1 X72.579 Y64.469 E1.84255
G1 X72.586 Y64.833 E1.8827
G1 X72.548 Y65.416 E1.94712
G1 X72.52 Y65.667 E1.97497
G1 X71.913 Y69.499 E2.40281
G1 X71.809 Y69.986 E2.45773
G1 X71.707 Y70.319 E2.49613
G1 X71.488 Y70.875 E2.56203
G1 X71.396 Y71.077 E2.5865
G1 X69.56 Y74.673 E3.03175
G1 X69.375 Y74.987 E3.07193
G1 X69.169 Y75.279 E3.11134
G1 X68.789 Y75.739 E3.17714
G1 X68.648 Y75.895 E3.20032
G1 X65.873 Y78.67 E3.63309
G1 X65.518 Y78.989 E3.68572
G1 X65.229 Y79.205 E3.72551
G1 X64.71 Y79.535 E3.79333
G1 X64.538 Y79.633 E3.81516
G1 X61.054 Y81.409 E4.24639
G1 X60.612 Y81.606 E4.29975
G1 X60.259 Y81.726 E4.34087
G1 X59.685 Y81.872 E4.40618
G1 X59.462 Y81.918 E4.43129
G1 X55.617 Y82.527 E4.86058
G1 X55.131 Y82.579 E4.91448
G1 X54.767 Y82.586 E4.95462
G1 X54.184 Y82.548 E5.01905
G1 X53.933 Y82.52 E5.0469
G1 X50.103 Y81.913 E5.47452
G1 X49.614 Y81.809 E5.52965
G1 X49.281 Y81.707 E5.56806
G1 X48.717 Y81.484 E5.63494
G1 X48.512 Y81.391 E5.65976
G1 X44.927 Y79.56 E6.10367
M73 P1
G1 X44.613 Y79.375 E6.14386
G1 X44.321 Y79.169 E6.18327
G1 X43.861 Y78.789 E6.24906
G1 X43.702 Y78.645 E6.27272
G1 X40.93 Y75.873 E6.70501
G1 X40.611 Y75.518 E6.75764
G1 X40.395 Y75.229 E6.79743
G1 X40.061 Y74.703 E6.86614
G1 X39.964 Y74.533 E6.88772
G1 X38.185 Y71.042 E7.31979
G1 X37.994 Y70.612 E7.37168
G1 X37.874 Y70.259 E7.41279
G1 X37.726 Y69.679 E7.4788
G1 X37.681 Y69.459 E7.50356
G1 X37.071 Y65.605 E7.93385
G1 X37.021 Y65.131 E7.98641
G1 X37.014 Y64.767 E8.02656
G1 X37.052 Y64.184 E8.09098
G1 X37.08 Y63.933 E8.11883
G1 X37.687 Y60.101 E8.54667
G1 X37.791 Y59.614 E8.60159
G1 X37.893 Y59.281 E8.63999
G1 X38.112 Y58.725 E8.70589
G1 X38.209 Y58.512 E8.7317
G1 X40.04 Y54.927 E9.17561
G1 X40.225 Y54.613 E9.2158
G1 X40.431 Y54.321 E9.2552
G1 X40.811 Y53.861 E9.321
G1 X40.952 Y53.705 E9.34419
G1 X43.727 Y50.93 E9.77695
G1 X44.082 Y50.611 E9.82958
G1 X44.371 Y50.395 E9.86937
G1 X44.89 Y50.065 E9.93719
G1 X45.062 Y49.967 E9.95902
G1 X48.546 Y48.191 E10.39025
G1 X48.988 Y47.994 E10.44362
G1 X49.341 Y47.874 E10.48473
G1 X49.915 Y47.728 E10.55004
G1 X50.138 Y47.682 E10.57515
G1 X53.983 Y47.073 E11.00444
G1 X54.469 Y47.021 E11.05834
G1 X54.833 Y47.014 E11.09849
G1 X55.416 Y47.052 E11.16291
G1 X55.667 Y47.08 E11.19076
G1 X59.499 Y47.687 E11.6186
G1 X59.986 Y47.791 E11.67352
G1 X60.319 Y47.893 E11.71192
G1 X60.883 Y48.116 E11.7788
G1 X61.088 Y48.209 E11.80362
G1 X64.673 Y50.04 E12.24753
G1 X64.987 Y50.225 E12.28772
G1 F3600 X65.6 Y50.697
G1 F1200 X65.6 Y78.916 E15.39954
G1 F1680 E12.39954
G1 F3600 X64 Y79.908
G1 F1680 E15.39954
G1 F1200 X64 Y49.697 E18.73103
G1 F1680 E15.73103
G1 F3600 X62.4 Y48.88
G1 F1680 E18.73103
G1 F1200 X62.4 Y80.723 E22.24249
G1 F1680 E19.24249
G1 F3600 X60.8 Y81.523
G1 F1680 E22.24249
G1 F1200 X60.8 Y48.084 E25.92994
G1 F1680 E22.92994
G1 F3600 X59.2 Y47.64
G1 F1680 E25.92994
G1 F1200 X59.2 Y81.96 E29.71454
G1 F1680 E26.71454
G1 F3600 X57.6 Y82.213
G1 F1680 E29.71454
G1 F1200 X57.6 Y47.387 E33.55494
G1 F1680 E30.55494
G1 F3600 X56 Y47.133
G1 F1680 E33.55494
G1 F1200 X56 Y82.467 E37.45136
G1 F1680 E34.45136
M73 P2
G1 F3600 X54.4 Y82.562
G1 F1680 E37.45136
G1 F1200 X54.4 Y47.028 E41.36984
G1 F1680 E38.36984
G1 F3600 X52.8 Y47.26
G1 F1680 E41.36984
G1 F1200 X52.8 Y82.34 E45.23825
G1 F1680 E42.23825
G1 F3600 X51.2 Y82.086
G1 F1680 E45.23825
G1 F1200 X51.2 Y47.513 E49.05075
G1 F1680 E46.05075
G1 F3600 X49.6 Y47.808
G1 F1680 E49.05075
G1 F1200 X49.6 Y81.804 E52.79963
G1 F1680 E49.79963
G1 F3600 X48 Y81.129
G1 F1680 E52.79963
G1 F1200 X48 Y48.469 E56.40117
G1 F1680 E53.40117
G1 F3600 X46.4 Y49.284
G1 F1680 E56.40117
G1 F1200 X46.4 Y80.312 E59.82276
G1 F1680 E56.82276
G1 F3600 X44.8 Y79.485
G1 F1680 E59.82276
G1 F1200 X44.8 Y50.122 E63.06073
G1 F1680 E60.06073
G1 F3600 X43.2 Y51.457
G1 F1680 E63.06073
G1 F1200 X43.2 Y78.143 E66.0035
G1 F1680 E63.0035
G1 F3600 X41.6 Y76.543
G1 F1680 E66.0035
G1 F1200 X41.6 Y53.057 E68.5934
G1 F1680 E65.5934
G1 F3600 X40 Y55.005
G1 F1680 E68.5934
G1 F1200 X40 Y74.596 E70.75377
G1 F1680 E67.75377
G1 F3600 X38.4 Y71.463
G1 F1680 E70.75377
G1 F1200 X38.4 Y58.138 E72.22317
G1 F1680 E69.22317
G1 F3600 X67.2 Y52.257
G1 F1680 E72.22317
G1 F1200 X67.2 Y77.343 E74.98951
M104 T0 S200
G1 F1680 E71.98951
G1 F3600 X68.8 Y75.726
G1 F1680 E74.98951
G1 F1200 X68.8 Y53.872 E77.39943
G1 F1680 E74.39943
G1 F3600 X70.4 Y56.567
G1 F1680 E77.39943
G1 F1200 X70.4 Y73.028 E79.21465
G1 F1680 E76.21465
G1 F3600 X72 Y68.95
G1 F1680 E79.21465
G1 F1200 X72 Y60.653 E80.1296
G1 F1680 E77.1296
G1 F3600 X65.019 Y50.185
;TIME_ELAPSED:43.042578
;LAYER:-5
G1 X65.019 Y50.185 Z0.619
;TYPE:SUPPORT
G1 F1680 E80.1296
G1 F1980 X65.311 Y50.391 E80.15624
G1 X65.758 Y50.76 E80.19944
G1 X65.93 Y50.915 E80.2167
G1 X68.807 Y53.8 E80.52041
G1 X69.031 Y54.053 E80.5456
G1 X69.239 Y54.33 E80.57142
G1 X69.573 Y54.857 E80.61793
G1 X69.679 Y55.041 E80.63376
G1 F1680 E77.63376
G1 F3600 X70.341 Y56.34
G1 F1680 E80.63376
M73 P3
G1 F1980 X63.264 Y49.264 E81.37975
G1 X61.108 Y48.162 E81.56023
G1 X60.9 Y48.067 E81.57728
G1 X60.727 Y47.999 E81.59113
G1 X71.616 Y58.888 E82.73903
G1 X71.656 Y58.977 E82.7463
G1 X71.771 Y59.314 E82.77284
G1 X71.919 Y59.891 E82.81725
G1 X71.965 Y60.115 E82.83429
G1 X72.039 Y60.584 E82.86969
G1 X59.013 Y47.558 E84.24286
G1 X57.501 Y47.319 E84.35696
G1 X72.279 Y62.096 E85.91477
G1 X72.518 Y63.609 E86.02895
G1 X55.99 Y47.08 E87.77135
G1 X55.66 Y47.028 E87.79625
G1 X55.42 Y47.001 E87.81425
G1 X54.835 Y46.962 E87.85796
G1 X54.604 Y46.967 E87.87518
G1 X72.626 Y64.99 E89.77507
G1 X72.597 Y65.42 E89.8072
G1 X72.572 Y65.655 E89.82481
G1 X72.497 Y66.133 E89.86088
G1 X53.467 Y47.103 E91.86698
G1 X52.368 Y47.277 E91.94992
G1 X72.322 Y67.231 E94.05343
G1 X72.148 Y68.33 E94.13637
G1 X51.269 Y47.451 E96.33738
G1 X50.17 Y47.625 E96.42033
G1 X71.974 Y69.429 E98.71885
G1 X71.962 Y69.508 E98.72481
G1 X71.858 Y69.997 E98.76208
G1 X71.752 Y70.34 E98.78884
G1 X71.713 Y70.44 E98.79684
G1 X49.155 Y47.883 E101.1748
G1 X48.977 Y47.943 E101.1888
G1 X48.523 Y48.145 E101.22584
G1 X48.273 Y48.273 E101.24678
G1 X71.325 Y71.325 E103.67686
G1 X70.895 Y72.168 E103.74741
G1 X47.429 Y48.702 E106.22114
G1 X46.587 Y49.132 E106.29161
G1 X70.466 Y73.011 E108.80888
G1 X70.035 Y73.853 E108.87939
G1 X45.744 Y49.562 E111.44009
G1 X45.041 Y49.919 E111.49886
G1 X44.906 Y49.997 E111.51049
G1 X69.605 Y74.696 E114.1142
G1 X69.414 Y75.019 E114.14217
G1 X69.208 Y75.311 E114.16881
G1 X69.09 Y75.454 E114.18263
G1 X44.139 Y50.503 E116.81291
G1 X44.053 Y50.567 E116.8209
G1 X43.799 Y50.79 E116.84609
G1 X43.476 Y51.113 E116.88014
G1 X68.488 Y76.124 E119.5168
G1 X67.851 Y76.76 E119.58389
G1 X42.839 Y51.748 E122.2206
G1 X42.202 Y52.384 E122.2877
G1 X67.214 Y77.396 E124.92441
G1 X66.577 Y78.032 E124.99151
G1 X41.565 Y53.02 E127.62821
G1 X40.928 Y53.656 E127.69531
G1 X65.94 Y78.668 E130.33202
G1 X65.8 Y78.808 E130.34678
G1 X65.545 Y79.031 E130.37203
G1 X65.265 Y79.241 E130.39812
G1 X65.25 Y79.251 E130.39946
G1 X40.347 Y54.348 E133.02468
G1 X40.184 Y54.578 E133.04569
G1 X39.996 Y54.9 E133.07349
G1 X39.87 Y55.144 E133.09396
G1 X64.456 Y79.729 E135.68571
G1 X63.613 Y80.159 E135.75625
G1 X39.441 Y55.987 E138.3044
G1 X39.01 Y56.829 E138.37491
G1 X62.77 Y80.589 E140.87964
G1 X61.927 Y81.019 E140.95018
M73 P4
G1 X38.579 Y57.671 E143.41147
G1 X38.162 Y58.49 E143.47998
G1 X38.15 Y58.515 E143.48204
G1 X61.084 Y81.449 E145.89969
G1 X61.075 Y81.454 E145.90046
G1 X60.622 Y81.655 E145.9374
G1 X60.278 Y81.771 E145.96447
G1 X60.163 Y81.8 E145.97331
G1 X37.793 Y59.43 E148.3315
G1 X37.741 Y59.602 E148.34489
G1 X37.637 Y60.09 E148.38209
G1 X37.574 Y60.484 E148.41183
G1 X59.113 Y82.023 E150.68242
G1 X58.014 Y82.197 E150.76536
G1 X37.4 Y61.583 E152.93844
G1 X37.226 Y62.682 E153.02139
G1 X56.915 Y82.371 E155.09695
G1 X55.816 Y82.545 E155.1799
G1 X37.052 Y63.781 E157.15795
G1 X37.026 Y63.943 E157.17018
G1 X37.001 Y64.178 E157.1878
G1 X36.963 Y64.759 E157.2312
G1 X36.966 Y64.967 E157.24671
G1 X54.626 Y82.627 E159.10838
G1 X54.179 Y82.597 E159.14178
G1 X53.938 Y82.57 E159.15986
G1 X53.175 Y82.45 E159.21743
G1 X37.149 Y66.423 E160.90691
G1 X37.388 Y67.935 E161.02101
G1 X51.664 Y82.211 E162.52596
G1 X50.152 Y81.972 E162.64006
G1 X37.628 Y69.448 E163.96031
G1 X37.634 Y69.482 E163.96289
G1 X37.679 Y69.7 E163.97948
G1 X37.826 Y70.278 E164.02394
G1 X37.943 Y70.621 E164.05095
G1 X38.139 Y71.065 E164.08713
G1 X38.313 Y71.405 E164.1156
G1 X48.189 Y81.281 E165.15671
G1 X45.588 Y79.953 E165.3744
G1 X39.637 Y74.002 E166.00174
G1 F3600 X39.92 Y74.557
G1 F1980 X40.023 Y74.738 E166.01726
G1 X40.357 Y75.264 E166.06371
G1 X40.567 Y75.545 E166.08986
G1 X40.884 Y75.898 E166.12522
G1 X43.668 Y78.682 E166.41871
G1 X43.837 Y78.836 E166.43575
G1 X44.287 Y79.207 E166.47922
G1 X44.579 Y79.414 E166.5059
G1 X44.901 Y79.603 E166.53373
G1 X45.588 Y79.953 E166.59121
G1 F1680 E163.59121
G1 F3600 X63.264 Y49.264
G1 F1680 E166.59121
G1 F1980 X64.698 Y49.995 E166.71119
G1 X65.019 Y50.185 E166.73899
G1 F3600 X65.001 Y50
;TIME_ELAPSED:79.639928
;LAYER:-4
M106 S255
G1 X65.001 Y50 Z0.869
G1 F2400 X44.618 Y50 E167.54405
G1 X44.256 Y50.229 E167.56097
G1 X44.028 Y50.4 E167.57222
G1 X65.557 Y50.4 E168.42254
G1 X65.859 Y50.649 E168.438
G1 X66.026 Y50.8 E168.44689
G1 X43.571 Y50.8 E169.33378
G1 X43.171 Y51.2 E169.35613
G1 X66.427 Y51.2 E170.27466
G1 X66.827 Y51.6 E170.297
G1 X42.771 Y51.6 E171.24712
G1 X42.371 Y52 E171.26947
G1 X67.227 Y52 E172.25119
G1 X67.627 Y52.4 E172.27353
G1 X41.971 Y52.4 E173.28685
G1 X41.571 Y52.8 E173.30919
M73 P5
G1 X68.027 Y52.8 E174.35411
G1 X68.427 Y53.2 E174.37645
G1 X41.171 Y53.2 E175.45297
G1 X40.816 Y53.555 E175.4728
G1 X40.776 Y53.6 E175.47517
G1 X68.826 Y53.6 E176.58305
G1 X69.145 Y53.957 E176.60196
G1 X69.178 Y54 E176.6041
G1 X40.435 Y54 E177.73934
G1 X40.272 Y54.197 E177.74944
G1 X40.129 Y54.4 E177.75925
G1 X69.461 Y54.4 E178.91776
G1 X69.702 Y54.781 E178.93557
G1 X69.713 Y54.8 E178.93643
G1 X39.881 Y54.8 E180.11469
G1 X39.866 Y54.825 E180.11584
G1 X39.675 Y55.2 E180.13246
G1 X69.927 Y55.2 E181.32731
G1 X70.131 Y55.6 E181.34504
G1 X39.471 Y55.6 E182.556
G1 X39.266 Y56 E182.57376
G1 X70.334 Y56 E183.80083
G1 X70.537 Y56.4 E183.81855
G1 X39.062 Y56.4 E185.0617
G1 X38.858 Y56.8 E185.07943
G1 X70.741 Y56.8 E186.33869
G1 X70.944 Y57.2 E186.35641
G1 X38.654 Y57.2 E187.63175
G1 X38.449 Y57.6 E187.6495
G1 X71.147 Y57.6 E188.94096
G1 X71.351 Y58 E188.95869
G1 X38.245 Y58 E190.26626
G1 X38.041 Y58.4 E190.28399
G1 X71.554 Y58.4 E191.60764
G1 X71.656 Y58.602 E191.61657
G1 X71.742 Y58.8 E191.6251
G1 X37.867 Y58.8 E192.96304
G1 X37.709 Y59.2 E192.98003
G1 X71.889 Y59.2 E194.33002
G1 X71.915 Y59.277 E194.33322
G1 X71.998 Y59.6 E194.3464
G1 X37.588 Y59.6 E195.70547
G1 X37.502 Y60 E195.72163
G1 X72.094 Y60 E197.08789
G1 X72.112 Y60.09 E197.09151
G1 X72.162 Y60.4 E197.10391
G1 X37.436 Y60.4 E198.47547
G1 X37.373 Y60.8 E198.49146
G1 X72.225 Y60.8 E199.86799
G1 X72.289 Y61.2 E199.88399
G1 X37.309 Y61.2 E201.26557
G1 X37.246 Y61.6 E201.28157
G1 X72.352 Y61.6 E202.66813
G1 X72.415 Y62 E202.68412
G1 X37.183 Y62 E204.07566
G1 X37.12 Y62.4 E204.09165
G1 X72.479 Y62.4 E205.48821
G1 X72.542 Y62.8 E205.5042
G1 X37.056 Y62.8 E206.90577
G1 X36.993 Y63.2 E206.92176
G1 X72.606 Y63.2 E208.32835
G1 X72.669 Y63.6 E208.34434
G1 X36.93 Y63.6 E209.7559
G1 X36.879 Y63.919 E209.76866
G1 X36.87 Y64 E209.77188
G1 X72.731 Y64 E211.18826
G1 X72.773 Y64.4 E211.20415
G1 X36.837 Y64.4 E212.62349
G1 X36.813 Y64.772 E212.63821
G1 X36.813 Y64.8 E212.63932
G1 X72.785 Y64.8 E214.06008
G1 X72.785 Y64.826 E214.06111
G1 X72.761 Y65.2 E214.07591
G1 X36.826 Y65.2 E215.49522
G1 X36.868 Y65.6 E215.5111
G1 X72.727 Y65.6 E216.9274
G1 X72.719 Y65.679 E216.93054
G1 X72.668 Y66 E216.94338
M73 P6
G1 X36.929 Y66 E218.35494
G1 X36.993 Y66.4 E218.37094
G1 X72.604 Y66.4 E219.77745
G1 X72.541 Y66.8 E219.79344
G1 X37.056 Y66.8 E221.19497
G1 X37.12 Y67.2 E221.21097
G1 X72.478 Y67.2 E222.60748
G1 X72.415 Y67.6 E222.62348
G1 X37.183 Y67.6 E224.01501
G1 X37.246 Y68 E224.03101
G1 X72.351 Y68 E225.41753
G1 X72.288 Y68.4 E225.43352
G1 X37.31 Y68.4 E226.81503
G1 X37.373 Y68.8 E226.83102
G1 X72.225 Y68.8 E228.20755
G1 X72.162 Y69.2 E228.22354
G1 X37.437 Y69.2 E229.59506
G1 X37.486 Y69.508 E229.60737
G1 X37.504 Y69.6 E229.61108
G1 X72.095 Y69.6 E230.9773
G1 X72.01 Y70 E230.99345
G1 X37.6 Y70 E232.35252
G1 X37.683 Y70.321 E232.36561
G1 X37.709 Y70.4 E232.3689
G1 X71.888 Y70.4 E233.71885
G1 X71.73 Y70.8 E233.73583
G1 X37.858 Y70.8 E235.07366
G1 X38.006 Y71.132 E235.08801
G1 X38.04 Y71.2 E235.09102
G1 X71.556 Y71.2 E236.41478
G1 X71.352 Y71.6 E236.43251
G1 X38.244 Y71.6 E237.74016
G1 X38.448 Y72 E237.75789
G1 X71.148 Y72 E239.04943
G1 X70.943 Y72.4 E239.06718
G1 X38.652 Y72.4 E240.34256
G1 X38.856 Y72.8 E240.36029
G1 X70.739 Y72.8 E241.61956
G1 X70.535 Y73.2 E241.63729
G1 X39.06 Y73.2 E242.88044
G1 X39.263 Y73.6 E242.89816
G1 X70.331 Y73.6 E244.12523
G1 X70.126 Y74 E244.14298
G1 X39.467 Y74 E245.3539
G1 X39.671 Y74.4 E245.37164
G1 X69.922 Y74.4 E246.56644
G1 X69.732 Y74.773 E246.58298
G1 X69.716 Y74.8 E246.58422
G1 X39.885 Y74.8 E247.76243
G1 X39.891 Y74.809 E247.76286
G1 X40.138 Y75.2 E247.78113
G1 X69.468 Y75.2 E248.93956
G1 X69.326 Y75.401 E248.94928
G1 X69.162 Y75.6 E248.95946
G1 X40.422 Y75.6 E250.09459
G1 X40.453 Y75.641 E250.09662
G1 X40.773 Y76 E250.11561
G1 X68.821 Y76 E251.22341
G1 X68.782 Y76.043 E251.2257
G1 X68.425 Y76.4 E251.24564
G1 X41.173 Y76.4 E252.322
G1 X41.573 Y76.8 E252.34434
G1 X68.025 Y76.8 E253.3891
G1 X67.625 Y77.2 E253.41144
G1 X41.973 Y77.2 E254.42461
G1 X42.373 Y77.6 E254.44695
G1 X67.225 Y77.6 E255.42851
G1 X66.825 Y78 E255.45086
G1 X42.773 Y78 E256.40082
G1 X43.173 Y78.4 E256.42317
G1 X66.425 Y78.4 E257.34154
G1 X66.025 Y78.8 E257.36388
G1 X43.574 Y78.8 E258.25061
G1 X43.732 Y78.943 E258.25903
G1 X44.044 Y79.2 E258.27499
G1 X65.567 Y79.2 E259.12508
G1 X65.342 Y79.369 E259.13619
G1 X64.977 Y79.6 E259.15325
M73 P7
G1 X44.601 Y79.6 E259.95803
G1 X44.82 Y79.729 E259.96807
G1 X45.35 Y80 E259.99158
G1 X64.255 Y80 E260.73826
G1 X63.47 Y80.4 E260.77306
G1 X46.133 Y80.4 E261.45781
G1 X46.916 Y80.8 E261.49253
G1 X62.685 Y80.8 E262.11535
G1 X61.901 Y81.2 E262.15011
G1 X47.699 Y81.2 E262.71104
G1 X48.428 Y81.572 E262.74337
G1 X48.489 Y81.6 E262.74602
G1 X61.113 Y81.6 E263.24462
G1 X60.677 Y81.794 E263.26347
G1 X60.321 Y81.915 E263.27832
G1 X59.988 Y82 E263.29189
G1 X49.555 Y82 E263.70396
G1 X49.565 Y82.003 E263.70437
G1 X50.055 Y82.108 E263.72417
G1 X51.901 Y82.4 E263.79798
G1 X57.691 Y82.4 E264.02667
G1 X55.636 Y82.726 E264.10885
G1 X55.139 Y82.778 E264.12858
G1 X54.768 Y82.785 E264.14324
G1 X54.152 Y82.745 E264.16762
G1 X53.919 Y82.719 E264.17688
G1 F1680 E261.17688
G1 F3600 X45.339 Y49.6
G1 F1680 E264.17688
G1 F2400 X64.253 Y49.6 E264.92392
G1 X64.773 Y49.866 E264.94698
G1 X65.001 Y50 E264.95743
G1 F1680 E261.95743
G1 F3600 X63.469 Y49.2
G1 F1680 E264.95743
G1 F2400 X46.124 Y49.2 E265.6425
G1 X45.339 Y49.6 E265.67729
G1 F1680 E262.67729
G1 F3600 X46.909 Y48.8
G1 F1680 E265.67729
G1 F2400 X62.686 Y48.8 E266.30043
G1 X63.469 Y49.2 E266.33516
G1 F1680 E263.33516
G1 F3600 X61.903 Y48.4
