M73 P0
;MINX:35.2
;MAXX:64.8
;MINY:39.0
;MAXY:81.0
;MINZ:0.0
;MAXZ:23.2
;MachineType:ENTINA TINA2
;FilamentType:PLA
;Extruder0Temperature:200
;InfillDensity:10
;FLAVOR:Marlin
;TIME:1384
;FilamentUsed:1012.2
;Layer height: 0.2

;Generated with Cura_SteamEngine 3.1
M104 T0 S215
M82 ; absolute extrusion mode
;(**** start.gcode for tina2****)
M104 S150
G28 Z
G28 X Y; Home extruder
G1 X55 Y55 F1000
G1 Z10 F200
G29
G1 Z15 F100
M107 ; Turn off fan
G90 ; Absolute positioning
M82 ; Extruder in absolute mode
M109 S215.0
G92 E0 ; Reset extruder position
G1 X90 Y6 Z0.27 F2000
G1 X20 Y6 Z0.27 E15 F1000
G92 E0 ; Reset extruder position

;LAYER_COUNT:110
;LAYER:-6
M107
M203 Z5
G1 F3600 X60.427 Y41.122 Z0.349
G1 F1200 X60.694 Y41.391 E0.0418
G1 X60.875 Y41.597 E0.07203
G1 X61.064 Y41.845 E0.10642
G1 X61.218 Y42.075 E0.13694
G1 X61.365 Y42.325 E0.16892
G1 X61.497 Y42.589 E0.20147
G1 X61.654 Y42.972 E0.24712
G1 X61.648 Y42.974 E0.24782
G1 X61.996 Y43.775 E0.34412
G1 X62.095 Y44.045 E0.37583
G1 X62.228 Y44.515 E0.4297
G1 X62.5 Y45.714 E0.56528
G1 X62.564 Y46.105 E0.60897
G1 X62.59 Y46.369 E0.63822
G1 X62.602 Y46.68 E0.67254
G1 X62.594 Y46.958 E0.70321
G1 X62.567 Y47.253 E0.73588
G1 X62.524 Y47.532 E0.76701
G1 X62.473 Y47.768 E0.79363
G1 X62.371 Y48.43 E0.86749
G1 X62.353 Y49.113 E0.94284
G1 X62.422 Y49.792 E1.0181
G1 X62.575 Y50.458 E1.09345
G1 X62.812 Y51.098 E1.16871
G1 X63.128 Y51.707 E1.24437
G1 X63.591 Y52.356 E1.33229
G1 X63.825 Y52.636 E1.37253
G1 X64.111 Y53.035 E1.42666
G1 X64.238 Y53.228 E1.45214
G1 X65.116 Y54.691 E1.64029
G1 X65.362 Y55.152 E1.69791
G1 X65.49 Y55.441 E1.73277
G1 X65.588 Y55.711 E1.76444
G1 X65.669 Y55.983 E1.79574
G1 X65.732 Y56.26 E1.82706
G1 X65.783 Y56.571 E1.86182
G1 X65.808 Y56.829 E1.8904
G1 X65.82 Y57.137 E1.92439
G1 X65.81 Y57.438 E1.9576
G1 X65.785 Y57.711 E1.98783
G1 X65.74 Y58.005 E2.02063
G1 X65.682 Y58.268 E2.05033
G1 X65.596 Y58.563 E2.08422
G1 X65.5 Y58.832 E2.11571
G1 X65.38 Y59.11 E2.1491
G1 X65.257 Y59.352 E2.17904
G1 X65.009 Y59.769 E2.23254
G1 X64.771 Y60.123 E2.27958
G1 X64.433 Y60.702 E2.35351
G1 X64.167 Y61.331 E2.42882
G1 X63.981 Y61.988 E2.50412
G1 X63.88 Y62.668 E2.57993
G1 X63.878 Y63.535 E2.67553
G1 X63.911 Y63.944 E2.72078
G1 X63.924 Y64.473 E2.77914
G1 X63.918 Y64.644 E2.798
G1 X63.869 Y65.13 E2.85187
G1 X63.091 Y70.411 E3.44051
G1 X62.976 Y70.951 E3.50139
G1 X62.871 Y71.297 E3.54127
G1 X62.73 Y71.686 E3.5869
G1 X62.579 Y72.029 E3.62822
G1 X62.274 Y72.549 E3.6947
G1 X60.748 Y75.031 E4.01599
G1 X60.636 Y75.197 E4.03808
G1 X60.251 Y75.715 E4.10925
G1 X60.122 Y75.863 E4.1309
G1 X59.693 Y76.274 E4.19641
G1 X59.582 Y76.372 E4.21274
G1 X58.073 Y77.604 E4.42756
G1 X57.933 Y77.709 E4.44686
G1 X57.378 Y78.089 E4.52103
G1 X56.659 Y78.425 E4.60855
G1 X56.471 Y78.502 E4.63095
G1 X53.577 Y79.526 E4.96947
G1 X53.072 Y79.735 E5.02974
G1 X52.664 Y79.93 E5.07961
G1 X52.413 Y80.031 E5.10944
G1 X52.158 Y80.115 E5.13905
G1 X51.818 Y80.199 E5.17767
G1 X51.235 Y80.295 E5.24283
G1 X51.082 Y80.313 E5.25981
G1 X50.605 Y80.32 E5.31242
G1 X50.338 Y80.305 E5.34191
G1 X50.028 Y80.268 E5.37634
G1 X49.759 Y80.218 E5.40651
G1 X49.429 Y80.135 E5.44403
G1 X49.257 Y80.083 E5.46385
G1 X48.653 Y79.941 E5.53227
G1 X45.772 Y79.44 E5.85474
G1 X45.555 Y79.392 E5.87924
G1 X44.84 Y79.198 E5.96094
G1 X44.402 Y79.012 E6.01342
G1 X44.2 Y78.912 E6.03827
G1 X43.966 Y78.78 E6.0679
G1 X41.93 Y77.543 E6.33061
G1 X41.778 Y77.441 E6.35079
G1 X41.21 Y77.024 E6.4285
G1 X40.685 Y76.488 E6.51123
G1 X40.546 Y76.332 E6.53427
G1 X39.588 Y75.139 E6.703
G1 X39.37 Y74.817 E6.74588
G1 X38.49 Y73.41 E6.92888
G1 X38.155 Y72.933 E6.99316
G1 X37.833 Y72.446 E7.05754
G1 X37.697 Y72.253 E7.08357
G1 X37.555 Y72.009 E7.11471
G1 X37.42 Y71.741 E7.1478
G1 X37.231 Y71.289 E7.20182
G1 X36.485 Y69.2 E7.44643
G1 X36.328 Y68.664 E7.50802
G1 X36.278 Y68.453 E7.53194
G1 X36.252 Y68.314 E7.54753
G1 X36.229 Y68.112 E7.56995
G1 X36.203 Y67.694 E7.61613
G1 X36.204 Y67.539 E7.63322
G1 X36.186 Y67.373 E7.65164
G1 X36.171 Y66.777 E7.71738
G1 X36.118 Y66.152 E7.78655
G1 X35.861 Y64.377 E7.98433
G1 X35.832 Y64.004 E8.02558
G1 X35.826 Y63.724 E8.05647
G1 X35.842 Y63.342 E8.09863
G1 X35.829 Y62.672 E8.17253
G1 X35.729 Y61.991 E8.24843
G1 X35.437 Y61.057 E8.35634
G1 X35.349 Y60.847 E8.38145
G1 X35.262 Y60.592 E8.41116
G1 X35.179 Y60.292 E8.44549
G1 X35.122 Y60.022 E8.47592
G1 X35.08 Y59.73 E8.50845
G1 X35.057 Y59.432 E8.54141
G1 X35.052 Y59.158 E8.57163
G1 X35.066 Y58.85 E8.60563
G1 X35.098 Y58.567 E8.63703
G1 X35.151 Y58.271 E8.67019
G1 X35.209 Y58.028 E8.69774
G1 X35.305 Y57.713 E8.73406
G1 X35.615 Y56.902 E8.8298
G1 X35.606 Y56.899 E8.83085
G1 X35.758 Y56.275 E8.90167
G1 X35.869 Y55.441 E8.99445
G1 X35.951 Y55.09 E9.0342
G1 X36.109 Y54.583 E9.09276
G1 X36.19 Y54.375 E9.11737
G1 X36.35 Y54.044 E9.15791
G1 X36.518 Y53.748 E9.19545
G1 X36.812 Y53.144 E9.26952
G1 X37.031 Y52.498 E9.34474
G1 X37.166 Y51.829 E9.42
G1 X37.217 Y51.148 E9.49531
G1 X37.18 Y50.465 E9.57074
G1 X37.057 Y49.79 E9.6464
G1 X36.996 Y49.607 E9.66767
G1 X37.01 Y49.603 E9.66927
G1 X36.714 Y48.766 E9.76717
G1 X36.636 Y48.489 E9.79891
G1 X36.573 Y48.198 E9.83174
G1 X36.531 Y47.916 E9.86318
G1 X36.505 Y47.614 E9.89661
G1 X36.498 Y47.336 E9.92727
G1 X36.511 Y47.042 E9.95973
G1 X36.539 Y46.777 E9.98911
G1 X36.596 Y46.456 E10.02506
G1 X36.73 Y45.93 E10.08492
G1 X36.776 Y45.778 E10.10243
G1 X37.637 Y43.296 E10.39213
G1 X37.774 Y42.967 E10.43143
G1 X37.914 Y42.684 E10.46625
G1 X38.079 Y42.396 E10.50285
G1 X38.31 Y42.059 E10.54791
G1 X38.793 Y41.442 E10.63431
G1 X39.138 Y41.05 E10.6919
G1 X39.368 Y40.825 E10.72738
G1 X39.556 Y40.662 E10.75482
G1 X39.81 Y40.47 E10.78993
G1 X40.049 Y40.31 E10.82165
G1 X40.284 Y40.174 E10.85159
G1 X40.564 Y40.035 E10.88606
G1 X40.819 Y39.929 E10.91651
G1 X41.1 Y39.831 E10.94933
G1 X41.383 Y39.754 E10.98167
G1 X41.651 Y39.697 E11.01189
G1 X41.955 Y39.653 E11.04576
G1 X42.246 Y39.63 E11.07795
G1 X42.52 Y39.625 E11.10817
G1 X43.02 Y39.65 E11.16337
G1 X44.381 Y39.8 E11.31437
G1 X44.743 Y39.862 E11.35487
G1 X45.012 Y39.926 E11.38536
G1 X45.315 Y40.018 E11.42028
G1 X45.584 Y40.12 E11.452
G1 X45.753 Y40.195 E11.47239
G1 X46.38 Y40.43 E11.54623
G1 X47.044 Y40.588 E11.6215
G1 X47.724 Y40.66 E11.6969
G1 X48.403 Y40.645 E11.7718
G1 X48.869 Y40.586 E11.82359
G1 X49.177 Y40.534 E11.85804
G1 X49.699 Y40.492 E11.91579
G1 X50.003 Y40.482 E11.94933
G1 X50.192 Y40.488 E11.97018
G1 X50.862 Y40.47 E12.04409
G1 X51.537 Y40.367 E12.11939
G1 X52.196 Y40.177 E12.19502
G1 X52.411 Y40.08 E12.22103
G1 X52.414 Y40.09 E12.22218
G1 X53.233 Y39.704 E12.32202
G1 X53.544 Y39.581 E12.3589
G1 X53.754 Y39.509 E12.38338
G1 X53.985 Y39.444 E12.40985
G1 X55.109 Y39.167 E12.5375
G1 X55.622 Y39.068 E12.59512
G1 X55.913 Y39.033 E12.62744
G1 X56.186 Y39.018 E12.65759
G1 X56.5 Y39.021 E12.69222
G1 X56.794 Y39.042 E12.72472
G1 X57.056 Y39.077 E12.75387
G1 X57.348 Y39.136 E12.78672
G1 X57.637 Y39.212 E12.81967
G1 X57.915 Y39.306 E12.85203
G1 X58.174 Y39.412 E12.88289
G1 X58.439 Y39.54 E12.91535
G1 X58.693 Y39.683 E12.94749
G1 X58.955 Y39.855 E12.98205
G1 X59.168 Y40.01 E13.0111
G1 X59.333 Y40.145 E13.03461
G1 X60.427 Y41.122 E13.19635
G1 F3600 X60.8 Y41.512
G1 F1200 X60.8 Y74.947 E16.88336
G1 F1680 E13.88336
G1 F3600 X59.2 Y76.684
G1 F1680 E16.88336
G1 F1200 X59.2 Y40.037 E20.92457
G1 F1680 E17.92457
G1 F3600 X57.6 Y39.203
G1 F1680 E20.92457
G1 F1200 X57.6 Y77.937 E25.19593
G1 F1680 E22.19593
G1 F3600 X56 Y78.669
G1 F1680 E25.19593
G1 F1200 X56 Y39.028 E29.5673
G1 F1680 E26.5673
G1 F3600 X54.4 Y39.341
G1 F1680 E29.5673
G1 F1200 X54.4 Y79.235 E33.96657
G1 F1680 E30.96657
G1 F3600 X52.8 Y79.865
G1 F1680 E33.96657
G1 F1200 X52.8 Y39.908 E38.37278
G1 F1680 E35.37278
G1 F3600 X51.2 Y40.418
G1 F1680 E38.37278
G1 F1200 X51.2 Y80.3 E42.77073
G1 F1680 E39.77073
G1 F3600 X49.6 Y80.178
G1 F1680 E42.77073
G1 F1200 X49.6 Y40.499 E47.14629
G1 F1680 E44.14629
G1 F3600 X48 Y40.653
G1 F1680 E47.14629
G1 F1200 X48 Y79.827 E51.46617
G1 F1680 E48.46617
G1 F3600 X46.4 Y79.549
G1 F1680 E51.46617
G1 F1200 X46.4 Y40.435 E55.77942
G1 F1680 E52.77942
M73 P1
G1 F3600 X44.8 Y39.876
G1 F1680 E55.77942
G1 F1200 X44.8 Y79.181 E60.11374
G1 F1680 E57.11374
G1 F3600 X43.2 Y78.314
G1 F1680 E60.11374
G1 F1200 X43.2 Y39.67 E64.37517
G1 F1680 E61.37517
G1 F3600 X41.6 Y39.707
G1 F1680 E64.37517
G1 F1200 X41.6 Y77.31 E68.5218
G1 F1680 E65.5218
G1 F3600 X40 Y75.652
G1 F1680 E68.5218
G1 F1200 X40 Y40.342 E72.41557
G1 F1680 E69.41557
G1 F3600 X38.4 Y41.944
G1 F1680 E72.41557
G1 F1200 X38.4 Y73.281 E75.87123
G1 F1680 E72.87123
G1 F3600 X36.8 Y70.082
G1 F1680 E75.87123
G1 F1200 X36.8 Y53.168 E77.7364
G1 F1680 E74.7364
G1 F3600 X36.8 Y49.009
G1 F1680 E77.7364
G1 F1200 X36.8 Y45.708 E78.10042
G1 F1680 E75.10042
G1 F3600 X35.2 Y58.065
G1 F1680 E78.10042
G1 F1200 X35.2 Y60.367 E78.35427
G1 F1680 E75.35427
G1 F3600 X64 Y61.921
M104 T0 S200
G1 F1680 E78.35427
G1 F1200 X64 Y52.881 E79.35115
G1 F1680 E76.35115
G1 F3600 X65.6 Y55.752
G1 F1680 E79.35115
G1 F1200 X65.6 Y58.55 E79.65969
G1 F1680 E76.65969
G1 F3600 X62.4 Y49.576
G1 F1680 E79.65969
G1 F1200 X62.4 Y72.335 E82.16942
G1 F1680 E79.16942
G1 F3600 X62.4 Y48.242
G1 F1680 E82.16942
G1 F1200 X62.4 Y45.274 E82.49671
G1 F1680 E79.49671
G1 F3600 X60.461 Y41.085
;TIME_ELAPSED:44.492006
;LAYER:-5
G1 X60.461 Y41.085 Z0.619
;TYPE:SUPPORT
G1 F1680 E82.49671
G1 F1980 X60.739 Y41.365 E82.52612
G1 X60.91 Y41.559 E82.5454
G1 X61.101 Y41.809 E82.56885
G1 X61.265 Y42.054 E82.59083
G1 X61.407 Y42.299 E82.61194
G1 F3600 X61.425 Y42.333
G1 F1980 X58.756 Y39.664 E82.8933
G1 X58.971 Y39.805 E82.91246
G1 X59.196 Y39.969 E82.93322
G1 X59.444 Y40.174 E82.9572
G1 X60.461 Y41.085 E83.05898
G1 F1680 E80.05898
G1 F3600 X58.756 Y39.664
G1 F1680 E83.05898
G1 F1980 X58.727 Y39.645 E83.06156
G1 X58.456 Y39.491 E83.0848
G1 X58.201 Y39.369 E83.10587
G1 X57.929 Y39.257 E83.12779
G1 X57.64 Y39.159 E83.15054
G1 X57.37 Y39.087 E83.17137
G1 X57.071 Y39.027 E83.1941
G1 X56.812 Y38.993 E83.21358
G1 X62.259 Y44.44 E83.78779
G1 X62.277 Y44.503 E83.79267
G1 X62.549 Y45.705 E83.88453
G1 X62.609 Y46.063 E83.91159
G1 X55.572 Y39.025 E84.65347
G1 X55.096 Y39.117 E84.68961
G1 X54.53 Y39.257 E84.73307
G1 X62.605 Y47.331 E85.58426
G1 X62.571 Y47.552 E85.60093
G1 X62.521 Y47.777 E85.61811
G1 X62.423 Y48.422 E85.66674
G1 X53.531 Y39.53 E86.60412
G1 F3600 X53.523 Y39.532
G1 F1980 X53.228 Y39.65 E86.6278
G1 X52.65 Y39.922 E86.67542
G1 X62.466 Y49.738 E87.7102
G1 X62.47 Y49.783 E87.71357
G1 X62.623 Y50.442 E87.764
G1 X62.856 Y51.077 E87.81442
G1 X63.171 Y51.679 E87.86506
G1 X63.262 Y51.807 E87.87677
G1 X51.717 Y40.261 E89.09387
G1 X51.524 Y40.317 E89.10885
G1 X50.855 Y40.418 E89.15928
G1 X50.608 Y40.426 E89.1777
G1 X65.484 Y55.302 E90.7459
G1 X65.536 Y55.42 E90.75551
G1 X65.633 Y55.686 E90.77662
G1 X65.719 Y55.976 E90.79916
G1 X65.784 Y56.262 E90.82103
G1 X65.831 Y56.548 E90.84263
G1 X65.858 Y56.827 E90.86352
G1 X65.863 Y56.953 E90.87292
G1 X49.375 Y40.465 E92.61105
G1 X49.165 Y40.483 E92.62676
G1 X48.86 Y40.534 E92.64981
G1 X48.398 Y40.595 E92.68455
G1 X48.235 Y40.598 E92.6967
G1 X65.763 Y58.127 E94.54452
G1 X65.725 Y58.298 E94.55757
G1 X65.644 Y58.577 E94.57923
G1 X65.546 Y58.851 E94.60092
G1 X65.446 Y59.083 E94.61975
G1 X46.855 Y40.491 E96.57963
G1 X46.393 Y40.38 E96.61505
G1 X45.771 Y40.148 E96.66453
G1 X45.606 Y40.073 E96.67804
G1 X45.316 Y39.964 E96.70113
G1 X45.036 Y39.88 E96.72292
G1 X44.951 Y39.86 E96.72943
G1 X64.985 Y59.894 E98.84137
G1 X64.813 Y60.15 E98.86436
G1 X64.501 Y60.683 E98.9104
G1 X43.467 Y39.648 E101.12781
G1 X43.027 Y39.599 E101.16081
G1 X42.522 Y39.573 E101.1985
G1 X42.24 Y39.578 E101.21953
G1 X42.133 Y39.588 E101.22754
G1 X64.143 Y61.598 E103.54778
G1 X64.029 Y61.999 E103.57886
G1 X63.932 Y62.659 E103.62858
G1 X41.063 Y39.79 E106.03938
G1 X40.803 Y39.88 E106.05989
G1 X40.538 Y39.991 E106.08131
G1 X40.268 Y40.125 E106.10377
G1 X40.177 Y40.177 E106.11159
G1 X63.96 Y63.96 E108.61874
G1 X63.966 Y64.044 E108.62501
G1 X63.974 Y64.559 E108.66341
G1 X63.917 Y65.146 E108.70737
G1 X63.912 Y65.185 E108.7103
G1 X39.431 Y40.703 E111.29108
G1 X39.317 Y40.802 E111.30234
G1 X39.099 Y41.014 E111.325
G1 X38.866 Y41.273 E111.35097
G1 X38.804 Y41.35 E111.35834
G1 X63.749 Y66.295 E113.98799
G1 X63.586 Y67.404 E114.07154
G1 X38.243 Y42.062 E116.74309
G1 X38.161 Y42.175 E116.7535
G1 X38.024 Y42.386 E116.77225
G1 X37.871 Y42.653 E116.79519
G1 X37.769 Y42.86 E116.81239
G1 X63.423 Y68.515 E119.51683
G1 X63.261 Y69.625 E119.60045
G1 X37.415 Y43.779 E122.32507
G1 X37.087 Y44.723 E122.39957
G1 X63.076 Y70.712 E125.13927
G1 X63.018 Y70.986 E125.16015
G1 X62.919 Y71.313 E125.18561
G1 X62.781 Y71.691 E125.21561
G1 X36.758 Y45.668 E127.95889
G1 X36.727 Y45.76 E127.96613
G1 X36.676 Y45.932 E127.9795
G1 X36.548 Y46.428 E128.01769
G1 X36.502 Y46.685 E128.03715
G1 X62.346 Y72.528 E130.76151
G1 X62.318 Y72.575 E130.76559
G1 X61.862 Y73.317 E130.83051
G1 X36.482 Y47.937 E133.50601
G1 X36.52 Y48.199 E133.52574
G1 X36.584 Y48.493 E133.54817
G1 X36.664 Y48.78 E133.57038
G1 X36.943 Y49.568 E133.63269
G1 X36.93 Y49.572 E133.63371
G1 X36.973 Y49.701 E133.64384
G1 X61.377 Y74.105 E136.21646
G1 X60.893 Y74.893 E136.28539
G1 X37.164 Y51.165 E138.7868
G1 X37.114 Y51.821 E138.83584
G1 X37.019 Y52.293 E138.87173
G1 X60.368 Y75.642 E141.33312
G1 X60.298 Y75.736 E141.34186
G1 X60.157 Y75.898 E141.35787
G1 X59.743 Y76.289 E141.40032
G1 X36.703 Y53.249 E143.82914
G1 X36.472 Y53.723 E143.86845
G1 X36.315 Y53.997 E143.89199
G1 X36.27 Y54.089 E143.89962
G1 X59.051 Y76.87 E146.30114
G1 X58.35 Y77.442 E146.36858
G1 X35.921 Y55.012 E148.73305
G1 X35.901 Y55.077 E148.73812
G1 X35.822 Y55.411 E148.7637
G1 X35.779 Y55.683 E148.78423
G1 X35.766 Y55.827 E148.79501
G1 X35.73 Y56.094 E148.81509
G1 X57.619 Y77.983 E151.12258
G1 X57.397 Y78.136 E151.14268
G1 X56.784 Y78.422 E151.1931
G1 X35.477 Y57.115 E153.43923
G1 X35.259 Y57.685 E153.48472
G1 X35.16 Y58.012 E153.51019
G1 X35.148 Y58.059 E153.51381
G1 X55.86 Y78.77 E155.69717
G1 X54.92 Y79.103 E155.7715
G1 X35.001 Y59.184 E157.87132
G1 X35.006 Y59.436 E157.89011
G1 X35.027 Y59.718 E157.91118
G1 X35.071 Y60.023 E157.93415
G1 X35.134 Y60.326 E157.95722
G1 X35.206 Y60.585 E157.97726
G1 X35.245 Y60.7 E157.98631
G1 X53.98 Y79.436 E159.96137
G1 X53.595 Y79.572 E159.9918
G1 X53.093 Y79.78 E160.03231
G1 X53.064 Y79.793 E160.03468
G1 X35.749 Y62.477 E161.86004
G1 X35.778 Y62.675 E161.87495
G1 X35.79 Y63.339 E161.92446
G1 X35.775 Y63.721 E161.95296
G1 X35.776 Y63.777 E161.95713
G1 X52.163 Y80.165 E163.68466
G1 X51.813 Y80.25 E163.71151
G1 X51.258 Y80.342 E163.75345
G1 X51.088 Y80.362 E163.76621
G1 X35.926 Y65.2 E165.36455
G1 X36.066 Y66.156 E165.43657
G1 X36.109 Y66.656 E165.47398
G1 X49.71 Y80.257 E166.90777
G1 X49.425 Y80.187 E166.92964
G1 X49.244 Y80.132 E166.94374
G1 X48.642 Y79.99 E166.98985
G1 X48.07 Y79.89 E167.03313
G1 X36.169 Y67.989 E168.28771
G1 X36.177 Y68.116 E168.29719
G1 X36.195 Y68.278 E168.30934
G1 X36.224 Y68.442 E168.32176
G1 X36.278 Y68.677 E168.33973
G1 X36.44 Y69.227 E168.38247
G1 X36.61 Y69.703 E168.42015
G1 X46.529 Y79.622 E169.46579
G1 X45.752 Y79.487 E169.52457
G1 X45.539 Y79.44 E169.54083
G1 X44.901 Y79.266 E169.59013
G1 X37.355 Y71.721 E170.38556
G1 X37.367 Y71.748 E170.38776
G1 X37.511 Y72.035 E170.41169
G1 X37.649 Y72.272 E170.43214
G1 X37.814 Y72.51 E170.45372
G1 X38.096 Y72.94 E170.49205
G1 X38.175 Y73.044 E170.50179
G1 X38.448 Y73.437 E170.53746
G1 X39.356 Y74.891 E170.66524
G1 X39.532 Y75.149 E170.68852
G1 X39.618 Y75.256 E170.69875
G1 X42.017 Y77.655 E170.95165
G1 X41.913 Y77.592 E170.96071
G1 X41.748 Y77.481 E170.97554
G1 X41.174 Y77.058 E171.02869
G1 X40.637 Y76.51 E171.08588
G1 X40.5 Y76.356 E171.10124
G1 F1680 E168.10124
G1 F3600 X60.568 Y40.98
;TIME_ELAPSED:81.891325
;LAYER:-4
M106 S255
G1 X60.568 Y40.98 Z0.869
G1 F1680 E171.10124
G1 F2400 X60.787 Y41.2 E171.11351
G1 X38.735 Y41.2 E171.98448
G1 X38.415 Y41.6 E172.00471
G1 X61.129 Y41.6 E172.90183
G1 X61.227 Y41.728 E172.9082
G1 X61.382 Y41.96 E172.91922
G1 X61.406 Y42 E172.92106
G1 X38.105 Y42 E173.84137
G1 X38.036 Y42.094 E173.84597
G1 X37.899 Y42.305 E173.85591
G1 X37.845 Y42.4 E173.86023
G1 X61.626 Y42.4 E174.79949
G1 X61.674 Y42.497 E174.80377
