M73 P0
;MINX:8.8
;MAXX:91.3
;MINY:18.7
;MAXY:101.3
;MINZ:0.0
;MAXZ:21.3
;MachineType:ENTINA TINA2
;FilamentType:PLA
;Extruder0Temperature:210
;InfillDensity:10
;FLAVOR:Marlin
;TIME:6257
;FilamentUsed:6820.1
;Layer height: 0.2

;Generated with Cura_SteamEngine 3.1
M104 T0 S225
M82 ; absolute extrusion mode
;(**** start.gcode for tina2****)
M104 S150
G28 Z
G28 X Y; Home extruder
G1 X55 Y55 F1000
G1 Z10 F200
G29
G1 Z15 F100
M107 ; Turn off fan
G90 ; Absolute positioning
M82 ; Extruder in absolute mode
M109 S225.0
G92 E0 ; Reset extruder position
G1 X90 Y6 Z0.27 F2000
G1 X20 Y6 Z0.27 E15 F1000
G92 E0 ; Reset extruder position

;LAYER_COUNT:100
;LAYER:-6
M107
M203 Z5
G1 F3600 X88.603 Y19.805 Z0.349
G1 F1200 X88.842 Y19.957 E0.03123
G1 X89.089 Y20.139 E0.06507
G1 X89.29 Y20.308 E0.09403
G1 X89.523 Y20.528 E0.12936
G1 X89.71 Y20.73 E0.15972
G1 X89.898 Y20.96 E0.19248
G1 X90.062 Y21.188 E0.22345
G1 X90.224 Y21.447 E0.25714
G1 X90.352 Y21.686 E0.28703
G1 X90.479 Y21.961 E0.32044
G1 X90.581 Y22.222 E0.35134
G1 X90.676 Y22.525 E0.38635
G1 X90.73 Y22.746 E0.41144
G1 X90.79 Y23.102 E0.45125
G1 X90.84 Y23.656 E0.51259
G1 X90.85 Y23.878 E0.5371
G1 X90.846 Y96.301 E8.52347
G1 X90.822 Y96.678 E8.56513
G1 X90.785 Y96.976 E8.59824
G1 X90.73 Y97.26 E8.63014
G1 X90.654 Y97.551 E8.66331
G1 X90.57 Y97.809 E8.69323
G1 X90.459 Y98.088 E8.72634
G1 X90.337 Y98.346 E8.75781
G1 X90.194 Y98.604 E8.79034
G1 X90.042 Y98.843 E8.82157
G1 X89.869 Y99.078 E8.85375
G1 X89.688 Y99.295 E8.88491
G1 X89.474 Y99.521 E8.91924
G1 X89.269 Y99.711 E8.95006
G1 X89.039 Y99.899 E8.98282
G1 X88.811 Y100.063 E9.01379
G1 X88.552 Y100.225 E9.04748
G1 X88.313 Y100.353 E9.07737
G1 X88.038 Y100.48 E9.11078
G1 X87.777 Y100.582 E9.14168
G1 X87.474 Y100.677 E9.17669
G1 X87.253 Y100.731 E9.20178
G1 X86.897 Y100.791 E9.24159
G1 X86.343 Y100.841 E9.30293
G1 X86.121 Y100.851 E9.32744
G1 X13.826 Y100.851 E17.2997
G1 X13.323 Y100.823 E17.35525
G1 X13.025 Y100.786 E17.38836
G1 X12.741 Y100.731 E17.42026
G1 X12.45 Y100.655 E17.45343
G1 X12.19 Y100.57 E17.48359
G1 X11.913 Y100.46 E17.51646
G1 X11.654 Y100.337 E17.54808
G1 X11.397 Y100.195 E17.58046
G1 X11.158 Y100.043 E17.61169
G1 X10.911 Y99.861 E17.64552
G1 X10.71 Y99.692 E17.67448
G1 X10.477 Y99.472 E17.70982
G1 X10.29 Y99.27 E17.74017
G1 X10.098 Y99.035 E17.77364
G1 X9.938 Y98.812 E17.8039
G1 X9.776 Y98.553 E17.83759
G1 X9.648 Y98.314 E17.86749
G1 X9.521 Y98.039 E17.90089
G1 X9.419 Y97.778 E17.93179
G1 X9.324 Y97.475 E17.96681
G1 X9.268 Y97.246 E17.99281
G1 X9.21 Y96.898 E18.03171
G1 X9.16 Y96.344 E18.09305
G1 X9.15 Y96.122 E18.11756
G1 X9.154 Y23.699 E26.10393
G1 X9.178 Y23.322 E26.14559
G1 X9.215 Y23.024 E26.1787
G1 X9.27 Y22.74 E26.2106
G1 X9.346 Y22.449 E26.24377
G1 X9.43 Y22.191 E26.27369
G1 X9.541 Y21.912 E26.3068
G1 X9.663 Y21.654 E26.33827
G1 X9.809 Y21.391 E26.37144
G1 X9.958 Y21.157 E26.40203
G1 X10.14 Y20.91 E26.43587
G1 X10.309 Y20.709 E26.46483
G1 X10.529 Y20.476 E26.50016
G1 X10.731 Y20.289 E26.53052
G1 X10.961 Y20.101 E26.56328
G1 X11.189 Y19.937 E26.59425
G1 X11.448 Y19.775 E26.62793
G1 X11.687 Y19.647 E26.65783
G1 X11.962 Y19.52 E26.69123
G1 X12.223 Y19.418 E26.72214
G1 X12.526 Y19.323 E26.75715
G1 X12.747 Y19.269 E26.78224
G1 X13.103 Y19.209 E26.82205
G1 X13.657 Y19.159 E26.88339
G1 X13.879 Y19.149 E26.9079
G1 X86.3 Y19.153 E34.89405
G1 X86.677 Y19.177 E34.93571
G1 X86.975 Y19.214 E34.96882
G1 X87.259 Y19.269 E35.00072
G1 X87.55 Y19.345 E35.03389
G1 X87.808 Y19.429 E35.06381
G1 X88.087 Y19.54 E35.09692
G1 X88.345 Y19.662 E35.12839
G1 X88.603 Y19.805 E35.16092
G1 F3600 X88 Y19.506
G1 F1200 X88 Y100.495 E44.0919
G1 F1680 E41.0919
G1 F3600 X86.4 Y100.836
G1 F1680 E44.0919
G1 F1200 X86.4 Y19.16 E53.09864
G1 F1680 E50.09864
G1 F3600 X84.8 Y19.153
G1 F1680 E53.09864
G1 F1200 X84.8 Y100.851 E62.1078
G1 F1680 E59.1078
G1 F3600 X83.2 Y100.851
G1 F1680 E62.1078
G1 F1200 X83.2 Y19.153 E71.11696
G1 F1680 E68.11696
G1 F3600 X81.6 Y19.153
G1 F1680 E71.11696
G1 F1200 X81.6 Y100.851 E80.12613
G1 F1680 E77.12613
G1 F3600 X80 Y100.851
G1 F1680 E80.12613
G1 F1200 X80 Y19.153 E89.13529
G1 F1680 E86.13529
G1 F3600 X78.4 Y19.153
G1 F1680 E89.13529
G1 F1200 X78.4 Y100.851 E98.14445
G1 F1680 E95.14445
G1 F3600 X76.8 Y100.851
G1 F1680 E98.14445
G1 F1200 X76.8 Y19.153 E107.15362
G1 F1680 E104.15362
G1 F3600 X75.2 Y19.153
G1 F1680 E107.15362
G1 F1200 X75.2 Y100.851 E116.16278
G1 F1680 E113.16278
G1 F3600 X73.6 Y100.851
G1 F1680 E116.16278
G1 F1200 X73.6 Y19.153 E125.17194
G1 F1680 E122.17194
G1 F3600 X72 Y19.153
G1 F1680 E125.17194
G1 F1200 X72 Y100.851 E134.18111
G1 F1680 E131.18111
G1 F3600 X70.4 Y100.851
G1 F1680 E134.18111
G1 F1200 X70.4 Y19.153 E143.19027
G1 F1680 E140.19027
G1 F3600 X68.8 Y19.153
G1 F1680 E143.19027
G1 F1200 X68.8 Y100.851 E152.19943
G1 F1680 E149.19943
G1 F3600 X67.2 Y100.851
G1 F1680 E152.19943
G1 F1200 X67.2 Y19.152 E161.20871
G1 F1680 E158.20871
G1 F3600 X65.6 Y19.152
G1 F1680 E161.20871
G1 F1200 X65.6 Y100.851 E170.21798
G1 F1680 E167.21798
G1 F3600 X64 Y100.851
G1 F1680 E170.21798
G1 F1200 X64 Y19.152 E179.22725
G1 F1680 E176.22725
G1 F3600 X62.4 Y19.152
G1 F1680 E179.22725
G1 F1200 X62.4 Y100.851 E188.23653
G1 F1680 E185.23653
G1 F3600 X60.8 Y100.851
G1 F1680 E188.23653
G1 F1200 X60.8 Y19.152 E197.2458
G1 F1680 E194.2458
G1 F3600 X59.2 Y19.152
G1 F1680 E197.2458
G1 F1200 X59.2 Y100.851 E206.25508
G1 F1680 E203.25508
G1 F3600 X57.6 Y100.851
M73 P1
G1 F1680 E206.25508
G1 F1200 X57.6 Y19.152 E215.26435
G1 F1680 E212.26435
G1 F3600 X56 Y19.152
G1 F1680 E215.26435
G1 F1200 X56 Y100.851 E224.27362
G1 F1680 E221.27362
G1 F3600 X54.4 Y100.851
G1 F1680 E224.27362
G1 F1200 X54.4 Y19.152 E233.2829
G1 F1680 E230.2829
G1 F3600 X52.8 Y19.152
G1 F1680 E233.2829
G1 F1200 X52.8 Y100.851 E242.29217
G1 F1680 E239.29217
G1 F3600 X51.2 Y100.851
G1 F1680 E242.29217
G1 F1200 X51.2 Y19.152 E251.30144
G1 F1680 E248.30144
G1 F3600 X49.6 Y19.151
G1 F1680 E251.30144
G1 F1200 X49.6 Y100.851 E260.31083
G1 F1680 E257.31083
G1 F3600 X48 Y100.851
G1 F1680 E260.31083
G1 F1200 X48 Y19.151 E269.32021
G1 F1680 E266.32021
G1 F3600 X46.4 Y19.151
G1 F1680 E269.32021
G1 F1200 X46.4 Y100.851 E278.3296
G1 F1680 E275.3296
G1 F3600 X44.8 Y100.851
G1 F1680 E278.3296
G1 F1200 X44.8 Y19.151 E287.33898
G1 F1680 E284.33898
G1 F3600 X43.2 Y19.151
G1 F1680 E287.33898
G1 F1200 X43.2 Y100.851 E296.34836
G1 F1680 E293.34836
G1 F3600 X41.6 Y100.851
G1 F1680 E296.34836
G1 F1200 X41.6 Y19.151 E305.35775
G1 F1680 E302.35775
G1 F3600 X40 Y19.151
G1 F1680 E305.35775
G1 F1200 X40 Y100.851 E314.36713
G1 F1680 E311.36713
G1 F3600 X38.4 Y100.851
G1 F1680 E314.36713
G1 F1200 X38.4 Y19.151 E323.37652
G1 F1680 E320.37652
G1 F3600 X36.8 Y19.151
G1 F1680 E323.37652
G1 F1200 X36.8 Y100.851 E332.3859
G1 F1680 E329.3859
G1 F3600 X35.2 Y100.851
G1 F1680 E332.3859
G1 F1200 X35.2 Y19.151 E341.39528
G1 F1680 E338.39528
G1 F3600 X33.6 Y19.151
G1 F1680 E341.39528
G1 F1200 X33.6 Y100.851 E350.40467
G1 F1680 E347.40467
G1 F3600 X32 Y100.851
G1 F1680 E350.40467
G1 F1200 X32 Y19.151 E359.41405
G1 F1680 E356.41405
G1 F3600 X30.4 Y19.15
G1 F1680 E359.41405
G1 F1200 X30.4 Y100.851 E368.42355
G1 F1680 E365.42355
G1 F3600 X28.8 Y100.851
G1 F1680 E368.42355
G1 F1200 X28.8 Y19.15 E377.43304
G1 F1680 E374.43304
G1 F3600 X27.2 Y19.15
G1 F1680 E377.43304
G1 F1200 X27.2 Y100.851 E386.44253
G1 F1680 E383.44253
G1 F3600 X25.6 Y100.851
G1 F1680 E386.44253
G1 F1200 X25.6 Y19.15 E395.45203
G1 F1680 E392.45203
G1 F3600 X24 Y19.15
G1 F1680 E395.45203
G1 F1200 X24 Y100.851 E404.46152
G1 F1680 E401.46152
G1 F3600 X22.4 Y100.851
G1 F1680 E404.46152
G1 F1200 X22.4 Y19.15 E413.47102
G1 F1680 E410.47102
G1 F3600 X20.8 Y19.15
G1 F1680 E413.47102
G1 F1200 X20.8 Y100.851 E422.48051
G1 F1680 E419.48051
G1 F3600 X19.2 Y100.851
G1 F1680 E422.48051
G1 F1200 X19.2 Y19.15 E431.49001
G1 F1680 E428.49001
G1 F3600 X17.6 Y19.15
G1 F1680 E431.49001
G1 F1200 X17.6 Y100.851 E440.4995
G1 F1680 E437.4995
G1 F3600 X16 Y100.851
G1 F1680 E440.4995
G1 F1200 X16 Y19.15 E449.50899
G1 F1680 E446.50899
G1 F3600 X14.4 Y19.15
G1 F1680 E449.50899
G1 F1200 X14.4 Y100.851 E458.51849
G1 F1680 E455.51849
G1 F3600 X12.8 Y100.742
G1 F1680 E458.51849
G1 F1200 X12.8 Y19.26 E467.50383
G1 F1680 E464.50383
G1 F3600 X11.2 Y19.93
G1 F1680 E467.50383
G1 F1200 X11.2 Y100.069 E476.34108
G1 F1680 E473.34108
G1 F3600 X9.6 Y98.21
G1 F1680 E476.34108
G1 F1200 X9.6 Y21.787 E484.76855
G1 F1680 E481.76855
G1 F3600 X89.6 Y20.612
M104 T0 S210
G1 F1680 E484.76855
G1 F1200 X89.6 Y99.388 E493.45549
G1 F1680 E490.45549
G1 F3600 X88.626 Y19.76
;TIME_ELAPSED:238.464460
;LAYER:-5
G1 X88.626 Y19.76 Z0.619
;TYPE:SUPPORT
G1 F1680 E493.45549
G1 F1980 X88.375 Y19.62 E493.47691
G1 X88.33 Y19.599 E493.48062
G1 X90.398 Y21.667 E493.69862
G1 X90.53 Y21.954 E493.72217
G1 X90.626 Y22.198 E493.74171
G1 X90.721 Y22.5 E493.76531
G1 X90.779 Y22.739 E493.78364
G1 X90.839 Y23.091 E493.81026
G1 X90.868 Y23.41 E493.83414
G1 X86.577 Y19.119 E494.28649
G1 X86.3 Y19.101 E494.30718
G1 X85.286 Y19.101 E494.38276
G1 X90.899 Y24.714 E494.97447
G1 X90.899 Y25.987 E495.06936
G1 X84.014 Y19.101 E495.79522
G1 X82.741 Y19.101 E495.89011
G1 X90.899 Y27.26 E496.75016
G1 X90.899 Y28.533 E496.84505
G1 X81.468 Y19.101 E497.8393
G1 X80.195 Y19.101 E497.93419
G1 X90.899 Y29.805 E499.06258
G1 X90.899 Y31.078 E499.15747
G1 X78.923 Y19.101 E500.42001
G1 X77.65 Y19.101 E500.5149
G1 X90.899 Y32.351 E501.91163
G1 X90.899 Y33.624 E502.00652
G1 X76.377 Y19.101 E503.53745
G1 X75.103 Y19.101 E503.63242
G1 X90.899 Y34.897 E505.29759
G1 X90.899 Y36.169 E505.39241
G1 X73.831 Y19.101 E507.19168
G1 X72.558 Y19.101 E507.28657
G1 X90.899 Y37.442 E509.22004
G1 X90.899 Y38.715 E509.31493
G1 X71.285 Y19.101 E511.38259
G1 X70.012 Y19.101 E511.47748
G1 X90.899 Y39.988 E513.67934
G1 X90.899 Y41.261 E513.77423
G1 X68.739 Y19.101 E516.11029
G1 X67.467 Y19.101 E516.20511
G1 X90.899 Y42.533 E518.67525
G1 X90.899 Y43.805 E518.77007
G1 X66.194 Y19.101 E521.37436
G1 X64.92 Y19.1 E521.46933
G1 X90.899 Y45.078 E524.20792
G1 X90.899 Y46.351 E524.30281
G1 X63.648 Y19.1 E527.17555
G1 X62.375 Y19.1 E527.27044
G1 X90.899 Y47.624 E530.27738
G1 X90.899 Y48.897 E530.37227
G1 X61.102 Y19.1 E533.5134
G1 X59.829 Y19.1 E533.60829
G1 X90.899 Y50.169 E536.88357
G1 X90.899 Y51.442 E536.97846
G1 X58.556 Y19.1 E540.38793
G1 X57.284 Y19.1 E540.48275
G1 X90.899 Y52.715 E544.02637
G1 X90.899 Y53.988 E544.12126
G1 X56.011 Y19.1 E547.79907
G1 X54.737 Y19.099 E547.89404
G1 X90.899 Y55.261 E551.70615
G1 X90.899 Y56.533 E551.80097
G1 X53.465 Y19.099 E555.74717
G1 X52.192 Y19.099 E555.84207
G1 X90.899 Y57.806 E559.92247
G1 X90.899 Y59.079 E560.01736
G1 X50.919 Y19.099 E564.23196
G1 X49.646 Y19.099 E564.32685
G1 X90.898 Y60.351 E568.67554
G1 X90.898 Y61.624 E568.77043
G1 X48.373 Y19.099 E573.25332
M73 P2
G1 X47.101 Y19.099 E573.34814
G1 X90.898 Y62.897 E577.96517
G1 X90.898 Y64.169 E578.05999
G1 X45.828 Y19.099 E582.81116
G1 X44.554 Y19.098 E582.90613
G1 X90.898 Y65.442 E587.79161
G1 X90.898 Y66.715 E587.8865
G1 X43.282 Y19.098 E592.90612
G1 X42.009 Y19.098 E593.00101
G1 X90.898 Y67.988 E598.15483
G1 X90.898 Y69.261 E598.24972
G1 X40.736 Y19.098 E603.53774
G1 X39.463 Y19.098 E603.63263
G1 X90.898 Y70.533 E609.05479
G1 X90.898 Y71.806 E609.14968
G1 X38.19 Y19.098 E614.70604
G1 X36.918 Y19.098 E614.80086
G1 X90.898 Y73.079 E620.49136
G1 X90.898 Y74.352 E620.58625
G1 X35.645 Y19.098 E626.41094
G1 X34.371 Y19.098 E626.50591
G1 X90.898 Y75.625 E632.46486
G1 X90.898 Y76.897 E632.55967
G1 X33.098 Y19.098 E638.65276
G1 X31.826 Y19.098 E638.74758
G1 X90.898 Y78.17 E644.97482
G1 X90.897 Y79.442 E645.06963
G1 X30.553 Y19.098 E651.43096
G1 X29.28 Y19.098 E651.52585
G1 X90.897 Y80.715 E658.02137
G1 X90.897 Y81.988 E658.11627
G1 X28.007 Y19.098 E664.74598
G1 X26.735 Y19.098 E664.8408
G1 X90.897 Y83.261 E671.60467
G1 X90.897 Y84.533 E671.69948
G1 X25.462 Y19.098 E678.59749
G1 X24.188 Y19.097 E678.69246
G1 X90.897 Y85.806 E685.72477
G1 X90.897 Y87.079 E685.81966
G1 X22.915 Y19.097 E692.98616
G1 X21.643 Y19.097 E693.08098
G1 X90.897 Y88.352 E700.38163
G1 X90.897 Y89.625 E700.47652
G1 X20.37 Y19.097 E707.91137
G1 X19.097 Y19.097 E708.00626
G1 X90.897 Y90.897 E715.57525
G1 X90.897 Y92.17 E715.67014
G1 X17.824 Y19.097 E723.37333
G1 X16.551 Y19.097 E723.46822
G1 X90.897 Y93.443 E731.30561
G1 X90.897 Y94.716 E731.4005
G1 X15.279 Y19.097 E739.37203
G1 X14.006 Y19.097 E739.46692
G1 X90.897 Y95.989 E747.57265
G1 X90.897 Y96.302 E747.59598
G1 X90.873 Y96.685 E747.62458
G1 X90.837 Y96.973 E747.64622
G1 X90.8 Y97.164 E747.66072
G1 X12.838 Y19.202 E755.87929
G1 X12.739 Y19.218 E755.88677
G1 X12.502 Y19.276 E755.90496
G1 X12.199 Y19.371 E755.92863
G1 X11.955 Y19.465 E755.94812
G1 X11.869 Y19.506 E755.95522
G1 X90.494 Y98.131 E764.24369
G1 X90.377 Y98.376 E764.26393
G1 X90.239 Y98.627 E764.28528
G1 X90.089 Y98.862 E764.30606
G1 X90.031 Y98.941 E764.31336
G1 X11.058 Y19.967 E772.63857
G1 X10.926 Y20.061 E772.65065
G1 X10.701 Y20.247 E772.67241
G1 X10.491 Y20.44 E772.69367
G1 X10.378 Y20.56 E772.70596
G1 X89.439 Y99.621 E781.04039
G1 X89.299 Y99.751 E781.05463
G1 X89.072 Y99.936 E781.07646
G1 X88.842 Y100.102 E781.0976
G1 X88.721 Y100.176 E781.10817
G1 X9.821 Y21.276 E789.42563
G1 X9.764 Y21.365 E789.43351
G1 X9.622 Y21.621 E789.45533
G1 X9.492 Y21.892 E789.47773
G1 X9.398 Y22.126 E789.49653
G1 X87.871 Y100.599 E797.76898
G1 X87.8 Y100.627 E797.77466
G1 X87.498 Y100.722 E797.79826
G1 X87.26 Y100.78 E797.81652
G1 X86.907 Y100.84 E797.84321
G1 X86.844 Y100.845 E797.84793
G1 X9.147 Y23.148 E806.03857
G1 X9.127 Y23.313 E806.05095
G1 X9.103 Y23.696 E806.07956
G1 X9.102 Y24.376 E806.13025
G1 X85.627 Y100.9 E814.19729
G1 X84.354 Y100.9 E814.29218
G1 X9.102 Y25.648 E822.22507
G1 X9.102 Y26.921 E822.31996
G1 X83.081 Y100.9 E830.11866
G1 X81.808 Y100.9 E830.21355
G1 X9.102 Y28.194 E837.87805
G1 X9.102 Y29.467 E837.97294
G1 X80.535 Y100.9 E845.50324
G1 X79.263 Y100.9 E845.59806
G1 X9.102 Y30.74 E852.99422
G1 X9.102 Y32.012 E853.08904
G1 X77.99 Y100.9 E860.35105
G1 X76.717 Y100.9 E860.44594
G1 X9.102 Y33.285 E867.57376
G1 X9.102 Y34.558 E867.66865
G1 X75.444 Y100.9 E874.66227
G1 X74.171 Y100.9 E874.75717
G1 X9.101 Y35.83 E881.6167
G1 X9.101 Y37.103 E881.71159
G1 X72.898 Y100.899 E888.43687
G1 X71.625 Y100.899 E888.53176
G1 X9.101 Y38.376 E895.12284
G1 X9.101 Y39.648 E895.21766
G1 X70.352 Y100.899 E901.6746
G1 X69.08 Y100.899 E901.76942
G1 X9.101 Y40.921 E908.09221
G1 X9.101 Y42.194 E908.1871
G1 X67.807 Y100.899 E914.3757
G1 X66.534 Y100.899 E914.47059
G1 X9.101 Y43.467 E920.525
G1 X9.101 Y44.74 E920.61989
G1 X65.261 Y100.899 E926.54009
G1 X63.988 Y100.899 E926.63499
G1 X9.101 Y46.012 E932.42105
G1 X9.101 Y47.285 E932.51594
G1 X62.716 Y100.899 E938.16786
G1 X61.442 Y100.899 E938.26282
G1 X9.101 Y48.557 E943.78054
G1 X9.101 Y49.83 E943.87543
G1 X60.169 Y100.899 E949.25896
G1 X58.897 Y100.899 E949.35378
G1 X9.101 Y51.103 E954.60316
G1 X9.101 Y52.376 E954.69805
G1 X57.624 Y100.899 E959.81323
G1 X56.351 Y100.899 E959.90812
G1 X9.101 Y53.648 E964.88916
G1 X9.101 Y54.921 E964.98405
G1 X55.078 Y100.899 E969.8309
G1 X53.805 Y100.899 E969.92579
G1 X9.101 Y56.194 E974.63843
G1 X9.101 Y57.467 E974.73332
G1 X52.533 Y100.899 E979.31183
G1 X51.26 Y100.899 E979.40672
G1 X9.101 Y58.74 E983.85102
G1 X9.1 Y60.012 E983.94584
G1 X49.987 Y100.899 E988.25605
G1 X48.714 Y100.898 E988.35095
G1 X9.1 Y61.284 E992.52696
G1 X9.1 Y62.557 E992.62185
G1 X47.441 Y100.898 E996.66367
G1 X46.168 Y100.898 E996.75857
G1 X9.1 Y63.83 E1000.66619
G1 X9.1 Y65.103 E1000.76108
G1 X44.895 Y100.898 E1004.53451
G1 X43.622 Y100.898 E1004.6294
G1 X9.1 Y66.376 E1008.26863
G1 X9.1 Y67.648 E1008.36345
G1 X42.35 Y100.898 E1011.86858
G1 X41.077 Y100.898 E1011.96348
G1 X9.1 Y68.921 E1015.33442
G1 X9.1 Y70.194 E1015.42931
G1 X39.804 Y100.898 E1018.66605
G1 X38.531 Y100.898 E1018.76095
G1 X9.1 Y71.467 E1021.86349
G1 X9.099 Y72.739 E1021.95831
G1 X37.258 Y100.897 E1024.92672
G1 X35.985 Y100.897 E1025.02161
G1 X9.099 Y74.012 E1027.85581
G1 X9.099 Y75.284 E1027.95063
G1 X34.712 Y100.897 E1030.6507
G1 X33.439 Y100.897 E1030.74559
G1 X9.099 Y76.557 E1033.31145
G1 X9.099 Y77.83 E1033.40635
G1 X32.166 Y100.897 E1035.83802
