M73 P0
;MINX:8.0
;MAXX:92.0
;MINY:18.0
;MAXY:102.0
;MINZ:0.0
;MAXZ:21.3
;MachineType:ENTINA TINA2
;FilamentType:PLA
;Extruder0Temperature:200
;InfillDensity:10
;FLAVOR:Marlin
;TIME:5336
;FilamentUsed:8113.6
;Layer height: 0.35

;Generated with Cura_SteamEngine 3.1
M104 T0 S215
M82 ; absolute extrusion mode
;(**** start.gcode for tina2****)
M104 S150
G28 Z
G28 X Y; Home extruder
G1 X55 Y55 F1000
G1 Z10 F200
G29
G1 Z15 F100
M107 ; Turn off fan
G90 ; Absolute positioning
M82 ; Extruder in absolute mode
M109 S215.0
G92 E0 ; Reset extruder position
G1 X90 Y6 Z0.27 F2000
G1 X20 Y6 Z0.27 E15 F1000
G92 E0 ; Reset extruder position

;LAYER_COUNT:58
;LAYER:-5
M107
M203 Z5
G1 F3600 X89.353 Y19.056 Z0.349
G1 F1200 X89.592 Y19.208 E0.03123
G1 X89.839 Y19.39 E0.06507
G1 X90.04 Y19.559 E0.09403
G1 X90.273 Y19.779 E0.12936
G1 X90.46 Y19.981 E0.15972
G1 X90.648 Y20.211 E0.19248
G1 X90.812 Y20.439 E0.22345
G1 X90.974 Y20.698 E0.25714
G1 X91.102 Y20.937 E0.28703
G1 X91.229 Y21.212 E0.32044
G1 X91.331 Y21.473 E0.35134
G1 X91.426 Y21.776 E0.38635
G1 X91.48 Y21.997 E0.41144
G1 X91.54 Y22.353 E0.45125
G1 X91.59 Y22.907 E0.51259
G1 X91.6 Y23.129 E0.5371
G1 X91.596 Y97.049 E8.68855
G1 X91.572 Y97.426 E8.73021
G1 X91.535 Y97.724 E8.76332
G1 X91.48 Y98.008 E8.79522
G1 X91.404 Y98.299 E8.82839
G1 X91.32 Y98.557 E8.85831
G1 X91.209 Y98.836 E8.89142
G1 X91.087 Y99.094 E8.92289
G1 X90.944 Y99.352 E8.95542
G1 X90.792 Y99.591 E8.98665
G1 X90.619 Y99.826 E9.01883
G1 X90.438 Y100.043 E9.04999
G1 X90.224 Y100.269 E9.08432
G1 X90.019 Y100.459 E9.11514
G1 X89.789 Y100.647 E9.1479
G1 X89.561 Y100.811 E9.17887
G1 X89.302 Y100.973 E9.21256
G1 X89.063 Y101.101 E9.24245
G1 X88.788 Y101.228 E9.27586
G1 X88.527 Y101.33 E9.30676
G1 X88.224 Y101.425 E9.34177
G1 X88.003 Y101.479 E9.36686
G1 X87.647 Y101.539 E9.40667
G1 X87.093 Y101.589 E9.46801
G1 X86.871 Y101.599 E9.49252
G1 X13.076 Y101.599 E17.63019
G1 X12.573 Y101.571 E17.68574
G1 X12.275 Y101.534 E17.71885
G1 X11.991 Y101.479 E17.75075
G1 X11.7 Y101.403 E17.78392
G1 X11.44 Y101.318 E17.81408
G1 X11.163 Y101.208 E17.84695
G1 X10.904 Y101.085 E17.87857
G1 X10.647 Y100.943 E17.91095
G1 X10.408 Y100.791 E17.94218
G1 X10.161 Y100.609 E17.97601
G1 X9.96 Y100.44 E18.00497
G1 X9.727 Y100.22 E18.04031
G1 X9.54 Y100.018 E18.07067
G1 X9.348 Y99.783 E18.10413
G1 X9.188 Y99.56 E18.1344
G1 X9.026 Y99.301 E18.16808
G1 X8.898 Y99.062 E18.19798
G1 X8.771 Y98.787 E18.23138
G1 X8.669 Y98.526 E18.26228
G1 X8.574 Y98.223 E18.2973
G1 X8.518 Y97.994 E18.3233
G1 X8.46 Y97.646 E18.3622
G1 X8.41 Y97.092 E18.42354
G1 X8.4 Y96.87 E18.44805
G1 X8.404 Y22.95 E26.5995
G1 X8.428 Y22.573 E26.64116
G1 X8.465 Y22.275 E26.67427
G1 X8.52 Y21.991 E26.70617
G1 X8.596 Y21.7 E26.73934
G1 X8.68 Y21.442 E26.76926
G1 X8.791 Y21.163 E26.80237
G1 X8.913 Y20.905 E26.83384
G1 X9.059 Y20.642 E26.86701
G1 X9.208 Y20.408 E26.8976
G1 X9.39 Y20.161 E26.93144
G1 X9.559 Y19.96 E26.9604
G1 X9.779 Y19.727 E26.99573
G1 X9.981 Y19.54 E27.02609
G1 X10.211 Y19.352 E27.05885
G1 X10.439 Y19.188 E27.08982
G1 X10.698 Y19.026 E27.12351
G1 X10.937 Y18.898 E27.1534
G1 X11.212 Y18.771 E27.18681
G1 X11.473 Y18.669 E27.21771
G1 X11.776 Y18.574 E27.25272
G1 X11.997 Y18.52 E27.27781
G1 X12.353 Y18.46 E27.31762
G1 X12.907 Y18.41 E27.37896
G1 X13.129 Y18.4 E27.40347
G1 X87.05 Y18.404 E35.55503
G1 X87.427 Y18.428 E35.59669
G1 X87.725 Y18.465 E35.6298
G1 X88.009 Y18.52 E35.6617
G1 X88.3 Y18.596 E35.69487
G1 X88.558 Y18.68 E35.72479
G1 X88.837 Y18.791 E35.7579
G1 X89.095 Y18.913 E35.78937
G1 X89.353 Y19.056 E35.8219
G1 F3600 X89.6 Y19.214
G1 F1200 X89.6 Y100.783 E44.81684
G1 F1680 E41.81684
G1 F3600 X88 Y101.48
M73 P1
G1 F1680 E44.81684
G1 F1200 X88 Y18.519 E53.96528
G1 F1680 E50.96528
G1 F3600 X86.4 Y18.404
G1 F1680 E53.96528
G1 F1200 X86.4 Y101.599 E63.13952
G1 F1680 E60.13952
G1 F3600 X84.8 Y101.599
G1 F1680 E63.13952
G1 F1200 X84.8 Y18.404 E72.31377
G1 F1680 E69.31377
G1 F3600 X83.2 Y18.404
G1 F1680 E72.31377
G1 F1200 X83.2 Y101.599 E81.48801
G1 F1680 E78.48801
G1 F3600 X81.6 Y101.599
G1 F1680 E81.48801
G1 F1200 X81.6 Y18.404 E90.66225
G1 F1680 E87.66225
G1 F3600 X80 Y18.404
G1 F1680 E90.66225
G1 F1200 X80 Y101.599 E99.8365
G1 F1680 E96.8365
G1 F3600 X78.4 Y101.599
G1 F1680 E99.8365
G1 F1200 X78.4 Y18.404 E109.01074
G1 F1680 E106.01074
G1 F3600 X76.8 Y18.404
G1 F1680 E109.01074
G1 F1200 X76.8 Y101.599 E118.18498
G1 F1680 E115.18498
G1 F3600 X75.2 Y101.599
G1 F1680 E118.18498
G1 F1200 X75.2 Y18.404 E127.35923
G1 F1680 E124.35923
G1 F3600 X73.6 Y18.404
G1 F1680 E127.35923
G1 F1200 X73.6 Y101.599 E136.53347
G1 F1680 E133.53347
G1 F3600 X72 Y101.599
G1 F1680 E136.53347
G1 F1200 X72 Y18.404 E145.70771
G1 F1680 E142.70771
G1 F3600 X70.4 Y18.404
G1 F1680 E145.70771
G1 F1200 X70.4 Y101.599 E154.88196
G1 F1680 E151.88196
G1 F3600 X68.8 Y101.599
G1 F1680 E154.88196
G1 F1200 X68.8 Y18.404 E164.0562
G1 F1680 E161.0562
G1 F3600 X67.2 Y18.403
G1 F1680 E164.0562
G1 F1200 X67.2 Y101.599 E173.23056
G1 F1680 E170.23056
G1 F3600 X65.6 Y101.599
G1 F1680 E173.23056
G1 F1200 X65.6 Y18.403 E182.40491
G1 F1680 E179.40491
G1 F3600 X64 Y18.403
G1 F1680 E182.40491
G1 F1200 X64 Y101.599 E191.57926
G1 F1680 E188.57926
G1 F3600 X62.4 Y101.599
G1 F1680 E191.57926
G1 F1200 X62.4 Y18.403 E200.75362
G1 F1680 E197.75362
G1 F3600 X60.8 Y18.403
G1 F1680 E200.75362
G1 F1200 X60.8 Y101.599 E209.92797
G1 F1680 E206.92797
G1 F3600 X59.2 Y101.599
G1 F1680 E209.92797
G1 F1200 X59.2 Y18.403 E219.10232
G1 F1680 E216.10232
G1 F3600 X57.6 Y18.403
G1 F1680 E219.10232
G1 F1200 X57.6 Y101.599 E228.27668
G1 F1680 E225.27668
G1 F3600 X56 Y101.599
G1 F1680 E228.27668
G1 F1200 X56 Y18.403 E237.45103
G1 F1680 E234.45103
G1 F3600 X54.4 Y18.403
G1 F1680 E237.45103
G1 F1200 X54.4 Y101.599 E246.62539
G1 F1680 E243.62539
G1 F3600 X52.8 Y101.599
G1 F1680 E246.62539
G1 F1200 X52.8 Y18.403 E255.79974
G1 F1680 E252.79974
G1 F3600 X51.2 Y18.403
G1 F1680 E255.79974
G1 F1200 X51.2 Y101.599 E264.97409
G1 F1680 E261.97409
G1 F3600 X49.6 Y101.599
G1 F1680 E264.97409
G1 F1200 X49.6 Y18.402 E274.14856
G1 F1680 E271.14856
G1 F3600 X48 Y18.402
G1 F1680 E274.14856
G1 F1200 X48 Y101.599 E283.32302
G1 F1680 E280.32302
G1 F3600 X46.4 Y101.599
G1 F1680 E283.32302
G1 F1200 X46.4 Y18.402 E292.49749
G1 F1680 E289.49749
G1 F3600 X44.8 Y18.402
G1 F1680 E292.49749
G1 F1200 X44.8 Y101.599 E301.67195
G1 F1680 E298.67195
G1 F3600 X43.2 Y101.599
G1 F1680 E301.67195
G1 F1200 X43.2 Y18.402 E310.84641
G1 F1680 E307.84641
G1 F3600 X41.6 Y18.402
G1 F1680 E310.84641
G1 F1200 X41.6 Y101.599 E320.02088
G1 F1680 E317.02088
G1 F3600 X40 Y101.599
G1 F1680 E320.02088
G1 F1200 X40 Y18.402 E329.19534
G1 F1680 E326.19534
G1 F3600 X38.4 Y18.402
G1 F1680 E329.19534
G1 F1200 X38.4 Y101.599 E338.36981
G1 F1680 E335.36981
G1 F3600 X36.8 Y101.599
G1 F1680 E338.36981
G1 F1200 X36.8 Y18.402 E347.54427
G1 F1680 E344.54427
G1 F3600 X35.2 Y18.402
G1 F1680 E347.54427
M73 P2
G1 F1200 X35.2 Y101.599 E356.71874
G1 F1680 E353.71874
G1 F3600 X33.6 Y101.599
G1 F1680 E356.71874
G1 F1200 X33.6 Y18.402 E365.8932
G1 F1680 E362.8932
G1 F3600 X32 Y18.402
G1 F1680 E365.8932
G1 F1200 X32 Y101.599 E375.06766
G1 F1680 E372.06766
G1 F3600 X30.4 Y101.599
G1 F1680 E375.06766
G1 F1200 X30.4 Y18.401 E384.24224
G1 F1680 E381.24224
G1 F3600 X28.8 Y18.401
G1 F1680 E384.24224
G1 F1200 X28.8 Y101.599 E393.41681
G1 F1680 E390.41681
G1 F3600 X27.2 Y101.599
G1 F1680 E393.41681
G1 F1200 X27.2 Y18.401 E402.59139
G1 F1680 E399.59139
G1 F3600 X25.6 Y18.401
G1 F1680 E402.59139
G1 F1200 X25.6 Y101.599 E411.76596
G1 F1680 E408.76596
G1 F3600 X24 Y101.599
G1 F1680 E411.76596
G1 F1200 X24 Y18.401 E420.94054
G1 F1680 E417.94054
G1 F3600 X22.4 Y18.401
G1 F1680 E420.94054
G1 F1200 X22.4 Y101.599 E430.11511
G1 F1680 E427.11511
G1 F3600 X20.8 Y101.599
G1 F1680 E430.11511
G1 F1200 X20.8 Y18.401 E439.28968
G1 F1680 E436.28968
G1 F3600 X19.2 Y18.401
G1 F1680 E439.28968
G1 F1200 X19.2 Y101.599 E448.46426
G1 F1680 E445.46426
G1 F3600 X17.6 Y101.599
G1 F1680 E448.46426
G1 F1200 X17.6 Y18.401 E457.63883
G1 F1680 E454.63883
G1 F3600 X16 Y18.401
G1 F1680 E457.63883
G1 F1200 X16 Y101.599 E466.81341
G1 F1680 E463.81341
G1 F3600 X14.4 Y101.599
G1 F1680 E466.81341
G1 F1200 X14.4 Y18.401 E475.98798
G1 F1680 E472.98798
G1 F3600 X12.8 Y18.419
G1 F1680 E475.98798
G1 F1200 X12.8 Y101.583 E485.15881
G1 F1680 E482.15881
G1 F3600 X11.2 Y101.222
G1 F1680 E485.15881
G1 F1200 X11.2 Y18.776 E494.25046
G1 F1680 E491.25046
G1 F3600 X9.6 Y19.916
G1 F1680 E494.25046
G1 F1200 X9.6 Y100.082 E503.09068
G1 F1680 E500.09068
G1 F3600 X91.2 Y98.856
M104 T0 S200
G1 F1680 E503.09068
G1 F1200 X91.2 Y21.15 E511.65963
G1 F1680 E508.65963
G1 F3600 X89.376 Y19.01
;TIME_ELAPSED:245.665465
;LAYER:-4
G1 X89.376 Y19.01 Z0.619
;TYPE:SUPPORT
G1 F1680 E511.65963
G1 F1980 X89.125 Y18.871 E511.68102
G1 X88.849 Y18.741 E511.70376
G1 X88.674 Y18.671 E511.71781
G1 X91.327 Y21.324 E511.99748
G1 F3600 X91.281 Y21.205
G1 F1980 X91.141 Y20.904 E512.02223
G1 X91.018 Y20.675 E512.0416
G1 X90.851 Y20.407 E512.06514
G1 X90.686 Y20.176 E512.0863
G1 X90.5 Y19.951 E512.10806
G1 X90.307 Y19.742 E512.12927
G1 X90.074 Y19.521 E512.15321
G1 X89.876 Y19.354 E512.17251
G1 X89.611 Y19.159 E512.19704
G1 X89.376 Y19.01 E512.21778
G1 F3600 X88.674 Y18.671
G1 F1980 X88.591 Y18.637 E512.22447
G1 X88.312 Y18.546 E512.24634
G1 X88.018 Y18.47 E512.26898
G1 X87.723 Y18.413 E512.29137
G1 X87.434 Y18.376 E512.31309
G1 X87.086 Y18.355 E512.33908
G1 X91.641 Y22.91 E512.81926
G1 X91.65 Y23.127 E512.83545
G1 X91.65 Y24.192 E512.91483
G1 X85.81 Y18.352 E513.53047
G1 X84.538 Y18.352 E513.62529
G1 X91.65 Y25.465 E514.37507
G1 X91.65 Y26.737 E514.46989
G1 X83.265 Y18.352 E515.35382
G1 X81.992 Y18.352 E515.44871
G1 X91.65 Y28.01 E516.46683
G1 X91.65 Y29.283 E516.56172
G1 X80.719 Y18.352 E517.71405
G1 X79.446 Y18.352 E517.80894
G1 X91.65 Y30.556 E519.09545
G1 X91.65 Y31.828 E519.19027
G1 X78.174 Y18.352 E520.61088
G1 X76.901 Y18.352 E520.70577
G1 X91.65 Y33.101 E522.26058
G1 X91.65 Y34.374 E522.35547
G1 X75.627 Y18.352 E524.04452
G1 X74.355 Y18.352 E524.13934
G1 X91.65 Y35.647 E525.96254
G1 X91.65 Y36.92 E526.05743
G1 X73.082 Y18.352 E528.01483
G1 X71.809 Y18.352 E528.10972
G1 X91.649 Y38.192 E530.20121
G1 X91.649 Y39.465 E530.2961
G1 X70.536 Y18.352 E532.52178
G1 X69.263 Y18.352 E532.61667
G1 X91.649 Y40.737 E534.9765
G1 X91.649 Y42.01 E535.07139
G1 X67.991 Y18.352 E537.56537
G1 X66.718 Y18.352 E537.66026
G1 X91.649 Y43.283 E540.28843
M73 P3
G1 X91.649 Y44.556 E540.38332
G1 X65.444 Y18.351 E543.14579
G1 X64.172 Y18.351 E543.2406
G1 X91.649 Y45.829 E546.13722
G1 X91.649 Y47.101 E546.23204
G1 X62.899 Y18.351 E549.2628
G1 X61.626 Y18.351 E549.35769
G1 X91.649 Y48.374 E552.52264
G1 X91.649 Y49.647 E552.61753
G1 X60.353 Y18.351 E555.91669
G1 X59.08 Y18.351 E556.01158
G1 X91.649 Y50.92 E559.44493
G1 X91.649 Y52.192 E559.53974
G1 X57.808 Y18.351 E563.10719
G1 X56.535 Y18.351 E563.20208
G1 X91.648 Y53.465 E566.90366
G1 X91.648 Y54.737 E566.99848
G1 X55.261 Y18.35 E570.83431
G1 X53.989 Y18.35 E570.92913
G1 X91.648 Y56.01 E574.89911
G1 X91.648 Y57.283 E574.994
G1 X52.716 Y18.35 E579.09817
G1 X51.443 Y18.35 E579.19306
G1 X91.648 Y58.556 E583.43144
G1 X91.648 Y59.829 E583.52633
G1 X50.17 Y18.35 E587.8989
G1 X48.897 Y18.35 E587.99379
G1 X91.648 Y61.101 E592.5005
G1 X91.648 Y62.374 E592.59539
G1 X47.625 Y18.35 E597.23625
G1 X46.352 Y18.35 E597.33114
G1 X91.648 Y63.647 E602.10619
G1 X91.648 Y64.92 E602.20108
G1 X45.079 Y18.35 E607.11033
G1 X43.805 Y18.35 E607.2053
G1 X91.648 Y66.192 E612.24875
G1 X91.648 Y67.465 E612.34364
G1 X42.533 Y18.35 E617.52123
G1 X41.26 Y18.35 E617.61612
G1 X91.648 Y68.737 E622.92785
G1 X91.648 Y70.01 E623.02275
G1 X39.987 Y18.35 E628.46868
G1 X38.714 Y18.35 E628.56357
G1 X91.648 Y71.283 E634.1437
G1 X91.648 Y72.556 E634.23859
G1 X37.442 Y18.35 E639.95286
G1 X36.169 Y18.35 E640.04775
G1 X91.648 Y73.829 E645.89622
G1 X91.648 Y75.101 E645.99104
G1 X34.896 Y18.35 E651.97365
G1 X33.622 Y18.349 E652.06862
G1 X91.648 Y76.374 E658.18553
G1 X91.648 Y77.647 E658.28042
G1 X32.35 Y18.349 E664.53148
G1 X31.077 Y18.349 E664.62637
G1 X91.648 Y78.92 E671.01163
G1 X91.648 Y80.192 E671.10645
G1 X29.804 Y18.349 E677.62585
G1 X28.531 Y18.349 E677.72074
G1 X91.648 Y81.465 E684.37434
G1 X91.647 Y82.737 E684.46915
G1 X27.258 Y18.349 E691.25684
G1 X25.986 Y18.349 E691.35166
G1 X91.647 Y84.01 E698.27349
G1 X91.647 Y85.283 E698.36838
G1 X24.713 Y18.349 E705.42441
G1 X23.439 Y18.348 E705.51938
G1 X91.647 Y86.556 E712.70971
G1 X91.647 Y87.829 E712.8046
G1 X22.167 Y18.348 E720.12907
G1 X20.894 Y18.348 E720.22396
G1 X91.647 Y89.101 E727.68258
G1 X91.647 Y90.374 E727.77747
G1 X19.621 Y18.348 E735.37029
G1 X18.348 Y18.348 E735.46518
G1 X91.647 Y91.647 E743.19219
G1 X91.647 Y92.92 E743.28709
G1 X17.075 Y18.348 E751.14829
G1 X15.803 Y18.348 E751.24311
G1 X91.647 Y94.192 E759.23841
G1 X91.647 Y95.465 E759.3333
G1 X14.53 Y18.348 E767.4628
G1 X13.257 Y18.348 E767.55769
G1 X91.647 Y96.738 E775.82139
G1 X91.646 Y97.05 E775.84464
G1 X91.623 Y97.432 E775.87317
G1 X91.586 Y97.721 E775.89489
G1 X91.549 Y97.913 E775.90946
G1 X12.088 Y18.452 E784.28606
G1 X11.989 Y18.469 E784.29355
G1 X11.752 Y18.527 E784.31174
G1 X11.449 Y18.622 E784.33541
G1 X11.204 Y18.717 E784.35499
G1 X11.119 Y18.756 E784.36196
G1 X91.244 Y98.881 E792.80856
G1 X91.128 Y99.124 E792.82863
G1 X90.989 Y99.375 E792.85002
G1 X90.839 Y99.61 E792.8708
G1 X90.781 Y99.69 E792.87816
G1 X10.308 Y19.218 E801.36139
G1 X10.176 Y19.312 E801.37347
G1 X9.951 Y19.498 E801.39523
G1 X9.741 Y19.69 E801.41644
G1 X9.628 Y19.811 E801.42878
G1 X90.187 Y100.37 E809.92113
G1 X90.049 Y100.498 E809.93516
G1 X89.823 Y100.685 E809.95702
G1 X89.591 Y100.85 E809.97824
G1 X89.47 Y100.925 E809.98886
G1 X9.07 Y20.525 E818.46444
G1 X9.014 Y20.616 E818.4724
G1 X8.872 Y20.873 E818.49429
G1 X8.743 Y21.143 E818.5166
G1 X8.648 Y21.376 E818.53535
G1 X88.62 Y101.348 E826.96582
G1 X88.55 Y101.375 E826.97141
G1 X88.247 Y101.47 E826.99508
G1 X88.01 Y101.528 E827.01327
G1 X87.657 Y101.587 E827.03995
G1 X87.592 Y101.593 E827.04481
G1 X8.397 Y22.398 E835.39337
G1 X8.377 Y22.564 E835.40583
G1 X8.353 Y22.947 E835.43444
G1 X8.352 Y23.625 E835.48498
G1 X86.374 Y101.648 E843.70993
G1 X85.101 Y101.648 E843.80482
G1 X8.352 Y24.898 E851.89558
G1 X8.352 Y26.171 E851.99047
G1 X83.828 Y101.648 E859.94703
G1 X82.556 Y101.648 E860.04184
G1 X8.352 Y27.444 E867.86426
G1 X8.352 Y28.717 E867.95915
G1 X81.283 Y101.648 E875.64737
M73 P4
G1 X80.01 Y101.648 E875.74226
G1 X8.352 Y29.989 E883.29634
G1 X8.352 Y31.262 E883.39123
G1 X78.737 Y101.648 E890.81111
G1 X77.464 Y101.648 E890.906
G1 X8.352 Y32.535 E898.19168
G1 X8.352 Y33.808 E898.28657
G1 X76.192 Y101.648 E905.43811
G1 X74.919 Y101.648 E905.533
G1 X8.352 Y35.08 E912.55039
G1 X8.351 Y36.353 E912.64528
G1 X73.646 Y101.648 E919.52853
G1 X72.373 Y101.648 E919.62342
G1 X8.351 Y37.625 E926.37253
G1 X8.351 Y38.898 E926.46742
G1 X71.1 Y101.647 E933.08228
G1 X69.827 Y101.647 E933.17717
G1 X8.351 Y40.171 E939.65783
G1 X8.351 Y41.444 E939.75272
G1 X68.554 Y101.647 E946.09918
G1 X67.281 Y101.647 E946.19407
G1 X8.351 Y42.717 E952.40634
G1 X8.351 Y43.989 E952.50115
G1 X66.009 Y101.647 E958.57933
G1 X64.736 Y101.647 E958.67422
G1 X8.351 Y45.262 E964.6182
G1 X8.351 Y46.535 E964.71309
G1 X63.463 Y101.647 E970.52287
G1 X62.19 Y101.647 E970.61776
G1 X8.35 Y47.807 E976.29345
G1 X8.35 Y49.08 E976.38834
G1 X60.917 Y101.647 E981.92983
G1 X59.645 Y101.647 E982.02465
G1 X8.35 Y50.353 E987.432
G1 X8.35 Y51.625 E987.52682
G1 X58.372 Y101.647 E992.80002
G1 X57.098 Y101.646 E992.89499
G1 X8.35 Y52.898 E998.03389
G1 X8.35 Y54.171 E998.12878
G1 X55.826 Y101.646 E1003.13354
G1 X54.553 Y101.646 E1003.22843
G1 X8.35 Y55.444 E1008.09899
G1 X8.35 Y56.717 E1008.19388
G1 X53.28 Y101.646 E1012.93025
G1 X52.007 Y101.646 E1013.02514
G1 X8.35 Y57.989 E1017.62736
G1 X8.35 Y59.262 E1017.72225
G1 X50.734 Y101.646 E1022.19028
G1 X49.462 Y101.646 E1022.28509
G1 X8.35 Y60.534 E1026.61902
G1 X8.35 Y61.807 E1026.71392
G1 X48.189 Y101.646 E1030.91365
G1 X46.916 Y101.646 E1031.00854
G1 X8.35 Y63.08 E1035.07408
G1 X8.35 Y64.353 E1035.16897
G1 X45.643 Y101.646 E1039.10032
G1 X44.37 Y101.646 E1039.19521
G1 X8.35 Y65.625 E1042.99241
