M73 P0
;MINX:8.0
;MAXX:92.0
;MINY:18.0
;MAXY:102.0
;MINZ:0.0
;MAXZ:21.3
;MachineType:ENTINA TINA2
;FilamentType:PLA
;Extruder0Temperature:200
;InfillDensity:10
;FLAVOR:Marlin
;TIME:5352
;FilamentUsed:8157.7
;Layer height: 0.35

;Generated with Cura_SteamEngine 3.1
M104 T0 S215
M82 ; absolute extrusion mode
;(**** start.gcode for tina2****)
M104 S150
G28 Z
G28 X Y; Home extruder
G1 X55 Y55 F1000
G1 Z10 F200
G29
G1 Z15 F100
M107 ; Turn off fan
G90 ; Absolute positioning
M82 ; Extruder in absolute mode
M109 S215.0
G92 E0 ; Reset extruder position
G1 X90 Y6 Z0.27 F2000
G1 X20 Y6 Z0.27 E15 F1000
G92 E0 ; Reset extruder position

;LAYER_COUNT:58
;LAYER:-5
M107
M203 Z5
G1 F3600 X89.145 Y19.138 Z0.349
G1 F1200 X89.364 Y19.277 E0.0286
G1 X89.63 Y19.475 E0.06517
G1 X90.111 Y19.895 E0.13559
G1 X90.47 Y20.297 E0.19502
G1 X90.637 Y20.512 E0.22504
G1 X90.793 Y20.743 E0.25578
G1 X90.951 Y21.011 E0.29009
G1 X91.083 Y21.27 E0.32214
G1 X91.186 Y21.509 E0.35084
G1 X91.291 Y21.801 E0.38506
G1 X91.372 Y22.083 E0.41742
G1 X91.428 Y22.337 E0.4461
G1 X91.477 Y22.667 E0.48289
G1 X91.513 Y23.128 E0.53388
G1 X91.52 Y23.313 E0.55429
G1 X91.516 Y96.84 E8.66241
G1 X91.492 Y97.217 E8.70407
G1 X91.455 Y97.515 E8.73718
G1 X91.4 Y97.799 E8.76908
G1 X91.324 Y98.09 E8.80225
G1 X91.24 Y98.348 E8.83217
G1 X91.129 Y98.627 E8.86528
G1 X91.007 Y98.885 E8.89675
G1 X90.863 Y99.144 E8.92943
G1 X90.724 Y99.363 E8.95803
G1 X90.526 Y99.629 E8.9946
G1 X90.106 Y100.11 E9.06502
G1 X89.706 Y100.467 E9.12414
G1 X89.489 Y100.636 E9.15447
G1 X89.258 Y100.792 E9.18521
G1 X88.99 Y100.95 E9.21951
G1 X88.733 Y101.08 E9.25127
G1 X88.464 Y101.195 E9.28353
G1 X88.207 Y101.288 E9.31367
G1 X87.915 Y101.372 E9.34718
G1 X87.654 Y101.428 E9.37662
G1 X87.334 Y101.476 E9.4123
G1 X86.866 Y101.512 E9.46406
G1 X86.674 Y101.519 E9.48525
G1 X13.159 Y101.515 E17.59204
G1 X12.782 Y101.491 E17.63369
G1 X12.484 Y101.454 E17.66681
G1 X12.2 Y101.399 E17.69871
G1 X11.909 Y101.323 E17.73187
G1 X11.649 Y101.238 E17.76204
G1 X11.372 Y101.128 E17.7949
G1 X11.111 Y101.004 E17.82677
G1 X10.856 Y100.863 E17.8589
G1 X10.636 Y100.723 E17.88766
G1 X10.37 Y100.525 E17.92422
G1 X9.887 Y100.103 E17.99495
G1 X9.53 Y99.703 E18.05408
G1 X9.363 Y99.488 E18.0841
G1 X9.204 Y99.252 E18.11548
G1 X9.049 Y98.989 E18.14914
G1 X8.919 Y98.732 E18.1809
G1 X8.803 Y98.462 E18.21331
G1 X8.711 Y98.206 E18.2433
G1 X8.627 Y97.914 E18.27681
G1 X8.571 Y97.653 E18.30625
G1 X8.523 Y97.333 E18.34193
G1 X8.486 Y96.855 E18.3948
G1 X8.48 Y96.687 E18.41333
G1 X8.484 Y23.16 E26.52145
G1 X8.508 Y22.783 E26.56311
G1 X8.545 Y22.485 E26.59622
G1 X8.6 Y22.201 E26.62812
G1 X8.676 Y21.91 E26.66129
G1 X8.76 Y21.652 E26.69121
G1 X8.871 Y21.373 E26.72432
G1 X8.993 Y21.115 E26.75579
G1 X9.132 Y20.865 E26.78733
G1 X9.284 Y20.627 E26.81847
G1 X9.474 Y20.371 E26.85363
G1 X9.894 Y19.89 E26.92405
G1 X10.296 Y19.531 E26.98348
G1 X10.511 Y19.364 E27.0135
G1 X10.742 Y19.208 E27.04424
G1 X11.01 Y19.05 E27.07855
G1 X11.267 Y18.92 E27.11031
G1 X11.537 Y18.804 E27.14271
G1 X11.793 Y18.712 E27.17271
G1 X12.085 Y18.628 E27.20622
G1 X12.346 Y18.572 E27.23565
G1 X12.666 Y18.524 E27.27134
G1 X13.134 Y18.488 E27.3231
G1 X13.326 Y18.481 E27.34428
G1 X86.841 Y18.485 E35.45107
G1 X87.218 Y18.509 E35.49273
G1 X87.516 Y18.546 E35.52585
G1 X87.8 Y18.601 E35.55775
G1 X88.091 Y18.677 E35.59091
G1 X88.349 Y18.761 E35.62083
G1 X88.628 Y18.872 E35.65394
G1 X88.886 Y18.994 E35.68542
G1 X89.145 Y19.138 E35.71809
G1 F3600 X89.6 Y19.453
G1 F1200 X89.6 Y100.55 E44.66098
G1 F1680 E41.66098
G1 F3600 X88 Y101.348
G1 F1680 E44.66098
G1 F1200 X88 Y18.654 E53.77998
G1 F1680 E50.77998
G1 F3600 X86.4 Y18.485
G1 F1680 E53.77998
G1 F1200 X86.4 Y101.518 E62.93636
G1 F1680 E59.93636
G1 F3600 X84.8 Y101.518
G1 F1680 E62.93636
G1 F1200 X84.8 Y18.485 E72.09274
G1 F1680 E69.09274
G1 F3600 X83.2 Y18.485
G1 F1680 E72.09274
G1 F1200 X83.2 Y101.518 E81.24912
G1 F1680 E78.24912
G1 F3600 X81.6 Y101.518
G1 F1680 E81.24912
M73 P1
G1 F1200 X81.6 Y18.485 E90.4055
G1 F1680 E87.4055
G1 F3600 X80 Y18.485
G1 F1680 E90.4055
G1 F1200 X80 Y101.518 E99.56187
G1 F1680 E96.56187
G1 F3600 X78.4 Y101.518
G1 F1680 E99.56187
G1 F1200 X78.4 Y18.485 E108.71825
G1 F1680 E105.71825
G1 F3600 X76.8 Y18.485
G1 F1680 E108.71825
G1 F1200 X76.8 Y101.518 E117.87463
G1 F1680 E114.87463
G1 F3600 X75.2 Y101.518
G1 F1680 E117.87463
G1 F1200 X75.2 Y18.485 E127.03101
G1 F1680 E124.03101
G1 F3600 X73.6 Y18.485
G1 F1680 E127.03101
G1 F1200 X73.6 Y101.518 E136.18739
G1 F1680 E133.18739
G1 F3600 X72 Y101.518
G1 F1680 E136.18739
G1 F1200 X72 Y18.485 E145.34377
G1 F1680 E142.34377
G1 F3600 X70.4 Y18.485
G1 F1680 E145.34377
G1 F1200 X70.4 Y101.518 E154.50015
G1 F1680 E151.50015
G1 F3600 X68.8 Y101.518
G1 F1680 E154.50015
G1 F1200 X68.8 Y18.485 E163.65653
G1 F1680 E160.65653
G1 F3600 X67.2 Y18.484
G1 F1680 E163.65653
G1 F1200 X67.2 Y101.517 E172.81291
G1 F1680 E169.81291
G1 F3600 X65.6 Y101.517
G1 F1680 E172.81291
G1 F1200 X65.6 Y18.484 E181.96929
G1 F1680 E178.96929
G1 F3600 X64 Y18.484
G1 F1680 E181.96929
G1 F1200 X64 Y101.517 E191.12567
G1 F1680 E188.12567
G1 F3600 X62.4 Y101.517
G1 F1680 E191.12567
G1 F1200 X62.4 Y18.484 E200.28205
G1 F1680 E197.28205
G1 F3600 X60.8 Y18.484
G1 F1680 E200.28205
G1 F1200 X60.8 Y101.517 E209.43842
G1 F1680 E206.43842
G1 F3600 X59.2 Y101.517
G1 F1680 E209.43842
G1 F1200 X59.2 Y18.484 E218.5948
G1 F1680 E215.5948
G1 F3600 X57.6 Y18.484
G1 F1680 E218.5948
G1 F1200 X57.6 Y101.517 E227.75118
G1 F1680 E224.75118
G1 F3600 X56 Y101.517
G1 F1680 E227.75118
G1 F1200 X56 Y18.484 E236.90756
G1 F1680 E233.90756
G1 F3600 X54.4 Y18.484
G1 F1680 E236.90756
G1 F1200 X54.4 Y101.517 E246.06394
G1 F1680 E243.06394
G1 F3600 X52.8 Y101.517
G1 F1680 E246.06394
G1 F1200 X52.8 Y18.484 E255.22032
G1 F1680 E252.22032
G1 F3600 X51.2 Y18.484
G1 F1680 E255.22032
G1 F1200 X51.2 Y101.517 E264.3767
G1 F1680 E261.3767
G1 F3600 X49.6 Y101.516
G1 F1680 E264.3767
G1 F1200 X49.6 Y18.483 E273.53308
G1 F1680 E270.53308
G1 F3600 X48 Y18.483
G1 F1680 E273.53308
G1 F1200 X48 Y101.516 E282.68946
G1 F1680 E279.68946
G1 F3600 X46.4 Y101.516
G1 F1680 E282.68946
G1 F1200 X46.4 Y18.483 E291.84584
G1 F1680 E288.84584
G1 F3600 X44.8 Y18.483
G1 F1680 E291.84584
G1 F1200 X44.8 Y101.516 E301.00222
G1 F1680 E298.00222
G1 F3600 X43.2 Y101.516
G1 F1680 E301.00222
G1 F1200 X43.2 Y18.483 E310.1586
G1 F1680 E307.1586
G1 F3600 X41.6 Y18.483
G1 F1680 E310.1586
G1 F1200 X41.6 Y101.516 E319.31498
G1 F1680 E316.31498
G1 F3600 X40 Y101.516
G1 F1680 E319.31498
G1 F1200 X40 Y18.483 E328.47135
G1 F1680 E325.47135
G1 F3600 X38.4 Y18.483
G1 F1680 E328.47135
G1 F1200 X38.4 Y101.516 E337.62773
G1 F1680 E334.62773
G1 F3600 X36.8 Y101.516
G1 F1680 E337.62773
G1 F1200 X36.8 Y18.483 E346.78411
G1 F1680 E343.78411
G1 F3600 X35.2 Y18.483
G1 F1680 E346.78411
G1 F1200 X35.2 Y101.516 E355.94049
G1 F1680 E352.94049
G1 F3600 X33.6 Y101.516
G1 F1680 E355.94049
G1 F1200 X33.6 Y18.483 E365.09687
G1 F1680 E362.09687
G1 F3600 X32 Y18.483
G1 F1680 E365.09687
G1 F1200 X32 Y101.516 E374.25325
G1 F1680 E371.25325
G1 F3600 X30.4 Y101.515
G1 F1680 E374.25325
G1 F1200 X30.4 Y18.482 E383.40963
G1 F1680 E380.40963
G1 F3600 X28.8 Y18.482
G1 F1680 E383.40963
G1 F1200 X28.8 Y101.515 E392.56601
G1 F1680 E389.56601
G1 F3600 X27.2 Y101.515
G1 F1680 E392.56601
G1 F1200 X27.2 Y18.482 E401.72239
G1 F1680 E398.72239
G1 F3600 X25.6 Y18.482
G1 F1680 E401.72239
G1 F1200 X25.6 Y101.515 E410.87877
G1 F1680 E407.87877
G1 F3600 X24 Y101.515
G1 F1680 E410.87877
G1 F1200 X24 Y18.482 E420.03515
G1 F1680 E417.03515
M73 P2
G1 F3600 X22.4 Y18.482
G1 F1680 E420.03515
G1 F1200 X22.4 Y101.515 E429.19153
G1 F1680 E426.19153
G1 F3600 X20.8 Y101.515
G1 F1680 E429.19153
G1 F1200 X20.8 Y18.482 E438.3479
G1 F1680 E435.3479
G1 F3600 X19.2 Y18.482
G1 F1680 E438.3479
G1 F1200 X19.2 Y101.515 E447.50428
G1 F1680 E444.50428
G1 F3600 X17.6 Y101.515
G1 F1680 E447.50428
G1 F1200 X17.6 Y18.482 E456.66066
G1 F1680 E453.66066
G1 F3600 X16 Y18.482
G1 F1680 E456.66066
G1 F1200 X16 Y101.515 E465.81704
G1 F1680 E462.81704
G1 F3600 X14.4 Y101.515
G1 F1680 E465.81704
G1 F1200 X14.4 Y18.482 E474.97342
G1 F1680 E471.97342
G1 F3600 X12.8 Y18.513
G1 F1680 E474.97342
G1 F1200 X12.8 Y101.492 E484.12385
G1 F1680 E481.12385
G1 F3600 X11.2 Y101.046
G1 F1680 E484.12385
G1 F1200 X11.2 Y18.953 E493.17657
G1 F1680 E490.17657
G1 F3600 X9.6 Y20.226
G1 F1680 E493.17657
G1 F1200 X9.6 Y99.781 E501.94941
G1 F1680 E498.94941
G1 F3600 X91.2 Y98.449
M104 T0 S200
G1 F1680 E501.94941
G1 F1200 X91.2 Y21.548 E510.42959
G1 F1680 E507.42959
G1 F3600 X89.167 Y19.091
;TIME_ELAPSED:245.119381
;LAYER:-4
G1 X89.167 Y19.091 Z0.619
;TYPE:SUPPORT
G1 F1680 E510.42959
G1 F1980 X89.005 Y19.002 E510.44337
G1 X91.002 Y20.998 E510.65384
G1 F3600 X91 Y20.995
G1 F1980 X90.836 Y20.716 E510.67796
G1 X90.682 Y20.489 E510.69841
G1 X90.494 Y20.247 E510.72125
G1 X90.148 Y19.86 E510.75995
G1 X89.665 Y19.436 E510.80786
G1 X89.393 Y19.235 E510.83307
G1 X89.167 Y19.091 E510.85304
G1 F3600 X89.005 Y19.002
G1 F1980 X88.916 Y18.952 E510.86065
G1 X88.64 Y18.821 E510.88342
G1 X88.383 Y18.719 E510.90404
G1 X88.102 Y18.628 E510.92605
G1 X87.809 Y18.55 E510.94865
G1 X87.515 Y18.494 E510.97096
G1 X87.225 Y18.457 E510.99276
G1 X87.186 Y18.455 E510.99567
G1 X91.539 Y22.808 E511.45455
G1 X91.563 Y23.126 E511.47832
G1 X91.57 Y23.313 E511.49227
G1 X91.57 Y24.112 E511.55183
G1 X85.892 Y18.434 E512.15039
G1 X84.619 Y18.434 E512.24528
G1 X91.57 Y25.385 E512.97804
G1 X91.57 Y26.657 E513.07286
G1 X83.346 Y18.434 E513.93976
G1 X82.073 Y18.434 E514.03465
G1 X91.57 Y27.93 E515.03575
G1 X91.57 Y29.203 E515.13064
G1 X80.801 Y18.434 E516.26589
G1 X79.528 Y18.434 E516.36078
G1 X91.57 Y30.476 E517.63022
G1 X91.57 Y31.749 E517.72511
G1 X78.255 Y18.434 E519.12875
G1 X76.982 Y18.434 E519.22364
G1 X91.57 Y33.021 E520.76142
G1 X91.57 Y34.294 E520.85631
G1 X75.709 Y18.433 E522.52834
G1 X74.436 Y18.433 E522.62323
G1 X91.57 Y35.567 E524.42946
G1 X91.57 Y36.84 E524.52435
G1 X73.163 Y18.433 E526.46477
G1 X71.89 Y18.433 E526.55966
G1 X91.57 Y38.113 E528.63428
G1 X91.57 Y39.385 E528.7291
G1 X70.618 Y18.433 E530.93781
G1 X69.345 Y18.433 E531.0327
G1 X91.57 Y40.658 E533.37561
G1 X91.569 Y41.93 E533.47043
G1 X68.072 Y18.433 E535.94743
G1 X66.799 Y18.433 E536.04232
G1 X91.569 Y43.203 E538.65352
G1 X91.569 Y44.476 E538.74841
G1 X65.526 Y18.432 E541.49386
G1 X64.253 Y18.432 E541.58875
G1 X91.569 Y45.749 E544.46839
G1 X91.569 Y47.021 E544.56321
G1 X62.98 Y18.432 E547.57699
G1 X61.707 Y18.432 E547.67188
G1 X91.569 Y48.294 E550.81987
G1 X91.569 Y49.567 E550.91476
G1 X60.435 Y18.432 E554.19689
G1 X59.162 Y18.432 E554.29178
G1 X91.569 Y50.84 E557.7081
G1 X91.569 Y52.113 E557.80299
G1 X57.889 Y18.432 E561.35352
G1 X56.616 Y18.432 E561.44841
G1 X91.569 Y53.385 E565.13307
G1 X91.569 Y54.658 E565.22796
G1 X55.343 Y18.432 E569.04683
G1 X54.07 Y18.432 E569.14172
G1 X91.569 Y55.931 E573.09478
G1 X91.569 Y57.204 E573.18967
G1 X52.797 Y18.432 E577.27692
G1 X51.524 Y18.432 E577.37181
G1 X91.569 Y58.477 E581.59327
G1 X91.569 Y59.749 E581.68808
G1 X50.251 Y18.432 E586.04368
G1 X48.979 Y18.432 E586.1385
G1 X91.568 Y61.021 E590.62813
G1 X91.568 Y62.294 E590.72302
G1 X47.706 Y18.432 E595.34685
G1 X46.433 Y18.432 E595.44174
G1 X91.568 Y63.567 E600.19977
G1 X91.568 Y64.84 E600.29466
G1 X45.16 Y18.432 E605.18689
G1 X43.887 Y18.431 E605.28178
G1 X91.568 Y66.113 E610.30825
G1 X91.568 Y67.385 E610.40307
G1 X42.614 Y18.431 E615.56369
G1 X41.341 Y18.431 E615.65858
G1 X91.568 Y68.658 E620.9534
G1 X91.568 Y69.931 E621.04829
G1 X40.068 Y18.431 E626.4773
G1 X38.796 Y18.431 E626.57212
G1 X91.568 Y71.204 E632.13527
G1 X91.568 Y72.477 E632.23016
M73 P3
G1 X37.523 Y18.431 E637.92752
G1 X36.25 Y18.431 E638.02241
G1 X91.568 Y73.749 E643.85391
G1 X91.568 Y75.022 E643.9488
G1 X34.977 Y18.431 E649.91449
G1 X33.704 Y18.43 E650.00938
G1 X91.568 Y76.295 E656.10932
G1 X91.568 Y77.568 E656.20422
G1 X32.431 Y18.43 E662.43836
G1 X31.158 Y18.43 E662.53325
G1 X91.568 Y78.84 E668.90153
G1 X91.568 Y80.113 E668.99642
G1 X29.885 Y18.43 E675.4989
G1 X28.613 Y18.43 E675.59372
G1 X91.568 Y81.385 E682.23029
G1 X91.568 Y82.658 E682.32518
G1 X27.34 Y18.43 E689.09595
G1 X26.067 Y18.43 E689.19084
G1 X91.568 Y83.931 E696.09581
G1 X91.568 Y85.204 E696.1907
G1 X24.794 Y18.43 E703.22986
G1 X23.521 Y18.43 E703.32475
G1 X91.568 Y86.477 E710.49811
G1 X91.568 Y87.749 E710.59293
G1 X22.248 Y18.43 E717.90043
G1 X20.975 Y18.43 E717.99532
G1 X91.568 Y89.022 E725.43702
G1 X91.568 Y90.295 E725.53191
G1 X19.702 Y18.43 E733.10781
G1 X18.43 Y18.43 E733.20263
G1 X91.568 Y91.568 E740.91267
G1 X91.568 Y92.84 E741.00748
G1 X17.157 Y18.43 E748.85167
G1 X15.884 Y18.43 E748.94656
G1 X91.568 Y94.113 E756.92494
G1 X91.568 Y95.386 E757.01983
G1 X14.611 Y18.43 E765.13241
G1 X13.338 Y18.43 E765.2273
G1 X91.568 Y96.659 E773.47407
G1 X91.567 Y96.841 E773.48764
G1 X91.543 Y97.224 E773.51625
G1 X91.507 Y97.512 E773.53788
G1 X91.45 Y97.808 E773.56035
G1 F3600 X91.449 Y97.813
G1 F1980 X12.189 Y18.553 E781.91576
G1 X12.061 Y18.58 E781.92551
G1 X11.792 Y18.657 E781.94637
G1 X11.516 Y18.756 E781.96822
G1 X11.238 Y18.875 E781.99077
G1 X91.122 Y98.759 E790.41195
G1 X91.047 Y98.915 E790.42486
G1 X90.909 Y99.166 E790.44621
G1 X90.765 Y99.392 E790.46618
G1 X90.645 Y99.554 E790.48121
G1 X10.443 Y19.352 E798.93592
G1 X10.245 Y19.504 E798.95453
G1 X9.867 Y19.843 E798.99238
G1 X9.767 Y19.95 E799.00329
G1 X90.047 Y100.229 E807.46617
G1 X89.753 Y100.493 E807.49563
G1 X89.514 Y100.68 E807.51825
G1 X89.341 Y100.796 E807.53378
G1 X9.202 Y20.657 E815.98185
G1 X9.082 Y20.844 E815.99841
G1 X8.951 Y21.083 E816.01872
G1 X8.823 Y21.353 E816.041
G1 X8.766 Y21.493 E816.05226
G1 X88.505 Y101.232 E824.45817
G1 X88.485 Y101.241 E824.4598
G1 X88.208 Y101.341 E824.48175
G1 X87.939 Y101.418 E824.50261
G1 X87.657 Y101.479 E824.52412
G1 X87.501 Y101.502 E824.53587
G1 X8.491 Y22.492 E832.86493
G1 X8.456 Y22.774 E832.88611
G1 X8.432 Y23.157 E832.91471
G1 X8.432 Y23.705 E832.95556
G1 X86.295 Y101.568 E841.1637
G1 X85.022 Y101.568 E841.25859
G1 X8.432 Y24.978 E849.33253
G1 X8.432 Y26.251 E849.42743
G1 X83.749 Y101.568 E857.36717
G1 X82.476 Y101.568 E857.46206
G1 X8.432 Y27.524 E865.26761
G1 X8.432 Y28.796 E865.36243
G1 X81.204 Y101.568 E873.03389
G1 X79.931 Y101.568 E873.12878
G1 X8.432 Y30.069 E880.66604
G1 X8.432 Y31.342 E880.76093
G1 X78.658 Y101.568 E888.16399
G1 X77.385 Y101.568 E888.25888
G1 X8.432 Y32.615 E895.52775
G1 X8.432 Y33.888 E895.62264
G1 X76.112 Y101.568 E902.75731
G1 X74.84 Y101.568 E902.85213
G1 X8.432 Y35.16 E909.85271
G1 X8.432 Y36.433 E909.9476
G1 X73.566 Y101.568 E916.81393
G1 X72.293 Y101.568 E916.90882
G1 X8.432 Y37.706 E923.64095
G1 X8.431 Y38.978 E923.73577
G1 X71.021 Y101.568 E930.33387
G1 X69.748 Y101.568 E930.42876
G1 X8.431 Y40.251 E936.89265
G1 X8.431 Y41.524 E936.98755
G1 X68.475 Y101.568 E943.31725
G1 X67.202 Y101.568 E943.41214
G1 X8.431 Y42.796 E949.60769
G1 X8.431 Y44.069 E949.70259
G1 X65.929 Y101.568 E955.76395
G1 X64.657 Y101.568 E955.85876
G1 X8.431 Y45.342 E961.78598
G1 X8.431 Y46.615 E961.88087
G1 X63.384 Y101.568 E967.67389
G1 X62.11 Y101.567 E967.76886
G1 X8.431 Y47.888 E973.42757
G1 X8.431 Y49.16 E973.52239
G1 X60.838 Y101.567 E979.04702
G1 X59.565 Y101.567 E979.14191
G1 X8.431 Y50.433 E984.53234
G1 X8.431 Y51.706 E984.62723
G1 X58.292 Y101.567 E989.88346
G1 X57.019 Y101.567 E989.97835
G1 X8.43 Y52.978 E995.10049
G1 X8.43 Y54.251 E995.19538
G1 X55.746 Y101.567 E1000.18333
G1 X54.474 Y101.567 E1000.27814
G1 X8.43 Y55.524 E1005.13194
G1 X8.43 Y56.796 E1005.22676
G1 X53.201 Y101.567 E1009.94642
G1 X51.928 Y101.567 E1010.04131
G1 X8.43 Y58.069 E1014.62677
G1 X8.43 Y59.342 E1014.72166
G1 X50.655 Y101.567 E1019.17292
G1 X49.382 Y101.566 E1019.26781
G1 X8.43 Y60.615 E1023.58483
G1 X8.43 Y61.888 E1023.67972
G1 X48.109 Y101.566 E1027.86254
G1 X46.836 Y101.566 E1027.95743
G1 X8.43 Y63.16 E1032.0061
G1 X8.43 Y64.433 E1032.10099
G1 X45.563 Y101.566 E1036.01547
G1 X44.291 Y101.566 E1036.11028
G1 X8.43 Y65.706 E1039.89061
G1 X8.43 Y66.979 E1039.98551
G1 X43.018 Y101.566 E1043.63164
M73 P4
G1 X41.745 Y101.566 E1043.72653
G1 X8.43 Y68.251 E1047.23852
G1 X8.43 Y69.524 E1047.33341
G1 X40.472 Y101.566 E1050.71121
