M73 P0
;MINX:30.0
;MAXX:73.5
;MINY:49.0
;MAXY:71.1
;MINZ:0.0
;MAXZ:6.3
;MachineType:ENTINA TINA2
;FilamentType:PLA
;Extruder0Temperature:200
;InfillDensity:10
;FLAVOR:Marlin
;TIME:1819
;FilamentUsed:612.7
;Layer height: 0.1

;Generated with Cura_SteamEngine 3.1
M104 T0 S215
M82 ; absolute extrusion mode
;(**** start.gcode for tina2****)
M104 S150
G28 Z
G28 X Y; Home extruder
G1 X55 Y55 F1000
G1 Z10 F200
G29
G1 Z15 F100
M107 ; Turn off fan
G90 ; Absolute positioning
M82 ; Extruder in absolute mode
M109 S215.0
G92 E0 ; Reset extruder position
G1 X90 Y6 Z0.27 F2000
G1 X20 Y6 Z0.27 E15 F1000
G92 E0 ; Reset extruder position

;LAYER_COUNT:49
;LAYER:-8
M107
M203 Z5
G1 F3600 X66.821 Y51.243 Z0.349
G1 F1200 X67.043 Y51.4 E0.02998
G1 X67.279 Y51.59 E0.06339
G1 X67.49 Y51.782 E0.09485
G1 X67.693 Y51.993 E0.12714
G1 X67.88 Y52.213 E0.15898
G1 X68.055 Y52.446 E0.19112
G1 X68.211 Y52.687 E0.22277
G1 X68.348 Y52.928 E0.25334
G1 X68.487 Y53.214 E0.28841
G1 X68.593 Y53.473 E0.31927
G1 X68.683 Y53.743 E0.35065
G1 X68.796 Y54.168 E0.39915
G1 X69.01 Y54.803 E0.47304
G1 X69.307 Y55.417 E0.54826
G1 X69.68 Y55.989 E0.62356
G1 X70.118 Y56.506 E0.69828
G1 X70.742 Y57.116 E0.79451
G1 X70.949 Y57.34 E0.82814
G1 X71.254 Y57.707 E0.88076
G1 X71.491 Y58.027 E0.92468
G1 X71.75 Y58.419 E0.97649
G1 X71.911 Y58.691 E1.01134
G1 X72.134 Y59.111 E1.06378
G1 X72.253 Y59.368 E1.09501
G1 X72.442 Y59.833 E1.15036
G1 X72.551 Y60.148 E1.18712
G1 X72.677 Y60.574 E1.23611
G1 X72.749 Y60.879 E1.27067
G1 X72.836 Y61.332 E1.32153
G1 X72.882 Y61.669 E1.35904
G1 X72.924 Y62.132 E1.41031
G1 X72.932 Y62.281 E1.42676
G1 X72.935 Y62.786 E1.48245
G1 X72.925 Y63.061 E1.5128
G1 X72.862 Y63.684 E1.58185
G1 X72.817 Y63.968 E1.61355
G1 X72.73 Y64.407 E1.66291
G1 X72.648 Y64.722 E1.6988
G1 X72.445 Y65.353 E1.7719
G1 X72.266 Y65.796 E1.82458
G1 X72.134 Y66.083 E1.85942
G1 X71.91 Y66.505 E1.9121
G1 X71.75 Y66.775 E1.94671
G1 X71.453 Y67.221 E2.0058
G1 X71.261 Y67.478 E2.04118
G1 X70.965 Y67.836 E2.0924
G1 X70.751 Y68.069 E2.12729
G1 X70.407 Y68.41 E2.1807
G1 X70.2 Y68.595 E2.21132
G1 X69.808 Y68.914 E2.26705
G1 X69.624 Y69.051 E2.29235
G1 X69.272 Y69.288 E2.33914
G1 X69.025 Y69.439 E2.37107
G1 X68.579 Y69.684 E2.42718
G1 X68.313 Y69.813 E2.45978
G1 X67.852 Y70.005 E2.51485
G1 X67.613 Y70.093 E2.54294
G1 X67.131 Y70.243 E2.5986
G1 X66.816 Y70.325 E2.6345
G1 X66.371 Y70.414 E2.68454
G1 X66.087 Y70.459 E2.71625
G1 X65.464 Y70.521 E2.78529
G1 X65.316 Y70.529 E2.80163
G1 X64.811 Y70.532 E2.85732
G1 X64.536 Y70.522 E2.88767
G1 X63.913 Y70.459 E2.95672
G1 X63.629 Y70.414 E2.98843
G1 X63.184 Y70.325 E3.03847
G1 X62.869 Y70.243 E3.07436
G1 X62.387 Y70.093 E3.13003
G1 X62.148 Y70.005 E3.15812
G1 X61.687 Y69.813 E3.21319
G1 X61.421 Y69.684 E3.24579
G1 X60.975 Y69.439 E3.3019
G1 X60.728 Y69.288 E3.33382
G1 X60.031 Y68.809 E3.42709
G1 X60.021 Y68.819 E3.42865
G1 X59.775 Y68.661 E3.46089
G1 X59.158 Y68.367 E3.53625
G1 X58.509 Y68.153 E3.61161
G1 X57.839 Y68.023 E3.68687
G1 X57.161 Y67.979 E3.7618
G1 X56.673 Y68.001 E3.81567
G1 X56.346 Y68.03 E3.85187
G1 X56.125 Y68.04 E3.87626
G1 X54.871 Y68.041 E4.01455
G1 X54.333 Y68.013 E4.07395
G1 X54.041 Y67.977 E4.1064
G1 X53.749 Y67.921 E4.13918
G1 X53.477 Y67.85 E4.17018
G1 X53.191 Y67.756 E4.20338
G1 X52.945 Y67.659 E4.23254
G1 X52.66 Y67.524 E4.26732
G1 X52.345 Y67.35 E4.307
G1 X51.739 Y67.063 E4.38094
G1 X51.09 Y66.851 E4.45623
G1 X50.419 Y66.722 E4.53158
G1 X49.738 Y66.679 E4.60683
G1 X49.056 Y66.722 E4.68218
G1 X48.385 Y66.852 E4.75755
G1 X47.739 Y67.064 E4.83253
G1 X47.182 Y67.323 E4.90027
G1 X46.762 Y67.55 E4.95291
G1 X46.505 Y67.669 E4.98414
G1 X46.244 Y67.771 E5.01505
G1 X45.942 Y67.866 E5.04996
G1 X45.711 Y67.923 E5.07619
G1 X45.37 Y67.98 E5.11432
G1 X44.811 Y68.03 E5.17621
G1 X44.591 Y68.04 E5.20049
G1 X43.331 Y68.041 E5.33944
G1 X42.793 Y68.013 E5.39885
G1 X42.501 Y67.977 E5.43129
G1 X42.209 Y67.921 E5.46408
G1 X41.94 Y67.851 E5.49473
G1 X41.778 Y67.798 E5.51353
G1 X41.129 Y67.63 E5.58745
G1 X40.45 Y67.545 E5.66291
G1 X40.198 Y67.548 E5.6907
G1 X40.198 Y67.53 E5.69269
G1 X39.442 Y67.563 E5.77613
G1 X35.438 Y67.559 E6.21767
G1 X35.061 Y67.535 E6.25933
G1 X34.763 Y67.498 E6.29244
G1 X34.479 Y67.443 E6.32434
G1 X34.188 Y67.367 E6.35751
G1 X33.928 Y67.282 E6.38767
G1 X33.651 Y67.172 E6.42054
G1 X33.392 Y67.049 E6.45216
G1 X33.135 Y66.907 E6.48454
G1 X32.896 Y66.755 E6.51577
G1 X32.649 Y66.573 E6.5496
G1 X32.448 Y66.404 E6.57856
G1 X32.215 Y66.184 E6.6139
G1 X32.028 Y65.982 E6.64426
G1 X31.836 Y65.747 E6.67772
G1 X31.676 Y65.524 E6.70798
G1 X31.514 Y65.265 E6.74167
G1 X31.386 Y65.026 E6.77157
G1 X31.259 Y64.751 E6.80497
G1 X31.157 Y64.49 E6.83587
G1 X31.062 Y64.187 E6.87089
G1 X31.008 Y63.968 E6.89576
G1 X30.947 Y63.604 E6.93646
G1 X30.898 Y63.055 E6.99724
G1 X30.888 Y62.832 E7.02186
G1 X30.893 Y54.618 E7.92765
G1 X30.917 Y54.236 E7.96986
G1 X30.952 Y53.955 E8.00109
G1 X31.011 Y53.65 E8.03534
G1 X31.084 Y53.369 E8.06736
G1 X31.169 Y53.11 E8.09742
G1 X31.281 Y52.829 E8.13078
G1 X31.402 Y52.575 E8.1618
G1 X31.55 Y52.307 E8.19556
G1 X31.706 Y52.063 E8.2275
G1 X31.874 Y51.836 E8.25864
G1 X32.061 Y51.61 E8.29099
G1 X32.259 Y51.403 E8.32257
G1 X32.469 Y51.208 E8.35418
G1 X32.704 Y51.017 E8.38757
G1 X32.928 Y50.856 E8.41799
G1 X33.178 Y50.7 E8.45049
G1 X33.442 Y50.557 E8.48359
G1 X33.696 Y50.44 E8.51443
G1 X33.969 Y50.334 E8.54673
G1 X34.251 Y50.247 E8.57927
G1 X34.49 Y50.187 E8.60644
G1 X34.848 Y50.126 E8.64649
G1 X35.397 Y50.078 E8.70726
G1 X35.617 Y50.068 E8.73155
G1 X39.461 Y50.067 E9.15544
G1 X40.052 Y50.098 E9.2207
G1 X40.719 Y50.098 E9.29426
G1 X41.188 Y50.047 E9.34628
G1 X41.407 Y50.013 E9.37072
G1 X41.712 Y49.982 E9.40452
G1 X42.264 Y49.969 E9.46541
G1 X42.469 Y49.972 E9.48802
G1 X42.928 Y50.009 E9.5388
G1 X43.142 Y50.035 E9.56257
G1 X43.733 Y50.068 E9.62785
G1 X44.767 Y50.072 E9.74187
G1 X45.816 Y50.139 E9.85778
G1 X46.537 Y50.09 E9.93748
G1 X47.155 Y50.006 E10.00625
G1 X47.479 Y49.979 E10.0421
G1 X47.97 Y49.966 E10.09627
G1 X48.281 Y49.974 E10.13057
G1 X48.697 Y50.002 E10.17655
G1 X48.905 Y50.025 E10.19963
G1 X49.452 Y50.111 E10.26069
G1 X50.155 Y50.184 E10.33863
G1 X50.835 Y50.168 E10.41364
G1 X52.082 Y49.995 E10.55246
G1 X52.483 Y49.97 E10.59677
G1 X52.954 Y49.967 E10.64871
G1 X53.139 Y49.973 E10.66912
G1 X53.545 Y50.005 E10.71403
G1 X54.185 Y50.083 E10.78513
G1 X54.189 Y50.064 E10.78727
G1 X54.367 Y50.079 E10.80697
G1 X54.892 Y50.068 E10.86488
G1 X56.29 Y50.072 E11.01904
G1 X56.781 Y50.103 E11.07329
G1 X57.588 Y50.092 E11.16229
G1 X57.738 Y50.078 E11.1789
G1 X57.961 Y50.068 E11.20352
G1 X59.221 Y50.067 E11.34246
G1 X60.429 Y50.135 E11.47589
G1 X61.125 Y50.087 E11.55282
G1 X61.728 Y50.005 E11.61993
G1 X62.046 Y49.979 E11.65511
G1 X62.537 Y49.966 E11.70927
G1 X62.848 Y49.974 E11.74358
G1 X63.264 Y50.002 E11.78956
G1 X63.472 Y50.025 E11.81264
G1 X64.053 Y50.117 E11.8775
G1 X64.487 Y50.216 E11.92659
G1 X65.121 Y50.406 E11.99958
G1 X65.228 Y50.445 E12.01214
G1 X65.604 Y50.596 E12.05682
G1 X65.862 Y50.712 E12.08801
G1 X66.376 Y50.973 E12.15158
G1 X66.821 Y51.243 E12.20898
G1 F3600 X67.2 Y51.527
G1 F1200 X67.2 Y70.222 E14.27055
G1 F1680 E11.27055
G1 F3600 X65.6 Y70.508
G1 F1680 E14.27055
G1 F1200 X65.6 Y50.595 E16.46644
G1 F1680 E13.46644
G1 F3600 X64 Y50.109
G1 F1680 E16.46644
G1 F1200 X64 Y70.467 E18.71139
G1 F1680 E15.71139
G1 F3600 X62.4 Y70.097
G1 F1680 E18.71139
G1 F1200 X62.4 Y49.969 E20.93099
G1 F1680 E17.93099
G1 F3600 X60.8 Y50.109
G1 F1680 E20.93099
G1 F1200 X60.8 Y69.332 E23.05079
G1 F1680 E20.05079
G1 F3600 X59.2 Y68.387
G1 F1680 E23.05079
G1 F1200 X59.2 Y50.067 E25.07101
G1 F1680 E22.07101
G1 F3600 X57.6 Y50.09
G1 F1680 E25.07101
G1 F1200 X57.6 Y68.007 E27.04678
G1 F1680 E24.04678
G1 F3600 X56 Y68.041
G1 F1680 E27.04678
G1 F1200 X56 Y50.072 E29.0283
G1 F1680 E26.0283
G1 F3600 X54.4 Y50.078
G1 F1680 E29.0283
G1 F1200 X54.4 Y68.016 E31.00639
G1 F1680 E28.00639
G1 F3600 X52.8 Y67.59
G1 F1680 E31.00639
G1 F1200 X52.8 Y49.967 E32.94975
G1 F1680 E29.94975
G1 F3600 X51.2 Y50.117
G1 F1680 E32.94975
G1 F1200 X51.2 Y66.886 E34.79893
G1 F1680 E31.79893
G1 F3600 X49.6 Y66.688
G1 F1680 E34.79893
G1 F1200 X49.6 Y50.127 E36.62518
G1 F1680 E33.62518
G1 F3600 X48 Y49.967
G1 F1680 E36.62518
G1 F1200 X48 Y66.979 E38.50116
G1 F1680 E35.50116
G1 F3600 X46.4 Y67.711
G1 F1680 E38.50116
G1 F1200 X46.4 Y50.099 E40.44331
G1 F1680 E37.44331
G1 F3600 X44.8 Y50.075
G1 F1680 E40.44331
G1 F1200 X44.8 Y68.031 E42.42339
G1 F1680 E39.42339
G1 F3600 X43.2 Y68.034
G1 F1680 E42.42339
G1 F1200 X43.2 Y50.039 E44.40777
G1 F1680 E41.40777
G1 F3600 X41.6 Y49.993
G1 F1680 E44.40777
G1 F1200 X41.6 Y67.751 E46.36601
G1 F1680 E43.36601
G1 F3600 X40 Y67.539
G1 F1680 E46.36601
G1 F1200 X40 Y50.096 E48.28952
G1 F1680 E45.28952
G1 F3600 X38.4 Y50.067
G1 F1680 E48.28952
G1 F1200 X38.4 Y67.561 E50.21865
G1 F1680 E47.21865
G1 F3600 X36.8 Y67.56
G1 F1680 E50.21865
G1 F1200 X36.8 Y50.067 E52.14768
G1 F1680 E49.14768
G1 F3600 X35.2 Y50.095
G1 F1680 E52.14768
G1 F1200 X35.2 Y67.543 E54.07174
G1 F1680 E51.07174
G1 F3600 X33.6 Y67.147
G1 F1680 E54.07174
G1 F1200 X33.6 Y50.484 E55.90923
G1 F1680 E52.90923
G1 F3600 X32 Y51.683
M104 T0 S200
G1 F1680 E55.90923
G1 F1200 X32 Y65.947 E57.48218
G1 F1680 E54.48218
G1 F3600 X68.8 Y69.563
G1 F1680 E57.48218
G1 F1200 X68.8 Y54.18 E59.17853
G1 F1680 E56.17853
G1 F3600 X70.4 Y56.782
G1 F1680 E59.17853
G1 F1200 X70.4 Y68.417 E60.46156
G1 F1680 E57.46156
G1 F3600 X72 Y66.336
G1 F1680 E60.46156
G1 F1200 X72 Y58.859 E61.28608
G1 F1680 E58.28608
G1 F3600 X66.848 Y51.2
;TIME_ELAPSED:35.323317
;LAYER:-7
G1 X66.848 Y51.2 Z0.619
;TYPE:SUPPORT
G1 F1680 E61.28608
G1 F1980 X66.4 Y50.928 E61.32515
G1 X65.997 Y50.723 E61.35885
G1 X68.578 Y53.305 E61.63099
G1 X68.639 Y53.453 E61.64292
G1 X68.733 Y53.735 E61.66508
G1 X68.843 Y54.153 E61.6973
G1 X69.056 Y54.783 E61.74687
G1 X69.311 Y55.31 E61.79051
G1 X64.071 Y50.07 E62.3429
G1 X63.991 Y50.053 E62.349
G1 X63.648 Y49.998 E62.37489
G1 X63.332 Y49.957 E62.39864
G1 X62.849 Y49.923 E62.43474
G1 X62.646 Y49.918 E62.44987
G1 X72.455 Y59.727 E63.48392
G1 X72.538 Y59.95 E63.50165
G1 X72.694 Y60.451 E63.54077
G1 X72.778 Y60.774 E63.56564
G1 X72.887 Y61.334 E63.60817
G1 X72.902 Y61.447 E63.61667
G1 X61.447 Y49.992 E64.82423
G1 X61.118 Y50.036 E64.84897
G1 X60.428 Y50.083 E64.90052
G1 X60.256 Y50.074 E64.91336
G1 X72.983 Y62.8 E66.25496
G1 X72.981 Y62.904 E66.26271
G1 X72.959 Y63.252 E66.28871
G1 X72.912 Y63.691 E66.32162
G1 X72.869 Y63.959 E66.34185
G1 X58.926 Y50.016 E67.81169
G1 X57.958 Y50.017 E67.88384
G1 X57.673 Y50.036 E67.90514
G1 X72.619 Y64.983 E69.48076
G1 X72.547 Y65.215 E69.49887
G1 X72.453 Y65.468 E69.51899
G1 X72.271 Y65.908 E69.55448
G1 X56.391 Y50.027 E71.22857
G1 X56.291 Y50.02 E71.23604
G1 X55.109 Y50.017 E71.32415
G1 X71.83 Y66.739 E73.08689
G1 X71.797 Y66.795 E73.09174
G1 X71.532 Y67.196 E73.12756
G1 X71.361 Y67.428 E73.14905
G1 X71.311 Y67.492 E73.1551
G1 X53.802 Y49.983 E75.00086
G1 X53.62 Y49.96 E75.01453
G1 X53.177 Y49.925 E75.04766
G1 X52.835 Y49.914 E75.07317
G1 X52.465 Y49.92 E75.10075
G1 X70.717 Y68.172 E77.02483
G1 X70.516 Y68.375 E77.04613
G1 X70.289 Y68.585 E77.06918
G1 X70.053 Y68.78 E77.092
G1 X51.318 Y50.045 E79.067
G1 X50.83 Y50.117 E79.10377
G1 X50.155 Y50.133 E79.1541
G1 X50.131 Y50.131 E79.1559
G1 X69.316 Y69.316 E81.17833
G1 X69.3 Y69.328 E81.17983
G1 X69.051 Y69.482 E81.20165
G1 X68.593 Y69.733 E81.24058
G1 X68.502 Y69.775 E81.24805
G1 X48.678 Y49.951 E83.33785
G1 X48.283 Y49.922 E83.36737
G1 X47.968 Y49.914 E83.39086
G1 X47.476 Y49.927 E83.42755
G1 X47.389 Y49.935 E83.43406
G1 X67.602 Y70.147 E85.56482
G1 X67.454 Y70.199 E85.57651
G1 X67.035 Y70.322 E85.60906
G1 X66.721 Y70.397 E85.63313
G1 X66.601 Y70.42 E85.64223
G1 X46.24 Y50.058 E87.7887
G1 X45.816 Y50.087 E87.82038
G1 X44.94 Y50.031 E87.88581
G1 X65.476 Y70.567 E90.05067
G1 X65.306 Y70.579 E90.06337
G1 X64.809 Y70.582 E90.10042
G1 X64.522 Y70.57 E90.12183
G1 X64.174 Y70.538 E90.14788
G1 X43.647 Y50.011 E92.31179
G1 X43.145 Y49.983 E92.34927
G1 X42.471 Y49.92 E92.39973
G1 X42.281 Y49.918 E92.41389
G1 X62.569 Y70.205 E94.55255
G1 X62.545 Y70.199 E94.5544
G1 X62.225 Y70.088 E94.57964
G1 X61.665 Y69.859 E94.62474
G1 X61.405 Y69.732 E94.64631
G1 X60.949 Y69.482 E94.68508
G1 X60.698 Y69.329 E94.70699
G1 X60.036 Y68.874 E94.76687
G1 X60.027 Y68.883 E94.76781
G1 X59.876 Y68.785 E94.78123
G1 X41.095 Y50.005 E96.76103
G1 X40.715 Y50.046 E96.78952
G1 X40.054 Y50.046 E96.83879
G1 X39.853 Y50.036 E96.85379
G1 X57.904 Y68.086 E98.75664
G1 X57.832 Y68.073 E98.76209
M73 P1
G1 X57.161 Y68.03 E98.81221
G1 X56.676 Y68.051 E98.8484
G1 X56.602 Y68.057 E98.85393
G1 X38.56 Y50.015 E100.75588
G1 X37.287 Y50.015 E100.85077
G1 X55.362 Y68.09 E102.75619
G1 X54.868 Y68.091 E102.79302
G1 X54.324 Y68.063 E102.83362
G1 X54.039 Y68.027 E102.85503
G1 X54.022 Y68.023 E102.85634
G1 X36.015 Y50.015 E104.75465
G1 X35.614 Y50.015 E104.78454
G1 X35.403 Y50.026 E104.80029
G1 X34.832 Y50.076 E104.84301
G1 X34.808 Y50.081 E104.84484
G1 X51.939 Y67.213 E106.6508
G1 X51.719 Y67.109 E106.66894
G1 X51.077 Y66.899 E106.71929
G1 X50.413 Y66.772 E106.76969
G1 X50.213 Y66.759 E106.78463
G1 X33.798 Y50.345 E108.51501
G1 X33.686 Y50.388 E108.52395
G1 X33.407 Y50.516 E108.54683
G1 X33.163 Y50.648 E108.56751
G1 X32.958 Y50.777 E108.58556
G1 X48.97 Y66.789 E110.27351
G1 X48.397 Y66.901 E110.31703
G1 X47.954 Y67.046 E110.35178
G1 X32.25 Y51.342 E112.00726
G1 X32.213 Y51.376 E112.011
G1 X32.028 Y51.57 E112.03099
G1 X31.826 Y51.814 E112.0546
G1 X31.665 Y52.03 E112.07468
G1 X47.074 Y67.438 E113.69901
G1 X46.79 Y67.592 E113.72309
G1 X46.512 Y67.721 E113.74594
G1 X46.268 Y67.816 E113.76545
G1 X46.2 Y67.837 E113.77076
G1 X31.216 Y52.854 E115.35028
G1 X31.121 Y53.091 E115.36932
G1 X31.032 Y53.363 E115.39065
G1 X30.96 Y53.64 E115.41198
G1 X30.923 Y53.833 E115.42663
G1 X45.14 Y68.05 E116.92536
G1 X44.805 Y68.08 E116.95043
G1 X44.592 Y68.09 E116.96632
G1 X43.907 Y68.09 E117.01738
G1 X30.841 Y55.024 E118.39477
G1 X30.84 Y56.296 E118.48959
G1 X42.581 Y68.037 E119.7273
G1 X42.499 Y68.027 E119.73346
G1 X42.201 Y67.971 E119.75606
G1 X41.932 Y67.899 E119.77681
G1 X41.763 Y67.846 E119.79002
G1 X41.119 Y67.68 E119.83959
G1 X40.926 Y67.655 E119.8541
G1 X30.839 Y57.568 E120.91745
G1 X30.839 Y58.84 E121.01226
G1 X39.604 Y67.605 E121.93625
G1 X39.443 Y67.613 E121.94827
G1 X38.337 Y67.612 E122.03071
G1 X30.838 Y60.112 E122.82129
G1 X30.837 Y61.384 E122.91611
G1 X37.063 Y67.61 E123.57244
G1 X35.789 Y67.609 E123.6674
G1 X30.836 Y62.656 E124.18954
G1 X30.836 Y62.833 E124.20273
G1 X30.845 Y63.041 E124.21825
G1 X30.897 Y63.617 E124.26136
G1 X30.957 Y63.971 E124.28812
G1 X30.981 Y64.074 E124.29601
G1 X34.374 Y67.467 E124.65369
G1 X34.175 Y67.414 E124.66904
G1 X33.895 Y67.324 E124.69096
G1 X33.637 Y67.221 E124.71167
G1 X33.361 Y67.09 E124.73444
G1 X33.11 Y66.951 E124.75583
G1 X32.871 Y66.798 E124.77699
G1 X32.611 Y66.607 E124.80103
G1 X32.413 Y66.44 E124.82034
G1 X32.18 Y66.22 E124.84423
G1 X31.986 Y66.011 E124.86548
G1 X31.8 Y65.785 E124.8873
G1 X31.635 Y65.554 E124.90846
G1 X31.469 Y65.285 E124.93203
G1 X31.343 Y65.054 E124.95164
G1 X31.206 Y64.756 E124.97609
G1 X31.109 Y64.51 E124.9958
G1 X31.015 Y64.21 E125.01923
G1 F1680 E122.01923
G1 F3600 X66.848 Y51.2
G1 F1680 E125.01923
G1 F1980 X67.064 Y51.352 E125.03892
G1 X67.305 Y51.545 E125.06194
G1 X67.531 Y51.751 E125.08473
G1 X67.721 Y51.948 E125.10513
G1 X67.926 Y52.188 E125.12866
G1 X68.086 Y52.402 E125.14858
G1 X68.254 Y52.661 E125.17159
G1 X68.397 Y52.914 E125.19325
G1 X68.532 Y53.192 E125.21629
G1 F1680 E122.21629
G1 F3600 X67.109 Y51.2
;TIME_ELAPSED:62.615375
;LAYER:-6
M106 S255
G1 X67.109 Y51.2 Z0.869
G1 F1680 E125.21629
G1 F2400 X67.159 Y51.236 E125.21872
G1 X67.394 Y51.425 E125.23064
G1 X67.587 Y51.6 E125.24093
G1 X31.809 Y51.6 E126.65403
G1 X31.71 Y51.719 E126.66014
G1 X31.545 Y51.943 E126.67113
G1 X31.509 Y52 E126.67379
G1 X67.963 Y52 E128.11359
G1 X68.036 Y52.087 E128.11808
G1 X68.211 Y52.321 E128.12962
G1 X68.263 Y52.4 E128.13336
G1 X31.269 Y52.4 E129.59449
G1 X31.228 Y52.473 E129.59779
G1 X31.096 Y52.75 E129.60991
G1 X31.077 Y52.8 E129.61203
G1 X68.505 Y52.8 E131.0903
G1 X68.527 Y52.839 E131.09207
G1 X68.661 Y53.114 E131.10415
