M73 P0
;MINX:20.5
;MAXX:79.5
;MINY:47.7
;MAXY:92.5
;MINZ:0.0
;MAXZ:49.6
;MachineType:ENTINA TINA2
;FilamentType:PLA
;Extruder0Temperature:200
;InfillDensity:10
;FLAVOR:Marlin
;TIME:3282
;FilamentUsed:1983.2
;Layer height: 0.2

;Generated with Cura_SteamEngine 3.1
M104 T0 S215
M82 ; absolute extrusion mode
;(**** start.gcode for tina2****)
M104 S150
G28 Z
G28 X Y; Home extruder
G1 X55 Y55 F1000
G1 Z10 F200
G29
G1 Z15 F100
M107 ; Turn off fan
G90 ; Absolute positioning
M82 ; Extruder in absolute mode
M109 S215.0
G92 E0 ; Reset extruder position
G1 X90 Y6 Z0.27 F2000
G1 X20 Y6 Z0.27 E15 F1000
G92 E0 ; Reset extruder position

;LAYER_COUNT:242
;LAYER:-6
M107
M203 Z5
G1 F3600 X56.547 Y50.71 Z0.349
G1 F1200 X56.761 Y50.913 E0.03253
G1 X56.954 Y51.122 E0.0639
G1 X57.147 Y51.361 E0.09777
G1 X57.479 Y51.847 E0.16268
G1 X57.708 Y52.289 E0.21757
G1 X57.816 Y52.538 E0.2475
G1 X57.914 Y52.81 E0.27938
G1 X57.998 Y53.098 E0.31247
G1 X58.057 Y53.366 E0.34273
G1 X58.104 Y53.685 E0.37828
G1 X58.142 Y54.161 E0.43094
G1 X58.149 Y54.343 E0.45103
G1 X58.149 Y55.099 E0.53439
G1 X58.191 Y55.767 E0.6082
G1 X58.32 Y56.441 E0.68388
G1 X58.585 Y57.211 E0.77368
G1 X58.76 Y57.616 E0.82233
G1 X58.858 Y57.892 E0.85462
G1 X58.943 Y58.188 E0.88858
G1 X58.999 Y58.438 E0.91684
G1 X59.048 Y58.753 E0.95199
G1 X59.072 Y59.013 E0.98078
G1 X59.081 Y59.315 E1.0141
G1 X59.05 Y60.198 E1.11153
G1 X59.055 Y60.198 E1.11208
G1 X59.067 Y60.677 E1.16492
G1 X59.058 Y60.982 E1.19857
G1 X59.034 Y61.248 E1.22802
G1 X58.989 Y61.54 E1.2606
G1 X58.924 Y61.831 E1.29348
G1 X58.843 Y62.112 E1.32573
G1 X58.756 Y62.354 E1.35409
G1 X58.588 Y62.743 E1.40082
G1 X58.361 Y63.374 E1.47476
G1 X58.212 Y64.043 E1.55035
G1 X58.149 Y64.867 E1.64148
G1 X58.146 Y65.785 E1.74271
G1 X58.113 Y66.33 E1.80292
G1 X58.115 Y67.001 E1.87691
G1 X58.201 Y67.677 E1.95206
G1 X58.374 Y68.338 E2.0274
G1 X58.628 Y68.972 E2.10272
G1 X58.96 Y69.569 E2.17805
G1 X59.365 Y70.12 E2.25346
G1 X59.836 Y70.613 E2.32865
G1 X60.365 Y71.045 E2.40396
G1 X60.944 Y71.406 E2.4792
G1 X61.566 Y71.691 E2.55465
G1 X62.246 Y71.901 E2.63313
G1 X71.011 Y73.978 E3.62645
G1 X71.669 Y74.091 E3.70007
G1 X72.233 Y74.121 E3.76235
G1 X74.338 Y74.125 E3.99448
G1 X74.715 Y74.149 E4.03614
G1 X75.013 Y74.186 E4.06925
G1 X75.298 Y74.241 E4.10126
G1 X75.581 Y74.315 E4.13352
G1 X75.853 Y74.404 E4.16508
G1 X76.125 Y74.512 E4.19735
G1 X76.383 Y74.634 E4.22882
G1 X76.642 Y74.778 E4.2615
G1 X76.861 Y74.917 E4.2901
G1 X77.127 Y75.115 E4.32667
G1 X77.608 Y75.535 E4.39709
G1 X77.967 Y75.937 E4.45652
G1 X78.134 Y76.152 E4.48654
G1 X78.29 Y76.383 E4.51728
G1 X78.448 Y76.651 E4.55159
G1 X78.58 Y76.91 E4.58364
G1 X78.683 Y77.149 E4.61234
G1 X78.79 Y77.447 E4.64726
G1 X78.87 Y77.726 E4.67926
G1 X78.926 Y77.987 E4.7087
G1 X78.974 Y78.307 E4.74438
G1 X79.01 Y78.768 E4.79537
G1 X79.017 Y78.953 E4.81579
G1 X79.017 Y79.533 E4.87975
G1 X78.996 Y80.2 E4.95334
G1 X79.007 Y80.2 E4.95455
G1 X79.017 Y80.48 E4.98545
G1 X79.013 Y81.201 E5.06496
G1 X78.989 Y81.578 E5.10661
G1 X78.952 Y81.876 E5.13973
G1 X78.897 Y82.16 E5.17163
G1 X78.821 Y82.451 E5.20479
G1 X78.737 Y82.709 E5.23471
G1 X78.626 Y82.988 E5.26783
G1 X78.504 Y83.246 E5.2993
G1 X78.36 Y83.505 E5.33198
G1 X78.221 Y83.724 E5.36058
G1 X78.023 Y83.99 E5.39715
G1 X77.603 Y84.471 E5.46756
G1 X77.203 Y84.828 E5.52669
G1 X76.986 Y84.997 E5.55702
G1 X76.755 Y85.153 E5.58775
G1 X76.487 Y85.311 E5.62206
G1 X76.23 Y85.441 E5.65382
G1 X75.961 Y85.556 E5.68608
G1 X75.704 Y85.649 E5.71622
G1 X75.412 Y85.733 E5.74973
G1 X75.151 Y85.789 E5.77916
G1 X74.831 Y85.837 E5.81485
G1 X74.363 Y85.873 E5.86661
G1 X74.171 Y85.88 E5.88779
G1 X72.231 Y85.88 E6.10172
G1 X71.564 Y85.922 E6.17542
G1 X71.009 Y86.023 E6.23763
G1 X46.369 Y91.861 E9.03001
G1 X46.027 Y91.934 E9.06857
G1 X45.506 Y91.997 E9.12644
G1 X45.342 Y92.003 E9.14454
G1 X44.575 Y91.989 E9.22913
G1 X44.139 Y91.925 E9.27773
G1 X43.428 Y91.734 E9.35891
G1 X43.043 Y91.58 E9.40464
G1 X42.858 Y91.492 E9.42723
G1 X42.51 Y91.303 E9.4709
G1 X42.283 Y91.163 E9.50031
G1 X42.049 Y91 E9.53175
G1 X41.908 Y90.889 E9.55154
G1 X41.626 Y90.638 E9.59317
G1 X40.947 Y89.954 E9.69946
G1 X40.409 Y89.535 E9.77465
G1 X39.821 Y89.186 E9.85006
G1 X39.195 Y88.915 E9.92528
G1 X38.539 Y88.725 E10.00059
G1 X37.865 Y88.619 E10.07583
G1 X37.182 Y88.599 E10.15118
G1 X36.503 Y88.665 E10.22641
G1 X35.835 Y88.818 E10.30198
G1 X35.13 Y89.081 E10.38495
G1 X34.875 Y89.198 E10.41589
G1 X33.559 Y89.721 E10.57205
G1 X33.417 Y89.771 E10.58865
G1 X32.861 Y89.943 E10.65283
G1 X32.71 Y89.983 E10.67006
G1 X31.297 Y90.299 E10.82973
G1 X30.797 Y90.382 E10.88562
G1 X29.069 Y90.512 E11.07671
G1 X28.777 Y90.521 E11.10892
G1 X28.347 Y90.506 E11.15637
G1 X26.792 Y90.388 E11.32834
G1 X26.263 Y90.306 E11.38737
G1 X25.615 Y90.166 E11.46048
G1 X25.107 Y90.024 E11.51864
G1 X24.84 Y89.927 E11.54997
G1 X24.578 Y89.813 E11.58148
G1 X24.302 Y89.671 E11.61571
G1 X24.066 Y89.531 E11.64597
G1 X23.815 Y89.36 E11.67946
G1 X23.623 Y89.211 E11.70626
G1 X23.363 Y88.974 E11.74505
G1 X22.996 Y88.589 E11.80371
G1 X22.816 Y88.378 E11.83429
G1 X22.724 Y88.254 E11.85132
G1 X22.513 Y87.951 E11.89203
G1 X22.357 Y87.698 E11.92481
G1 X22.228 Y87.451 E11.95554
G1 X22.111 Y87.192 E11.98688
G1 X22.002 Y86.901 E12.02115
G1 X21.923 Y86.642 E12.05101
G1 X21.86 Y86.375 E12.08126
G1 X21.809 Y86.058 E12.11666
G1 X21.762 Y85.505 E12.17787
G1 X21.755 Y85.327 E12.19751
G1 X21.754 Y83.875 E12.35763
G1 X21.781 Y83.348 E12.41582
G1 X21.821 Y83.035 E12.45061
G1 X21.871 Y82.77 E12.48035
G1 X21.946 Y82.476 E12.51381
G1 X22.035 Y82.206 E12.54516
G1 X22.12 Y81.991 E12.57066
G1 X22.329 Y81.355 E12.64448
G1 X22.459 Y80.684 E12.71985
G1 X22.502 Y80.002 E12.79521
G1 X22.459 Y79.321 E12.87045
G1 X22.33 Y78.649 E12.94591
G1 X21.971 Y77.601 E13.06807
G1 X21.892 Y77.318 E13.10047
G1 X21.831 Y77.022 E13.1338
G1 X21.792 Y76.744 E13.16475
G1 X21.761 Y76.309 E13.21284
G1 X21.755 Y76.139 E13.2316
G1 X21.759 Y74.513 E13.41091
G1 X21.784 Y74.124 E13.45389
G1 X21.82 Y73.837 E13.48579
G1 X21.875 Y73.553 E13.51769
G1 X21.951 Y73.262 E13.55086
G1 X22.035 Y73.004 E13.58078
G1 X22.141 Y72.736 E13.61256
G1 X22.261 Y72.482 E13.64354
G1 X22.424 Y72.196 E13.67984
G1 X22.714 Y71.762 E13.7374
G1 X22.863 Y71.561 E13.76499
G1 X23.213 Y71.167 E13.8231
G1 X23.435 Y70.95 E13.85734
G1 X23.646 Y70.768 E13.88806
G1 X23.873 Y70.596 E13.91947
G1 X24.117 Y70.436 E13.95165
G1 X24.378 Y70.286 E13.98484
G1 X24.602 Y70.177 E14.01231
G1 X24.919 Y70.048 E14.05005
G1 X25.443 Y69.881 E14.1107
G1 X25.627 Y69.831 E14.13173
G1 X26.232 Y69.697 E14.20006
G1 X26.519 Y69.643 E14.23226
G1 X26.824 Y69.608 E14.26612
G1 X28.447 Y69.489 E14.44557
G1 X28.818 Y69.481 E14.48649
G1 X29.061 Y69.489 E14.5133
G1 X30.805 Y69.62 E14.70616
G1 X31.4 Y69.723 E14.77275
G1 X32.88 Y70.059 E14.94011
G1 X33.58 Y70.288 E15.02133
G1 X34.479 Y70.643 E15.12791
G1 X35.116 Y70.849 E15.20174
G1 X35.787 Y70.976 E15.27705
G1 X36.468 Y71.017 E15.35228
G1 X37.15 Y70.971 E15.42766
G1 X37.821 Y70.841 E15.50303
G1 X38.469 Y70.626 E15.57832
G1 X39.084 Y70.331 E15.65353
G1 X39.658 Y69.962 E15.72878
G1 X40.181 Y69.522 E15.80415
G1 X40.644 Y69.02 E15.87946
G1 X41.04 Y68.464 E15.95473
G1 X41.363 Y67.862 E16.03007
G1 X41.607 Y67.224 E16.10539
G1 X41.77 Y66.556 E16.18122
G1 X41.851 Y65.634 E16.28328
G1 X41.851 Y64.922 E16.3618
G1 X41.809 Y64.254 E16.43561
G1 X41.679 Y63.578 E16.51152
G1 X41.381 Y62.73 E16.61064
G1 X41.255 Y62.45 E16.64449
G1 X41.158 Y62.196 E16.67448
G1 X41.072 Y61.913 E16.70709
G1 X41.003 Y61.627 E16.73954
G1 X40.953 Y61.338 E16.77188
G1 X40.923 Y61.062 E16.80249
G1 X40.91 Y60.752 E16.83671
G1 X40.916 Y60.491 E16.8655
G1 X40.931 Y60.305 E16.88608
G1 X40.945 Y59.68 E16.95501
G1 X40.932 Y59.314 E16.9954
G1 X40.94 Y59.027 E17.02706
G1 X40.964 Y58.748 E17.05794
G1 X41.012 Y58.447 E17.09155
G1 X41.069 Y58.19 E17.12058
G1 X41.156 Y57.886 E17.15545
G1 X41.248 Y57.629 E17.18555
G1 X41.415 Y57.242 E17.23203
G1 X41.641 Y56.611 E17.30594
G1 X41.789 Y55.942 E17.3815
G1 X41.851 Y55.125 E17.47185
G1 X41.855 Y54.18 E17.57606
G1 X41.875 Y53.833 E17.61439
G1 X41.915 Y53.514 E17.64985
G1 X41.969 Y53.233 E17.6814
G1 X42.044 Y52.941 E17.71464
G1 X42.127 Y52.688 E17.74401
G1 X42.243 Y52.403 E17.77794
G1 X42.531 Y51.831 E17.84856
G1 X42.796 Y51.437 E17.90092
G1 X42.982 Y51.198 E17.93432
G1 X43.179 Y50.975 E17.96713
G1 X43.371 Y50.784 E17.99699
G1 X43.599 Y50.584 E18.03044
G1 X43.818 Y50.417 E18.06081
G1 X44.35 Y50.072 E18.13073
G1 X45.028 Y49.699 E18.21606
G1 X45.562 Y49.449 E18.28108
G1 X45.897 Y49.33 E18.32029
G1 X47.191 Y48.922 E18.46991
G1 X47.487 Y48.841 E18.50375
G1 X47.593 Y48.818 E18.51571
G1 X48.202 Y48.72 E18.58373
G1 X49.587 Y48.582 E18.73722
G1 X50 Y48.562 E18.78281
G1 X50.413 Y48.582 E18.82841
G1 X51.765 Y48.717 E18.97824
G1 X52.469 Y48.83 E19.05687
G1 X52.871 Y48.941 E19.10286
G1 X54.08 Y49.322 E19.24264
G1 X54.521 Y49.485 E19.29449
G1 X55.094 Y49.764 E19.36477
G1 X55.785 Y50.155 E19.45232
G1 X56.087 Y50.349 E19.4919
G1 X56.323 Y50.522 E19.52417
G1 X56.547 Y50.71 E19.55642
G1 F3600 X56 Y50.294
G1 F1200 X56 Y89.58 E23.88864
G1 F1680 E20.88864
G1 F3600 X54.4 Y89.959
G1 F1680 E23.88864
G1 F1200 X54.4 Y49.441 E28.35672
G1 F1680 E25.35672
G1 F3600 X52.8 Y48.922
G1 F1680 E28.35672
G1 F1200 X52.8 Y90.338 E32.92383
G1 F1680 E29.92383
G1 F3600 X51.2 Y90.717
G1 F1680 E32.92383
G1 F1200 X51.2 Y48.661 E37.56151
G1 F1680 E34.56151
G1 F3600 X49.6 Y48.581
G1 F1680 E37.56151
G1 F1200 X49.6 Y91.096 E42.24981
G1 F1680 E39.24981
G1 F3600 X48 Y91.475
G1 F1680 E42.24981
G1 F1200 X48 Y48.752 E46.96104
G1 F1680 E43.96104
G1 F3600 X46.4 Y49.171
G1 F1680 E46.96104
G1 F1200 X46.4 Y91.854 E51.66787
G1 F1680 E48.66787
G1 F3600 X44.8 Y91.993
G1 F1680 E51.66787
G1 F1200 X44.8 Y49.824 E56.31801
G1 F1680 E53.31801
G1 F3600 X43.2 Y50.954
G1 F1680 E56.31801
G1 F1200 X43.2 Y91.642 E60.80484
G1 F1680 E57.80484
G1 F3600 X41.6 Y90.611
G1 F1680 E60.80484
G1 F1200 X41.6 Y67.242 E63.38183
G1 F1680 E60.38183
G1 F3600 X40 Y69.674
G1 F1680 E63.38183
G1 F1200 X40 Y89.292 E65.54519
G1 F1680 E62.54519
G1 F3600 X38.4 Y88.703
G1 F1680 E65.54519
G1 F1200 X38.4 Y70.648 E67.53618
G1 F1680 E64.53618
G1 F3600 X36.8 Y70.994
G1 F1680 E67.53618
G1 F1200 X36.8 Y88.637 E69.48175
G1 F1680 E66.48175
G1 F3600 X35.2 Y89.055
G1 F1680 E69.48175
G1 F1200 X35.2 Y70.865 E71.48763
G1 F1680 E68.48763
G1 F3600 X33.6 Y70.296
G1 F1680 E71.48763
G1 F1200 X33.6 Y89.705 E73.62794
G1 F1680 E70.62794
G1 F3600 X32 Y90.142
G1 F1680 E73.62794
G1 F1200 X32 Y69.86 E75.86452
G1 F1680 E72.86452
G1 F3600 X30.4 Y69.59
G1 F1680 E75.86452
G1 F1200 X30.4 Y90.412 E78.16064
G1 F1680 E75.16064
G1 F3600 X28.8 Y90.521
G1 F1680 E78.16064
G1 F1200 X28.8 Y69.481 E80.4808
G1 F1680 E77.4808
G1 F3600 X27.2 Y69.58
G1 F1680 E80.4808
G1 F1200 X27.2 Y90.418 E82.77869
G1 F1680 E79.77869
G1 F3600 X25.6 Y90.161
G1 F1680 E82.77869
G1 F1200 X25.6 Y69.838 E85.01979
G1 F1680 E82.01979
G1 F3600 X24 Y70.512
G1 F1680 E85.01979
G1 F1200 X24 Y89.486 E87.11213
G1 F1680 E84.11213
G1 F3600 X22.4 Y87.767
G1 F1680 E87.11213
G1 F1200 X22.4 Y80.988 E87.85968
G1 F1680 E84.85968
G1 F3600 X22.4 Y79.013
G1 F1680 E87.85968
G1 F1200 X22.4 Y72.238 E88.60678
G1 F1680 E85.60678
G1 F3600 X41.6 Y63.353
G1 F1680 E88.60678
G1 F1200 X41.6 Y56.725 E89.33768
G1 F1680 E86.33768
G1 F3600 X57.6 Y52.081
G1 F1680 E89.33768
G1 F1200 X57.6 Y89.201 E93.43105
G1 F1680 E90.43105
G1 F3600 X59.2 Y88.821
G1 F1680 E93.43105
G1 F1200 X59.2 Y69.896 E95.51798
G1 F1680 E92.51798
G1 F3600 X60.8 Y71.317
G1 F1680 E95.51798
G1 F1200 X60.8 Y88.442 E97.40643
G1 F1680 E94.40643
G1 F3600 X62.4 Y88.063
G1 F1680 E97.40643
G1 F1200 X62.4 Y71.938 E99.18459
G1 F1680 E96.18459
G1 F3600 X64 Y72.317
G1 F1680 E99.18459
G1 F1200 X64 Y87.684 E100.87917
G1 F1680 E97.87917
G1 F3600 X65.6 Y87.305
G1 F1680 E100.87917
G1 F1200 X65.6 Y72.696 E102.49017
G1 F1680 E99.49017
G1 F3600 X67.2 Y73.075
G1 F1680 E102.49017
G1 F1200 X67.2 Y86.926 E104.01757
G1 F1680 E101.01757
G1 F3600 X68.8 Y86.547
G1 F1680 E104.01757
G1 F1200 X68.8 Y73.455 E105.46128
G1 F1680 E102.46128
G1 F3600 X70.4 Y73.834
G1 F1680 E105.46128
G1 F1200 X70.4 Y86.168 E106.8214
G1 F1680 E103.8214
G1 F3600 X72 Y85.895
M104 T0 S200
G1 F1680 E106.8214
G1 F1200 X72 Y74.109 E108.12109
G1 F1680 E105.12109
G1 F3600 X73.6 Y74.124
G1 F1680 E108.12109
G1 F1200 X73.6 Y85.88 E109.41747
G1 F1680 E106.41747
G1 F3600 X75.2 Y85.779
G1 F1680 E109.41747
G1 F1200 X75.2 Y74.223 E110.69179
G1 F1680 E107.69179
G1 F3600 X76.8 Y74.879
G1 F1680 E110.69179
G1 F1200 X76.8 Y85.123 E111.82144
G1 F1680 E108.82144
G1 F3600 X78.4 Y83.434
G1 F1680 E111.82144
G1 F1200 X78.4 Y76.57 E112.57836
G1 F1680 E109.57836
G1 F3600 X56.579 Y50.669
;TIME_ELAPSED:61.389183
;LAYER:-5
G1 X56.579 Y50.669 Z0.619
;TYPE:SUPPORT
G1 F1680 E112.57836
G1 F1980 X56.806 Y50.886 E112.60177
G1 X56.98 Y51.075 E112.62092
G1 X57.184 Y51.328 E112.64515
G1 X57.521 Y51.82 E112.6896
G1 X57.754 Y52.268 E112.72724
G1 X57.861 Y52.516 E112.74737
G1 X57.961 Y52.794 E112.7694
G1 F3600 X57.993 Y52.902
G1 F1980 X54.527 Y49.435 E113.13483
G1 X54.976 Y49.645 E113.17178
G1 X55.664 Y50.022 E113.23025
G1 X56.108 Y50.302 E113.26938
G1 X56.359 Y50.486 E113.29258
G1 X56.579 Y50.669 E113.31391
G1 F1680 E110.31391
G1 F3600 X57.993 Y52.902
G1 F1680 E113.31391
G1 F1980 X58.047 Y53.088 E113.32835
G1 X58.109 Y53.368 E113.34973
G1 X58.153 Y53.672 E113.37262
G1 X58.192 Y54.158 E113.40897
G1 X58.199 Y54.341 E113.42262
G1 X58.199 Y54.381 E113.4256
G1 X52.643 Y48.825 E114.0113
G1 X52.469 Y48.778 E114.02474
G1 X52.344 Y48.752 E114.03425
G1 X51.774 Y48.665 E114.07723
G1 X51.147 Y48.602 E114.12421
G1 X58.237 Y55.691 E114.87157
G1 X58.241 Y55.761 E114.87679
G1 X58.369 Y56.427 E114.92735
G1 X58.631 Y57.192 E114.98762
G1 X58.757 Y57.484 E115.01133
G1 X49.795 Y48.522 E115.95608
G1 X49.438 Y48.542 E115.98273
G1 X48.627 Y48.627 E116.04352
G1 X59.126 Y59.126 E117.1503
G1 X59.131 Y59.315 E117.16439
G1 X59.102 Y60.145 E117.2263
G1 X59.103 Y60.263 E117.2351
G1 X59.107 Y60.38 E117.24382
G1 X47.511 Y48.784 E118.46625
G1 X47.479 Y48.79 E118.46867
G1 X47.166 Y48.875 E118.49285
G1 X46.53 Y49.076 E118.54257
G1 X59.032 Y61.577 E119.86045
G1 X58.969 Y61.854 E119.88162
G1 X58.89 Y62.126 E119.90274
G1 X58.802 Y62.373 E119.92228
G1 X58.728 Y62.547 E119.93638
G1 X45.573 Y49.391 E121.3232
G1 X45.539 Y49.402 E121.32586
G1 X45.017 Y49.647 E121.36885
G1 X44.72 Y49.811 E121.39414
G1 X58.39 Y63.481 E122.8352
G1 X58.263 Y64.05 E122.87865
G1 X58.222 Y64.586 E122.91873
G1 X43.924 Y50.288 E124.42599
G1 X43.798 Y50.368 E124.43711
G1 X43.552 Y50.556 E124.46019
G1 X43.344 Y50.737 E124.48075
G1 X43.222 Y50.859 E124.49361
G1 X58.194 Y65.831 E126.07192
G1 X58.163 Y66.33 E126.10919
G1 X58.165 Y66.997 E126.15891
G1 X58.177 Y67.087 E126.16568
G1 X42.649 Y51.558 E127.80265
G1 X42.551 Y51.704 E127.81576
G1 X42.485 Y51.806 E127.82482
G1 X42.202 Y52.366 E127.87159
G1 X42.197 Y52.379 E127.87263
G1 X58.612 Y68.794 E129.60306
G1 X58.673 Y68.949 E129.61548
G1 X59.003 Y69.54 E129.66593
G1 X59.403 Y70.086 E129.71638
G1 X59.87 Y70.575 E129.76679
G1 X60.395 Y71.002 E129.81723
G1 X60.968 Y71.359 E129.86756
G1 F3600 X61.356 Y71.538
G1 F1980 X61.584 Y71.643 E129.88627
G1 X62.258 Y71.851 E129.93885
G1 X63.153 Y72.063 E130.00741
G1 X76.467 Y85.376 E131.41089
G1 X76.506 Y85.356 E131.41415
G1 X76.78 Y85.196 E131.4378
G1 X77.01 Y85.04 E131.45852
G1 X77.231 Y84.868 E131.47939
G1 X64.821 Y72.458 E132.78763
G1 X66.489 Y72.853 E132.9154
G1 X77.874 Y84.238 E134.11558
G1 X78.061 Y84.024 E134.13677
G1 X78.263 Y83.753 E134.16196
G1 X78.406 Y83.526 E134.18196
G1 X78.416 Y83.507 E134.18356
G1 X68.158 Y73.249 E135.26494
G1 X69.826 Y73.644 E135.39271
G1 X78.815 Y82.633 E136.34031
G1 X78.869 Y82.463 E136.35361
G1 X78.946 Y82.169 E136.37626
G1 X79.003 Y81.873 E136.39873
G1 X79.039 Y81.585 E136.42037
G1 X71.456 Y74.002 E137.21975
G1 X71.675 Y74.039 E137.2363
G1 X72.235 Y74.069 E137.27811
G1 X72.798 Y74.07 E137.32007
G1 X79.064 Y80.337 E137.98067
G1 X79.059 Y80.148 E137.99477
G1 X79.048 Y80.147 E137.99559
G1 X79.067 Y79.534 E138.04131
G1 X79.067 Y79.067 E138.07612
G1 X74.073 Y74.073 E138.60257
G1 X74.339 Y74.073 E138.6224
G1 X74.722 Y74.098 E138.65101
G1 X75.012 Y74.133 E138.67279
G1 X75.306 Y74.191 E138.69512
