M73 P0
;MINX:5.0
;MAXX:95.0
;MINY:15.0
;MAXY:105.0
;MINZ:0.0
;MAXZ:81.3
;MachineType:ENTINA TINA2
;FilamentType:PLA
;Extruder0Temperature:200
;InfillDensity:10
;FLAVOR:Marlin
;TIME:21059
;FilamentUsed:27433.5
;Layer height: 0.35

;Generated with Cura_SteamEngine 3.1
M104 T0 S215
M82 ; absolute extrusion mode
;(**** start.gcode for tina2****)
M104 S150
G28 Z
G28 X Y; Home extruder
G1 X55 Y55 F1000
G1 Z10 F200
G29
G1 Z15 F100
M107 ; Turn off fan
G90 ; Absolute positioning
M82 ; Extruder in absolute mode
M109 S215.0
G92 E0 ; Reset extruder position
G1 X90 Y6 Z0.27 F2000
G1 X20 Y6 Z0.27 E15 F1000
G92 E0 ; Reset extruder position

;LAYER_COUNT:230
;LAYER:-5
M107
M203 Z5
G1 F3600 X90.579 Y17.474 Z0.349
G1 F1200 X90.957 Y17.716 E0.04949
G1 X91.27 Y17.948 E0.09246
G1 X91.737 Y18.385 E0.16299
G1 X91.855 Y18.507 E0.1817
G1 X91.954 Y18.625 E0.19869
G1 X92.33 Y19.114 E0.26671
G1 X92.387 Y19.196 E0.27772
G1 X92.667 Y19.707 E0.34198
G1 X92.786 Y19.962 E0.37301
G1 X92.956 Y20.41 E0.42585
G1 X93.137 Y21.158 E0.51071
G1 X93.201 Y21.727 E0.57386
G1 X93.209 Y22.053 E0.60982
G1 X93.205 Y98.069 E8.9924
G1 X93.184 Y98.489 E9.03878
G1 X93.121 Y98.931 E9.08801
G1 X92.993 Y99.47 E9.1491
G1 X92.946 Y99.622 E9.16664
G1 X92.741 Y100.153 E9.22941
G1 X92.513 Y100.593 E9.28406
G1 X92.396 Y100.794 E9.30971
G1 X92.333 Y100.886 E9.322
G1 X91.933 Y101.413 E9.39496
G1 X91.78 Y101.581 E9.42002
G1 X91.51 Y101.847 E9.46181
G1 X91.318 Y102.011 E9.48966
G1 X90.9 Y102.324 E9.54724
G1 X90.271 Y102.677 E9.62678
G1 X90.016 Y102.795 E9.65777
G1 X89.6 Y102.953 E9.70684
G1 X88.966 Y103.111 E9.77889
G1 X88.744 Y103.15 E9.80375
G1 X88.254 Y103.201 E9.85807
G1 X88.068 Y103.207 E9.8786
G1 X12.069 Y103.209 E18.25931
G1 X11.46 Y103.178 E18.32655
G1 X11.084 Y103.123 E18.36846
G1 X10.462 Y102.974 E18.43899
G1 X9.942 Y102.781 E18.50015
G1 X9.767 Y102.703 E18.52128
G1 X9.419 Y102.525 E18.56438
G1 X9.164 Y102.367 E18.59746
G1 X8.722 Y102.046 E18.6577
G1 X8.146 Y101.496 E18.74553
G1 X7.79 Y101.061 E18.80751
G1 X7.714 Y100.955 E18.82189
G1 X7.443 Y100.518 E18.8786
G1 X7.149 Y99.891 E18.95496
G1 X7.089 Y99.716 E18.97536
G1 X6.919 Y99.145 E19.04106
G1 X6.823 Y98.559 E19.10654
G1 X6.803 Y98.33 E19.13189
G1 X6.791 Y97.963 E19.17238
G1 X6.795 Y21.929 E27.55696
G1 X6.816 Y21.515 E27.60267
G1 X6.867 Y21.148 E27.64353
G1 X6.919 Y20.901 E27.67136
G1 X7.093 Y20.262 E27.74439
G1 X7.377 Y19.619 E27.82191
G1 X7.437 Y19.499 E27.8367
G1 X7.533 Y19.341 E27.85709
G1 X7.922 Y18.765 E27.93374
G1 X8.38 Y18.269 E28.00818
G1 X8.503 Y18.148 E28.02721
G1 X8.623 Y18.048 E28.04444
G1 X9.191 Y17.617 E28.12306
G1 X9.707 Y17.333 E28.18801
G1 X9.962 Y17.214 E28.21904
G1 X10.415 Y17.043 E28.27244
G1 X11.034 Y16.889 E28.34278
G1 X11.256 Y16.85 E28.36763
G1 X11.746 Y16.799 E28.42196
G1 X11.932 Y16.793 E28.44248
G1 X87.931 Y16.791 E36.82319
G1 X88.54 Y16.822 E36.89044
G1 X88.916 Y16.877 E36.93234
G1 X89.538 Y17.026 E37.00287
G1 X90.058 Y17.219 E37.06404
G1 X90.212 Y17.286 E37.08256
G1 X90.579 Y17.474 E37.12803
G1 F3600 X91.2 Y17.897
G1 F1200 X91.2 Y102.1 E46.41343
G1 F1680 E43.41343
G1 F3600 X89.6 Y102.953
G1 F1680 E46.41343
G1 F1200 X89.6 Y17.05 E55.88629
G1 F1680 E52.88629
G1 F3600 X88 Y16.795
G1 F1680 E55.88629
G1 F1200 X88 Y103.208 E65.4154
G1 F1680 E62.4154
G1 F3600 X86.4 Y103.208
G1 F1680 E65.4154
G1 F1200 X86.4 Y16.791 E74.94495
G1 F1680 E71.94495
G1 F3600 X84.8 Y16.791
G1 F1680 E74.94495
G1 F1200 X84.8 Y103.208 E84.47449
G1 F1680 E81.47449
G1 F3600 X83.2 Y103.208
G1 F1680 E84.47449
G1 F1200 X83.2 Y16.791 E94.00404
G1 F1680 E91.00404
G1 F3600 X81.6 Y16.791
G1 F1680 E94.00404
G1 F1200 X81.6 Y103.208 E103.53359
G1 F1680 E100.53359
G1 F3600 X80 Y103.208
G1 F1680 E103.53359
G1 F1200 X80 Y16.791 E113.06313
G1 F1680 E110.06313
G1 F3600 X78.4 Y16.791
G1 F1680 E113.06313
G1 F1200 X78.4 Y103.208 E122.59268
G1 F1680 E119.59268
G1 F3600 X76.8 Y103.208
G1 F1680 E122.59268
G1 F1200 X76.8 Y16.791 E132.12222
G1 F1680 E129.12222
G1 F3600 X75.2 Y16.791
G1 F1680 E132.12222
G1 F1200 X75.2 Y103.208 E141.65177
G1 F1680 E138.65177
G1 F3600 X73.6 Y103.208
G1 F1680 E141.65177
G1 F1200 X73.6 Y16.791 E151.18132
G1 F1680 E148.18132
G1 F3600 X72 Y16.791
G1 F1680 E151.18132
G1 F1200 X72 Y103.208 E160.71086
G1 F1680 E157.71086
G1 F3600 X70.4 Y103.208
G1 F1680 E160.71086
G1 F1200 X70.4 Y16.791 E170.24041
G1 F1680 E167.24041
G1 F3600 X68.8 Y16.791
G1 F1680 E170.24041
G1 F1200 X68.8 Y103.208 E179.76996
G1 F1680 E176.76996
G1 F3600 X67.2 Y103.208
G1 F1680 E179.76996
G1 F1200 X67.2 Y16.791 E189.2995
G1 F1680 E186.2995
G1 F3600 X65.6 Y16.791
G1 F1680 E189.2995
G1 F1200 X65.6 Y103.208 E198.82905
G1 F1680 E195.82905
G1 F3600 X64 Y103.208
G1 F1680 E198.82905
G1 F1200 X64 Y16.791 E208.3586
G1 F1680 E205.3586
G1 F3600 X62.4 Y16.791
G1 F1680 E208.3586
G1 F1200 X62.4 Y103.208 E217.88814
G1 F1680 E214.88814
G1 F3600 X60.8 Y103.208
G1 F1680 E217.88814
G1 F1200 X60.8 Y16.791 E227.41769
G1 F1680 E224.41769
G1 F3600 X59.2 Y16.791
G1 F1680 E227.41769
G1 F1200 X59.2 Y103.208 E236.94723
G1 F1680 E233.94723
G1 F3600 X57.6 Y103.208
G1 F1680 E236.94723
G1 F1200 X57.6 Y16.791 E246.47678
G1 F1680 E243.47678
G1 F3600 X56 Y16.791
G1 F1680 E246.47678
G1 F1200 X56 Y103.208 E256.00633
G1 F1680 E253.00633
G1 F3600 X54.4 Y103.208
G1 F1680 E256.00633
G1 F1200 X54.4 Y16.791 E265.53587
G1 F1680 E262.53587
G1 F3600 X52.8 Y16.791
G1 F1680 E265.53587
G1 F1200 X52.8 Y103.208 E275.06542
G1 F1680 E272.06542
G1 F3600 X51.2 Y103.208
G1 F1680 E275.06542
G1 F1200 X51.2 Y16.791 E284.59497
G1 F1680 E281.59497
G1 F3600 X49.6 Y16.792
G1 F1680 E284.59497
G1 F1200 X49.6 Y103.209 E294.12451
G1 F1680 E291.12451
G1 F3600 X48 Y103.209
G1 F1680 E294.12451
G1 F1200 X48 Y16.792 E303.65406
G1 F1680 E300.65406
G1 F3600 X46.4 Y16.792
G1 F1680 E303.65406
G1 F1200 X46.4 Y103.209 E313.1836
G1 F1680 E310.1836
G1 F3600 X44.8 Y103.209
G1 F1680 E313.1836
G1 F1200 X44.8 Y16.792 E322.71315
G1 F1680 E319.71315
G1 F3600 X43.2 Y16.792
G1 F1680 E322.71315
G1 F1200 X43.2 Y103.209 E332.2427
G1 F1680 E329.2427
G1 F3600 X41.6 Y103.209
G1 F1680 E332.2427
G1 F1200 X41.6 Y16.792 E341.77224
G1 F1680 E338.77224
G1 F3600 X40 Y16.792
G1 F1680 E341.77224
G1 F1200 X40 Y103.209 E351.30179
G1 F1680 E348.30179
G1 F3600 X38.4 Y103.209
G1 F1680 E351.30179
G1 F1200 X38.4 Y16.792 E360.83134
G1 F1680 E357.83134
G1 F3600 X36.8 Y16.792
G1 F1680 E360.83134
G1 F1200 X36.8 Y103.209 E370.36088
G1 F1680 E367.36088
G1 F3600 X35.2 Y103.209
G1 F1680 E370.36088
G1 F1200 X35.2 Y16.792 E379.89043
G1 F1680 E376.89043
G1 F3600 X33.6 Y16.792
G1 F1680 E379.89043
G1 F1200 X33.6 Y103.209 E389.41998
G1 F1680 E386.41998
G1 F3600 X32 Y103.209
G1 F1680 E389.41998
G1 F1200 X32 Y16.792 E398.94952
G1 F1680 E395.94952
G1 F3600 X30.4 Y16.792
G1 F1680 E398.94952
G1 F1200 X30.4 Y103.209 E408.47907
G1 F1680 E405.47907
G1 F3600 X28.8 Y103.209
G1 F1680 E408.47907
G1 F1200 X28.8 Y16.792 E418.00861
G1 F1680 E415.00861
G1 F3600 X27.2 Y16.792
G1 F1680 E418.00861
G1 F1200 X27.2 Y103.209 E427.53816
G1 F1680 E424.53816
G1 F3600 X25.6 Y103.209
G1 F1680 E427.53816
G1 F1200 X25.6 Y16.792 E437.06771
G1 F1680 E434.06771
G1 F3600 X24 Y16.792
G1 F1680 E437.06771
G1 F1200 X24 Y103.209 E446.59725
G1 F1680 E443.59725
G1 F3600 X22.4 Y103.209
G1 F1680 E446.59725
G1 F1200 X22.4 Y16.792 E456.1268
G1 F1680 E453.1268
G1 F3600 X20.8 Y16.792
G1 F1680 E456.1268
G1 F1200 X20.8 Y103.209 E465.65635
G1 F1680 E462.65635
G1 F3600 X19.2 Y103.209
G1 F1680 E465.65635
G1 F1200 X19.2 Y16.792 E475.18589
G1 F1680 E472.18589
G1 F3600 X17.6 Y16.792
G1 F1680 E475.18589
G1 F1200 X17.6 Y103.209 E484.71544
G1 F1680 E481.71544
G1 F3600 X16 Y103.209
G1 F1680 E484.71544
G1 F1200 X16 Y16.792 E494.24499
G1 F1680 E491.24499
G1 F3600 X14.4 Y16.792
G1 F1680 E494.24499
G1 F1200 X14.4 Y103.209 E503.77453
G1 F1680 E500.77453
G1 F3600 X12.8 Y103.209
G1 F1680 E503.77453
G1 F1200 X12.8 Y16.792 E513.30408
G1 F1680 E510.30408
G1 F3600 X11.2 Y16.859
G1 F1680 E513.30408
G1 F1200 X11.2 Y103.139 E522.81852
G1 F1680 E519.81852
G1 F3600 X9.6 Y102.617
G1 F1680 E522.81852
G1 F1200 X9.6 Y17.391 E532.21673
G1 F1680 E529.21673
G1 F3600 X8 Y18.68
G1 F1680 E532.21673
G1 F1200 X8 Y101.317 E541.32944
G1 F1680 E538.32944
G1 F3600 X92.8 Y100.001
M104 T0 S200
G1 F1680 E541.32944
G1 F1200 X92.8 Y19.999 E550.15158
G1 F1680 E547.15158
G1 F3600 X90.621 Y17.44
;TIME_ELAPSED:263.627086
;LAYER:-4
G1 X90.621 Y17.44 Z0.619
;TYPE:SUPPORT
G1 F1680 E550.15158
G1 F1980 X90.235 Y17.24 E550.18398
G1 X90.064 Y17.167 E550.19784
G1 X89.565 Y16.981 E550.23754
G1 X89.519 Y16.97 E550.24106
G1 X93.024 Y20.475 E550.61055
G1 F3600 X93.007 Y20.405
G1 F1980 X92.826 Y19.931 E550.64837
G1 X92.712 Y19.685 E550.66858
G1 X92.423 Y19.159 E550.71332
G1 X91.992 Y18.591 E550.76647
G1 X91.885 Y18.463 E550.77891
G1 X91.783 Y18.358 E550.78982
G1 X91.297 Y17.905 E550.83934
G1 X90.987 Y17.674 E550.86816
G1 X90.621 Y17.44 E550.90054
G1 F1680 E547.90054
G1 F3600 X89.519 Y16.97
G1 F1680 E550.90054
G1 F1980 X88.923 Y16.827 E550.94623
G1 X88.546 Y16.771 E550.97464
G1 X88.02 Y16.744 E551.0139
G1 X93.257 Y21.981 E551.56597
G1 X93.257 Y23.253 E551.66079
G1 X86.743 Y16.74 E552.34743
G1 X85.47 Y16.74 E552.44232
G1 X93.257 Y24.526 E553.26315
G1 X93.257 Y25.799 E553.35805
G1 X84.198 Y16.74 E554.31303
G1 X82.925 Y16.74 E554.40792
G1 X93.257 Y27.072 E555.49709
G1 X93.257 Y28.345 E555.59198
G1 X81.652 Y16.74 E556.81536
G1 X80.379 Y16.74 E556.91025
G1 X93.257 Y29.617 E558.26776
G1 X93.257 Y30.89 E558.36266
G1 X79.106 Y16.74 E559.85437
G1 X77.834 Y16.74 E559.94919
G1 X93.257 Y32.163 E561.57504
G1 X93.257 Y33.436 E561.66993
G1 X76.561 Y16.74 E563.42999
G1 X75.288 Y16.74 E563.52488
G1 X93.257 Y34.709 E565.41913
G1 X93.257 Y35.981 E565.51395
G1 X74.015 Y16.74 E567.54234
G1 X72.742 Y16.74 E567.63723
G1 X93.257 Y37.254 E569.79983
G1 X93.257 Y38.527 E569.89472
G1 X71.47 Y16.74 E572.19145
G1 X70.197 Y16.74 E572.28634
G1 X93.257 Y39.8 E574.71728
G1 X93.258 Y41.073 E574.81217
G1 X68.924 Y16.74 E577.37735
G1 X67.651 Y16.74 E577.47224
G1 X93.258 Y42.346 E580.17162
G1 X93.258 Y43.619 E580.26651
G1 X66.378 Y16.74 E583.10009
G1 X65.106 Y16.74 E583.1949
G1 X93.258 Y44.892 E586.16262
G1 X93.258 Y46.164 E586.25744
G1 X63.833 Y16.74 E589.3593
G1 X62.561 Y16.74 E589.45412
G1 X93.258 Y47.437 E592.69013
G1 X93.258 Y48.71 E592.78502
G1 X61.288 Y16.74 E596.15522
G1 X60.015 Y16.74 E596.25011
G1 X93.258 Y49.983 E599.75451
G1 X93.258 Y51.256 E599.84941
G1 X58.742 Y16.74 E603.488
G1 X57.47 Y16.74 E603.58282
G1 X93.258 Y52.528 E607.35551
G1 X93.258 Y53.801 E607.4504
G1 X56.197 Y16.74 E611.35729
G1 X54.924 Y16.74 E611.45218
G1 X93.258 Y55.074 E615.49326
G1 X93.258 Y56.347 E615.58815
G1 X53.651 Y16.74 E619.76343
G1 X52.378 Y16.74 E619.85832
G1 X93.258 Y57.62 E624.1678
G1 X93.258 Y58.892 E624.26261
G1 X51.106 Y16.74 E628.70618
G1 X49.833 Y16.74 E628.80107
G1 X93.258 Y60.166 E633.37889
G1 X93.258 Y61.439 E633.47378
G1 X48.56 Y16.74 E638.18579
G1 X47.287 Y16.74 E638.28069
G1 X93.258 Y62.711 E643.12684
G1 X93.258 Y63.984 E643.22173
G1 X46.014 Y16.74 E648.20209
G1 X44.742 Y16.74 E648.29691
G1 X93.258 Y65.257 E653.4114
G1 X93.258 Y66.53 E653.5063
G1 X43.469 Y16.74 E658.75499
G1 X42.196 Y16.74 E658.84988
G1 X93.258 Y67.803 E664.23277
G1 X93.258 Y69.075 E664.32759
G1 X40.923 Y16.74 E669.84463
G1 X39.651 Y16.74 E669.93944
G1 X93.258 Y70.348 E675.59062
G1 X93.258 Y71.621 E675.68551
G1 X38.378 Y16.74 E681.47089
G1 X37.106 Y16.741 E681.56571
G1 X93.258 Y72.894 E687.48518
G1 X93.258 Y74.167 E687.58007
G1 X35.833 Y16.741 E693.63373
G1 X34.56 Y16.741 E693.72862
G1 X93.258 Y75.439 E699.91643
G1 X93.258 Y76.712 E700.01132
G1 X33.287 Y16.741 E706.33333
G1 X32.014 Y16.741 E706.42822
G1 X93.258 Y77.985 E712.88442
G1 X93.259 Y79.258 E712.97931
G1 X30.742 Y16.741 E719.56971
G1 X29.469 Y16.741 E719.6646
G1 X93.259 Y80.531 E726.3892
G1 X93.259 Y81.804 E726.48409
G1 X28.196 Y16.741 E733.34288
G1 X26.923 Y16.741 E733.43777
G1 X93.259 Y83.077 E740.43076
G1 X93.259 Y84.35 E740.52565
G1 X25.651 Y16.741 E747.65279
G1 X24.378 Y16.741 E747.74768
G1 X93.259 Y85.622 E755.00896
G1 X93.259 Y86.895 E755.10385
G1 X23.105 Y16.741 E762.49932
G1 X21.832 Y16.741 E762.59421
G1 X93.259 Y88.168 E770.12388
G1 X93.259 Y89.441 E770.21877
G1 X20.559 Y16.741 E777.88264
G1 X19.287 Y16.741 E777.97746
G1 X93.259 Y90.714 E785.77547
G1 X93.259 Y91.986 E785.87029
G1 X18.014 Y16.741 E793.80244
G1 X16.741 Y16.741 E793.89733
G1 X93.259 Y93.259 E801.96369
G1 X93.259 Y94.532 E802.05858
G1 X15.468 Y16.741 E810.25913
G1 X14.195 Y16.741 E810.35402
G1 X93.259 Y95.805 E818.68876
G1 X93.259 Y97.077 E818.78358
G1 X12.923 Y16.741 E827.25242
G1 X11.93 Y16.741 E827.32644
G1 X11.74 Y16.747 E827.34061
G1 X11.664 Y16.755 E827.3463
G1 X93.242 Y98.333 E835.94607
G1 X93.236 Y98.475 E835.95666
G1 X93.167 Y98.953 E835.99266
G1 X93.056 Y99.42 E836.02844
G1 X10.583 Y16.947 E844.72256
G1 X10.401 Y16.993 E844.73655
G1 X9.93 Y17.171 E844.77408
G1 X9.685 Y17.286 E844.79426
G1 X9.662 Y17.299 E844.79623
G1 X92.701 Y100.338 E853.55001
G1 X92.557 Y100.617 E853.57341
G1 X92.438 Y100.819 E853.59089
G1 X92.372 Y100.916 E853.59963
G1 X92.215 Y101.124 E853.61906
G1 X8.881 Y17.79 E862.40394
G1 X8.473 Y18.105 E862.44236
G1 X8.343 Y18.232 E862.45591
G1 X8.202 Y18.384 E862.47136
G1 X91.622 Y101.804 E871.26531
G1 X91.551 Y101.875 E871.27279
G1 X91.343 Y102.056 E871.29335
G1 X90.928 Y102.364 E871.33187
G1 X90.916 Y102.371 E871.3329
G1 X7.637 Y19.092 E880.11199
G1 X7.498 Y19.299 E880.13057
G1 X7.394 Y19.471 E880.14555
G1 X7.324 Y19.608 E880.15702
G1 X7.187 Y19.914 E880.18201
G1 X90.088 Y102.816 E888.9213
G1 X90.033 Y102.842 E888.92583
G1 X89.657 Y102.986 E888.95585
G1 X89.527 Y103.026 E888.96599
G1 X89.123 Y103.124 E888.99697
G1 X6.875 Y20.876 E897.66737
G1 X6.83 Y21.051 E897.68084
G1 X6.773 Y21.45 E897.71088
G1 X6.743 Y21.925 E897.74636
G1 X6.742 Y22.016 E897.75314
G1 X87.983 Y103.257 E906.31738
G1 X86.711 Y103.257 E906.4122
G1 X6.742 Y23.289 E914.8423
G1 X6.742 Y24.562 E914.93719
G1 X85.438 Y103.257 E923.23309
G1 X84.165 Y103.257 E923.32798
G1 X6.742 Y25.834 E931.48973
G1 X6.742 Y27.107 E931.58463
G1 X82.892 Y103.257 E939.61218
G1 X81.619 Y103.257 E939.70708
G1 X6.742 Y28.38 E947.60044
G1 X6.742 Y29.653 E947.69533
G1 X80.347 Y103.257 E955.45455
G1 X79.074 Y103.257 E955.54944
G1 X6.742 Y30.926 E963.17446
G1 X6.742 Y32.198 E963.26928
G1 X77.801 Y103.257 E970.76015
G1 X76.528 Y103.257 E970.85504
G1 X6.742 Y33.471 E978.21172
G1 X6.742 Y34.744 E978.30662
G1 X75.255 Y103.257 E985.5291
G1 X73.983 Y103.257 E985.62392
G1 X6.742 Y36.017 E992.71225
G1 X6.742 Y37.289 E992.80707
G1 X72.71 Y103.257 E999.76127
G1 X71.437 Y103.257 E999.85616
G1 X6.742 Y38.562 E1006.67616
G1 X6.742 Y39.834 E1006.77097
G1 X70.164 Y103.257 E1013.45683
G1 X68.891 Y103.257 E1013.55172
G1 X6.742 Y41.107 E1020.10338
G1 X6.742 Y42.38 E1020.19827
G1 X67.619 Y103.257 E1026.61578
G1 X66.346 Y103.257 E1026.71067
G1 X6.742 Y43.653 E1032.99399
G1 X6.742 Y44.926 E1033.08888
G1 X65.073 Y103.257 E1039.238
G1 X63.8 Y103.257 E1039.33289
G1 X6.742 Y46.198 E1045.34787
G1 X6.742 Y47.471 E1045.44276
G1 X62.528 Y103.258 E1051.32365
G1 X61.255 Y103.258 E1051.41854
G1 X6.742 Y48.744 E1057.16523
G1 X6.742 Y50.017 E1057.26012
G1 X59.983 Y103.258 E1062.87266
G1 X58.71 Y103.258 E1062.96755
G1 X6.742 Y51.289 E1068.44595
G1 X6.741 Y52.562 E1068.54084
G1 X57.437 Y103.258 E1073.8851
G1 X56.164 Y103.258 E1073.97999
G1 X6.741 Y53.834 E1079.1901
G1 X6.741 Y55.107 E1079.285
G1 X54.891 Y103.258 E1084.36091
G1 X53.619 Y103.258 E1084.45573
G1 X6.741 Y56.38 E1089.3975
G1 X6.741 Y57.653 E1089.49239
G1 X52.346 Y103.258 E1094.29997
G1 X51.073 Y103.258 E1094.39486
G1 X6.741 Y58.926 E1099.06823
G1 X6.741 Y60.198 E1099.16305
G1 X49.8 Y103.258 E1103.70229
G1 X48.528 Y103.258 E1103.7971
G1 X6.741 Y61.471 E1108.20219
G1 X6.741 Y62.744 E1108.29708
G1 X47.255 Y103.258 E1112.56798
G1 X45.982 Y103.258 E1112.66287
G1 X6.741 Y64.017 E1116.79956
G1 X6.741 Y65.289 E1116.89438
G1 X44.709 Y103.258 E1120.89693
G1 X43.436 Y103.258 E1120.99182
G1 X6.741 Y66.562 E1124.86018
G1 X6.74 Y67.834 E1124.955
G1 X42.164 Y103.258 E1128.68931
G1 X40.891 Y103.258 E1128.7842
G1 X6.74 Y69.107 E1132.38433
G1 X6.74 Y70.38 E1132.47922
G1 X39.618 Y103.258 E1135.94514
G1 X38.345 Y103.258 E1136.04003
