M73 P0
;MINX:4.4
;MAXX:95.6
;MINY:21.3
;MAXY:98.7
;MINZ:0.0
;MAXZ:14.3
;MachineType:ENTINA TINA2
;FilamentType:PLA
;Extruder0Temperature:205
;InfillDensity:15
;FLAVOR:Marlin
;TIME:8544
;FilamentUsed:5984.0
;Layer height: 0.2

;Generated with Cura_SteamEngine 3.1
M104 T0 S220
M82 ; absolute extrusion mode
;(**** start.gcode for tina2****)
M104 S150
G28 Z
G28 X Y; Home extruder
G1 X55 Y55 F1000
G1 Z10 F200
G29
G1 Z15 F100
M107 ; Turn off fan
G90 ; Absolute positioning
M82 ; Extruder in absolute mode
M109 S220.0
G92 E0 ; Reset extruder position
G1 X90 Y6 Z0.27 F2000
G1 X20 Y6 Z0.27 E15 F1000
G92 E0 ; Reset extruder position

;LAYER_COUNT:65
;LAYER:-6
M107
M203 Z5
G1 F3600 X74.768 Y23.346 Z0.349
G1 F1200 X74.959 Y23.552 E0.03098
G1 X75.147 Y23.783 E0.06382
G1 X75.316 Y24.018 E0.09574
G1 X75.467 Y24.26 E0.1272
G1 X75.603 Y24.513 E0.15887
G1 X75.73 Y24.786 E0.19207
G1 X75.833 Y25.055 E0.22384
G1 X75.919 Y25.327 E0.2553
G1 X76.039 Y25.831 E0.31243
G1 X76.544 Y28.605 E0.62336
G1 X76.565 Y28.735 E0.63788
G1 X76.611 Y29.122 E0.68085
G1 X76.626 Y29.394 E0.71089
G1 X76.622 Y29.702 E0.74486
G1 X76.601 Y29.989 E0.77659
G1 X76.562 Y30.275 E0.80842
G1 X76.505 Y30.557 E0.84015
G1 X76.431 Y30.832 E0.87155
G1 X76.333 Y31.125 E0.90562
G1 X76.23 Y31.375 E0.93544
G1 X76.097 Y31.646 E0.96873
G1 X75.787 Y32.171 E1.03596
G1 X74.459 Y34.129 E1.29686
G1 X74.119 Y34.707 E1.37081
G1 X73.849 Y35.333 E1.44598
G1 X73.661 Y35.99 E1.52134
G1 X73.556 Y36.665 E1.59667
G1 X73.537 Y37.348 E1.67202
G1 X73.606 Y38.027 E1.74728
G1 X73.759 Y38.693 E1.82264
G1 X73.998 Y39.339 E1.89859
G1 X74.483 Y40.207 E2.00824
G1 X74.562 Y40.319 E2.02335
G1 X74.72 Y40.583 E2.05728
G1 X74.846 Y40.827 E2.08756
G1 X74.999 Y41.174 E2.12938
G1 X75.308 Y41.769 E2.20332
G1 X75.695 Y42.33 E2.27847
G1 X76.151 Y42.839 E2.35383
G1 X76.672 Y43.29 E2.42982
G1 X77.527 Y43.819 E2.54069
G1 X77.975 Y44.037 E2.59563
G1 X78.244 Y44.19 E2.62976
G1 X78.488 Y44.349 E2.66187
G1 X78.721 Y44.524 E2.69401
G1 X78.935 Y44.706 E2.72499
G1 X79.164 Y44.927 E2.76008
G1 X79.339 Y45.116 E2.78848
G1 X79.575 Y45.408 E2.82989
G1 X83.052 Y50.077 E3.47184
G1 X83.27 Y50.411 E3.51582
G1 X83.395 Y50.632 E3.54382
G1 X83.529 Y50.908 E3.57765
G1 X83.644 Y51.188 E3.61103
G1 X83.732 Y51.453 E3.64182
G1 X83.809 Y51.741 E3.6747
G1 X83.865 Y52.02 E3.70608
G1 X83.903 Y52.298 E3.73702
G1 X83.924 Y52.592 E3.76952
G1 X83.927 Y52.902 E3.80371
G1 X83.912 Y53.171 E3.83342
G1 X83.878 Y53.462 E3.86573
G1 X83.788 Y53.942 E3.91958
G1 X83.401 Y55.552 E4.10218
G1 X83.414 Y55.556 E4.10368
G1 X83.373 Y55.747 E4.12522
G1 X83.315 Y56.428 E4.20059
G1 X83.344 Y57.11 E4.27587
G1 X83.46 Y57.782 E4.35107
G1 X83.659 Y58.436 E4.42645
G1 X83.939 Y59.059 E4.50177
G1 X84.295 Y59.641 E4.577
G1 X84.722 Y60.174 E4.65232
G1 X85.212 Y60.649 E4.72757
G1 X85.759 Y61.058 E4.80289
G1 X86.353 Y61.395 E4.8782
G1 X86.956 Y61.644 E4.95014
G1 X89.085 Y62.371 E5.19822
G1 X89.575 Y62.57 E5.25654
G1 X89.832 Y62.697 E5.28816
G1 X90.077 Y62.837 E5.31927
G1 X90.329 Y63.003 E5.35255
G1 X90.557 Y63.175 E5.38404
G1 X90.769 Y63.358 E5.41493
G1 X90.998 Y63.58 E5.4501
G1 X91.173 Y63.772 E5.47875
G1 X91.459 Y64.131 E5.52936
G1 X93.302 Y66.686 E5.87676
G1 X93.599 Y67.149 E5.93742
G1 X93.729 Y67.389 E5.96752
G1 X93.857 Y67.664 E6.00097
G1 X93.966 Y67.943 E6.034
G1 X94.05 Y68.211 E6.06497
G1 X94.119 Y68.485 E6.09613
G1 X94.173 Y68.779 E6.12909
G1 X94.208 Y69.067 E6.16108
G1 X94.223 Y69.332 E6.19035
G1 X94.22 Y69.653 E6.22575
G1 X94.199 Y69.947 E6.25826
G1 X94.165 Y70.205 E6.28695
G1 X94.097 Y70.545 E6.32519
G1 X94.044 Y70.754 E6.34897
G1 X93.946 Y71.061 E6.3845
G1 X93.299 Y72.884 E6.59782
G1 X93.115 Y73.529 E6.67178
G1 X93.012 Y74.204 E6.74708
G1 X92.996 Y74.887 E6.82242
G1 X93.065 Y75.565 E6.89757
G1 X93.219 Y76.23 E6.97284
G1 X93.457 Y76.871 E7.04824
G1 X93.771 Y77.474 E7.12321
G1 X94.234 Y78.16 E7.21448
G1 X94.374 Y78.402 E7.24531
G1 X94.505 Y78.667 E7.27791
G1 X94.616 Y78.929 E7.30928
G1 X94.717 Y79.218 E7.34304
G1 X94.79 Y79.48 E7.37304
G1 X94.85 Y79.761 E7.40472
G1 X94.894 Y80.061 E7.43816
G1 X94.919 Y80.365 E7.47179
G1 X94.926 Y80.64 E7.50213
G1 X94.911 Y81.028 E7.54495
G1 X93.998 Y91.814 E8.73862
G1 X93.941 Y92.202 E8.78186
G1 X93.882 Y92.476 E8.81277
G1 X93.803 Y92.757 E8.84496
G1 X93.706 Y93.037 E8.87763
G1 X93.599 Y93.289 E8.90783
G1 X93.46 Y93.566 E8.942
G1 X93.314 Y93.817 E8.97402
G1 X93.158 Y94.052 E9.00513
G1 X92.983 Y94.279 E9.03673
G1 X92.788 Y94.503 E9.06948
G1 X92.578 Y94.715 E9.10239
G1 X92.378 Y94.893 E9.13191
G1 X92.102 Y95.109 E9.17056
G1 X91.818 Y95.304 E9.20855
G1 X88.412 Y97.324 E9.64523
G1 X87.949 Y97.564 E9.70274
G1 X87.691 Y97.675 E9.73371
G1 X87.425 Y97.772 E9.76493
G1 X87.132 Y97.857 E9.79858
G1 X86.846 Y97.919 E9.83085
G1 X86.569 Y97.963 E9.86178
G1 X86.282 Y97.99 E9.89357
G1 X85.989 Y97.999 E9.92589
G1 X85.726 Y97.989 E9.95491
G1 X85.385 Y97.95 E9.99276
G1 X84.84 Y97.848 E10.05391
G1 X84.619 Y97.795 E10.07897
G1 X56.253 Y89.69 E13.33218
G1 X55.881 Y89.556 E13.37578
G1 X55.624 Y89.446 E13.40661
G1 X55.37 Y89.318 E13.43798
G1 X55.1 Y89.159 E13.47253
G1 X54.877 Y89.008 E13.50223
G1 X54.647 Y88.83 E13.5343
G1 X54.425 Y88.636 E13.56681
G1 X54.218 Y88.429 E13.59909
G1 X54.022 Y88.208 E13.63167
G1 X53.853 Y87.99 E13.66208
G1 X53.686 Y87.743 E13.69496
G1 X53.533 Y87.484 E13.72813
G1 X53.42 Y87.263 E13.75551
G1 X53.287 Y86.944 E13.79362
G1 X53.123 Y86.458 E13.85018
G1 X53.07 Y86.275 E13.87119
G1 X49.085 Y70.192 E15.69836
G1 X49.007 Y69.789 E15.74362
G1 X48.886 Y69.299 E15.79928
G1 X48.901 Y69.294 E15.80102
G1 X48.558 Y68.324 E15.91448
G1 X47.551 Y64.889 E16.30921
G1 X47.322 Y64.26 E16.38303
G1 X47.008 Y63.648 E16.45888
G1 X46.442 Y62.87 E16.56498
G1 X43.964 Y60.044 E16.97945
G1 X43.395 Y59.309 E17.08195
G1 X43.004 Y58.909 E17.14363
G1 X42.837 Y58.754 E17.16876
G1 X42.603 Y58.508 E17.2062
G1 X39.43 Y54.89 E17.73686
G1 X38.854 Y54.146 E17.84062
G1 X38.85 Y54.149 E17.84117
G1 X38.485 Y53.767 E17.89943
G1 X38.261 Y53.557 E17.93329
G1 X38.037 Y53.318 E17.96942
G1 X34.877 Y49.723 E18.49723
G1 X34.107 Y48.734 E18.63545
G1 X33.768 Y48.384 E18.68918
G1 X33.46 Y48.094 E18.73583
G1 X33.286 Y47.914 E18.76344
G1 X30.358 Y44.587 E19.25217
G1 X30.232 Y44.435 E19.27394
G1 X29.682 Y43.727 E19.3728
G1 X29.099 Y43.128 E19.46498
G1 X28.593 Y42.681 E19.53943
G1 X27.782 Y42.161 E19.64567
G1 X26.296 Y41.385 E19.83053
G1 X25.492 Y40.901 E19.93402
G1 X25.033 Y40.691 E19.98968
G1 X24.728 Y40.567 E20.02599
G1 X24.465 Y40.442 E20.0581
G1 X19.875 Y38.056 E20.62856
G1 X18.981 Y37.52 E20.7435
G1 X18.843 Y37.462 E20.76001
G1 X18.852 Y37.441 E20.76253
G1 X18.133 Y37.156 E20.84782
G1 X17.904 Y37.05 E20.87565
G1 X8.151 Y32.219 E22.07586
G1 X7.829 Y32.033 E22.11686
G1 X7.588 Y31.874 E22.1487
G1 X7.359 Y31.699 E22.18049
G1 X7.143 Y31.513 E22.21192
G1 X6.927 Y31.302 E22.24522
G1 X6.734 Y31.087 E22.27708
G1 X6.556 Y30.862 E22.30871
G1 X6.389 Y30.621 E22.34105
G1 X6.224 Y30.345 E22.37651
G1 X6.108 Y30.125 E22.40393
G1 X5.951 Y29.776 E22.44613
G1 X5.334 Y28.259 E22.62673
G1 X5.214 Y27.903 E22.66815
G1 X5.137 Y27.619 E22.7006
G1 X5.078 Y27.328 E22.73335
G1 X5.041 Y27.062 E22.76296
G1 X5.019 Y26.758 E22.79657
G1 X5.017 Y26.456 E22.82988
G1 X5.032 Y26.175 E22.86091
G1 X5.065 Y25.893 E22.89222
G1 X5.119 Y25.601 E22.92496
G1 X5.191 Y25.314 E22.95759
G1 X5.278 Y25.042 E22.98908
G1 X5.379 Y24.781 E23.01994
G1 X5.502 Y24.513 E23.05246
G1 X5.64 Y24.259 E23.08434
G1 X5.805 Y23.996 E23.11857
G1 X5.96 Y23.781 E23.1478
G1 X6.152 Y23.546 E23.18127
G1 X6.344 Y23.34 E23.21232
G1 X6.568 Y23.128 E23.24633
G1 X6.773 Y22.957 E23.27577
G1 X7.026 Y22.773 E23.31027
G1 X7.256 Y22.625 E23.34043
G1 X7.514 Y22.483 E23.3729
G1 X7.774 Y22.36 E23.40462
G1 X8.047 Y22.252 E23.43699
G1 X8.322 Y22.161 E23.46894
G1 X8.568 Y22.098 E23.49694
G1 X8.919 Y22.037 E23.53623
G1 X9.506 Y21.982 E23.60124
G1 X9.753 Y21.97 E23.62851
G1 X21.279 Y21.974 E24.89953
G1 X22.419 Y22.053 E25.02554
G1 X22.969 Y22.025 E25.08627
G1 X23.357 Y21.985 E25.12928
G1 X23.724 Y21.971 E25.16978
G1 X29.855 Y21.97 E25.84587
G1 X30.397 Y21.998 E25.90572
G1 X30.664 Y22.031 E25.93539
G1 X31.329 Y22.073 E26.00887
G1 X31.822 Y22.049 E26.0633
G1 X32.537 Y21.982 E26.14249
G1 X32.788 Y21.97 E26.1702
G1 X39.551 Y21.974 E26.91598
G1 X39.928 Y21.998 E26.95764
G1 X40.226 Y22.035 E26.99075
G1 X40.51 Y22.09 E27.02265
G1 X40.801 Y22.166 E27.05582
G1 X41.059 Y22.25 E27.08574
G1 X41.326 Y22.356 E27.11742
G1 X41.596 Y22.483 E27.15032
G1 X42.477 Y22.986 E27.26219
G1 X43.109 Y23.246 E27.33755
G1 X43.769 Y23.423 E27.41291
G1 X44.444 Y23.516 E27.48804
G1 X45.127 Y23.523 E27.56336
G1 X45.806 Y23.444 E27.63875
G1 X46.468 Y23.28 E27.71395
G1 X47.108 Y23.033 E27.7896
G1 X47.247 Y22.955 E27.80718
G1 X47.258 Y22.973 E27.80951
G1 X47.98 Y22.547 E27.90195
G1 X48.247 Y22.411 E27.93499
G1 X48.512 Y22.297 E27.9668
G1 X48.788 Y22.199 E27.9991
G1 X49.076 Y22.116 E28.03215
G1 X49.352 Y22.056 E28.0633
G1 X49.652 Y22.009 E28.09678
G1 X49.909 Y21.984 E28.12526
G1 X50.272 Y21.97 E28.16532
G1 X71.549 Y21.976 E30.51162
G1 X71.926 Y22 E30.55327
G1 X72.221 Y22.037 E30.58606
G1 X72.519 Y22.095 E30.61954
G1 X72.791 Y22.165 E30.65051
G1 X73.052 Y22.25 E30.68078
G1 X73.338 Y22.364 E30.71473
G1 X73.588 Y22.483 E30.74526
G1 X73.857 Y22.632 E30.77917
G1 X74.101 Y22.788 E30.81111
G1 X74.328 Y22.955 E30.84219
G1 X74.548 Y23.138 E30.87374
G1 X74.768 Y23.346 E30.90713
G1 F3600 X75.2 Y23.857
G1 F1200 X75.2 Y33.037 E31.91944
G1 F1680 E28.91944
G1 F3600 X73.6 Y36.383
G1 F1680 E31.91944
G1 F1200 X73.6 Y22.49 E33.45148
G1 F1680 E30.45148
G1 F3600 X72 Y22.01
G1 F1680 E33.45148
G1 F1200 X72 Y94.189 E41.41095
G1 F1680 E38.41095
G1 F3600 X73.6 Y94.646
G1 F1680 E41.41095
G1 F1200 X73.6 Y37.968 E47.66106
G1 F1680 E44.66106
G1 F3600 X75.2 Y41.562
G1 F1680 E47.66106
G1 F1200 X75.2 Y95.103 E53.56523
G1 F1680 E50.56523
G1 F3600 X76.8 Y95.56
G1 F1680 E53.56523
G1 F1200 X76.8 Y43.37 E59.32043
G1 F1680 E56.32043
G1 F3600 X78.4 Y44.292
G1 F1680 E59.32043
G1 F1200 X78.4 Y96.018 E65.02446
G1 F1680 E62.02446
G1 F3600 X80 Y96.475
G1 F1680 E65.02446
G1 F1200 X80 Y45.979 E70.59286
G1 F1680 E67.59286
G1 F3600 X81.6 Y48.128
G1 F1680 E70.59286
G1 F1200 X81.6 Y96.932 E75.97467
G1 F1680 E72.97467
G1 F3600 X83.2 Y97.389
G1 F1680 E75.97467
G1 F1200 X83.2 Y50.304 E81.16692
G1 F1680 E78.16692
G1 F3600 X84.8 Y60.25
G1 F1680 E81.16692
G1 F1200 X84.8 Y97.838 E85.3119
G1 F1680 E82.3119
G1 F3600 X86.4 Y97.979
G1 F1680 E85.3119
G1 F1200 X86.4 Y61.415 E89.34396
G1 F1680 E86.34396
G1 F3600 X88 Y62.001
G1 F1680 E89.34396
G1 F1200 X88 Y97.538 E93.26276
G1 F1680 E90.26276
G1 F3600 X89.6 Y96.62
G1 F1680 E93.26276
G1 F1200 X89.6 Y62.583 E97.01616
G1 F1680 E94.01616
G1 F3600 X91.2 Y63.806
G1 F1680 E97.01616
G1 F1200 X91.2 Y95.671 E100.53004
G1 F1680 E97.53004
G1 F3600 X92.8 Y94.49
G1 F1680 E100.53004
G1 F1200 X92.8 Y65.991 E103.67274
G1 F1680 E100.67274
G1 F3600 X94.4 Y78.455
G1 F1680 E103.67274
G1 F1200 X94.4 Y87.065 E104.6222
G1 F1680 E101.6222
G1 F3600 X70.4 Y93.732
G1 F1680 E104.6222
G1 F1200 X70.4 Y21.976 E112.53502
G1 F1680 E109.53502
G1 F3600 X68.8 Y21.976
G1 F1680 E112.53502
G1 F1200 X68.8 Y93.275 E120.39744
G1 F1680 E117.39744
G1 F3600 X67.2 Y92.817
G1 F1680 E120.39744
G1 F1200 X67.2 Y21.975 E128.20947
G1 F1680 E125.20947
G1 F3600 X65.6 Y21.975
G1 F1680 E128.20947
G1 F1200 X65.6 Y92.36 E135.9711
G1 F1680 E132.9711
G1 F3600 X64 Y91.903
G1 F1680 E135.9711
G1 F1200 X64 Y21.974 E143.68245
G1 F1680 E140.68245
G1 F3600 X62.4 Y21.974
G1 F1680 E143.68245
G1 F1200 X62.4 Y91.446 E151.34341
G1 F1680 E148.34341
G1 F3600 X60.8 Y90.989
G1 F1680 E151.34341
G1 F1200 X60.8 Y21.973 E158.95407
G1 F1680 E155.95407
G1 F3600 X59.2 Y21.973
G1 F1680 E158.95407
G1 F1200 X59.2 Y90.532 E166.51435
G1 F1680 E163.51435
G1 F3600 X57.6 Y90.074
G1 F1680 E166.51435
G1 F1200 X57.6 Y21.973 E174.02412
G1 F1680 E171.02412
G1 F3600 X56 Y21.972
G1 F1680 E174.02412
G1 F1200 X56 Y89.598 E181.4815
G1 F1680 E178.4815
G1 F3600 X54.4 Y88.611
G1 F1680 E181.4815
G1 F1200 X54.4 Y21.972 E188.83005
G1 F1680 E185.83005
G1 F3600 X52.8 Y21.971
G1 F1680 E188.83005
G1 F1200 X52.8 Y85.185 E195.80091
G1 F1680 E192.80091
G1 F3600 X51.2 Y78.727
G1 F1680 E195.80091
G1 F1200 X51.2 Y21.971 E202.05962
G1 F1680 E199.05962
G1 F3600 X49.6 Y22.017
G1 F1680 E202.05962
G1 F1200 X49.6 Y72.27 E207.60122
G1 F1680 E204.60122
G1 F3600 X48 Y66.42
G1 F1680 E207.60122
G1 F1200 X48 Y22.536 E212.44048
G1 F1680 E209.44048
G1 F3600 X46.4 Y23.296
G1 F1680 E212.44048
G1 F1200 X46.4 Y62.822 E216.79917
G1 F1680 E213.79917
G1 F3600 X44.8 Y60.997
G1 F1680 E216.79917
G1 F1200 X44.8 Y23.52 E220.93191
G1 F1680 E217.93191
G1 F3600 X43.2 Y23.271
G1 F1680 E220.93191
G1 F1200 X43.2 Y59.109 E224.88391
G1 F1680 E221.88391
G1 F3600 X41.6 Y57.364
G1 F1680 E224.88391
G1 F1200 X41.6 Y22.486 E228.73004
G1 F1680 E225.73004
G1 F3600 X40 Y22.007
G1 F1680 E228.73004
G1 F1200 X40 Y55.539 E232.42775
G1 F1680 E229.42775
G1 F3600 X38.4 Y53.687
G1 F1680 E232.42775
G1 F1200 X38.4 Y21.974 E235.92487
G1 F1680 E232.92487
G1 F3600 X36.8 Y21.973
G1 F1680 E235.92487
G1 F1200 X36.8 Y51.91 E239.22614
G1 F1680 E236.22614
G1 F3600 X35.2 Y50.09
G1 F1680 E239.22614
G1 F1200 X35.2 Y21.972 E242.32683
G1 F1680 E239.32683
G1 F3600 X33.6 Y21.971
G1 F1680 E242.32683
G1 F1200 X33.6 Y48.225 E245.22196
G1 F1680 E242.22196
G1 F3600 X32 Y46.452
G1 F1680 E245.22196
G1 F1200 X32 Y22.032 E247.91485
G1 F1680 E244.91485
G1 F3600 X30.4 Y21.999
G1 F1680 E247.91485
G1 F1200 X30.4 Y44.634 E250.4109
G1 F1680 E247.4109
G1 F3600 X28.8 Y42.863
G1 F1680 E250.4109
G1 F1200 X28.8 Y21.97 E252.71486
G1 F1680 E249.71486
G1 F3600 X27.2 Y21.97
G1 F1680 E252.71486
G1 F1200 X27.2 Y41.857 E254.90787
G1 F1680 E251.90787
G1 F3600 X25.6 Y40.966
G1 F1680 E254.90787
G1 F1200 X25.6 Y21.97 E257.00264
G1 F1680 E254.00264
G1 F3600 X24 Y21.97
G1 F1680 E257.00264
G1 F1200 X24 Y40.2 E259.01293
G1 F1680 E256.01293
G1 F3600 X22.4 Y39.368
G1 F1680 E259.01293
G1 F1200 X22.4 Y22.052 E260.92244
G1 F1680 E257.92244
G1 F3600 X20.8 Y21.974
G1 F1680 E260.92244
G1 F1200 X20.8 Y38.536 E262.74879
G1 F1680 E259.74879
G1 F3600 X19.2 Y37.651
G1 F1680 E262.74879
G1 F1200 X19.2 Y21.974 E264.47756
G1 F1680 E261.47756
G1 F3600 X17.6 Y21.973
G1 F1680 E264.47756
G1 F1200 X17.6 Y36.899 E266.12351
G1 F1680 E263.12351
G1 F3600 X16 Y36.106
G1 F1680 E266.12351
G1 F1200 X16 Y21.973 E267.68201
G1 F1680 E264.68201
G1 F3600 X14.4 Y21.972
G1 F1680 E267.68201
G1 F1200 X14.4 Y35.314 E269.15329
G1 F1680 E266.15329
G1 F3600 X12.8 Y34.521
M104 T0 S205
G1 F1680 E269.15329
G1 F1200 X12.8 Y21.972 E270.53711
G1 F1680 E267.53711
G1 F3600 X11.2 Y21.971
G1 F1680 E270.53711
G1 F1200 X11.2 Y33.729 E271.83372
G1 F1680 E268.83372
G1 F3600 X9.6 Y32.936
G1 F1680 E271.83372
G1 F1200 X9.6 Y21.977 E273.04221
G1 F1680 E270.04221
G1 F3600 X8 Y22.27
G1 F1680 E273.04221
G1 F1200 X8 Y32.131 E274.12962
G1 F1680 E271.12962
G1 F3600 X6.4 Y30.636
G1 F1680 E274.12962
G1 F1200 X6.4 Y23.287 E274.94002
G1 F1680 E271.94002
G1 F3600 X74.998 Y23.519
;TIME_ELAPSED:140.251614
;LAYER:-5
G1 X74.998 Y23.519 Z0.619
;TYPE:SUPPORT
G1 F1680 E274.94002
G1 F1980 X74.801 Y23.309 E274.96149
G1 X74.582 Y23.101 E274.984
G1 X74.364 Y22.919 E275.00517
G1 X74.129 Y22.746 E275.02692
G1 X73.874 Y22.583 E275.04948
G1 X73.616 Y22.44 E275.07147
G1 X73.36 Y22.319 E275.09258
G1 X73.145 Y22.233 E275.10984
G1 X75.836 Y24.924 E275.39352
G1 X75.883 Y25.046 E275.40326
G1 X75.966 Y25.31 E275.42389
G1 X76.088 Y25.822 E275.46313
G1 X76.227 Y26.588 E275.52116
G1 X71.565 Y21.926 E276.01261
G1 X71.55 Y21.925 E276.01373
G1 X70.291 Y21.925 E276.10758
G1 X76.508 Y28.142 E276.76296
G1 X76.614 Y28.729 E276.80743
G1 X76.661 Y29.125 E276.83715
G1 X76.676 Y29.395 E276.85731
G1 X76.674 Y29.581 E276.87118
G1 X69.018 Y21.925 E277.67825
G1 X67.745 Y21.924 E277.77315
G1 X76.519 Y30.699 E278.69813
G1 X76.478 Y30.85 E278.7098
G1 X76.38 Y31.138 E278.73247
G1 X76.274 Y31.399 E278.75347
G1 X76.167 Y31.619 E278.77171
G1 X66.472 Y21.924 E279.79373
G1 X65.198 Y21.923 E279.8887
G1 X75.685 Y32.41 E280.99421
G1 X75.171 Y33.168 E281.06248
G1 X63.925 Y21.923 E282.24796
G1 X62.652 Y21.923 E282.34285
G1 X74.656 Y33.926 E283.60823
G1 X74.5 Y34.156 E283.62895
G1 X74.171 Y34.715 E283.6773
G1 X61.379 Y21.923 E285.0258
