M73 P0
;MINX:19.0
;MAXX:80.0
;MINY:7.0
;MAXY:120.0
;MINZ:0.0
;MAXZ:41.3
;MachineType:ENTINA TINA2
;FilamentType:PLA
;Extruder0Temperature:205
;InfillDensity:15
;FLAVOR:Marlin
;TIME:15358
;FilamentUsed:11853.3
;Layer height: 0.2

;Generated with Cura_SteamEngine 3.1
M104 T0 S220
M82 ; absolute extrusion mode
;(**** start.gcode for tina2****)
M104 S150
G28 Z
G28 X Y; Home extruder
G1 X55 Y55 F1000
G1 Z10 F200
G29
G1 Z15 F100
M107 ; Turn off fan
G90 ; Absolute positioning
M82 ; Extruder in absolute mode
M109 S220.0
G92 E0 ; Reset extruder position
G1 X90 Y6 Z0.27 F2000
G1 X20 Y6 Z0.27 E15 F1000
G92 E0 ; Reset extruder position

;LAYER_COUNT:200
;LAYER:-6
M107
M203 Z5
G1 F3600 X74.23 Y14.801 Z0.349
G1 F1200 X74.362 Y15.06 E0.03206
G1 X74.465 Y15.299 E0.06076
G1 X74.57 Y15.591 E0.09497
G1 X74.651 Y15.873 E0.12733
G1 X74.707 Y16.127 E0.15601
G1 X74.756 Y16.457 E0.1928
G1 X74.792 Y16.918 E0.24379
G1 X74.799 Y17.103 E0.26421
G1 X74.795 Y57.05 E4.66932
G1 X74.771 Y57.427 E4.71098
G1 X74.734 Y57.725 E4.74409
G1 X74.679 Y58.009 E4.77599
G1 X74.603 Y58.3 E4.80916
G1 X74.519 Y58.558 E4.83908
G1 X74.408 Y58.837 E4.87219
G1 X74.286 Y59.095 E4.90366
G1 X74.142 Y59.354 E4.93634
G1 X74.003 Y59.573 E4.96494
G1 X73.801 Y59.844 E5.00222
G1 X73.512 Y60.182 E5.05126
G1 X73.041 Y60.694 E5.12797
G1 X73.052 Y60.705 E5.12969
G1 X72.985 Y60.782 E5.14094
G1 X72.602 Y61.346 E5.21612
G1 X72.293 Y61.956 E5.29153
G1 X72.064 Y62.598 E5.36669
G1 X71.917 Y63.266 E5.44212
G1 X71.856 Y63.945 E5.5173
G1 X71.881 Y64.628 E5.59266
G1 X71.992 Y65.302 E5.66799
G1 X72.188 Y65.957 E5.74338
G1 X72.466 Y66.587 E5.81932
G1 X72.618 Y66.823 E5.85028
G1 X72.599 Y66.836 E5.85281
G1 X73.072 Y67.533 E5.9457
G1 X73.23 Y67.801 E5.98001
G1 X73.362 Y68.06 E6.01207
G1 X73.465 Y68.299 E6.04076
G1 X73.57 Y68.591 E6.07498
G1 X73.651 Y68.873 E6.10734
G1 X73.707 Y69.127 E6.13602
G1 X73.756 Y69.457 E6.17281
G1 X73.792 Y69.918 E6.2238
G1 X73.799 Y70.103 E6.24422
G1 X73.796 Y110.05 E10.64933
G1 X73.772 Y110.427 E10.69099
G1 X73.735 Y110.725 E10.7241
G1 X73.68 Y111.009 E10.756
G1 X73.604 Y111.3 E10.78917
G1 X73.52 Y111.558 E10.81909
G1 X73.409 Y111.837 E10.8522
G1 X73.287 Y112.095 E10.88367
G1 X73.144 Y112.353 E10.9162
G1 X72.999 Y112.579 E10.94581
G1 X72.805 Y112.84 E10.98167
G1 X72.501 Y113.194 E11.03313
G1 X72.317 Y113.387 E11.06253
G1 X72.194 Y113.504 E11.08125
G1 X71.922 Y113.741 E11.12104
G1 X71.691 Y113.92 E11.15326
G1 X71.426 Y114.098 E11.18846
G1 X71.205 Y114.228 E11.21674
G1 X70.938 Y114.362 E11.24968
G1 X70.666 Y114.479 E11.28233
G1 X70.402 Y114.572 E11.3132
G1 X70.108 Y114.656 E11.34692
G1 X69.853 Y114.711 E11.37568
G1 X69.529 Y114.758 E11.41179
G1 X69.064 Y114.793 E11.46321
G1 X68.904 Y114.799 E11.48087
G1 X28.95 Y114.795 E15.88675
G1 X28.573 Y114.771 E15.92841
G1 X28.275 Y114.734 E15.96152
G1 X27.991 Y114.679 E15.99342
G1 X27.7 Y114.603 E16.02659
G1 X27.44 Y114.518 E16.05675
G1 X27.163 Y114.408 E16.08962
G1 X26.904 Y114.285 E16.12124
G1 X26.646 Y114.142 E16.15377
G1 X26.427 Y114.003 E16.18237
G1 X26.161 Y113.805 E16.21894
G1 X25.674 Y113.379 E16.29029
G1 X25.502 Y113.199 E16.31774
G1 X25.251 Y112.913 E16.3597
G1 X25.084 Y112.698 E16.38972
G1 X24.917 Y112.451 E16.4226
G1 X24.774 Y112.207 E16.45379
G1 X24.64 Y111.942 E16.48654
G1 X24.524 Y111.672 E16.51894
G1 X24.432 Y111.416 E16.54894
G1 X24.348 Y111.124 E16.58245
G1 X24.292 Y110.863 E16.61188
G1 X24.244 Y110.543 E16.64757
G1 X24.207 Y110.065 E16.70043
G1 X24.201 Y109.897 E16.71897
G1 X24.204 Y69.95 E21.12409
G1 X24.228 Y69.573 E21.16574
G1 X24.265 Y69.275 E21.19886
G1 X24.32 Y68.991 E21.23076
G1 X24.396 Y68.7 E21.26392
G1 X24.48 Y68.442 E21.29384
G1 X24.591 Y68.163 E21.32696
G1 X24.713 Y67.905 E21.35843
G1 X24.859 Y67.642 E21.3916
G1 X25.001 Y67.421 E21.42057
G1 X25.195 Y67.16 E21.45643
G1 X25.514 Y66.789 E21.51038
G1 X25.71 Y66.579 E21.54206
G1 X26.134 Y66.061 E21.61588
G1 X26.496 Y65.482 E21.69118
G1 X26.782 Y64.862 E21.76647
G1 X26.988 Y64.21 E21.84187
G1 X27.109 Y63.538 E21.91717
G1 X27.146 Y62.857 E21.99238
G1 X27.095 Y62.175 E22.06779
G1 X26.959 Y61.507 E22.14297
G1 X26.741 Y60.86 E22.21826
G1 X26.441 Y60.244 E22.29381
G1 X26.389 Y60.166 E22.30415
G1 X26.398 Y60.16 E22.30534
G1 X25.924 Y59.461 E22.39848
G1 X25.77 Y59.199 E22.43199
G1 X25.64 Y58.942 E22.46375
G1 X25.524 Y58.672 E22.49615
G1 X25.432 Y58.416 E22.52615
G1 X25.348 Y58.124 E22.55966
G1 X25.292 Y57.863 E22.58909
G1 X25.244 Y57.543 E22.62478
G1 X25.207 Y57.065 E22.67765
G1 X25.201 Y56.897 E22.69618
G1 X25.205 Y16.95 E27.1013
G1 X25.229 Y16.573 E27.14296
G1 X25.266 Y16.275 E27.17607
G1 X25.321 Y15.991 E27.20797
G1 X25.397 Y15.7 E27.24114
G1 X25.481 Y15.442 E27.27106
G1 X25.592 Y15.163 E27.30417
G1 X25.714 Y14.905 E27.33564
G1 X25.853 Y14.655 E27.36718
G1 X26.005 Y14.417 E27.39832
G1 X26.195 Y14.161 E27.43348
G1 X26.617 Y13.678 E27.50421
G1 X26.792 Y13.51 E27.53096
G1 X27.087 Y13.251 E27.57425
G1 X27.302 Y13.084 E27.60427
G1 X27.533 Y12.928 E27.63501
G1 X27.801 Y12.77 E27.66931
G1 X28.058 Y12.64 E27.70107
G1 X28.328 Y12.524 E27.73348
G1 X28.584 Y12.432 E27.76348
G1 X28.876 Y12.348 E27.79698
G1 X29.137 Y12.292 E27.82642
G1 X29.457 Y12.244 E27.8621
G1 X29.925 Y12.208 E27.91386
G1 X30.117 Y12.201 E27.93505
G1 X70.05 Y12.205 E32.33862
G1 X70.427 Y12.229 E32.38028
G1 X70.725 Y12.266 E32.41339
G1 X71.009 Y12.321 E32.44529
G1 X71.3 Y12.397 E32.47846
G1 X71.558 Y12.481 E32.50838
G1 X71.837 Y12.592 E32.54149
G1 X72.095 Y12.714 E32.57296
G1 X72.354 Y12.858 E32.60564
G1 X72.573 Y12.997 E32.63424
G1 X72.839 Y13.195 E32.67081
G1 X73.322 Y13.617 E32.74154
G1 X73.49 Y13.792 E32.76829
G1 X73.749 Y14.087 E32.81158
G1 X73.916 Y14.302 E32.8416
G1 X74.072 Y14.533 E32.87234
G1 X74.23 Y14.801 E32.90664
G1 F1680 E29.90664
G1 F3600 X73.6 Y13.918
G1 F1680 E32.90664
G1 F1200 X73.6 Y60.08 E37.99711
G1 F1680 E34.99711
G1 F3600 X72 Y62.889
G1 F1680 E37.99711
G1 F1200 X72 Y12.67 E43.53496
G1 F1680 E40.53496
G1 F3600 X70.4 Y12.228
G1 F1680 E43.53496
G1 F1200 X70.4 Y114.573 E54.82095
G1 F1680 E51.82095
G1 F3600 X68.8 Y114.798
G1 F1680 E54.82095
G1 F1200 X68.8 Y12.205 E66.13429
G1 F1680 E63.13429
G1 F3600 X67.2 Y12.205
G1 F1680 E66.13429
G1 F1200 X67.2 Y114.798 E77.44763
G1 F1680 E74.44763
G1 F3600 X65.6 Y114.798
G1 F1680 E77.44763
G1 F1200 X65.6 Y12.205 E88.76097
G1 F1680 E85.76097
G1 F3600 X64 Y12.205
G1 F1680 E88.76097
G1 F1200 X64 Y114.798 E100.0743
G1 F1680 E97.0743
G1 F3600 X62.4 Y114.798
G1 F1680 E100.0743
G1 F1200 X62.4 Y12.205 E111.38764
G1 F1680 E108.38764
G1 F3600 X60.8 Y12.205
G1 F1680 E111.38764
G1 F1200 X60.8 Y114.798 E122.70098
G1 F1680 E119.70098
G1 F3600 X59.2 Y114.798
G1 F1680 E122.70098
G1 F1200 X59.2 Y12.204 E134.01443
G1 F1680 E131.01443
G1 F3600 X57.6 Y12.204
G1 F1680 E134.01443
G1 F1200 X57.6 Y114.797 E145.32777
G1 F1680 E142.32777
G1 F3600 X56 Y114.797
G1 F1680 E145.32777
G1 F1200 X56 Y12.204 E156.64111
G1 F1680 E153.64111
G1 F3600 X54.4 Y12.204
G1 F1680 E156.64111
G1 F1200 X54.4 Y114.797 E167.95444
G1 F1680 E164.95444
G1 F3600 X52.8 Y114.797
G1 F1680 E167.95444
G1 F1200 X52.8 Y12.204 E179.26778
G1 F1680 E176.26778
G1 F3600 X51.2 Y12.204
G1 F1680 E179.26778
G1 F1200 X51.2 Y114.797 E190.58112
G1 F1680 E187.58112
G1 F3600 X49.6 Y114.797
G1 F1680 E190.58112
G1 F1200 X49.6 Y12.203 E201.89457
G1 F1680 E198.89457
G1 F3600 X48 Y12.203
G1 F1680 E201.89457
G1 F1200 X48 Y114.796 E213.20791
G1 F1680 E210.20791
G1 F3600 X46.4 Y114.796
G1 F1680 E213.20791
G1 F1200 X46.4 Y12.203 E224.52124
G1 F1680 E221.52124
G1 F3600 X44.8 Y12.203
G1 F1680 E224.52124
G1 F1200 X44.8 Y114.796 E235.83458
G1 F1680 E232.83458
G1 F3600 X43.2 Y114.796
G1 F1680 E235.83458
G1 F1200 X43.2 Y12.203 E247.14792
G1 F1680 E244.14792
G1 F3600 X41.6 Y12.203
G1 F1680 E247.14792
G1 F1200 X41.6 Y114.796 E258.46126
G1 F1680 E255.46126
G1 F3600 X40 Y114.796
G1 F1680 E258.46126
G1 F1200 X40 Y12.202 E269.77471
G1 F1680 E266.77471
G1 F3600 X38.4 Y12.202
G1 F1680 E269.77471
G1 F1200 X38.4 Y114.795 E281.08805
G1 F1680 E278.08805
G1 F3600 X36.8 Y114.795
G1 F1680 E281.08805
G1 F1200 X36.8 Y12.202 E292.40138
G1 F1680 E289.40138
G1 F3600 X35.2 Y12.202
G1 F1680 E292.40138
G1 F1200 X35.2 Y114.795 E303.71472
G1 F1680 E300.71472
G1 F3600 X33.6 Y114.795
G1 F1680 E303.71472
G1 F1200 X33.6 Y12.202 E315.02806
G1 F1680 E312.02806
G1 F3600 X32 Y12.202
G1 F1680 E315.02806
G1 F1200 X32 Y114.795 E326.3414
G1 F1680 E323.3414
G1 F3600 X30.4 Y114.795
G1 F1680 E326.3414
G1 F1200 X30.4 Y12.202 E337.65474
G1 F1680 E334.65474
G1 F3600 X28.8 Y12.369
G1 F1680 E337.65474
G1 F1200 X28.8 Y114.785 E348.94856
G1 F1680 E345.94856
G1 F3600 X27.2 Y114.422
G1 F1680 E348.94856
G1 F1200 X27.2 Y13.163 E360.11479
G1 F1680 E357.11479
G1 F3600 X25.6 Y15.146
G1 F1680 E360.11479
G1 F1200 X25.6 Y58.848 E364.93398
G1 F1680 E361.93398
G1 F3600 X25.6 Y66.696
G1 F1680 E364.93398
G1 F1200 X25.6 Y113.301 E370.0733
G1 F1680 E367.0733
G1 F3600 X72 Y113.674
M104 T0 S205
G1 F1680 E370.0733
G1 F1200 X72 Y65.329 E375.4045
G1 F1680 E372.4045
G1 F3600 X73.6 Y68.696
G1 F1680 E375.4045
G1 F1200 X73.6 Y111.313 E380.10404
G1 F1680 E377.10404
G1 F3600 X74.279 Y14.784
;TIME_ELAPSED:183.332538
;LAYER:-5
G1 X74.279 Y14.784 Z0.619
;TYPE:SUPPORT
G1 F1680 E380.10404
G1 F1980 X74.41 Y15.044 E380.12575
G1 X74.512 Y15.281 E380.14498
G1 X74.623 Y15.592 E380.16959
G1 X74.697 Y15.849 E380.18953
G1 X74.756 Y16.122 E380.21035
G1 F3600 X74.772 Y16.223
G1 F1980 X70.771 Y12.223 E380.63207
G1 X71.018 Y12.27 E380.65081
G1 X71.312 Y12.348 E380.67349
G1 X71.592 Y12.438 E380.69541
G1 X71.849 Y12.541 E380.71605
G1 X72.124 Y12.672 E380.73875
G1 X72.375 Y12.812 E380.76018
G1 X72.602 Y12.954 E380.78014
G1 X72.874 Y13.156 E380.80539
G1 X73.357 Y13.581 E380.85335
G1 X73.528 Y13.758 E380.87169
G1 X73.773 Y14.036 E380.89932
G1 X73.961 Y14.278 E380.92216
G1 X74.114 Y14.507 E380.94269
G1 X74.279 Y14.784 E380.96672
G1 F1680 E377.96672
G1 F3600 X74.772 Y16.223
G1 F1680 E380.96672
G1 F1980 X74.806 Y16.447 E380.98361
G1 X74.842 Y16.916 E381.01867
G1 X74.849 Y17.102 E381.03255
G1 X74.849 Y17.573 E381.06766
G1 X69.429 Y12.153 E381.63902
G1 X68.156 Y12.153 E381.73391
G1 X74.849 Y18.846 E382.43947
G1 X74.849 Y20.119 E382.53436
G1 X66.883 Y12.153 E383.37412
G1 X65.611 Y12.153 E383.46894
G1 X74.849 Y21.392 E384.44284
G1 X74.849 Y22.664 E384.53766
G1 X64.338 Y12.153 E385.6457
G1 X63.064 Y12.153 E385.74067
G1 X74.848 Y23.936 E386.98286
G1 X74.848 Y25.209 E387.07775
G1 X61.791 Y12.153 E388.45414
G1 X60.519 Y12.153 E388.54895
G1 X74.848 Y26.482 E390.05948
G1 X74.848 Y27.755 E390.15437
G1 X59.246 Y12.153 E391.7991
G1 X57.973 Y12.153 E391.89399
G1 X74.848 Y29.028 E393.67292
G1 X74.848 Y30.3 E393.76773
G1 X56.7 Y12.152 E395.68085
G1 X55.427 Y12.152 E395.77575
G1 X74.847 Y31.573 E397.82301
G1 X74.847 Y32.845 E397.91783
G1 X54.154 Y12.152 E400.09924
G1 X52.881 Y12.152 E400.19413
G1 X74.847 Y34.118 E402.50973
G1 X74.847 Y35.391 E402.60462
G1 X51.608 Y12.152 E405.05443
G1 X50.336 Y12.152 E405.14924
G1 X74.847 Y36.664 E407.73319
G1 X74.847 Y37.936 E407.82801
G1 X49.062 Y12.151 E410.5462
G1 X47.789 Y12.151 E410.64109
G1 X74.847 Y39.209 E413.49349
G1 X74.847 Y40.481 E413.5883
G1 X46.517 Y12.151 E416.57479
G1 X45.244 Y12.151 E416.66968
G1 X74.847 Y41.754 E419.79036
G1 X74.847 Y43.027 E419.88525
G1 X43.971 Y12.151 E423.14013
G1 X42.697 Y12.15 E423.23509
G1 X74.846 Y44.299 E426.62417
G1 X74.846 Y45.572 E426.71906
G1 X41.425 Y12.15 E430.24228
G1 X40.152 Y12.15 E430.33717
G1 X74.846 Y46.845 E433.99458
G1 X74.846 Y48.117 E434.0894
G1 X38.879 Y12.15 E437.88096
G1 X37.606 Y12.15 E437.97585
G1 X74.846 Y49.39 E441.9016
G1 X74.845 Y50.662 E441.99642
G1 X36.333 Y12.15 E446.05627
G1 X35.06 Y12.15 E446.15116
G1 X74.845 Y51.935 E450.3452
G1 X74.845 Y53.208 E450.44009
G1 X33.787 Y12.15 E454.76833
G1 X32.514 Y12.15 E454.86323
G1 X74.845 Y54.481 E459.32566
G1 X74.845 Y55.753 E459.42048
G1 X31.242 Y12.15 E464.01701
G1 X30.114 Y12.149 E464.10109
G1 X29.974 Y12.155 E464.11154
G1 X74.845 Y57.026 E468.84173
G1 X74.845 Y57.051 E468.8436
G1 X74.821 Y57.434 E468.8722
G1 X74.785 Y57.723 E468.89391
G1 X74.728 Y58.019 E468.91638
G1 X74.695 Y58.148 E468.92631
G1 X28.848 Y12.302 E473.75934
G1 X28.581 Y12.377 E473.78001
G1 X28.307 Y12.476 E473.80173
G1 X28.029 Y12.594 E473.82424
G1 X27.923 Y12.65 E473.83318
G1 X74.35 Y59.076 E478.72735
G1 X74.326 Y59.126 E478.73149
G1 X74.186 Y59.377 E478.75291
G1 X74.044 Y59.602 E478.77274
G1 X73.856 Y59.855 E478.79624
G1 X27.143 Y13.142 E483.72062
G1 X27.036 Y13.226 E483.73076
G1 X26.657 Y13.563 E483.76856
G1 X26.479 Y13.751 E483.78786
G1 X73.259 Y60.531 E488.7193
G1 X73.11 Y60.692 E488.73565
G1 X73.121 Y60.702 E488.73676
G1 X73.024 Y60.812 E488.74769
G1 X72.719 Y61.264 E488.78834
G1 X25.914 Y14.459 E493.72241
G1 X25.803 Y14.636 E493.73799
G1 X25.672 Y14.873 E493.75817
G1 X25.542 Y15.144 E493.78058
G1 X25.481 Y15.298 E493.79293
G1 X72.291 Y62.109 E498.72758
G1 X72.112 Y62.612 E498.76738
G1 X72.005 Y63.095 E498.80425
G1 X25.209 Y16.3 E503.73733
G1 X25.177 Y16.564 E503.75715
G1 X25.153 Y16.947 E503.78576
G1 X25.152 Y17.515 E503.8281
G1 X71.919 Y64.282 E508.75817
G1 X71.931 Y64.622 E508.78353
G1 X72.041 Y65.291 E508.83407
G1 X72.206 Y65.842 E508.87694
G1 X25.152 Y18.788 E513.83726
G1 X25.152 Y20.061 E513.93216
G1 X73.59 Y68.498 E519.03833
G1 X73.623 Y68.591 E519.04568
G1 X73.696 Y68.848 E519.0656
G1 X73.757 Y69.121 E519.08645
G1 X73.805 Y69.447 E519.11101
G1 X73.841 Y69.915 E519.146
G1 X73.846 Y70.028 E519.15443
G1 X25.152 Y21.334 E524.28764
G1 X25.152 Y22.606 E524.38246
G1 X73.849 Y71.303 E529.51598
G1 X73.849 Y72.576 E529.61088
G1 X25.152 Y23.879 E534.7444
G1 X25.151 Y25.151 E534.83922
G1 X73.849 Y73.849 E539.97285
G1 X73.849 Y75.122 E540.06774
G1 X25.151 Y26.424 E545.20137
G1 X25.151 Y27.697 E545.29626
G1 X73.849 Y76.395 E550.4299
G1 X73.849 Y77.667 E550.52471
G1 X25.151 Y28.97 E555.65829
G1 X25.151 Y30.242 E555.75311
G1 X73.849 Y78.94 E560.88674
G1 X73.849 Y80.213 E560.98163
G1 X25.151 Y31.515 E566.11526
G1 X25.151 Y32.788 E566.21015
G1 X73.849 Y81.486 E571.34379
G1 X73.849 Y82.759 E571.43868
G1 X25.151 Y34.06 E576.57236
G1 X25.151 Y35.333 E576.66725
G1 X73.848 Y84.031 E581.80083
G1 X73.848 Y85.303 E581.89565
G1 X25.151 Y36.606 E587.02917
G1 X25.151 Y37.879 E587.12407
G1 X73.848 Y86.576 E592.25759
G1 X73.848 Y87.849 E592.35248
G1 X25.151 Y39.151 E597.48606
G1 X25.151 Y40.424 E597.58095
G1 X73.848 Y89.122 E602.71453
G1 X73.848 Y90.395 E602.80942
G1 X25.15 Y41.696 E607.94311
G1 X25.15 Y42.969 E608.038
G1 X73.848 Y91.667 E613.17163
G1 X73.848 Y92.94 E613.26652
G1 X25.15 Y44.242 E618.40015
G1 X25.15 Y45.515 E618.49504
G1 X73.848 Y94.213 E623.62868
G1 X73.848 Y95.486 E623.72357
G1 X25.15 Y46.787 E628.85725
G1 X25.15 Y48.06 E628.95214
G1 X73.848 Y96.758 E634.08577
G1 X73.848 Y98.031 E634.18067
G1 X25.149 Y49.332 E639.3144
G1 X25.149 Y50.605 E639.40929
G1 X73.848 Y99.303 E644.54298
G1 X73.848 Y100.576 E644.63787
G1 X25.149 Y51.878 E649.77155
G1 X25.149 Y53.151 E649.86645
G1 X73.848 Y101.849 E655.00013
G1 X73.848 Y103.122 E655.09502
G1 X25.149 Y54.423 E660.22876
G1 X25.149 Y55.696 E660.32365
G1 X73.848 Y104.395 E665.45739
G1 X73.848 Y105.667 E665.5522
G1 X25.152 Y56.972 E670.68557
G1 X25.156 Y57.067 E670.69266
G1 X25.192 Y57.554 E670.72906
G1 X25.239 Y57.865 E670.75251
G1 X25.3 Y58.147 E670.77401
G1 X25.378 Y58.416 E670.79489
G1 X25.407 Y58.5 E670.80151
G1 X73.848 Y106.94 E675.908
G1 X73.848 Y108.213 E676.00289
G1 X26.785 Y61.151 E680.96411
G1 X26.91 Y61.518 E680.99301
G1 X27.044 Y62.181 E681.04343
G1 X27.084 Y62.722 E681.08387
G1 X73.848 Y109.486 E686.01362
G1 X73.847 Y110.051 E686.05574
G1 X73.823 Y110.434 E686.08435
G1 X73.79 Y110.701 E686.1044
G1 X26.99 Y63.901 E691.03795
G1 X26.937 Y64.196 E691.06029
G1 X26.733 Y64.842 E691.11079
G1 X26.709 Y64.893 E691.11499
G1 X73.518 Y111.702 E696.04949
G1 X73.459 Y111.849 E696.06129
G1 X73.327 Y112.125 E696.0841
G1 X73.196 Y112.363 E696.10435
G1 X73.084 Y112.54 E696.11996
G1 X26.276 Y65.733 E701.0543
G1 X26.091 Y66.03 E701.08039
G1 X25.735 Y66.464 E701.12223
G1 X72.518 Y113.248 E706.05404
G1 X72.358 Y113.418 E706.07144
G1 X71.942 Y113.79 E706.11304
G1 X71.854 Y113.856 E706.12124
G1 X25.142 Y67.144 E711.04551
G1 X24.959 Y67.39 E711.06836
G1 X24.803 Y67.635 E711.09002
