M73 P0
;MINX:2.0
;MAXX:98.0
;MINY:12.0
;MAXY:108.0
;MINZ:0.0
;MAXZ:25.0
;MachineType:ENTINA TINA2
;FilamentType:PLA
;Extruder0Temperature:200
;InfillDensity:10
;FLAVOR:Marlin
;TIME:3389
;FilamentUsed:2224.9
;Layer height: 0.2

;Generated with Cura_SteamEngine 3.1
M104 T0 S215
M82 ; absolute extrusion mode
;(**** start.gcode for tina2****)
M104 S150
G28 Z
G28 X Y; Home extruder
G1 X55 Y55 F1000
G1 Z10 F200
G29
G1 Z15 F100
M107 ; Turn off fan
G90 ; Absolute positioning
M82 ; Extruder in absolute mode
M109 S215.0
G92 E0 ; Reset extruder position
G1 X90 Y6 Z0.27 F2000
G1 X20 Y6 Z0.27 E15 F1000
G92 E0 ; Reset extruder position

;LAYER_COUNT:125
;LAYER:0
M106 S255
M203 Z5
G1 F3600 X80.528 Y22.699 Z0.299
;TYPE:SKIRT
G1 F1200 X83.418 Y25.283 E0.20212
G1 X83.565 Y25.423 E0.2127
G1 X84.787 Y26.663 E0.30346
G1 X84.886 Y26.767 E0.31095
G1 X87.046 Y29.163 E0.47913
G1 X87.227 Y29.384 E0.49403
G1 X89.596 Y32.534 E0.69951
G1 X89.766 Y32.782 E0.71519
G1 X92.332 Y36.954 E0.97054
G1 X92.491 Y37.245 E0.98783
G1 X94.171 Y40.737 E1.18986
G1 X94.287 Y41.01 E1.20533
G1 X96.011 Y45.644 E1.4631
G1 X96.113 Y45.971 E1.48096
G1 X97.203 Y50.244 E1.71086
G1 X97.249 Y50.452 E1.72197
G1 X98.146 Y55.279 E1.97794
G1 X98.2 Y55.861 E2.00841
G1 X98.207 Y59.673 E2.20715
G1 X98.204 Y59.814 E2.2145
G1 X98.034 Y63.856 E2.42542
G1 X98.008 Y64.155 E2.44107
G1 X97.344 Y69.041 E2.69814
G1 X97.28 Y69.377 E2.71597
G1 X96.229 Y73.644 E2.94508
G1 X96.141 Y73.938 E2.96108
G1 X94.848 Y77.63 E3.16503
G1 X94.737 Y77.907 E3.18059
G1 X92.687 Y82.384 E3.4373
G1 X92.531 Y82.681 E3.45479
G1 X90.551 Y86.032 E3.65772
G1 X90.389 Y86.279 E3.67312
G1 X87.496 Y90.284 E3.93069
G1 X87.286 Y90.546 E3.9482
G1 X84.686 Y93.452 E4.15149
G1 X84.478 Y93.664 E4.16698
G1 X80.873 Y97.013 E4.42351
G1 X80.616 Y97.227 E4.44095
G1 X77.466 Y99.596 E4.64643
G1 X77.218 Y99.766 E4.66211
G1 X73.054 Y102.327 E4.91697
G1 X72.763 Y102.486 E4.93426
G1 X69.253 Y104.175 E5.13734
G1 X68.979 Y104.291 E5.15285
G1 X64.348 Y106.013 E5.41044
G1 X64.022 Y106.115 E5.42825
G1 X59.756 Y107.203 E5.65778
G1 X59.548 Y107.249 E5.66889
G1 X54.721 Y108.146 E5.92485
G1 X54.139 Y108.2 E5.95532
G1 X50.327 Y108.207 E6.15406
G1 X50.186 Y108.204 E6.16142
G1 X46.144 Y108.034 E6.37233
G1 X45.845 Y108.008 E6.38798
G1 X40.959 Y107.344 E6.64505
G1 X40.623 Y107.28 E6.66289
G1 X36.363 Y106.231 E6.89162
G1 X36.068 Y106.143 E6.90767
G1 X32.34 Y104.837 E7.11361
G1 X32.064 Y104.725 E7.12914
G1 X27.627 Y102.692 E7.38359
G1 X27.331 Y102.538 E7.40098
G1 X23.973 Y100.555 E7.6043
G1 X23.724 Y100.392 E7.61982
G1 X19.707 Y97.49 E7.87818
G1 X19.446 Y97.279 E7.89568
G1 X16.544 Y94.682 E8.09871
G1 X16.331 Y94.474 E8.11423
G1 X12.981 Y90.866 E8.37092
G1 X12.767 Y90.61 E8.38831
G1 X10.403 Y87.465 E8.59343
G1 X10.234 Y87.217 E8.60908
G1 X7.665 Y83.041 E8.86469
G1 X7.506 Y82.75 E8.88198
G1 X5.829 Y79.263 E9.08371
G1 X5.713 Y78.99 E9.09917
G1 X3.989 Y74.356 E9.35695
G1 X3.887 Y74.029 E9.3748
G1 X2.797 Y69.756 E9.60471
G1 X2.751 Y69.548 E9.61582
G1 X1.854 Y64.721 E9.87178
G1 X1.8 Y64.139 E9.90226
G1 X1.793 Y60.327 E10.101
G1 X1.796 Y60.186 E10.10835
G1 X1.966 Y56.144 E10.31927
G1 X1.992 Y55.845 E10.33491
G1 X2.656 Y50.959 E10.59199
G1 X2.72 Y50.623 E10.60982
G1 X3.771 Y46.356 E10.83893
G1 X3.859 Y46.062 E10.85493
G1 X5.152 Y42.37 E11.05888
G1 X5.263 Y42.093 E11.07443
G1 X7.313 Y37.616 E11.33115
G1 X7.469 Y37.319 E11.34864
G1 X9.446 Y33.972 E11.5513
G1 X9.608 Y33.724 E11.56675
G1 X12.509 Y29.708 E11.82504
G1 X12.72 Y29.447 E11.84253
G1 X15.318 Y26.544 E12.04564
G1 X15.526 Y26.332 E12.06112
G1 X19.133 Y22.982 E12.31777
G1 X19.389 Y22.767 E12.3352
G1 X22.539 Y20.399 E12.54065
G1 X22.787 Y20.231 E12.55627
G1 X26.943 Y17.674 E12.81067
G1 X27.234 Y17.514 E12.82798
G1 X30.747 Y15.824 E13.03123
G1 X31.021 Y15.708 E13.04674
G1 X35.652 Y13.986 E13.30433
G1 X35.978 Y13.884 E13.32214
G1 X40.245 Y12.795 E13.55173
G1 X40.455 Y12.749 E13.56294
G1 X45.292 Y11.853 E13.81941
G1 X45.872 Y11.799 E13.84978
G1 X49.656 Y11.792 E14.04706
G1 X49.797 Y11.795 E14.05441
G1 X53.808 Y11.963 E14.26371
G1 X54.104 Y11.989 E14.2792
G1 X59.038 Y12.655 E14.53877
G1 X59.377 Y12.719 E14.55675
G1 X63.637 Y13.768 E14.78548
G1 X63.932 Y13.856 E14.80153
G1 X67.66 Y15.162 E15.00747
G1 X67.936 Y15.274 E15.023
G1 X72.371 Y17.306 E15.27734
G1 X72.668 Y17.461 E15.2948
G1 X76.047 Y19.457 E15.49941
G1 X76.295 Y19.619 E15.51485
G1 X80.268 Y22.489 E15.77038
G1 X80.528 Y22.699 E15.7878
G1 F1680 E12.7878
G1 F3600 X78.128 Y25.725
;TYPE:WALL-INNER
G1 F1680 E15.7878
G1 F1320 X81.353 Y28.647 E16.01469
G1 X84.27 Y31.867 E16.2412
G1 X86.87 Y35.372 E16.46872
G1 X89.106 Y39.102 E16.69545
G1 X90.964 Y43.03 E16.92199
G1 X92.428 Y47.124 E17.14867
G1 X93.487 Y51.347 E17.37566
G1 X94.125 Y55.647 E17.60229
G1 X94.338 Y60 E17.82951
G1 X94.125 Y64.353 E18.05673
G1 X93.487 Y68.653 E18.28336
G1 X92.428 Y72.876 E18.51035
G1 X90.964 Y76.97 E18.73702
G1 X89.106 Y80.898 E18.96357
G1 X86.87 Y84.627 E19.19025
G1 X84.27 Y88.132 E19.41777
G1 X81.353 Y91.353 E19.64433
G1 X78.133 Y94.27 E19.87084
G1 X74.628 Y96.87 E20.09837
G1 X70.898 Y99.106 E20.3251
G1 X66.97 Y100.964 E20.55164
G1 X62.876 Y102.428 E20.77832
G1 X58.653 Y103.487 E21.0053
G1 X54.353 Y104.125 E21.23194
G1 X50 Y104.338 E21.45915
G1 X45.647 Y104.125 E21.68637
G1 X41.347 Y103.487 E21.913
G1 X37.124 Y102.428 E22.13999
G1 X33.03 Y100.964 E22.36667
G1 X29.102 Y99.106 E22.59321
G1 X25.372 Y96.87 E22.81994
G1 X21.867 Y94.27 E23.04746
G1 X18.647 Y91.353 E23.27398
G1 X15.73 Y88.132 E23.50053
G1 X13.13 Y84.627 E23.72805
G1 X10.894 Y80.898 E23.95474
G1 X9.036 Y76.97 E24.18128
G1 X7.572 Y72.876 E24.40796
G1 X6.513 Y68.653 E24.63494
G1 X5.875 Y64.353 E24.86158
G1 X5.662 Y60 E25.08879
G1 X5.875 Y55.647 E25.31601
G1 X6.513 Y51.347 E25.54265
G1 X7.572 Y47.124 E25.76963
G1 X9.036 Y43.03 E25.99631
G1 X10.894 Y39.102 E26.22285
G1 X13.13 Y35.372 E26.44958
G1 X15.73 Y31.867 E26.6771
G1 X18.647 Y28.647 E26.90362
G1 X21.872 Y25.725 E27.1305
G1 X25.367 Y23.133 E27.35736
G1 X29.102 Y20.893 E27.58442
G1 X33.03 Y19.035 E27.81096
G1 X37.124 Y17.571 E28.03764
G1 X41.347 Y16.512 E28.26462
G1 X45.647 Y15.874 E28.49126
G1 X50 Y15.662 E28.71847
G1 X54.353 Y15.874 E28.94569
G1 X58.653 Y16.512 E29.17232
G1 X62.876 Y17.571 E29.39931
G1 X66.97 Y19.035 E29.62598
G1 X70.898 Y20.893 E29.85253
G1 X74.633 Y23.133 E30.07958
G1 X78.128 Y25.725 E30.30644
G1 F3600 X78.016 Y25.863
G1 F1320 X74.534 Y23.281 E30.53244
G1 X70.818 Y21.053 E30.75833
G1 X66.9 Y19.2 E30.98429
G1 X62.819 Y17.741 E31.21024
G1 X58.615 Y16.687 E31.4362
G1 X54.328 Y16.051 E31.66215
G1 X50 Y15.84 E31.88806
G1 X45.672 Y16.051 E32.11397
G1 X41.385 Y16.687 E32.33992
G1 X37.181 Y17.741 E32.56588
G1 X33.1 Y19.2 E32.79183
G1 X29.182 Y21.053 E33.01779
G1 X25.466 Y23.281 E33.24368
G1 X21.984 Y25.863 E33.46968
G1 X18.774 Y28.774 E33.6956
G1 X15.863 Y31.984 E33.92152
G1 X13.281 Y35.465 E34.14748
G1 X11.053 Y39.182 E34.37341
G1 X9.2 Y43.1 E34.59937
G1 X7.741 Y47.18 E34.82527
G1 X6.687 Y51.384 E35.05123
G1 X6.051 Y55.672 E35.27723
G1 X5.84 Y60 E35.50314
G1 X6.051 Y64.327 E35.729
G1 X6.687 Y68.615 E35.955
G1 X7.741 Y72.819 E36.18096
G1 X9.2 Y76.899 E36.40686
G1 X11.053 Y80.818 E36.63287
G1 X13.281 Y84.534 E36.85876
G1 X15.863 Y88.016 E37.08476
G1 X18.774 Y91.226 E37.31068
G1 X21.984 Y94.137 E37.5366
G1 X25.466 Y96.719 E37.7626
G1 X29.182 Y98.946 E37.98846
G1 X33.1 Y100.799 E38.21442
G1 X37.181 Y102.259 E38.44039
G1 X41.385 Y103.313 E38.66635
G1 X45.672 Y103.948 E38.89229
G1 X50 Y104.16 E39.1182
G1 X54.328 Y103.948 E39.34412
G1 X58.615 Y103.313 E39.57006
G1 X62.819 Y102.259 E39.79602
G1 X66.9 Y100.799 E40.02199
G1 X70.818 Y98.946 E40.24795
G1 X74.534 Y96.719 E40.47381
G1 X78.016 Y94.137 E40.69981
G1 X81.226 Y91.226 E40.92573
G1 X84.137 Y88.016 E41.15165
G1 X86.719 Y84.534 E41.37765
G1 X88.947 Y80.818 E41.60354
G1 X90.8 Y76.899 E41.82954
G1 X92.259 Y72.819 E42.05545
G1 X93.313 Y68.615 E42.28141
G1 X93.949 Y64.327 E42.50741
G1 X94.16 Y60 E42.73327
G1 X93.949 Y55.672 E42.95918
G1 X93.313 Y51.384 E43.18518
G1 X92.259 Y47.18 E43.41114
G1 X90.8 Y43.1 E43.63704
G1 X88.947 Y39.182 E43.863
G1 X86.719 Y35.465 E44.08893
G1 X84.137 Y31.984 E44.31489
G1 X81.226 Y28.774 E44.54081
G1 X78.016 Y25.863 E44.76673
G1 F1680 E41.76673
G1 F3600 X55.929 Y52.785
G1 F1680 E44.76673
G1 F1320 X56.604 Y53.396 E44.8142
G1 X57.215 Y54.071 E44.86167
G1 X57.77 Y54.817 E44.91014
G1 X58.234 Y55.592 E44.95724
G1 X58.635 Y56.442 E45.00623
G1 X58.938 Y57.294 E45.05338
G1 X59.16 Y58.175 E45.10075
G1 X59.294 Y59.078 E45.14834
G1 X59.338 Y60 E45.19646
G1 X59.294 Y60.922 E45.24459
G1 X59.167 Y61.772 E45.28939
G1 X58.936 Y62.71 E45.33976
G1 X58.624 Y63.584 E45.38814
G1 X58.239 Y64.399 E45.43513
G1 X57.769 Y65.182 E45.48274
G1 X57.215 Y65.929 E45.53123
G1 X56.604 Y66.604 E45.5787
G1 X55.929 Y67.215 E45.62617
G1 X55.183 Y67.769 E45.67461
G1 X54.407 Y68.234 E45.72177
G1 X53.558 Y68.635 E45.77073
G1 X52.706 Y68.938 E45.81787
G1 X51.825 Y69.16 E45.86524
G1 X50.922 Y69.294 E45.91283
G1 X50.016 Y69.337 E45.96012
G1 X49.078 Y69.294 E46.00907
G1 X48.228 Y69.167 E46.05388
G1 X47.29 Y68.936 E46.10424
G1 X46.416 Y68.624 E46.15263
G1 X45.601 Y68.239 E46.19962
G1 X44.817 Y67.768 E46.2473
G1 X44.071 Y67.215 E46.29572
G1 X43.396 Y66.604 E46.34318
G1 X42.785 Y65.929 E46.39065
G1 X42.23 Y65.182 E46.43917
G1 X41.766 Y64.408 E46.48622
G1 X41.365 Y63.558 E46.53522
G1 X41.062 Y62.706 E46.58236
G1 X40.84 Y61.825 E46.62973
G1 X40.706 Y60.922 E46.67732
G1 X40.662 Y60 E46.72544
G1 X40.706 Y59.078 E46.77357
G1 X40.833 Y58.228 E46.81837
G1 X41.077 Y57.252 E46.87082
G1 X41.376 Y56.416 E46.91711
G1 X41.761 Y55.6 E46.96415
G1 X42.23 Y54.817 E47.01174
G1 X42.785 Y54.071 E47.06021
G1 X43.396 Y53.396 E47.10768
G1 X44.071 Y52.785 E47.15515
G1 X44.817 Y52.23 E47.20362
G1 X45.592 Y51.766 E47.25072
G1 X46.436 Y51.368 E47.29937
G1 X47.286 Y51.063 E47.34645
G1 X48.173 Y50.841 E47.39412
G1 X49.078 Y50.706 E47.44182
G1 X50 Y50.662 E47.48995
G1 X50.922 Y50.706 E47.53807
G1 X51.775 Y50.833 E47.58303
G1 X52.717 Y51.064 E47.6336
G1 X53.576 Y51.371 E47.68116
G1 X54.399 Y51.761 E47.72864
G1 X55.183 Y52.23 E47.77627
G1 X55.929 Y52.785 E47.82474
G1 F1680 E44.82474
G1 F3600 X58.928 Y56.219
;TYPE:WALL-OUTER
G1 F1680 E47.82474
G1 F1320 X58.938 Y56.219 E47.82526
G1 X59.283 Y57.189 E47.87894
G1 X59.513 Y58.105 E47.92818
G1 X59.653 Y59.048 E47.97788
G1 X59.699 Y60 E48.02757
G1 X59.653 Y60.952 E48.07726
G1 X59.52 Y61.847 E48.12443
G1 X59.283 Y62.81 E48.17614
G1 X58.958 Y63.719 E48.22647
G1 X58.554 Y64.573 E48.27572
G1 X58.069 Y65.383 E48.32494
G1 X57.493 Y66.159 E48.37533
G1 X56.859 Y66.859 E48.42456
G1 X56.159 Y67.493 E48.4738
G1 X55.384 Y68.068 E48.52411
G1 X54.574 Y68.554 E48.57336
G1 X53.781 Y68.928 E48.61907
G1 X53.781 Y68.938 E48.61959
G1 X52.811 Y69.283 E48.67327
G1 X51.895 Y69.513 E48.72251
G1 X50.952 Y69.653 E48.77221
G1 X50.016 Y69.698 E48.82106
G1 X49.048 Y69.653 E48.87159
G1 X48.153 Y69.52 E48.91876
G1 X47.19 Y69.283 E48.97046
G1 X46.281 Y68.958 E49.02079
G1 X45.427 Y68.554 E49.07005
G1 X44.616 Y68.068 E49.11934
G1 X43.841 Y67.493 E49.16965
G1 X43.141 Y66.859 E49.21889
G1 X42.507 Y66.159 E49.26813
G1 X41.931 Y65.383 E49.31851
G1 X41.446 Y64.574 E49.36769
G1 X41.072 Y63.781 E49.4134
G1 X41.062 Y63.781 E49.41392
G1 X40.717 Y62.811 E49.46759
G1 X40.487 Y61.895 E49.51683
G1 X40.347 Y60.952 E49.56653
G1 X40.301 Y60 E49.61622
G1 X40.347 Y59.048 E49.66592
G1 X40.48 Y58.153 E49.71309
G1 X40.7 Y57.255 E49.76129
G1 X40.738 Y57.131 E49.76805
G1 X41.042 Y56.281 E49.81512
G1 X41.446 Y55.426 E49.86442
G1 X41.931 Y54.616 E49.91364
G1 X42.507 Y53.841 E49.96398
G1 X43.141 Y53.141 E50.01322
G1 X43.841 Y52.507 E50.06246
G1 X44.616 Y51.931 E50.1128
G1 X45.426 Y51.446 E50.16202
G1 X46.219 Y51.072 E50.20773
G1 X46.219 Y51.063 E50.2082
G1 X47.179 Y50.719 E50.26137
G1 X48.105 Y50.487 E50.31114
G1 X49.048 Y50.347 E50.36084
G1 X50 Y50.301 E50.41053
G1 X50.952 Y50.347 E50.46022
G1 X51.85 Y50.48 E50.50755
G1 X52.817 Y50.717 E50.55945
G1 X53.711 Y51.037 E50.60896
G1 X54.574 Y51.446 E50.65875
G1 X55.384 Y51.931 E50.70797
G1 X56.159 Y52.507 E50.75831
G1 X56.859 Y53.141 E50.80755
G1 X57.493 Y53.841 E50.85679
G1 X58.069 Y54.616 E50.90713
G1 X58.554 Y55.426 E50.95635
G1 X58.928 Y56.219 E51.00206
M73 P1
G1 F1680 E48.00206
G1 F3600 X77.787 Y26.142
G1 F1680 E51.00206
G1 F1320 X74.334 Y23.581 E51.2262
G1 X70.648 Y21.371 E51.45026
G1 X66.762 Y19.533 E51.67438
G1 X62.714 Y18.086 E51.8985
G1 X58.545 Y17.041 E52.12257
G1 X54.293 Y16.41 E52.34668
G1 X50 Y16.2 E52.57077
G1 X45.707 Y16.41 E52.79485
G1 X41.455 Y17.041 E53.01896
G1 X37.286 Y18.086 E53.24303
G1 X33.238 Y19.533 E53.46715
G1 X29.352 Y21.371 E53.69127
G1 X25.666 Y23.581 E53.91534
G1 X22.213 Y26.142 E54.13947
G1 X19.029 Y29.029 E54.36354
G1 X16.142 Y32.213 E54.58762
G1 X13.581 Y35.665 E54.81171
G1 X11.371 Y39.352 E55.03582
G1 X9.533 Y43.238 E55.25994
G1 X8.086 Y47.285 E55.48401
G1 X7.041 Y51.454 E55.70809
G1 X6.41 Y55.707 E55.93224
G1 X6.2 Y60 E56.15633
G1 X6.389 Y63.88 E56.35885
G1 X6.41 Y64.292 E56.38036
G1 X7.041 Y68.545 E56.60452
G1 X8.086 Y72.714 E56.8286
G1 X9.533 Y76.761 E57.05267
G1 X11.371 Y80.648 E57.27683
G1 X13.581 Y84.334 E57.5009
G1 X16.142 Y87.787 E57.72503
G1 X19.029 Y90.971 E57.9491
G1 X22.213 Y93.858 E58.17318
G1 X25.666 Y96.419 E58.39731
G1 X29.352 Y98.628 E58.62135
G1 X33.238 Y100.466 E58.84547
G1 X37.286 Y101.914 E59.06961
G1 X41.455 Y102.959 E59.29368
G1 X45.707 Y103.589 E59.51778
G1 X50 Y103.8 E59.74187
G1 X53.88 Y103.61 E59.9444
G1 X54.293 Y103.589 E59.96596
G1 X58.545 Y102.959 E60.19006
G1 X62.714 Y101.914 E60.41413
G1 X66.762 Y100.466 E60.63827
G1 X70.648 Y98.628 E60.86239
G1 X74.334 Y96.419 E61.08642
G1 X77.787 Y93.858 E61.31056
G1 X80.971 Y90.971 E61.53463
G1 X83.858 Y87.787 E61.75871
G1 X86.419 Y84.334 E61.98284
G1 X88.629 Y80.648 E62.20691
G1 X90.467 Y76.761 E62.43107
G1 X91.914 Y72.714 E62.65514
G1 X92.959 Y68.545 E62.87922
G1 X93.59 Y64.292 E63.10338
G1 X93.8 Y60 E63.32741
G1 X93.611 Y56.12 E63.52993
G1 X93.59 Y55.707 E63.55149
G1 X92.959 Y51.454 E63.77565
G1 X91.914 Y47.285 E63.99973
G1 X90.467 Y43.238 E64.2238
G1 X88.629 Y39.352 E64.44792
G1 X86.419 Y35.665 E64.67203
G1 X83.858 Y32.213 E64.89612
G1 X80.971 Y29.029 E65.12019
G1 X77.787 Y26.142 E65.34427
G1 F1680 E62.34427
G1 F3600 X78.363 Y25.451
G1 F1680 E65.34427
G1 F1320 X81.608 Y28.392 E65.57259
G1 X84.548 Y31.637 E65.80088
G1 X87.17 Y35.171 E66.0303
G1 X89.421 Y38.928 E66.25864
G1 X91.298 Y42.895 E66.48744
G1 X92.773 Y47.019 E66.71579
G1 X93.84 Y51.277 E66.94464
G1 X94.484 Y55.617 E67.17339
G1 X94.511 Y56.218 E67.20475
G1 X94.699 Y60 E67.40217
G1 X94.484 Y64.383 E67.63095
G1 X93.84 Y68.723 E67.8597
G1 X92.773 Y72.981 E68.08856
G1 X91.298 Y77.105 E68.3169
G1 X89.421 Y81.072 E68.5457
G1 X87.17 Y84.828 E68.774
G1 X84.548 Y88.362 E69.00342
G1 X81.608 Y91.608 E69.23174
G1 X78.363 Y94.548 E69.46003
G1 X74.829 Y97.17 E69.68945
G1 X71.072 Y99.421 E69.91779
G1 X67.105 Y101.298 E70.14659
G1 X62.981 Y102.773 E70.37494
G1 X58.723 Y103.84 E70.60379
G1 X54.383 Y104.484 E70.83254
G1 X53.782 Y104.511 E70.8639
G1 X50 Y104.699 E71.06132
G1 X45.617 Y104.484 E71.2901
G1 X41.277 Y103.84 E71.51885
G1 X37.019 Y102.773 E71.7477
G1 X32.895 Y101.298 E71.97605
G1 X28.928 Y99.421 E72.20485
G1 X25.171 Y97.17 E72.43319
G1 X21.637 Y94.548 E72.66261
G1 X18.392 Y91.608 E72.8909
G1 X15.452 Y88.362 E73.11922
G1 X12.83 Y84.828 E73.34864
G1 X10.579 Y81.072 E73.57694
G1 X8.702 Y77.105 E73.80574
G1 X7.227 Y72.981 E74.03408
G1 X6.16 Y68.723 E74.26294
G1 X5.516 Y64.383 E74.49168
G1 X5.489 Y63.782 E74.52305
G1 X5.301 Y60 E74.72047
G1 X5.516 Y55.617 E74.94925
G1 X6.16 Y51.277 E75.178
G1 X7.227 Y47.019 E75.40685
G1 X8.702 Y42.895 E75.6352
G1 X10.579 Y38.928 E75.864
G1 X12.83 Y35.171 E76.09234
G1 X15.452 Y31.637 E76.32176
G1 X18.392 Y28.392 E76.55004
G1 X21.637 Y25.451 E76.77837
G1 X25.171 Y22.83 E77.00776
G1 X28.928 Y20.578 E77.23612
G1 X32.895 Y18.701 E77.46492
G1 X37.019 Y17.226 E77.69327
G1 X41.277 Y16.159 E77.92212
G1 X45.617 Y15.515 E78.15087
G1 X46.218 Y15.488 E78.18223
G1 X50 Y15.301 E78.37965
G1 X54.383 Y15.515 E78.60843
G1 X58.723 Y16.159 E78.83718
G1 X62.981 Y17.226 E79.06603
G1 X67.105 Y18.701 E79.29438
G1 X71.072 Y20.578 E79.52318
