M73 P0
;MINX:7.0
;MAXX:91.0
;MINY:21.0
;MAXY:106.1
;MINZ:0.0
;MAXZ:27.8
;MachineType:ENTINA TINA2
;FilamentType:PLA
;Extruder0Temperature:205
;InfillDensity:15
;FLAVOR:Marlin
;TIME:5691
;FilamentUsed:4780.0
;Layer height: 0.2

;Generated with Cura_SteamEngine 3.1
M104 T0 S220
M82 ; absolute extrusion mode
;(**** start.gcode for tina2****)
M104 S150
G28 Z
G28 X Y; Home extruder
G1 X55 Y55 F1000
G1 Z10 F200
G29
G1 Z15 F100
M107 ; Turn off fan
G90 ; Absolute positioning
M82 ; Extruder in absolute mode
M109 S220.0
G92 E0 ; Reset extruder position
G1 X90 Y6 Z0.27 F2000
G1 X20 Y6 Z0.27 E15 F1000
G92 E0 ; Reset extruder position

;LAYER_COUNT:133
;LAYER:-6
M107
M203 Z5
G1 F3600 X72.489 Y27.298 Z0.349
G1 F1200 X72.621 Y27.432 E0.02074
G1 X72.758 Y27.585 E0.04339
G1 X89.464 Y47.494 E2.90936
G1 X89.779 Y47.913 E2.96717
G1 X89.942 Y48.166 E3.00036
G1 X90.075 Y48.404 E3.03042
G1 X90.208 Y48.684 E3.06461
G1 X90.314 Y48.948 E3.09598
G1 X90.403 Y49.217 E3.12722
G1 X90.474 Y49.489 E3.15822
G1 X90.533 Y49.79 E3.19205
G1 X90.577 Y50.131 E3.22996
G1 X90.599 Y50.49 E3.26962
G1 X90.6 Y76.542 E6.14248
G1 X90.572 Y77.045 E6.19804
G1 X90.535 Y77.343 E6.23115
G1 X90.48 Y77.627 E6.26305
G1 X90.404 Y77.918 E6.29622
G1 X90.32 Y78.176 E6.32614
G1 X90.211 Y78.45 E6.35865
G1 X90.087 Y78.713 E6.39072
G1 X89.944 Y78.971 E6.42325
G1 X89.757 Y79.263 E6.46148
G1 X89.566 Y79.522 E6.49697
G1 X72.825 Y99.477 E9.36931
G1 X72.446 Y99.882 E9.43048
G1 X72.235 Y100.078 E9.46224
G1 X72.012 Y100.259 E9.49391
G1 X71.783 Y100.424 E9.52503
G1 X71.511 Y100.593 E9.56035
G1 X71.276 Y100.719 E9.58975
G1 X71.014 Y100.839 E9.62153
G1 X70.734 Y100.947 E9.65462
G1 X70.429 Y101.042 E9.68985
G1 X70.209 Y101.1 E9.71494
G1 X69.961 Y101.15 E9.74284
G1 X44.28 Y105.674 E12.61839
G1 X43.891 Y105.718 E12.66156
G1 X43.594 Y105.732 E12.69435
G1 X43.324 Y105.727 E12.72413
G1 X43.012 Y105.703 E12.75863
G1 X42.734 Y105.663 E12.78961
G1 X42.447 Y105.604 E12.82192
G1 X42.169 Y105.528 E12.8537
G1 X41.901 Y105.435 E12.88498
G1 X41.585 Y105.304 E12.9227
G1 X41.392 Y105.213 E12.94623
G1 X41.178 Y105.096 E12.97313
G1 X18.598 Y92.055 E15.84856
G1 X18.262 Y91.831 E15.89309
G1 X18.036 Y91.659 E15.92441
G1 X17.805 Y91.459 E15.9581
G1 X17.614 Y91.271 E15.98766
G1 X17.417 Y91.053 E16.02006
G1 X17.222 Y90.806 E16.05476
G1 X17.077 Y90.595 E16.08299
G1 X16.91 Y90.318 E16.11866
G1 X16.769 Y90.044 E16.15264
G1 X16.617 Y89.696 E16.19452
G1 X7.709 Y65.226 E19.06616
G1 X7.556 Y64.723 E19.12414
G1 X7.492 Y64.438 E19.15635
G1 X7.445 Y64.149 E19.18864
G1 X7.419 Y63.872 E19.21932
G1 X7.409 Y63.582 E19.25132
G1 X7.418 Y63.273 E19.28541
G1 X7.444 Y63.003 E19.31532
G1 X7.491 Y62.702 E19.34891
G1 X7.563 Y62.383 E19.38498
G1 X7.654 Y62.073 E19.4206
G1 X16.568 Y37.576 E22.29527
G1 X16.789 Y37.056 E22.35758
G1 X16.903 Y36.836 E22.3849
G1 X17.066 Y36.562 E22.42006
G1 X17.227 Y36.327 E22.45147
G1 X17.42 Y36.083 E22.48578
G1 X17.586 Y35.897 E22.51327
G1 X17.8 Y35.686 E22.54641
G1 X18.04 Y35.477 E22.5815
G1 X18.295 Y35.283 E22.61684
G1 X18.6 Y35.081 E22.65718
G1 X41.143 Y22.064 E25.52775
G1 X41.606 Y21.828 E25.58506
G1 X41.886 Y21.711 E25.61852
G1 X42.166 Y21.614 E25.6512
G1 X42.44 Y21.538 E25.68256
G1 X42.719 Y21.479 E25.714
G1 X43.002 Y21.438 E25.74554
G1 X43.313 Y21.413 E25.77994
G1 X43.577 Y21.408 E25.80906
G1 X43.926 Y21.424 E25.84759
G1 X44.286 Y21.465 E25.88754
G1 X69.941 Y25.987 E28.76023
G1 X70.443 Y26.104 E28.81707
G1 X70.727 Y26.193 E28.84989
G1 X71.003 Y26.297 E28.88242
G1 X71.258 Y26.414 E28.91336
G1 X71.502 Y26.544 E28.94384
G1 X71.779 Y26.715 E28.97974
G1 X72.008 Y26.878 E29.01074
G1 X72.22 Y27.051 E29.04091
G1 X72.489 Y27.298 E29.08118
G1 F1680 E26.08118
G1 F3600 X61.901 Y45.6
G1 F1680 E29.08118
G1 F1200 X61.371 Y45.169 E29.15652
G1 X60.792 Y44.809 E29.2317
G1 X60.171 Y44.524 E29.30705
G1 X59.525 Y44.321 E29.38172
G1 X59.179 Y44.249 E29.42069
G1 X48.267 Y42.326 E30.64254
G1 X47.601 Y42.252 E30.71644
G1 X46.919 Y42.261 E30.79165
G1 X46.242 Y42.359 E30.86708
G1 X45.583 Y42.539 E30.94242
G1 X44.959 Y42.8 E31.017
G1 X44.648 Y42.966 E31.05588
G1 X35.051 Y48.506 E32.27785
G1 X34.493 Y48.877 E32.35174
G1 X33.977 Y49.323 E32.42696
G1 X33.521 Y49.832 E32.50231
G1 X33.134 Y50.393 E32.57747
G1 X32.822 Y50.994 E32.65214
G1 X32.69 Y51.323 E32.69123
G1 X28.901 Y61.735 E33.91307
G1 X28.711 Y62.377 E33.9869
G1 X28.603 Y63.053 E34.06239
G1 X28.58 Y63.734 E34.13753
G1 X28.644 Y64.415 E34.21296
G1 X28.793 Y65.076 E34.28768
G1 X28.903 Y65.411 E34.32656
G1 X32.692 Y75.822 E35.54829
G1 X32.961 Y76.435 E35.62211
G1 X33.311 Y77.022 E35.69748
G1 X33.733 Y77.559 E35.77279
G1 X34.218 Y78.038 E35.84796
G1 X34.756 Y78.45 E35.92269
G1 X35.056 Y78.636 E35.96161
G1 X44.655 Y84.178 E37.18388
G1 X45.255 Y84.476 E37.25776
G1 X45.901 Y84.699 E37.33312
G1 X46.568 Y84.84 E37.4083
G1 X47.249 Y84.895 E37.48364
G1 X47.925 Y84.864 E37.55827
G1 X48.276 Y84.814 E37.59736
G1 X59.187 Y82.889 E38.81914
G1 X59.838 Y82.731 E38.89302
G1 X60.476 Y82.488 E38.9683
G1 X61.078 Y82.166 E39.04359
G1 X61.635 Y81.771 E39.11889
G1 X62.133 Y81.312 E39.19357
G1 X62.369 Y81.049 E39.23254
G1 X69.491 Y72.56 E40.45447
G1 X69.887 Y72.021 E40.52823
G1 X70.22 Y71.424 E40.60361
G1 X70.475 Y70.791 E40.67886
G1 X70.646 Y70.129 E40.75426
G1 X70.733 Y69.458 E40.82887
G1 X70.745 Y69.106 E40.86771
G1 X70.745 Y58.025 E42.08966
G1 X70.703 Y57.357 E42.16347
G1 X70.574 Y56.686 E42.23882
G1 X70.361 Y56.037 E42.31414
G1 X70.069 Y55.42 E42.38941
G1 X69.704 Y54.85 E42.46405
G1 X69.485 Y54.572 E42.50308
G1 X62.363 Y46.085 E43.72484
G1 X61.901 Y45.6 E43.79871
G1 F3600 X62.4 Y46.129
G1 F1200 X62.4 Y24.658 E46.1664
G1 F1680 E43.1664
G1 F3600 X64 Y24.94
G1 F1680 E46.1664
G1 F1200 X64 Y48.035 E48.71318
G1 F1680 E45.71318
G1 F3600 X65.6 Y49.942
G1 F1680 E48.71318
G1 F1200 X65.6 Y25.222 E51.43915
G1 F1680 E48.43915
G1 F3600 X67.2 Y25.504
G1 F1680 E51.43915
G1 F1200 X67.2 Y51.849 E54.34432
G1 F1680 E51.34432
G1 F3600 X68.8 Y53.755
G1 F1680 E54.34432
G1 F1200 X68.8 Y25.786 E57.42857
G1 F1680 E54.42857
G1 F3600 X70.4 Y26.094
G1 F1680 E57.42857
G1 F1200 X70.4 Y56.155 E60.74352
G1 F1680 E57.74352
G1 F3600 X70.4 Y70.977
G1 F1680 E60.74352
G1 F1200 X70.4 Y101.05 E64.05979
G1 F1680 E61.05979
G1 F3600 X68.8 Y101.355
G1 F1680 E64.05979
G1 F1200 X68.8 Y73.383 E67.14437
G1 F1680 E64.14437
G1 F3600 X67.2 Y75.29
G1 F1680 E67.14437
G1 F1200 X67.2 Y101.637 E70.04976
G1 F1680 E67.04976
G1 F3600 X65.6 Y101.919
G1 F1680 E70.04976
G1 F1200 X65.6 Y77.197 E72.77595
G1 F1680 E69.77595
G1 F3600 X64 Y79.104
G1 F1680 E72.77595
G1 F1200 X64 Y102.201 E75.32295
G1 F1680 E72.32295
G1 F3600 X62.4 Y102.482
G1 F1680 E75.32295
G1 F1200 X62.4 Y81.012 E77.69053
G1 F1680 E74.69053
G1 F3600 X60.8 Y82.314
G1 F1680 E77.69053
G1 F1200 X60.8 Y102.764 E79.94563
G1 F1680 E76.94563
G1 F3600 X59.2 Y103.046
G1 F1680 E79.94563
G1 F1200 X59.2 Y82.885 E82.16887
G1 F1680 E79.16887
G1 F3600 X57.6 Y83.168
G1 F1680 E82.16887
G1 F1200 X57.6 Y103.328 E84.39199
G1 F1680 E81.39199
G1 F3600 X56 Y103.61
G1 F1680 E84.39199
G1 F1200 X56 Y83.451 E86.615
G1 F1680 E83.615
G1 F3600 X54.4 Y83.733
G1 F1680 E86.615
G1 F1200 X54.4 Y103.892 E88.83802
G1 F1680 E85.83802
G1 F3600 X52.8 Y104.174
G1 F1680 E88.83802
G1 F1200 X52.8 Y84.015 E91.06103
G1 F1680 E88.06103
G1 F3600 X51.2 Y84.298
G1 F1680 E91.06103
G1 F1200 X51.2 Y104.455 E93.28382
G1 F1680 E90.28382
G1 F3600 X49.6 Y104.737
G1 F1680 E93.28382
G1 F1200 X49.6 Y84.58 E95.50662
G1 F1680 E92.50662
G1 F3600 X48 Y84.853
G1 F1680 E95.50662
G1 F1200 X48 Y105.019 E97.7304
G1 F1680 E94.7304
G1 F3600 X46.4 Y105.301
G1 F1680 E97.7304
G1 F1200 X46.4 Y84.805 E99.99058
G1 F1680 E96.99058
G1 F3600 X44.8 Y84.251
G1 F1680 E99.99058
G1 F1200 X44.8 Y105.583 E102.34294
G1 F1680 E99.34294
G1 F3600 X43.2 Y105.717
G1 F1680 E102.34294
G1 F1200 X43.2 Y83.338 E104.81076
G1 F1680 E101.81076
G1 F3600 X41.6 Y82.415
G1 F1680 E104.81076
G1 F1200 X41.6 Y105.31 E107.33548
G1 F1680 E104.33548
G1 F3600 X40 Y104.415
G1 F1680 E107.33548
G1 F1200 X40 Y81.491 E109.86341
G1 F1680 E106.86341
G1 F3600 X38.4 Y80.567
G1 F1680 E109.86341
G1 F1200 X38.4 Y103.491 E112.39133
G1 F1680 E109.39133
G1 F3600 X36.8 Y102.567
G1 F1680 E112.39133
G1 F1200 X36.8 Y79.643 E114.91925
G1 F1680 E111.91925
G1 F3600 X35.2 Y78.72
G1 F1680 E114.91925
G1 F1200 X35.2 Y101.643 E117.44706
G1 F1680 E114.44706
G1 F3600 X33.6 Y100.719
G1 F1680 E117.44706
G1 F1200 X33.6 Y77.39 E120.01964
G1 F1680 E117.01964
G1 F3600 X32 Y73.921
G1 F1680 E120.01964
G1 F1200 X32 Y99.795 E122.87287
G1 F1680 E119.87287
G1 F3600 X30.4 Y98.871
G1 F1680 E122.87287
G1 F1200 X30.4 Y69.525 E126.10897
M73 P1
G1 F1680 E123.10897
G1 F3600 X28.8 Y65.098
G1 F1680 E126.10897
G1 F1200 X28.8 Y97.947 E129.73136
G1 F1680 E126.73136
G1 F3600 X27.2 Y97.023
G1 F1680 E129.73136
G1 F1200 X27.2 Y30.115 E137.10957
G1 F1680 E134.10957
G1 F3600 X25.6 Y31.038
G1 F1680 E137.10957
G1 F1200 X25.6 Y96.098 E144.28399
G1 F1680 E141.28399
G1 F3600 X24 Y95.174
G1 F1680 E144.28399
G1 F1200 X24 Y31.962 E151.25463
G1 F1680 E148.25463
G1 F3600 X22.4 Y32.886
G1 F1680 E151.25463
G1 F1200 X22.4 Y94.25 E158.02148
G1 F1680 E155.02148
G1 F3600 X20.8 Y93.326
G1 F1680 E158.02148
G1 F1200 X20.8 Y33.81 E164.58455
G1 F1680 E161.58455
G1 F3600 X19.2 Y34.734
G1 F1680 E164.58455
G1 F1200 X19.2 Y92.402 E170.94383
G1 F1680 E167.94383
G1 F3600 X17.6 Y91.255
G1 F1680 E170.94383
G1 F1200 X17.6 Y35.883 E177.04992
G1 F1680 E174.04992
G1 F3600 X16 Y39.136
G1 F1680 E177.04992
G1 F1200 X16 Y88.001 E182.43846
G1 F1680 E179.43846
G1 F3600 X14.4 Y83.605
G1 F1680 E182.43846
G1 F1200 X14.4 Y43.533 E186.85736
G1 F1680 E183.85736
G1 F3600 X12.8 Y47.931
G1 F1680 E186.85736
G1 F1200 X12.8 Y79.21 E190.30662
G1 F1680 E187.30662
G1 F3600 X11.2 Y74.815
G1 F1680 E190.30662
G1 F1200 X11.2 Y52.328 E192.78635
G1 F1680 E189.78635
G1 F3600 X9.6 Y56.725
G1 F1680 E192.78635
G1 F1200 X9.6 Y70.42 E194.29655
G1 F1680 E191.29655
G1 F3600 X8 Y66.025
G1 F1680 E194.29655
G1 F1200 X8 Y61.122 E194.83722
G1 F1680 E191.83722
G1 F3600 X28.8 Y62.077
G1 F1680 E194.83722
G1 F1200 X28.8 Y29.191 E198.46369
G1 F1680 E195.46369
G1 F3600 X30.4 Y28.267
G1 F1680 E198.46369
G1 F1200 X30.4 Y57.616 E201.70013
G1 F1680 E198.70013
G1 F3600 X32 Y53.22
G1 F1680 E201.70013
G1 F1200 X32 Y27.343 E204.55368
G1 F1680 E201.55368
G1 F3600 X33.6 Y26.419
G1 F1680 E204.55368
G1 F1200 X33.6 Y49.744 E207.12583
G1 F1680 E204.12583
G1 F3600 X35.2 Y48.42
G1 F1680 E207.12583
G1 F1200 X35.2 Y25.495 E209.65386
G1 F1680 E206.65386
G1 F3600 X36.8 Y24.571
G1 F1680 E209.65386
G1 F1200 X36.8 Y47.497 E212.182
G1 F1680 E209.182
G1 F3600 X38.4 Y46.573
G1 F1680 E212.182
G1 F1200 X38.4 Y23.647 E214.71014
G1 F1680 E211.71014
G1 F3600 X40 Y22.724
G1 F1680 E214.71014
G1 F1200 X40 Y45.65 E217.23828
G1 F1680 E214.23828
G1 F3600 X41.6 Y44.726
G1 F1680 E217.23828
G1 F1200 X41.6 Y21.831 E219.763
G1 F1680 E216.763
G1 F3600 X43.2 Y21.422
G1 F1680 E219.763
G1 F1200 X43.2 Y43.802 E222.23093
G1 F1680 E219.23093
G1 F3600 X44.8 Y42.885
G1 F1680 E222.23093
G1 F1200 X44.8 Y21.556 E224.58297
G1 F1680 E221.58297
G1 F3600 X46.4 Y21.838
G1 F1680 E224.58297
G1 F1200 X46.4 Y42.337 E226.84347
G1 F1680 E223.84347
G1 F3600 X48 Y42.296
G1 F1680 E226.84347
G1 F1200 X48 Y22.12 E229.06836
G1 F1680 E226.06836
G1 F3600 X49.6 Y22.402
G1 F1680 E229.06836
G1 F1200 X49.6 Y42.56 E231.29126
G1 F1680 E228.29126
G1 F3600 X51.2 Y42.842
G1 F1680 E231.29126
G1 F1200 X51.2 Y22.684 E233.51417
G1 F1680 E230.51417
G1 F3600 X52.8 Y22.966
G1 F1680 E233.51417
G1 F1200 X52.8 Y43.124 E235.73707
G1 F1680 E232.73707
G1 F3600 X54.4 Y43.406
G1 F1680 E235.73707
G1 F1200 X54.4 Y23.248 E237.95997
G1 F1680 E234.95997
G1 F3600 X56 Y23.53
G1 F1680 E237.95997
G1 F1200 X56 Y43.688 E240.18288
G1 F1680 E237.18288
G1 F3600 X57.6 Y43.97
G1 F1680 E240.18288
G1 F1200 X57.6 Y23.812 E242.40578
G1 F1680 E239.40578
G1 F3600 X59.2 Y24.094
G1 F1680 E242.40578
G1 F1200 X59.2 Y44.253 E244.62879
G1 F1680 E241.62879
G1 F3600 X60.8 Y44.813
G1 F1680 E244.62879
G1 F1200 X60.8 Y24.376 E246.88246
G1 F1680 E243.88246
G1 F3600 X72 Y26.873
G1 F1680 E246.88246
G1 F1200 X72 Y100.268 E254.97602
G1 F1680 E251.97602
G1 F3600 X73.6 Y98.554
G1 F1680 E254.97602
G1 F1200 X73.6 Y28.589 E262.69134
G1 F1680 E259.69134
G1 F3600 X75.2 Y30.496
G1 F1680 E262.69134
G1 F1200 X75.2 Y96.647 E269.98607
G1 F1680 E266.98607
G1 F3600 X76.8 Y94.739
G1 F1680 E269.98607
G1 F1200 X76.8 Y32.402 E276.86022
G1 F1680 E273.86022
G1 F3600 X78.4 Y34.309
G1 F1680 E276.86022
G1 F1200 X78.4 Y92.832 E283.31379
G1 F1680 E280.31379
G1 F3600 X80 Y90.925
G1 F1680 E283.31379
G1 F1200 X80 Y36.216 E289.34676
G1 F1680 E286.34676
G1 F3600 X81.6 Y38.123
G1 F1680 E289.34676
G1 F1200 X81.6 Y89.018 E294.95916
G1 F1680 E291.95916
G1 F3600 X83.2 Y87.111
G1 F1680 E294.95916
G1 F1200 X83.2 Y40.03 E300.15097
G1 F1680 E297.15097
G1 F3600 X84.8 Y41.936
G1 F1680 E300.15097
G1 F1200 X84.8 Y85.203 E304.92219
G1 F1680 E301.92219
G1 F3600 X86.4 Y83.296
G1 F1680 E304.92219
G1 F1200 X86.4 Y43.843 E309.27283
G1 F1680 E306.27283
G1 F3600 X88 Y45.75
M104 T0 S205
G1 F1680 E309.27283
G1 F1200 X88 Y81.389 E313.20289
G1 F1680 E310.20289
G1 F3600 X89.6 Y79.476
G1 F1680 E313.20289
G1 F1200 X89.6 Y47.675 E316.70971
G1 F1680 E313.70971
G1 F3600 X72.522 Y27.259
;TIME_ELAPSED:163.758593
;LAYER:-5
G1 X72.522 Y27.259 Z0.619
;TYPE:SUPPORT
G1 F1680 E316.70971
G1 F1980 X72.645 Y27.383 E316.72273
G1 X72.795 Y27.551 E316.73952
G1 F3600 X72.522 Y27.259
G1 F1980 X72.262 Y27.022 E316.76574
G1 X72.028 Y26.829 E316.78835
G1 X71.798 Y26.667 E316.80932
G1 X71.528 Y26.499 E316.83303
G1 X71.294 Y26.375 E316.85277
G1 X71.011 Y26.245 E316.87598
G1 X70.743 Y26.144 E316.89733
G1 X70.669 Y26.121 E316.90311
G1 X76.432 Y31.884 E317.51063
G1 F1680 E314.51063
G1 F3600 X70.669 Y26.121
G1 F1680 E317.51063
G1 F1980 X70.453 Y26.054 E317.52749
G1 X69.948 Y25.936 E317.56614
G1 X69.054 Y25.779 E317.6338
G1 X83.071 Y39.796 E319.11144
G1 X89.503 Y47.461 E319.85732
G1 X89.621 Y47.619 E319.87202
G1 X67.508 Y25.506 E322.20312
G1 X65.963 Y25.234 E322.32006
G1 X90.594 Y49.865 E324.9166
G1 X90.625 Y50.107 E324.93479
G1 X90.643 Y50.325 E324.95109
G1 X90.65 Y50.554 E324.96817
G1 X90.65 Y51.193 E325.0158
G1 X64.418 Y24.962 E327.78107
G1 X62.873 Y24.69 E327.898
G1 X90.65 Y52.466 E330.82614
G1 X90.65 Y53.739 E330.92103
G1 X61.328 Y24.417 E334.01209
G1 X59.783 Y24.145 E334.12903
G1 X90.649 Y55.011 E337.38285
G1 X90.649 Y56.284 E337.47774
G1 X58.238 Y23.873 E340.89443
G1 X56.692 Y23.6 E341.01146
G1 X90.649 Y57.557 E344.59113
G1 X90.649 Y58.829 E344.68594
G1 X55.147 Y23.328 E348.42843
G1 X53.602 Y23.055 E348.54538
G1 X90.648 Y60.101 E352.45069
G1 X90.648 Y61.374 E352.54558
G1 X52.057 Y22.783 E356.61375
G1 X50.512 Y22.511 E356.73069
G1 X90.648 Y62.647 E360.96173
G1 X90.648 Y63.919 E361.05655
G1 X48.967 Y22.239 E365.45041
G1 X47.422 Y21.966 E365.56736
G1 X90.648 Y65.192 E370.12415
G1 X90.648 Y66.465 E370.21904
G1 X45.877 Y21.694 E374.9387
G1 X44.332 Y21.421 E375.05565
G1 X90.648 Y67.738 E379.93823
G1 X90.647 Y69.01 E380.03305
G1 X43.023 Y21.385 E385.05351
G1 X42.989 Y21.387 E385.05605
G1 X42.713 Y21.428 E385.07685
G1 X42.429 Y21.486 E385.09846
G1 X42.15 Y21.565 E385.12007
G1 X41.987 Y21.622 E385.13294
G1 X90.647 Y70.282 E390.26257
G1 X90.647 Y71.555 E390.35746
G1 X41.114 Y22.022 E395.57911
G1 X40.307 Y22.488 E395.64858
G1 X90.646 Y72.827 E400.9552
G1 X90.646 Y74.1 E401.05009
G1 X39.5 Y22.954 E406.44179
G1 X38.693 Y23.42 E406.51125
G1 X59.704 Y44.431 E408.72618
G1 X59.511 Y44.37 E408.74127
G1 X59.167 Y44.298 E408.76747
G1 X58.113 Y44.112 E408.84725
G1 X37.886 Y23.885 E410.97953
G1 X37.079 Y24.351 E411.049
G1 X56.568 Y43.84 E413.10348
G1 X55.023 Y43.568 E413.22042
G1 X36.272 Y24.817 E415.19711
G1 X35.465 Y25.283 E415.26657
G1 X53.477 Y43.295 E417.16535
G1 X51.932 Y43.023 E417.28229
G1 X34.658 Y25.749 E419.10328
G1 X33.852 Y26.215 E419.17268
G1 X50.387 Y42.75 E420.91576
G1 X48.842 Y42.478 E421.0327
G1 X33.045 Y26.681 E422.69798
G1 X32.238 Y27.147 E422.76744
G1 X47.396 Y42.305 E424.36537
G1 X46.922 Y42.311 E424.4007
G1 X46.252 Y42.408 E424.45117
G1 X46.232 Y42.413 E424.4527
G1 X31.431 Y27.613 E426.01294
G1 X30.624 Y28.078 E426.08236
G1 X45.27 Y42.724 E427.62631
G1 X44.98 Y42.846 E427.64976
G1 X44.672 Y43.01 E427.67577
