M73 P0
;MINX:12.3
;MAXX:87.7
;MINY:21.0
;MAXY:99.0
;MINZ:0.0
;MAXZ:37.3
;MachineType:ENTINA TINA2
;FilamentType:PLA
;Extruder0Temperature:205
;InfillDensity:15
;FLAVOR:Marlin
;TIME:7811
;FilamentUsed:4658.1
;Layer height: 0.2

;Generated with Cura_SteamEngine 3.1
M104 T0 S220
M82 ; absolute extrusion mode
;(**** start.gcode for tina2****)
M104 S150
G28 Z
G28 X Y; Home extruder
G1 X55 Y55 F1000
G1 Z10 F200
G29
G1 Z15 F100
M107 ; Turn off fan
G90 ; Absolute positioning
M82 ; Extruder in absolute mode
M109 S220.0
G92 E0 ; Reset extruder position
G1 X90 Y6 Z0.27 F2000
G1 X20 Y6 Z0.27 E15 F1000
G92 E0 ; Reset extruder position

;LAYER_COUNT:180
;LAYER:-6
M107
M203 Z5
G1 F3600 X81.311 Y31.19 Z0.349
G1 F1200 X81.55 Y31.354 E0.03196
G1 X81.772 Y31.528 E0.06307
G1 X82.011 Y31.745 E0.09867
G1 X82.33 Y32.079 E0.1496
G1 X82.473 Y32.24 E0.17334
G1 X83.141 Y33.065 E0.2904
G1 X83.348 Y33.354 E0.3296
G1 X83.511 Y33.615 E0.36354
G1 X83.645 Y33.863 E0.39462
G1 X83.768 Y34.128 E0.42684
G1 X83.871 Y34.396 E0.4585
G1 X83.957 Y34.667 E0.48985
G1 X84.087 Y35.224 E0.55293
G1 X84.401 Y37.027 E0.75474
G1 X84.464 Y37.551 E0.81294
G1 X84.478 Y37.868 E0.84793
G1 X84.473 Y38.128 E0.87661
G1 X84.449 Y38.431 E0.91013
G1 X84.407 Y38.724 E0.94277
G1 X84.35 Y38.993 E0.97309
G1 X84.274 Y39.268 E1.00455
G1 X84.173 Y39.56 E1.03862
G1 X84.066 Y39.816 E1.06922
G1 X83.929 Y40.09 E1.103
G1 X83.793 Y40.327 E1.13313
G1 X83.629 Y40.575 E1.16592
G1 X83.459 Y40.797 E1.19676
G1 X83.254 Y41.035 E1.23139
G1 X83.064 Y41.229 E1.26134
G1 X82.847 Y41.423 E1.29344
G1 X82.607 Y41.613 E1.32719
G1 X82.38 Y41.77 E1.35763
G1 X82.121 Y41.926 E1.39097
G1 X82.036 Y41.97 E1.40152
G1 X81.462 Y42.316 E1.47543
G1 X80.926 Y42.74 E1.5508
G1 X80.449 Y43.227 E1.62597
G1 X80.036 Y43.772 E1.70137
G1 X79.696 Y44.363 E1.77656
G1 X79.432 Y44.993 E1.85189
G1 X79.251 Y45.652 E1.92725
G1 X79.154 Y46.329 E2.00267
G1 X79.144 Y47.011 E2.07788
G1 X79.218 Y47.691 E2.15331
G1 X79.407 Y48.437 E2.23817
G1 X79.475 Y48.641 E2.26189
G1 X79.575 Y48.978 E2.30065
G1 X79.647 Y49.288 E2.33575
G1 X79.696 Y49.585 E2.36894
G1 X79.725 Y49.856 E2.399
G1 X79.738 Y50.118 E2.42792
G1 X79.742 Y67.265 E4.31879
G1 X79.714 Y67.768 E4.37434
G1 X79.677 Y68.066 E4.40746
G1 X79.621 Y68.361 E4.44057
G1 X79.556 Y68.618 E4.4698
G1 X79.445 Y68.965 E4.50998
G1 X79.251 Y69.41 E4.56351
G1 X79.124 Y69.652 E4.59365
G1 X78.956 Y69.931 E4.62956
G1 X78.806 Y70.151 E4.65892
G1 X78.588 Y70.431 E4.69806
G1 X67.674 Y83.442 E6.57077
G1 X67.319 Y83.823 E6.6282
G1 X67.081 Y84.043 E6.66394
G1 X66.87 Y84.215 E6.69396
G1 X66.643 Y84.38 E6.7249
G1 X66.286 Y84.605 E6.77144
G1 X65.829 Y84.886 E6.8306
G1 X65.841 Y84.898 E6.83247
G1 X65.735 Y84.967 E6.84642
G1 X65.217 Y85.412 E6.92172
G1 X64.758 Y85.918 E6.99706
G1 X64.368 Y86.478 E7.07231
G1 X64.052 Y87.083 E7.14758
G1 X63.813 Y87.723 E7.22291
G1 X63.659 Y88.388 E7.29819
G1 X63.589 Y89.067 E7.37346
G1 X63.605 Y89.75 E7.4488
G1 X63.707 Y90.427 E7.5243
G1 X63.93 Y91.179 E7.61079
G1 X64.085 Y91.588 E7.65902
G1 X64.177 Y91.89 E7.69384
G1 X64.243 Y92.164 E7.72492
G1 X64.293 Y92.453 E7.75726
G1 X64.323 Y92.729 E7.78787
G1 X64.336 Y93.039 E7.82209
G1 X64.33 Y93.312 E7.8522
G1 X64.306 Y93.608 E7.88495
G1 X64.263 Y93.906 E7.91815
G1 X64.207 Y94.172 E7.94813
G1 X64.128 Y94.453 E7.98032
G1 X64.03 Y94.735 E8.01324
G1 X63.918 Y95.001 E8.04506
G1 X63.79 Y95.26 E8.07692
G1 X63.64 Y95.52 E8.11002
G1 X63.49 Y95.744 E8.13975
G1 X63.305 Y95.987 E8.17343
G1 X63.116 Y96.205 E8.20525
G1 X62.914 Y96.414 E8.2373
G1 X62.648 Y96.655 E8.27688
G1 X61.298 Y97.789 E8.4713
G1 X60.873 Y98.108 E8.5299
G1 X60.633 Y98.263 E8.56141
G1 X60.382 Y98.402 E8.59305
G1 X60.115 Y98.53 E8.6257
G1 X59.862 Y98.633 E8.65582
G1 X59.557 Y98.731 E8.69115
G1 X59.115 Y98.84 E8.74135
G1 X58.937 Y98.877 E8.7614
G1 X57.914 Y99.048 E8.87577
G1 X57.518 Y99.091 E8.9197
G1 X57.237 Y99.103 E8.95071
G1 X56.951 Y99.097 E8.98226
G1 X56.656 Y99.073 E9.0149
G1 X56.374 Y99.031 E9.04634
G1 X56.074 Y98.965 E9.08021
G1 X55.623 Y98.833 E9.13203
G1 X53.764 Y98.137 E9.35093
G1 X53.284 Y97.927 E9.4087
G1 X53.009 Y97.781 E9.44304
G1 X52.786 Y97.644 E9.4719
G1 X52.516 Y97.455 E9.50824
G1 X52.316 Y97.294 E9.53655
G1 X52.085 Y97.083 E9.57106
G1 X51.892 Y96.883 E9.6017
G1 X51.709 Y96.669 E9.63276
G1 X51.53 Y96.428 E9.66586
G1 X51.362 Y96.17 E9.69981
G1 X51.226 Y95.93 E9.73023
G1 X51.104 Y95.678 E9.7611
G1 X50.987 Y95.392 E9.79518
G1 X50.898 Y95.125 E9.82622
G1 X50.824 Y94.849 E9.85773
G1 X50.766 Y94.561 E9.89012
G1 X50.727 Y94.269 E9.92261
G1 X50.707 Y93.992 E9.95323
G1 X50.698 Y93.028 E10.05954
G1 X50.606 Y92.351 E10.13488
G1 X50.429 Y91.692 E10.21013
G1 X50.171 Y91.06 E10.28541
G1 X49.834 Y90.465 E10.36081
G1 X49.425 Y89.918 E10.43613
G1 X48.951 Y89.427 E10.51139
G1 X48.419 Y89 E10.58661
G1 X47.836 Y88.643 E10.662
G1 X47.211 Y88.361 E10.73761
G1 X46.386 Y88.125 E10.83224
G1 X45.841 Y88.004 E10.8938
G1 X45.553 Y87.916 E10.92701
G1 X45.269 Y87.809 E10.96047
G1 X45.031 Y87.703 E10.98921
G1 X44.661 Y87.509 E11.03528
G1 X29.831 Y78.944 E12.92379
G1 X29.51 Y78.731 E12.96627
G1 X29.282 Y78.557 E12.9979
G1 X29.037 Y78.345 E13.03363
G1 X28.86 Y78.174 E13.06077
G1 X28.622 Y77.912 E13.0998
G1 X28.317 Y77.501 E13.15624
G1 X28.168 Y77.267 E13.18683
G1 X28.026 Y77.009 E13.2193
G1 X27.904 Y76.755 E13.25038
G1 X27.763 Y76.405 E13.29199
G1 X21.957 Y60.453 E15.16397
G1 X21.804 Y59.95 E15.22195
G1 X21.739 Y59.663 E15.2544
G1 X21.693 Y59.374 E15.28667
G1 X21.663 Y59.084 E15.31882
G1 X21.647 Y58.651 E15.3666
G1 X21.587 Y57.982 E15.44067
G1 X21.441 Y57.316 E15.51586
G1 X21.213 Y56.672 E15.59119
G1 X20.904 Y56.063 E15.6665
G1 X20.522 Y55.497 E15.7418
G1 X20.072 Y54.985 E15.81697
G1 X19.56 Y54.532 E15.89235
G1 X18.995 Y54.149 E15.96762
G1 X18.385 Y53.84 E16.04303
G1 X17.743 Y53.61 E16.11823
G1 X17.116 Y53.47 E16.18908
G1 X16.722 Y53.407 E16.23308
G1 X16.455 Y53.346 E16.26328
G1 X16.166 Y53.261 E16.2965
G1 X15.896 Y53.163 E16.32817
G1 X15.63 Y53.048 E16.36013
G1 X15.377 Y52.917 E16.39154
G1 X15.119 Y52.763 E16.42468
G1 X14.888 Y52.604 E16.4556
G1 X14.648 Y52.418 E16.48909
G1 X14.437 Y52.228 E16.5204
G1 X14.229 Y52.018 E16.55299
G1 X14.044 Y51.805 E16.5841
G1 X13.869 Y51.575 E16.61597
G1 X13.704 Y51.33 E16.64855
G1 X13.551 Y51.064 E16.68238
G1 X13.426 Y50.814 E16.71321
G1 X13.327 Y50.58 E16.74123
G1 X13.215 Y50.251 E16.77955
G1 X13.094 Y49.792 E16.83189
G1 X13.049 Y49.585 E16.85525
G1 X12.726 Y47.8 E17.05529
G1 X12.658 Y47.268 E17.11443
G1 X12.645 Y47.011 E17.14281
G1 X12.648 Y46.699 E17.17722
G1 X12.671 Y46.395 E17.21084
G1 X12.705 Y46.148 E17.23833
G1 X12.772 Y45.822 E17.27503
G1 X12.942 Y45.238 E17.3421
G1 X13.305 Y44.25 E17.45818
G1 X13.467 Y43.877 E17.50302
G1 X13.597 Y43.625 E17.53429
G1 X13.737 Y43.39 E17.56445
G1 X13.914 Y43.133 E17.59887
G1 X14.079 Y42.92 E17.62858
G1 X14.279 Y42.698 E17.66153
G1 X14.624 Y42.365 E17.7144
G1 X14.75 Y42.252 E17.73307
G1 X16.305 Y40.967 E17.95552
G1 X16.605 Y40.749 E17.99641
G1 X16.863 Y40.585 E18.03012
G1 X17.106 Y40.452 E18.06067
G1 X17.382 Y40.321 E18.09436
G1 X17.634 Y40.222 E18.12422
G1 X17.935 Y40.125 E18.15909
G1 X18.205 Y40.056 E18.18982
G1 X18.481 Y40.004 E18.22079
G1 X18.786 Y39.966 E18.25468
G1 X19.062 Y39.949 E18.28518
G1 X19.36 Y39.951 E18.31804
G1 X19.637 Y39.969 E18.34865
G1 X19.931 Y40.008 E18.38136
G1 X20.234 Y40.066 E18.41537
G1 X20.497 Y40.135 E18.44536
G1 X20.781 Y40.229 E18.47835
G1 X21.028 Y40.328 E18.50769
G1 X21.32 Y40.468 E18.5434
G1 X22.186 Y40.957 E18.65307
G1 X22.82 Y41.213 E18.72847
G1 X23.481 Y41.387 E18.80384
G1 X24.157 Y41.477 E18.87905
G1 X24.84 Y41.479 E18.95436
G1 X25.518 Y41.396 E19.02969
G1 X26.18 Y41.229 E19.10498
G1 X26.815 Y40.978 E19.18027
G1 X27.413 Y40.651 E19.25543
G1 X27.969 Y40.247 E19.33122
G1 X28.554 Y39.682 E19.42091
G1 X28.937 Y39.268 E19.4831
G1 X29.146 Y39.074 E19.51454
G1 X29.378 Y38.883 E19.54768
G1 X29.595 Y38.724 E19.57735
G1 X29.908 Y38.523 E19.61837
G1 X44.787 Y29.939 E21.51261
G1 X45.131 Y29.768 E21.55497
G1 X45.39 Y29.66 E21.58592
G1 X45.67 Y29.563 E21.61859
G1 X45.957 Y29.481 E21.65151
G1 X46.218 Y29.423 E21.68099
G1 X46.381 Y29.396 E21.69921
G1 X46.778 Y29.354 E21.74324
G1 X47.059 Y29.342 E21.77425
G1 X47.383 Y29.349 E21.80999
G1 X47.608 Y29.365 E21.83486
G1 X47.957 Y29.413 E21.87371
G1 X64.868 Y32.398 E23.76738
G1 X65.243 Y32.489 E23.80993
G1 X65.514 Y32.574 E23.84125
G1 X65.811 Y32.686 E23.87626
G1 X66.044 Y32.79 E23.90439
G1 X66.784 Y33.186 E23.99695
G1 X66.793 Y33.168 E23.99917
G1 X66.893 Y33.218 E24.01149
G1 X67.537 Y33.445 E24.08679
G1 X68.205 Y33.588 E24.16213
G1 X68.885 Y33.647 E24.23739
G1 X69.567 Y33.619 E24.31266
G1 X70.241 Y33.504 E24.38806
G1 X70.894 Y33.307 E24.46328
G1 X71.517 Y33.028 E24.53855
G1 X72.101 Y32.672 E24.61397
G1 X72.637 Y32.244 E24.68961
G1 X73.188 Y31.661 E24.77807
G1 X73.444 Y31.345 E24.82292
G1 X73.64 Y31.134 E24.85468
G1 X73.846 Y30.937 E24.88611
G1 X74.059 Y30.758 E24.91679
G1 X74.306 Y30.576 E24.95062
G1 X74.546 Y30.421 E24.98213
G1 X74.797 Y30.282 E25.01377
G1 X75.064 Y30.154 E25.04642
G1 X75.322 Y30.05 E25.07709
G1 X75.619 Y29.951 E25.11162
G1 X75.901 Y29.878 E25.14374
G1 X76.155 Y29.828 E25.17229
G1 X76.471 Y29.787 E25.20743
G1 X76.75 Y29.768 E25.23826
G1 X77.046 Y29.767 E25.2709
G1 X77.323 Y29.784 E25.30151
G1 X77.603 Y29.819 E25.33263
G1 X77.914 Y29.881 E25.3676
G1 X78.573 Y30.068 E25.44313
G1 X80.448 Y30.753 E25.66326
G1 X80.808 Y30.91 E25.70657
G1 X81.056 Y31.038 E25.73735
G1 X81.311 Y31.19 E25.77009
G1 F3600 X81.6 Y31.394
G1 F1200 X81.6 Y42.233 E26.96535
G1 F1680 E23.96535
G1 F3600 X83.2 Y41.091
G1 F1680 E26.96535
G1 F1200 X83.2 Y33.148 E27.84125
G1 F1680 E24.84125
G1 F3600 X80 Y30.59
G1 F1680 E27.84125
G1 F1200 X80 Y43.835 E29.30183
G1 F1680 E26.30183
G1 F3600 X72 Y32.733
G1 F1680 E29.30183
G1 F1200 X72 Y78.285 E34.32503
G1 F1680 E31.32503
G1 F3600 X73.6 Y76.378
G1 F1680 E34.32503
G1 F1200 X73.6 Y31.177 E39.30953
G1 F1680 E36.30953
G1 F3600 X75.2 Y30.099
G1 F1680 E39.30953
G1 F1200 X75.2 Y74.47 E44.20249
G1 F1680 E41.20249
G1 F3600 X76.8 Y72.563
G1 F1680 E44.20249
G1 F1200 X76.8 Y29.767 E48.92178
G1 F1680 E45.92178
G1 F3600 X78.4 Y30.019
G1 F1680 E48.92178
G1 F1200 X78.4 Y70.656 E53.40298
G1 F1680 E50.40298
G1 F3600 X70.4 Y80.193
G1 F1680 E53.40298
G1 F1200 X70.4 Y33.456 E58.55686
G1 F1680 E55.55686
G1 F3600 X68.8 Y33.64
G1 F1680 E58.55686
G1 F1200 X68.8 Y82.1 E63.90073
G1 F1680 E60.90073
G1 F3600 X67.2 Y83.933
G1 F1680 E63.90073
G1 F1200 X67.2 Y33.327 E69.48126
G1 F1680 E66.48126
G1 F3600 X65.6 Y32.607
G1 F1680 E69.48126
G1 F1200 X65.6 Y85.083 E75.268
G1 F1680 E72.268
G1 F3600 X64 Y87.223
G1 F1680 E75.268
G1 F1200 X64 Y32.245 E81.33064
G1 F1680 E78.33064
G1 F3600 X62.4 Y31.963
G1 F1680 E81.33064
G1 F1200 X62.4 Y96.864 E88.48753
G1 F1680 E85.48753
G1 F3600 X60.8 Y98.156
G1 F1680 E88.48753
G1 F1200 X60.8 Y31.68 E95.8181
G1 F1680 E92.8181
G1 F3600 X59.2 Y31.398
G1 F1680 E95.8181
G1 F1200 X59.2 Y98.82 E103.25299
G1 F1680 E100.25299
G1 F3600 X57.6 Y99.083
G1 F1680 E103.25299
G1 F1200 X57.6 Y31.116 E110.74799
G1 F1680 E107.74799
G1 F3600 X56 Y30.833
G1 F1680 E110.74799
G1 F1200 X56 Y98.943 E118.25875
G1 F1680 E115.25875
G1 F3600 X54.4 Y98.375
G1 F1680 E118.25875
G1 F1200 X54.4 Y30.551 E125.73797
G1 F1680 E122.73797
G1 F3600 X52.8 Y30.268
G1 F1680 E125.73797
G1 F1200 X52.8 Y97.652 E133.16867
G1 F1680 E130.16867
G1 F3600 X51.2 Y95.876
G1 F1680 E133.16867
G1 F1200 X51.2 Y29.986 E140.43462
G1 F1680 E137.43462
G1 F3600 X49.6 Y29.704
G1 F1680 E140.43462
G1 F1200 X49.6 Y90.152 E147.10046
G1 F1680 E144.10046
G1 F3600 X48 Y88.743
G1 F1680 E147.10046
G1 F1200 X48 Y29.421 E153.64214
G1 F1680 E150.64214
G1 F3600 X46.4 Y29.393
G1 F1680 E153.64214
G1 F1200 X46.4 Y88.129 E160.11919
G1 F1680 E157.11919
G1 F3600 X44.8 Y87.581
G1 F1680 E160.11919
G1 F1200 X44.8 Y29.932 E166.47637
G1 F1680 E163.47637
G1 F3600 X43.2 Y30.854
G1 F1680 E166.47637
G1 F1200 X43.2 Y86.665 E172.63088
G1 F1680 E169.63088
G1 F3600 X41.6 Y85.741
G1 F1680 E172.63088
G1 F1200 X41.6 Y31.777 E178.5817
G1 F1680 E175.5817
G1 F3600 X40 Y32.7
G1 F1680 E178.5817
G1 F1200 X40 Y84.817 E184.32885
G1 F1680 E181.32885
G1 F3600 X38.4 Y83.892
G1 F1680 E184.32885
G1 F1200 X38.4 Y33.623 E189.87221
G1 F1680 E186.87221
G1 F3600 X36.8 Y34.546
G1 F1680 E189.87221
G1 F1200 X36.8 Y82.968 E195.2119
G1 F1680 E192.2119
G1 F3600 X35.2 Y82.044
G1 F1680 E195.2119
G1 F1200 X35.2 Y35.469 E200.34791
G1 F1680 E197.34791
G1 F3600 X33.6 Y36.393
G1 F1680 E200.34791
G1 F1200 X33.6 Y81.12 E205.28013
G1 F1680 E202.28013
G1 F3600 X32 Y80.196
G1 F1680 E205.28013
G1 F1200 X32 Y37.316 E210.00868
G1 F1680 E207.00868
G1 F3600 X30.4 Y38.239
G1 F1680 E210.00868
G1 F1200 X30.4 Y79.272 E214.53355
G1 F1680 E211.53355
G1 F3600 X28.8 Y78.107
G1 F1680 E214.53355
G1 F1200 X28.8 Y39.416 E218.80016
G1 F1680 E215.80016
G1 F3600 X27.2 Y40.767
G1 F1680 E218.80016
G1 F1200 X27.2 Y74.858 E222.55951
G1 F1680 E219.55951
G1 F3600 X25.6 Y70.462
G1 F1680 E222.55951
G1 F1200 X25.6 Y41.375 E225.76705
G1 F1680 E222.76705
G1 F3600 X24 Y41.457
G1 F1680 E225.76705
G1 F1200 X24 Y66.066 E228.48079
G1 F1680 E225.48079
G1 F3600 X22.4 Y61.67
G1 F1680 E228.48079
G1 F1200 X22.4 Y41.044 E230.7553
G1 F1680 E227.7553
G1 F3600 X20.8 Y40.237
G1 F1680 E230.7553
G1 F1200 X20.8 Y55.908 E232.4834
G1 F1680 E229.4834
G1 F3600 X19.2 Y54.287
G1 F1680 E232.4834
G1 F1200 X19.2 Y39.95 E234.0644
G1 F1680 E231.0644
G1 F3600 X17.6 Y40.235
G1 F1680 E234.0644
G1 F1200 X17.6 Y53.578 E235.53578
G1 F1680 E232.53578
G1 F3600 X16 Y53.2
M104 T0 S205
G1 F1680 E235.53578
G1 F1200 X16 Y41.219 E236.85698
G1 F1680 E233.85698
G1 F3600 X14.4 Y42.581
G1 F1680 E236.85698
G1 F1200 X14.4 Y52.19 E237.9166
G1 F1680 E234.9166
G1 F3600 X12.8 Y48.208
G1 F1680 E237.9166
G1 F1200 X12.8 Y45.725 E238.19041
G1 F1680 E235.19041
G1 F3600 X64 Y91.364
G1 F1680 E238.19041
G1 F1200 X64 Y94.807 E238.57008
G1 F1680 E235.57008
G1 F3600 X81.337 Y31.145
;TIME_ELAPSED:122.104618
;LAYER:-5
G1 X81.337 Y31.145 Z0.619
;TYPE:SUPPORT
G1 F1680 E238.57008
G1 F1980 X81.081 Y30.993 E238.59228
G1 X80.841 Y30.87 E238.61238
G1 X80.46 Y30.703 E238.64339
G1 X80.275 Y30.636 E238.65805
G1 X83.856 Y34.217 E239.03555
G1 F3600 X83.816 Y34.115
G1 F1980 X83.689 Y33.84 E239.05813
G1 X83.555 Y33.591 E239.07921
G1 X83.389 Y33.325 E239.10258
G1 X83.066 Y32.884 E239.14333
G1 X82.51 Y32.205 E239.20875
G1 X82.367 Y32.045 E239.22474
G1 X82.045 Y31.708 E239.25949
G1 X81.802 Y31.487 E239.28397
G1 X81.582 Y31.314 E239.30483
G1 X81.337 Y31.145 E239.32702
G1 F1680 E236.32702
G1 F3600 X80.275 Y30.636
G1 F1680 E239.32702
G1 F1980 X78.603 Y30.025 E239.45972
G1 X78.418 Y29.965 E239.47421
G1 X78.3 Y29.933 E239.48333
G1 X84.254 Y35.888 E240.11104
G1 X84.453 Y37.03 E240.19745
G1 X84.497 Y37.404 E240.22552
G1 X76.81 Y29.717 E241.03586
G1 X76.744 Y29.717 E241.04078
G1 X76.46 Y29.735 E241.06199
G1 X76.155 Y29.776 E241.08493
G1 X75.891 Y29.827 E241.10498
G1 X75.699 Y29.878 E241.11978
G1 X84.469 Y38.649 E242.04435
G1 X84.459 Y38.712 E242.04911
G1 X84.393 Y39.02 E242.07259
G1 X84.321 Y39.285 E242.09306
G1 X84.222 Y39.571 E242.11562
G1 X84.191 Y39.643 E242.12146
G1 X74.78 Y30.232 E243.11354
G1 F3600 X74.772 Y30.235
G1 F1980 X74.512 Y30.38 E243.13574
G1 X74.275 Y30.533 E243.15676
G1 X74.027 Y30.716 E243.17974
G1 X74.007 Y30.732 E243.18165
G1 X83.753 Y40.478 E244.20905
G1 X83.668 Y40.605 E244.22044
G1 X83.493 Y40.834 E244.24192
G1 X83.292 Y41.068 E244.26492
G1 X83.182 Y41.18 E244.27662
G1 X73.363 Y31.361 E245.31172
G1 X73.149 Y31.626 E245.33711
G1 X72.763 Y32.034 E245.37897
G1 X82.486 Y41.756 E246.4039
G1 X82.41 Y41.809 E246.4108
G1 X82.143 Y41.971 E246.43408
G1 X82.06 Y42.014 E246.44105
G1 X81.692 Y42.235 E246.47305
G1 X72.08 Y32.623 E247.48632
G1 X72.071 Y32.63 E247.48717
G1 X71.493 Y32.982 E247.53762
G1 X71.267 Y33.084 E247.5561
G1 X80.96 Y42.776 E248.57786
G1 X80.486 Y43.261 E248.62841
G1 X80.351 Y43.44 E248.64513
G1 X70.333 Y33.422 E249.7012
G1 X70.227 Y33.453 E249.70943
G1 X69.56 Y33.567 E249.75987
G1 X69.22 Y33.582 E249.78524
G1 X79.844 Y44.206 E250.9052
G1 X79.741 Y44.385 E250.92059
G1 X79.478 Y45.01 E250.97114
G1 X79.456 Y45.091 E250.9774
G1 X67.819 Y33.453 E252.20419
G1 X67.55 Y33.395 E252.22471
G1 X66.912 Y33.171 E252.27511
G1 X66.769 Y33.099 E252.28705
