M73 P0
;MINX:31.0
;MAXX:73.0
;MINY:35.0
;MAXY:77.0
;MINZ:0.0
;MAXZ:61.3
;MachineType:ENTINA TINA2
;FilamentType:PLA
;Extruder0Temperature:205
;InfillDensity:15
;FLAVOR:Marlin
;TIME:5644
;FilamentUsed:3804.3
;Layer height: 0.2

;Generated with Cura_SteamEngine 3.1
M104 T0 S220
M82 ; absolute extrusion mode
;(**** start.gcode for tina2****)
M104 S150
G28 Z
G28 X Y; Home extruder
G1 X55 Y55 F1000
G1 Z10 F200
G29
G1 Z15 F100
M107 ; Turn off fan
G90 ; Absolute positioning
M82 ; Extruder in absolute mode
M109 S220.0
G92 E0 ; Reset extruder position
G1 X90 Y6 Z0.27 F2000
G1 X20 Y6 Z0.27 E15 F1000
G92 E0 ; Reset extruder position

;LAYER_COUNT:300
;LAYER:-6
M107
M203 Z5
G1 F3600 X65.439 Y41.026 Z0.349
G1 F1200 X65.579 Y41.153 E0.02084
G1 X66.958 Y42.539 E0.23645
G1 X67.214 Y42.831 E0.27927
G1 X67.379 Y43.042 E0.30881
G1 X67.699 Y43.497 E0.37015
G1 X68.46 Y44.487 E0.50785
G1 X68.821 Y45.014 E0.57829
G1 X68.916 Y45.166 E0.59805
G1 X69.829 Y46.748 E0.79947
G1 X69.912 Y46.902 E0.81877
G1 X70.176 Y47.446 E0.88545
G1 X70.89 Y49.169 E1.09112
G1 X71.098 Y49.764 E1.16062
G1 X71.147 Y49.921 E1.17876
G1 X71.648 Y51.795 E1.39267
G1 X71.861 Y52.428 E1.46632
G1 X72.229 Y53.212 E1.56182
G1 X72.331 Y53.473 E1.59273
G1 X72.426 Y53.776 E1.62774
G1 X72.48 Y53.997 E1.65283
G1 X72.54 Y54.353 E1.69264
G1 X72.59 Y54.907 E1.75398
G1 X72.6 Y55.129 E1.77849
G1 X72.596 Y57.05 E1.99032
G1 X72.572 Y57.427 E2.03198
G1 X72.535 Y57.725 E2.0651
G1 X72.48 Y58.009 E2.097
G1 X72.404 Y58.3 E2.13016
G1 X72.32 Y58.558 E2.16008
G1 X72.209 Y58.837 E2.19319
G1 X71.848 Y59.609 E2.28717
G1 X71.645 Y60.218 E2.35796
G1 X71.147 Y62.079 E2.5704
G1 X70.89 Y62.831 E2.65804
G1 X70.129 Y64.657 E2.87619
G1 X69.829 Y65.252 E2.94967
G1 X68.916 Y66.834 E3.15109
G1 X68.576 Y67.352 E3.21942
G1 X67.693 Y68.509 E3.37991
G1 X67.336 Y69.005 E3.4473
G1 X66.974 Y69.439 E3.50963
G1 X66.847 Y69.579 E3.53047
G1 X65.461 Y70.958 E3.74607
G1 X65.169 Y71.214 E3.7889
G1 X64.958 Y71.379 E3.81843
G1 X64.503 Y71.699 E3.87977
G1 X63.513 Y72.46 E4.01747
G1 X62.978 Y72.826 E4.08895
G1 X62.844 Y72.91 E4.10639
G1 X61.252 Y73.829 E4.3091
G1 X61.088 Y73.917 E4.32962
G1 X60.554 Y74.176 E4.39507
G1 X58.831 Y74.89 E4.60074
G1 X58.093 Y75.143 E4.68677
G1 X56.282 Y75.628 E4.89352
G1 X55.68 Y75.751 E4.96127
G1 X55.536 Y75.775 E4.97737
G1 X54.027 Y75.976 E5.14524
G1 X53.642 Y76.041 E5.1883
G1 X53.093 Y76.09 E5.24908
G1 X52.871 Y76.1 E5.27359
G1 X50.95 Y76.096 E5.48542
G1 X50.576 Y76.072 E5.52675
G1 X50.262 Y76.032 E5.56166
G1 X49.759 Y75.945 E5.61795
G1 X48.313 Y75.75 E5.77885
G1 X47.718 Y75.628 E5.84583
G1 X45.776 Y75.103 E6.06767
G1 X45.331 Y74.951 E6.11952
G1 X43.446 Y74.176 E6.34427
G1 X42.912 Y73.917 E6.40972
G1 X42.748 Y73.829 E6.43024
G1 X41.156 Y72.91 E6.63295
G1 X40.648 Y72.576 E6.69999
G1 X40.515 Y72.481 E6.71802
G1 X39.34 Y71.582 E6.88116
G1 X38.995 Y71.336 E6.92789
G1 X38.552 Y70.966 E6.99154
G1 X38.418 Y70.844 E7.01152
G1 X37.142 Y69.568 E7.21051
G1 X36.786 Y69.169 E7.26948
G1 X36.618 Y68.954 E7.29957
G1 X36.301 Y68.503 E7.36036
G1 X35.531 Y67.501 E7.49971
G1 X35.172 Y66.975 E7.56994
G1 X35.084 Y66.834 E7.58827
G1 X34.171 Y65.252 E7.78969
G1 X34.082 Y65.086 E7.81046
G1 X33.824 Y64.554 E7.87566
G1 X33.11 Y62.831 E8.08133
G1 X32.898 Y62.224 E8.15223
G1 X32.854 Y62.079 E8.16894
G1 X32.352 Y60.205 E8.38288
G1 X32.139 Y59.572 E8.45653
G1 X31.771 Y58.789 E8.55193
G1 X31.669 Y58.527 E8.58294
G1 X31.574 Y58.224 E8.61795
G1 X31.518 Y57.995 E8.64395
G1 X31.46 Y57.647 E8.68286
G1 X31.41 Y57.093 E8.7442
G1 X31.4 Y56.871 E8.7687
G1 X31.404 Y54.95 E8.98054
G1 X31.428 Y54.573 E9.0222
G1 X31.465 Y54.275 E9.05531
G1 X31.52 Y53.991 E9.08721
G1 X31.596 Y53.7 E9.12038
G1 X31.68 Y53.442 E9.1503
G1 X31.791 Y53.163 E9.18341
G1 X32.152 Y52.391 E9.27739
G1 X32.355 Y51.782 E9.34818
G1 X32.853 Y49.921 E9.56062
G1 X33.11 Y49.169 E9.64825
G1 X33.871 Y47.343 E9.8664
G1 X34.171 Y46.748 E9.93988
G1 X35.084 Y45.166 E10.1413
G1 X35.424 Y44.648 E10.20963
G1 X36.307 Y43.491 E10.37013
G1 X36.664 Y42.995 E10.43752
G1 X37.026 Y42.561 E10.49984
G1 X37.153 Y42.421 E10.52068
G1 X38.539 Y41.042 E10.73629
G1 X38.831 Y40.786 E10.77911
G1 X39.042 Y40.621 E10.80865
G1 X39.497 Y40.301 E10.86999
G1 X40.487 Y39.54 E11.00769
G1 X41.025 Y39.172 E11.07957
G1 X41.166 Y39.084 E11.09789
G1 X42.748 Y38.171 E11.29931
G1 X42.914 Y38.082 E11.32009
G1 X43.446 Y37.824 E11.38529
G1 X45.169 Y37.11 E11.59096
G1 X45.907 Y36.857 E11.67699
G1 X47.718 Y36.372 E11.88373
G1 X48.32 Y36.249 E11.95149
G1 X48.464 Y36.225 E11.96759
G1 X49.973 Y36.024 E12.13546
G1 X50.358 Y35.959 E12.17852
G1 X50.907 Y35.91 E12.2393
G1 X51.129 Y35.9 E12.2638
G1 X53.05 Y35.904 E12.47564
G1 X53.424 Y35.928 E12.51697
G1 X53.738 Y35.968 E12.55187
G1 X54.241 Y36.055 E12.60816
G1 X55.687 Y36.25 E12.76906
G1 X56.282 Y36.372 E12.83604
G1 X58.224 Y36.897 E13.05788
G1 X58.669 Y37.049 E13.10974
G1 X60.554 Y37.824 E13.33449
G1 X61.086 Y38.082 E13.39969
G1 X61.252 Y38.171 E13.42046
G1 X62.834 Y39.084 E13.62188
G1 X63.352 Y39.424 E13.69021
G1 X64.509 Y40.307 E13.8507
G1 X65.005 Y40.664 E13.91809
G1 X65.439 Y41.026 E13.98042
G1 F3600 X65.6 Y41.175
G1 F1200 X65.6 Y70.82 E17.24949
G1 F1680 E14.24949
G1 F3600 X64 Y72.086
G1 F1680 E17.24949
G1 F1200 X64 Y39.919 E20.79667
G1 F1680 E17.79667
G1 F3600 X62.4 Y38.834
G1 F1680 E20.79667
G1 F1200 X62.4 Y73.167 E24.58271
G1 F1680 E21.58271
G1 F3600 X60.8 Y74.057
G1 F1680 E24.58271
G1 F1200 X60.8 Y37.944 E28.56503
G1 F1680 E25.56503
G1 F3600 X59.2 Y37.268
G1 F1680 E28.56503
G1 F1200 X59.2 Y74.738 E32.697
G1 F1680 E29.697
G1 F3600 X57.6 Y75.276
G1 F1680 E32.697
G1 F1200 X57.6 Y36.729 E36.94773
G1 F1680 E33.94773
G1 F3600 X56 Y36.315
G1 F1680 E36.94773
G1 F1200 X56 Y75.686 E41.28933
G1 F1680 E38.28933
G1 F3600 X54.4 Y75.927
G1 F1680 E41.28933
G1 F1200 X54.4 Y36.077 E45.68374
G1 F1680 E42.68374
G1 F3600 X52.8 Y35.904
G1 F1680 E45.68374
G1 F1200 X52.8 Y76.099 E50.11621
G1 F1680 E47.11621
G1 F3600 X51.2 Y76.096
G1 F1680 E50.11621
G1 F1200 X51.2 Y35.901 E54.54867
G1 F1680 E51.54867
G1 F3600 X49.6 Y36.073
G1 F1680 E54.54867
G1 F1200 X49.6 Y75.923 E58.94309
G1 F1680 E55.94309
G1 F3600 X48 Y75.685
G1 F1680 E58.94309
G1 F1200 X48 Y36.314 E63.28468
G1 F1680 E60.28468
G1 F3600 X46.4 Y36.724
G1 F1680 E63.28468
G1 F1200 X46.4 Y75.271 E67.53541
G1 F1680 E64.53541
G1 F3600 X44.8 Y74.732
G1 F1680 E67.53541
G1 F1200 X44.8 Y37.262 E71.66738
G1 F1680 E68.66738
G1 F3600 X43.2 Y37.943
G1 F1680 E71.66738
G1 F1200 X43.2 Y74.056 E75.6497
G1 F1680 E72.6497
G1 F3600 X41.6 Y73.166
G1 F1680 E75.6497
G1 F1200 X41.6 Y38.833 E79.43574
G1 F1680 E76.43574
G1 F3600 X40 Y39.914
G1 F1680 E79.43574
G1 F1200 X40 Y72.086 E82.98348
G1 F1680 E79.98348
G1 F3600 X38.4 Y70.826
G1 F1680 E82.98348
G1 F1200 X38.4 Y41.18 E86.25266
G1 F1680 E83.25266
G1 F3600 X36.8 Y42.831
G1 F1680 E86.25266
G1 F1200 X36.8 Y69.184 E89.15871
G1 F1680 E86.15871
G1 F3600 X35.2 Y67.016
G1 F1680 E89.15871
G1 F1200 X35.2 Y44.989 E91.58771
G1 F1680 E88.58771
G1 F3600 X33.6 Y47.993
G1 F1680 E91.58771
G1 F1200 X33.6 Y64.013 E93.3543
G1 F1680 E90.3543
G1 F3600 X32 Y59.276
G1 F1680 E93.3543
G1 F1200 X32 Y52.716 E94.0777
G1 F1680 E91.0777
G1 F3600 X67.2 Y42.816
M104 T0 S205
G1 F1680 E94.0777
G1 F1200 X67.2 Y69.169 E96.98375
G1 F1680 E93.98375
G1 F3600 X68.8 Y67.011
G1 F1680 E96.98375
G1 F1200 X68.8 Y44.984 E99.41275
G1 F1680 E96.41275
G1 F3600 X70.4 Y47.987
G1 F1680 E99.41275
G1 F1200 X70.4 Y64.007 E101.17934
G1 F1680 E98.17934
G1 F3600 X72 Y59.284
G1 F1680 E101.17934
G1 F1200 X72 Y52.725 E101.90263
G1 F1680 E98.90263
G1 F3600 X65.483 Y40.998
;TIME_ELAPSED:53.883035
;LAYER:-5
G1 X65.483 Y40.998 Z0.619
;TYPE:SUPPORT
G1 F1680 E101.90263
G1 F1980 X65.613 Y41.116 E101.91572
G1 X66.996 Y42.504 E102.06177
G1 X67.239 Y42.782 E102.0893
G1 X67.424 Y43.021 E102.11183
G1 X67.739 Y43.467 E102.15253
G1 F3600 X68.034 Y43.851
G1 F1980 X64.159 Y39.976 E102.56102
G1 X64.539 Y40.266 E102.59665
G1 X65.024 Y40.614 E102.64115
G1 X65.483 Y40.998 E102.68576
G1 F1680 E99.68576
G1 F3600 X64.159 Y39.976
G1 F1680 E102.68576
G1 F1980 X63.38 Y39.382 E102.75878
G1 X62.86 Y39.04 E102.80518
G1 X61.275 Y38.125 E102.9416
G1 X60.793 Y37.883 E102.9818
G1 X70.115 Y47.205 E103.9645
G1 X70.222 Y47.427 E103.98287
G1 X70.932 Y49.138 E104.12096
G1 X71.003 Y49.324 E104.1358
G1 X71.024 Y49.387 E104.14075
G1 X58.612 Y36.975 E105.4492
G1 X58.25 Y36.852 E105.47769
G1 X58.1 Y36.807 E105.48937
G1 X56.836 Y36.471 E105.58686
G1 X71.532 Y51.167 E107.13608
G1 X71.696 Y51.78 E107.18338
G1 X71.908 Y52.409 E107.23286
G1 X72.267 Y53.175 E107.29592
G1 X55.224 Y36.132 E109.09255
G1 X54.247 Y36.003 E109.16601
G1 X53.735 Y35.916 E109.20472
G1 X72.632 Y54.813 E111.1968
G1 X72.64 Y54.904 E111.20361
G1 X72.65 Y55.126 E111.22018
G1 X72.648 Y56.102 E111.29293
G1 X52.398 Y35.851 E113.42769
G1 X51.123 Y35.849 E113.52273
G1 X72.627 Y57.354 E115.78969
G1 X72.621 Y57.434 E115.79567
G1 X72.586 Y57.723 E115.81737
G1 X72.529 Y58.019 E115.83984
G1 X72.452 Y58.312 E115.86242
G1 X72.419 Y58.418 E115.87069
G1 X49.971 Y35.97 E118.23711
G1 X49.775 Y36.002 E118.25191
G1 X48.853 Y36.125 E118.32125
G1 X72.04 Y59.312 E120.76557
G1 X71.91 Y59.582 E120.78791
G1 X71.893 Y59.631 E120.79177
G1 X71.693 Y60.232 E120.83899
G1 F3600 X71.692 Y60.237
G1 F1980 X47.766 Y36.311 E123.36121
G1 X47.7 Y36.324 E123.36623
G1 X46.758 Y36.576 E123.43891
G1 X71.423 Y61.241 E126.03904
G1 X71.194 Y62.093 E126.10481
G1 X71.149 Y62.24 E126.11626
G1 X45.758 Y36.848 E128.79298
G1 X45.748 Y36.851 E128.79376
G1 X45.324 Y36.995 E128.82714
G1 X45.138 Y37.067 E128.842
G1 X44.831 Y37.194 E128.86677
G1 X70.804 Y63.167 E131.60478
G1 X70.429 Y64.065 E131.67732
G1 X43.931 Y37.567 E134.47068
G1 X43.426 Y37.776 E134.51142
G1 X43.05 Y37.959 E134.54259
G1 X70.039 Y64.948 E137.38771
G1 X69.874 Y65.275 E137.41501
G1 X69.588 Y65.77 E137.45763
G1 X42.229 Y38.411 E140.34175
G1 X41.422 Y38.876 E140.41118
G1 X69.123 Y66.577 E143.33135
G1 X68.958 Y66.861 E143.35584
G1 X68.631 Y67.358 E143.40018
G1 X40.643 Y39.37 E146.35061
G1 X40.467 Y39.491 E146.36653
G1 X39.915 Y39.915 E146.41842
G1 X68.083 Y68.083 E149.38782
G1 X67.734 Y68.539 E149.43063
G1 X67.539 Y68.812 E149.45564
G1 X39.185 Y40.458 E152.44465
G1 X39.02 Y40.573 E152.45964
G1 X38.781 Y40.759 E152.48222
G1 X38.504 Y41.002 E152.50968
G1 X38.48 Y41.026 E152.51221
G1 X66.972 Y69.517 E155.51572
G1 X66.883 Y69.613 E155.52548
G1 X66.337 Y70.156 E155.58288
G1 X37.843 Y41.662 E158.58665
G1 X37.205 Y42.297 E158.65375
G1 X65.7 Y70.791 E161.65758
G1 X65.495 Y70.996 E161.67919
G1 X65.217 Y71.239 E161.70671
G1 X65.024 Y71.388 E161.72488
G1 X36.611 Y42.975 E164.72012
G1 F3600 X36.611 Y42.977
G1 F1980 X36.266 Y43.458 E164.76424
G1 X36.073 Y43.71 E164.7879
G1 X64.289 Y71.926 E167.76237
G1 X63.569 Y72.479 E167.83004
G1 X35.522 Y44.432 E170.78669
G1 X35.382 Y44.618 E170.80405
G1 X35.04 Y45.138 E170.85044
G1 X35.009 Y45.191 E170.85502
G1 X62.806 Y72.988 E173.78531
G1 X61.999 Y73.454 E173.85478
G1 X34.543 Y45.998 E176.74912
G1 X34.125 Y46.723 E176.81151
G1 X34.081 Y46.809 E176.81871
G1 X61.19 Y73.918 E179.67648
G1 X61.11 Y73.962 E179.68328
G1 X60.572 Y74.222 E179.72782
G1 X60.324 Y74.325 E179.74784
G1 X33.675 Y47.676 E182.55712
G1 X33.301 Y48.574 E182.62963
G1 X59.424 Y74.698 E185.38351
G1 X58.86 Y74.932 E185.42902
G1 X58.675 Y75.003 E185.44379
G1 X58.511 Y75.057 E185.45666
G1 X32.94 Y49.486 E188.1523
G1 X32.852 Y49.748 E188.1729
G1 X32.804 Y49.905 E188.18514
G1 X32.652 Y50.471 E188.22883
G1 X57.526 Y75.345 E190.85099
G1 X56.521 Y75.613 E190.92852
G1 X32.383 Y51.475 E193.47309
G1 X32.305 Y51.766 E193.49555
G1 X32.105 Y52.368 E193.54283
G1 X32.088 Y52.416 E193.54663
G1 X32.076 Y52.441 E193.5487
G1 X55.466 Y75.83 E196.01436
G1 X54.343 Y75.98 E196.09882
G1 X31.674 Y53.312 E198.48848
G1 X31.639 Y53.401 E198.49561
G1 X31.546 Y53.686 E198.51796
G1 X31.471 Y53.974 E198.54014
G1 X31.412 Y54.276 E198.56308
G1 X31.406 Y54.317 E198.56616
G1 X53.217 Y76.127 E200.86538
G1 X53.086 Y76.139 E200.87518
G1 X52.872 Y76.15 E200.89116
G1 X51.965 Y76.148 E200.95877
G1 X31.351 Y55.534 E203.13185
G1 X31.348 Y56.804 E203.22651
G1 X50.673 Y76.129 E205.26371
G1 X50.568 Y76.122 E205.27156
G1 X50.259 Y76.083 E205.29477
G1 X49.752 Y75.995 E205.33313
G1 X49.193 Y75.922 E205.37515
G1 X31.532 Y58.261 E207.23693
G1 X31.621 Y58.548 E207.25933
G1 X31.717 Y58.795 E207.27909
G1 X32.09 Y59.59 E207.34455
G1 X32.302 Y60.219 E207.39402
G1 X32.333 Y60.334 E207.4029
G1 X47.656 Y75.657 E209.01822
G1 X45.923 Y75.197 E209.15187
G1 X32.799 Y62.073 E210.53537
G1 X32.804 Y62.093 E210.53691
G1 X32.851 Y62.25 E210.54913
G1 X32.995 Y62.674 E210.5825
G1 X33.067 Y62.86 E210.59737
G1 X33.598 Y64.145 E210.70101
G1 X43.846 Y74.393 E211.78133
G1 X43.32 Y74.174 E211.82381
G1 X42.724 Y73.873 E211.87358
G1 X41.135 Y72.955 E212.01037
G1 X35.04 Y66.86 E212.65289
G1 F3600 X35.129 Y67.003
G1 F1980 X35.491 Y67.531 E212.70061
G1 X36.259 Y68.532 E212.79466
G1 X36.574 Y68.978 E212.83536
G1 X36.758 Y69.215 E212.85772
G1 X37.096 Y69.593 E212.89552
G1 X38.383 Y70.881 E213.03125
G1 X38.515 Y71.001 E213.04455
G1 X38.975 Y71.384 E213.08916
G1 X39.46 Y71.733 E213.1337
G1 X40.609 Y72.609 E213.24141
G1 X41.135 Y72.955 E213.28834
G1 F1680 E210.28834
G1 F3600 X65.481 Y40.8
;TIME_ELAPSED:100.555262
;LAYER:-4
M106 S255
G1 X65.481 Y40.8 Z0.869
G1 F1680 E213.28834
G1 F2400 X38.512 Y40.8 E214.35352
G1 X38.689 Y40.642 E214.36289
G1 X38.939 Y40.447 E214.37541
G1 X39.006 Y40.4 E214.37864
G1 X64.982 Y40.4 E215.4046
G1 X64.629 Y40.146 E215.42178
G1 X64.438 Y40 E215.43127
G1 X39.559 Y40 E216.4139
G1 X40.08 Y39.6 E216.43985
G1 X63.913 Y39.6 E217.38116
G1 X63.467 Y39.26 E217.40331
G1 X63.376 Y39.2 E217.40762
G1 X40.628 Y39.2 E218.30608
G1 X40.907 Y39.009 E218.31944
G1 X41.059 Y38.914 E218.32652
G1 X41.257 Y38.8 E218.33554
G1 X62.742 Y38.8 E219.18412
G1 X62.05 Y38.4 E219.21569
G1 X41.949 Y38.4 E220.00961
G1 X42.641 Y38 E220.04118
G1 X61.358 Y38 E220.78043
G1 X61.345 Y37.993 E220.78101
G1 X60.75 Y37.693 E220.80733
G1 X60.527 Y37.6 E220.81688
G1 X43.461 Y37.6 E221.49092
G1 X44.425 Y37.2 E221.53214
G1 X59.568 Y37.2 E222.13024
G1 X58.906 Y36.924 E222.15857
G1 X58.727 Y36.856 E222.16613
G1 X58.558 Y36.8 E222.17316
G1 X45.441 Y36.8 E222.69124
G1 X45.848 Y36.665 E222.70817
G1 X46.849 Y36.4 E222.74907
G1 X57.15 Y36.4 E223.15592
G1 X56.183 Y36.144 E223.19543
G1 X55.557 Y36.024 E223.22061
G1 X55.373 Y36 E223.22793
G1 X48.629 Y36 E223.4943
G1 X49.94 Y35.826 E223.54653
G1 X50.33 Y35.759 E223.56216
G1 X50.897 Y35.709 E223.58464
G1 X51.119 Y35.699 E223.59342
G1 X53.049 Y35.703 E223.66965
G1 X53.453 Y35.729 E223.68564
G1 X53.762 Y35.768 E223.69794
G1 X54.269 Y35.856 E223.71826
G1 F1680 E220.71826
G1 F3600 X65.481 Y40.8
G1 F1680 E223.71826
G1 F2400 X65.572 Y40.877 E223.72297
G1 X65.726 Y41.017 E223.73119
G1 X65.91 Y41.2 E223.74144
G1 X38.089 Y41.2 E224.84027
G1 X37.689 Y41.6 E224.86261
G1 X66.31 Y41.6 E225.99304
G1 X66.71 Y42 E226.01538
G1 X37.289 Y42 E227.17741
G1 X37.017 Y42.272 E227.1926
G1 X36.901 Y42.4 E227.19942
G1 X67.099 Y42.4 E228.39213
G1 X67.356 Y42.689 E228.40741
G1 X67.443 Y42.8 E228.41298
G1 X36.564 Y42.8 E229.63259
G1 X36.506 Y42.869 E229.63615
G1 X36.268 Y43.2 E229.65225
G1 X67.735 Y43.2 E230.89508
G1 X67.859 Y43.377 E230.90362
G1 X68.031 Y43.6 E230.91474
G1 X35.97 Y43.6 E232.18104
G1 X35.665 Y44 E232.20091
G1 X68.338 Y44 E233.49137
G1 X68.626 Y44.376 E233.51008
G1 X68.643 Y44.4 E233.51124
G1 X35.36 Y44.4 E234.8258
G1 X35.26 Y44.531 E234.83231
G1 X35.084 Y44.8 E234.845
G1 X68.916 Y44.8 E236.18125
G1 X68.989 Y44.907 E236.18636
G1 X69.084 Y45.059 E236.19344
G1 X69.166 Y45.2 E236.19989
G1 X34.833 Y45.2 E237.55592
G1 X34.602 Y45.6 E237.57416
G1 X69.397 Y45.6 E238.94844
G1 X69.628 Y46 E238.96668
G1 X34.371 Y46 E240.35921
G1 X34.14 Y46.4 E240.37745
G1 X69.859 Y46.4 E241.78822
G1 X70.005 Y46.653 E241.79976
G1 X70.084 Y46.8 E241.80635
G1 X33.915 Y46.8 E243.2349
G1 X33.904 Y46.819 E243.23576
G1 X33.72 Y47.2 E243.25247
G1 X70.279 Y47.2 E244.69642
G1 X70.36 Y47.369 E244.70383
G1 X70.456 Y47.6 E244.71371
G1 X33.543 Y47.6 E246.17164
G1 X33.377 Y48 E246.18874
G1 X70.622 Y48 E247.65979
G1 X70.788 Y48.4 E247.67689
G1 X33.211 Y48.4 E249.16105
G1 X33.045 Y48.8 E249.17815
G1 X70.954 Y48.8 E250.67542
G1 X71.075 Y49.092 E250.6879
