M73 P0
;MINX:24.6
;MAXX:75.4
;MINY:32.2
;MAXY:87.8
;MINZ:0.0
;MAXZ:36.8
;MachineType:ENTINA TINA2
;FilamentType:PLA
;Extruder0Temperature:200
;InfillDensity:10
;FLAVOR:Marlin
;TIME:6351
;FilamentUsed:3711.0
;Layer height: 0.2

;Generated with Cura_SteamEngine 3.1
M104 T0 S215
M82 ; absolute extrusion mode
;(**** start.gcode for tina2****)
M104 S150
G28 Z
G28 X Y; Home extruder
G1 X55 Y55 F1000
G1 Z10 F200
G29
G1 Z15 F100
M107 ; Turn off fan
G90 ; Absolute positioning
M82 ; Extruder in absolute mode
M109 S215.0
G92 E0 ; Reset extruder position
G1 X90 Y6 Z0.27 F2000
G1 X20 Y6 Z0.27 E15 F1000
G92 E0 ; Reset extruder position

;LAYER_COUNT:178
;LAYER:-6
M107
M203 Z5
G1 F3600 X62.39 Y34.138 Z0.349
G1 F1200 X62.649 Y34.433 E0.04329
G1 X62.816 Y34.648 E0.07331
G1 X62.972 Y34.879 E0.10405
G1 X63.13 Y35.147 E0.13836
G1 X63.262 Y35.406 E0.17041
G1 X63.365 Y35.645 E0.19911
G1 X63.472 Y35.943 E0.23403
G1 X63.552 Y36.222 E0.26603
G1 X63.608 Y36.483 E0.29547
G1 X63.656 Y36.803 E0.33115
G1 X63.692 Y37.264 E0.38214
G1 X63.699 Y37.452 E0.40289
G1 X63.7 Y40.144 E0.69975
G1 X63.742 Y40.813 E0.77366
G1 X63.872 Y41.482 E0.84882
G1 X64.084 Y42.132 E0.92421
G1 X64.377 Y42.748 E0.99943
G1 X64.745 Y43.324 E1.07481
G1 X65.183 Y43.848 E1.15012
G1 X65.685 Y44.314 E1.22565
G1 X66.339 Y44.771 E1.31363
G1 X66.644 Y44.957 E1.35303
G1 X67.235 Y45.364 E1.43216
G1 X67.762 Y45.769 E1.50545
G1 X68.179 Y46.12 E1.56556
G1 X68.647 Y46.554 E1.63594
G1 X69.002 Y46.909 E1.69131
G1 X69.387 Y47.326 E1.75389
G1 X69.909 Y47.937 E1.84251
G1 X70.168 Y48.26 E1.88816
G1 X70.727 Y49.008 E1.99114
G1 X71.16 Y49.643 E2.07589
G1 X71.724 Y50.546 E2.1933
G1 X71.904 Y50.855 E2.23273
G1 X72.366 Y51.7 E2.33893
G1 X72.737 Y52.448 E2.43101
G1 X73.177 Y53.448 E2.55148
G1 X73.407 Y54.02 E2.61947
G1 X73.634 Y54.645 E2.69279
G1 X73.869 Y55.363 E2.7761
G1 X74.057 Y56.011 E2.85051
G1 X74.293 Y56.942 E2.95642
G1 X74.422 Y57.534 E3.02323
G1 X74.54 Y58.155 E3.09294
G1 X74.664 Y58.947 E3.18134
G1 X74.777 Y59.791 E3.27524
G1 X74.822 Y60.249 E3.32599
G1 X74.838 Y60.645 E3.36969
G1 X74.831 Y60.952 E3.40356
G1 X74.807 Y61.22 E3.43323
G1 X74.757 Y61.557 E3.4708
G1 X74.697 Y62.225 E3.54476
G1 X74.718 Y62.748 E3.60248
G1 X74.695 Y62.748 E3.60501
G1 X74.85 Y63.767 E3.71868
G1 X74.882 Y64.08 E3.75337
G1 X74.919 Y64.595 E3.81031
G1 X74.93 Y64.895 E3.84341
G1 X74.931 Y65.622 E3.92358
G1 X74.913 Y66.063 E3.97225
G1 X74.887 Y66.482 E4.01855
G1 X74.841 Y66.997 E4.07556
G1 X74.732 Y67.955 E4.18189
G1 X74.637 Y68.615 E4.25542
G1 X74.403 Y70.009 E4.41129
G1 X74.287 Y70.534 E4.47058
G1 X74.199 Y70.826 E4.50421
G1 X74.106 Y71.074 E4.53342
G1 X73.983 Y71.351 E4.56684
G1 X73.886 Y71.536 E4.58988
G1 X73.612 Y72.15 E4.66402
G1 X73.398 Y72.883 E4.74823
G1 X73.353 Y73.09 E4.77159
G1 X73.225 Y73.601 E4.82968
G1 X73.099 Y74.018 E4.87771
G1 X72.875 Y74.655 E4.95218
G1 X72.615 Y75.254 E5.02418
G1 X72.346 Y75.809 E5.0922
G1 X72.056 Y76.345 E5.1594
G1 X71.558 Y77.138 E5.26266
G1 X71.064 Y77.821 E5.35561
G1 X70.866 Y78.078 E5.39139
G1 X70.503 Y78.514 E5.45395
G1 X70.212 Y78.846 E5.50263
G1 X69.989 Y79.076 E5.53796
G1 X69.723 Y79.325 E5.57814
G1 X69.383 Y79.606 E5.62678
G1 X68.894 Y80.064 E5.70066
G1 X68.478 Y80.564 E5.77239
G1 X68.399 Y80.671 E5.78706
G1 X68.15 Y80.978 E5.83065
G1 X67.852 Y81.313 E5.88009
G1 X67.615 Y81.56 E5.91784
G1 X67.15 Y81.999 E5.98836
G1 X66.831 Y82.275 E6.03487
G1 X66.015 Y82.902 E6.14835
G1 X65.527 Y83.241 E6.21388
G1 X65.052 Y83.538 E6.27565
G1 X64.495 Y83.872 E6.34727
G1 X63.943 Y84.173 E6.4166
G1 X63.606 Y84.334 E6.45779
G1 X63.358 Y84.434 E6.48728
G1 X63.064 Y84.53 E6.52138
G1 X62.328 Y84.765 E6.60658
G1 X61.839 Y84.991 E6.66599
G1 X61.498 Y85.173 E6.70861
G1 X60.934 Y85.436 E6.77723
G1 X60.722 Y85.527 E6.80267
G1 X60.217 Y85.72 E6.86229
G1 X59.571 Y85.93 E6.9372
G1 X58.972 Y86.091 E7.0056
G1 X58.187 Y86.275 E7.09451
G1 X57.257 Y86.587 E7.20268
G1 X56.96 Y86.719 E7.23852
G1 X56.681 Y86.823 E7.27135
G1 X56.396 Y86.908 E7.30415
G1 X56.134 Y86.97 E7.33384
G1 X55.842 Y87.019 E7.36649
G1 X55.557 Y87.047 E7.39807
G1 X55.255 Y87.06 E7.4314
G1 X54.962 Y87.052 E7.46373
G1 X54.693 Y87.028 E7.49351
G1 X54.391 Y86.983 E7.52718
G1 X54.106 Y86.92 E7.55936
G1 X53.83 Y86.841 E7.59102
G1 X53.569 Y86.749 E7.62154
G1 X53.282 Y86.626 E7.65597
G1 X52.789 Y86.37 E7.71723
G1 X52.309 Y86.053 E7.78066
G1 X52.079 Y85.873 E7.81287
G1 X51.87 Y85.689 E7.84358
G1 X51.254 Y85.069 E7.93995
G1 X51.246 Y85.077 E7.9412
G1 X50.757 Y84.69 E8.00997
G1 X50.075 Y84.289 E8.09721
G1 X49.816 Y84.16 E8.12912
G1 X49.498 Y83.989 E8.16894
G1 X49.013 Y83.706 E8.23086
G1 X48.261 Y83.206 E8.33044
G1 X47.682 Y82.872 E8.40415
G1 X47.165 Y82.649 E8.46624
G1 X46.597 Y82.433 E8.53325
G1 X46.212 Y82.256 E8.57998
G1 X45.627 Y81.951 E8.65273
G1 X45.211 Y81.707 E8.70591
G1 X44.928 Y81.525 E8.74302
G1 X44.728 Y81.385 E8.76994
G1 X44.153 Y80.94 E8.85012
G1 X43.611 Y80.545 E8.92407
G1 X43.013 Y80.215 E8.99939
G1 X42.377 Y79.965 E9.07475
G1 X41.716 Y79.796 E9.14999
G1 X41.038 Y79.712 E9.22532
G1 X40.355 Y79.714 E9.30064
G1 X39.678 Y79.803 E9.37594
G1 X39.018 Y79.975 E9.45115
G1 X38.384 Y80.23 E9.52651
G1 X37.784 Y80.567 E9.60239
G1 X37.037 Y81.149 E9.70682
G1 X36.628 Y81.517 E9.76749
G1 X36.401 Y81.694 E9.79923
G1 X36.144 Y81.868 E9.83346
G1 X35.918 Y82.002 E9.86243
G1 X35.641 Y82.143 E9.89671
G1 X35.388 Y82.251 E9.92704
G1 X35.091 Y82.358 E9.96185
G1 X34.841 Y82.43 E9.99054
G1 X34.552 Y82.493 E10.02316
G1 X34.247 Y82.538 E10.05716
G1 X33.772 Y82.575 E10.1097
G1 X33.591 Y82.582 E10.12967
G1 X29.54 Y82.583 E10.57639
G1 X29.037 Y82.555 E10.63195
G1 X28.739 Y82.518 E10.66506
G1 X28.455 Y82.463 E10.69696
G1 X28.164 Y82.387 E10.73013
G1 X27.904 Y82.302 E10.76029
G1 X27.627 Y82.192 E10.79316
G1 X27.368 Y82.069 E10.82477
G1 X27.111 Y81.927 E10.85715
G1 X26.894 Y81.788 E10.88557
G1 X26.61 Y81.576 E10.92465
G1 X26.256 Y81.269 E10.97632
G1 X26.11 Y81.133 E10.99833
G1 X25.525 Y80.534 E11.09066
G1 X25.285 Y80.257 E11.13107
G1 X25.107 Y80.024 E11.16341
G1 X24.943 Y79.779 E11.19592
G1 X24.798 Y79.529 E11.22779
G1 X24.671 Y79.273 E11.2593
G1 X24.553 Y78.993 E11.29281
G1 X24.461 Y78.73 E11.32353
G1 X24.383 Y78.45 E11.35558
G1 X24.325 Y78.178 E11.38625
G1 X24.282 Y77.882 E11.41924
G1 X24.247 Y77.395 E11.47308
G1 X24.242 Y77.246 E11.48952
G1 X24.249 Y76.153 E11.61005
G1 X24.27 Y75.814 E11.64751
G1 X24.309 Y75.505 E11.68185
G1 X24.367 Y75.209 E11.71511
G1 X24.437 Y74.938 E11.74598
G1 X24.704 Y74.122 E11.84066
G1 X24.69 Y74.117 E11.8423
G1 X24.714 Y74.038 E11.8514
G1 X24.83 Y73.359 E11.92736
G1 X24.842 Y72.383 E12.035
G1 X24.807 Y71.94 E12.084
G1 X24.8 Y71.754 E12.10453
G1 X24.8 Y70.428 E12.25075
G1 X24.807 Y70.249 E12.2705
G1 X24.848 Y69.729 E12.32802
G1 X24.865 Y69.311 E12.37416
G1 X24.869 Y68.43 E12.47131
G1 X24.892 Y68.063 E12.51186
G1 X24.932 Y67.748 E12.54687
G1 X24.972 Y67.533 E12.57099
G1 X25.065 Y66.556 E12.67921
G1 X25.065 Y64.915 E12.86017
G1 X25.023 Y64.251 E12.93354
G1 X24.939 Y63.764 E12.98804
G1 X24.895 Y63.451 E13.02289
G1 X24.876 Y63.242 E13.04604
G1 X24.865 Y62.939 E13.07947
G1 X24.869 Y62.654 E13.1109
G1 X24.893 Y62.275 E13.15278
G1 X24.929 Y61.983 E13.18522
G1 X24.961 Y61.819 E13.20365
G1 X25.046 Y61.153 E13.27769
G1 X25.046 Y60.473 E13.35267
G1 X24.983 Y59.928 E13.41317
G1 X24.924 Y59.569 E13.45329
G1 X24.875 Y59.027 E13.5133
G1 X24.772 Y58.365 E13.58718
G1 X24.583 Y57.709 E13.66247
G1 X24.313 Y57.082 E13.73775
G1 X23.967 Y56.493 E13.81308
G1 X23.551 Y55.957 E13.8879
G1 X23.157 Y55.554 E13.95005
G1 X22.937 Y55.318 E13.98562
G1 X22.756 Y55.096 E14.01721
G1 X22.592 Y54.868 E14.04818
G1 X22.43 Y54.609 E14.08187
G1 X22.302 Y54.37 E14.11177
G1 X22.175 Y54.095 E14.14517
G1 X22.073 Y53.834 E14.17607
G1 X21.978 Y53.531 E14.21109
G1 X21.917 Y53.281 E14.23947
G1 X21.86 Y52.97 E14.27433
G1 X21.826 Y52.681 E14.30642
G1 X21.813 Y52.424 E14.3348
G1 X21.816 Y52.143 E14.36579
G1 X21.847 Y51.796 E14.4042
G1 X21.943 Y51.222 E14.46838
G1 X21.987 Y51.017 E14.4915
G1 X23.296 Y46.098 E15.05282
G1 X23.413 Y45.743 E15.09404
G1 X23.516 Y45.486 E15.12457
G1 X23.639 Y45.229 E15.15599
G1 X23.79 Y44.957 E15.19029
G1 X23.934 Y44.733 E15.21966
G1 X24.117 Y44.485 E15.25365
G1 X24.301 Y44.266 E15.28519
G1 X24.515 Y44.041 E15.31943
G1 X24.708 Y43.863 E15.34838
G1 X24.948 Y43.668 E15.38248
G1 X25.167 Y43.511 E15.4122
G1 X25.439 Y43.342 E15.44751
G1 X25.669 Y43.219 E15.47627
G1 X25.95 Y43.09 E15.51037
G1 X26.22 Y42.986 E15.54227
G1 X26.483 Y42.904 E15.57265
G1 X26.777 Y42.833 E15.60601
G1 X27.677 Y42.667 E15.70693
G1 X28.304 Y42.473 E15.7793
G1 X28.925 Y42.19 E15.85456
G1 X29.506 Y41.831 E15.92987
G1 X30.036 Y41.401 E16.00513
G1 X30.509 Y40.909 E16.08039
G1 X30.916 Y40.36 E16.15576
G1 X31.249 Y39.765 E16.23095
G1 X31.506 Y39.132 E16.30628
G1 X31.681 Y38.468 E16.38201
G1 X31.715 Y38.164 E16.41574
G1 X31.743 Y38.167 E16.41884
G1 X31.8 Y37.293 E16.51543
G1 X31.837 Y37.001 E16.54789
G1 X31.894 Y36.705 E16.58113
G1 X31.97 Y36.415 E16.61419
G1 X32.044 Y36.19 E16.6403
G1 X32.324 Y35.514 E16.72099
G1 X32.343 Y35.521 E16.72322
G1 X32.631 Y34.701 E16.81906
G1 X32.74 Y34.446 E16.84965
G1 X32.879 Y34.169 E16.88382
G1 X33.026 Y33.917 E16.91599
G1 X33.185 Y33.68 E16.94746
G1 X33.363 Y33.448 E16.97971
G1 X33.537 Y33.249 E17.00886
G1 X33.763 Y33.02 E17.04434
G1 X33.961 Y32.844 E17.07355
G1 X34.201 Y32.656 E17.10717
G1 X34.439 Y32.494 E17.13892
G1 X34.694 Y32.342 E17.17166
G1 X34.945 Y32.213 E17.20278
G1 X35.227 Y32.091 E17.23666
G1 X35.477 Y32.001 E17.26596
G1 X35.766 Y31.915 E17.29921
G1 X36.06 Y31.849 E17.33244
G1 X36.337 Y31.805 E17.36337
G1 X36.619 Y31.777 E17.39462
G1 X37.012 Y31.762 E17.43799
G1 X38.611 Y31.776 E17.61432
G1 X39.009 Y31.804 E17.65832
G1 X39.273 Y31.839 E17.68769
G1 X39.562 Y31.897 E17.72019
G1 X39.859 Y31.975 E17.75405
G1 X40.132 Y32.065 E17.78575
G1 X40.779 Y32.237 E17.85958
G1 X41.46 Y32.327 E17.93533
G1 X42.302 Y32.318 E18.02818
G1 X42.572 Y32.293 E18.05808
G1 X43.233 Y32.19 E18.13185
G1 X43.89 Y32.001 E18.20724
G1 X44.517 Y31.731 E18.28252
G1 X45.101 Y31.385 E18.35738
G1 X45.475 Y31.106 E18.40883
G1 X45.677 Y30.941 E18.43759
G1 X45.913 Y30.772 E18.4696
G1 X46.172 Y30.61 E18.50329
G1 X46.411 Y30.482 E18.53319
G1 X46.686 Y30.355 E18.56659
G1 X46.947 Y30.253 E18.59749
G1 X47.25 Y30.158 E18.63251
G1 X47.471 Y30.104 E18.6576
G1 X47.827 Y30.044 E18.69741
G1 X48.381 Y29.994 E18.75875
G1 X48.603 Y29.984 E18.78325
G1 X53.57 Y29.988 E19.33098
G1 X53.947 Y30.012 E19.37264
G1 X54.245 Y30.049 E19.40575
G1 X54.529 Y30.104 E19.43765
G1 X54.82 Y30.18 E19.47082
G1 X55.078 Y30.264 E19.50074
G1 X55.357 Y30.375 E19.53385
G1 X55.615 Y30.497 E19.56532
G1 X55.873 Y30.64 E19.59785
G1 X56.112 Y30.792 E19.62909
G1 X56.347 Y30.965 E19.66127
G1 X57.074 Y31.571 E19.76564
G1 X57.65 Y31.94 E19.84107
G1 X58.267 Y32.231 E19.9163
G1 X58.916 Y32.444 E19.99162
G1 X59.872 Y32.627 E20.09896
G1 X60.16 Y32.703 E20.1318
G1 X60.418 Y32.787 E20.16172
G1 X60.697 Y32.898 E20.19483
G1 X60.955 Y33.02 E20.22631
G1 X61.214 Y33.164 E20.25898
G1 X61.433 Y33.303 E20.28759
G1 X61.699 Y33.501 E20.32415
G1 X62.182 Y33.923 E20.39488
G1 X62.39 Y34.138 E20.42787
G1 F3600 X62.4 Y34.15
G1 F1200 X62.4 Y84.743 E26.00696
G1 F1680 E23.00696
G1 F3600 X64 Y84.142
G1 F1680 E26.00696
G1 F1200 X64 Y41.875 E30.66791
G1 F1680 E27.66791
G1 F3600 X65.6 Y44.236
G1 F1680 E30.66791
G1 F1200 X65.6 Y83.191 E34.96364
G1 F1680 E31.96364
G1 F3600 X67.2 Y81.952
G1 F1680 E34.96364
G1 F1200 X67.2 Y45.34 E39.00099
G1 F1680 E36.00099
G1 F3600 X68.8 Y46.707
G1 F1680 E39.00099
G1 F1200 X68.8 Y80.177 E42.69186
G1 F1680 E39.69186
G1 F3600 X70.4 Y78.632
G1 F1680 E42.69186
G1 F1200 X70.4 Y48.571 E46.0068
G1 F1680 E43.0068
G1 F3600 X72 Y51.031
G1 F1680 E46.0068
G1 F1200 X72 Y76.435 E48.8082
G1 F1680 E45.8082
G1 F3600 X73.6 Y72.192
G1 F1680 E48.8082
G1 F1200 X73.6 Y54.552 E50.75344
G1 F1680 E47.75344
G1 F3600 X60.8 Y32.947
G1 F1680 E50.75344
G1 F1200 X60.8 Y85.494 E56.548
G1 F1680 E53.548
G1 F3600 X59.2 Y86.03
G1 F1680 E56.548
G1 F1200 X59.2 Y32.499 E62.45108
G1 F1680 E59.45108
G1 F3600 X57.6 Y31.908
G1 F1680 E62.45108
G1 F1200 X57.6 Y86.472 E68.46807
G1 F1680 E65.46807
G1 F3600 X56 Y86.993
G1 F1680 E68.46807
G1 F1200 X56 Y30.721 E74.6734
G1 F1680 E71.6734
G1 F3600 X54.4 Y30.08
G1 F1680 E74.6734
G1 F1200 X54.4 Y86.984 E80.94844
G1 F1680 E77.94844
G1 F3600 X52.8 Y86.375
G1 F1680 E80.94844
G1 F1200 X52.8 Y29.988 E87.16645
G1 F1680 E84.16645
G1 F3600 X51.2 Y29.987
G1 F1680 E87.16645
G1 F1200 X51.2 Y85.04 E93.23737
G1 F1680 E90.23737
G1 F3600 X49.6 Y84.043
G1 F1680 E93.23737
G1 F1200 X49.6 Y29.985 E99.19856
G1 F1680 E96.19856
G1 F3600 X48 Y30.028
G1 F1680 E99.19856
G1 F1200 X48 Y83.055 E105.04606
G1 F1680 E102.04606
G1 F3600 X46.4 Y82.342
G1 F1680 E105.04606
G1 F1200 X46.4 Y30.487 E110.76431
G1 F1680 E107.76431
G1 F3600 X44.8 Y31.563
G1 F1680 E110.76431
G1 F1200 X44.8 Y81.435 E116.2639
G1 F1680 E113.2639
G1 F3600 X43.2 Y80.318
G1 F1680 E116.2639
G1 F1200 X43.2 Y32.195 E121.57061
G1 F1680 E118.57061
G1 F3600 X41.6 Y32.325
G1 F1680 E121.57061
G1 F1200 X41.6 Y79.781 E126.80377
G1 F1680 E123.80377
G1 F3600 X40 Y79.761
G1 F1680 E126.80377
G1 F1200 X40 Y32.022 E132.06814
G1 F1680 E129.06814
G1 F3600 X38.4 Y31.775
G1 F1680 E132.06814
G1 F1200 X38.4 Y80.224 E137.41081
G1 F1680 E134.41081
G1 F3600 X36.8 Y81.363
G1 F1680 E137.41081
G1 F1200 X36.8 Y31.77 E142.87962
G1 F1680 E139.87962
G1 F3600 X35.2 Y32.102
G1 F1680 E142.87962
G1 F1200 X35.2 Y82.319 E148.41725
G1 F1680 E145.41725
G1 F3600 X33.6 Y82.582
G1 F1680 E148.41725
G1 F1200 X33.6 Y33.185 E153.86446
G1 F1680 E150.86446
G1 F3600 X32 Y36.323
G1 F1680 E153.86446
G1 F1200 X32 Y82.583 E158.96573
G1 F1680 E155.96573
G1 F3600 X30.4 Y82.583
G1 F1680 E158.96573
G1 F1200 X30.4 Y41.022 E163.54883
G1 F1680 E160.54883
G1 F3600 X28.8 Y42.246
G1 F1680 E163.54883
G1 F1200 X28.8 Y82.525 E167.99055
G1 F1680 E164.99055
G1 F3600 X27.2 Y81.976
G1 F1680 E167.99055
G1 F1200 X27.2 Y42.754 E172.31572
G1 F1680 E169.31572
G1 F3600 X25.6 Y43.255
M104 T0 S200
G1 F1680 E172.31572
G1 F1200 X25.6 Y80.61 E176.435
G1 F1680 E173.435
G1 F3600 X24 Y56.549
G1 F1680 E176.435
G1 F1200 X24 Y44.643 E177.74793
G1 F1680 E174.74793
G1 F3600 X22.4 Y49.465
G1 F1680 E177.74793
G1 F1200 X22.4 Y54.552 E178.30889
G1 F1680 E175.30889
G1 F3600 X62.428 Y34.104
;TIME_ELAPSED:90.583117
;LAYER:-5
G1 X62.428 Y34.104 Z0.619
;TYPE:SUPPORT
G1 F1680 E178.30889
G1 F1980 X62.217 Y33.886 E178.3315
G1 X61.734 Y33.463 E178.37936
G1 X61.461 Y33.26 E178.40472
G1 X61.236 Y33.118 E178.42455
G1 X60.977 Y32.975 E178.44661
G1 X63.228 Y35.226 E178.6839
G1 X63.31 Y35.389 E178.6975
G1 X63.411 Y35.628 E178.71685
G1 X63.523 Y35.937 E178.74135
G1 X63.597 Y36.193 E178.76121
G1 X63.659 Y36.479 E178.78302
G1 X63.706 Y36.79 E178.80647
G1 X63.721 Y36.992 E178.82157
G1 X59.17 Y32.442 E179.30127
G1 X58.927 Y32.395 E179.31972
G1 X58.284 Y32.183 E179.37019
G1 X57.674 Y31.894 E179.4205
G1 X57.103 Y31.529 E179.47102
G1 X56.98 Y31.43 E179.48279
G1 X56.393 Y30.938 E179.53988
G1 X63.75 Y38.294 E180.31539
G1 X63.75 Y39.567 E180.41028
G1 X54.171 Y29.988 E181.42008
G1 X53.954 Y29.96 E181.43639
G1 X53.571 Y29.936 E181.46499
G1 X52.847 Y29.936 E181.51896
G1 X63.81 Y40.9 E182.67471
G1 X63.92 Y41.469 E182.71791
G1 X64.13 Y42.112 E182.76833
G1 X64.42 Y42.724 E182.81881
G1 X64.527 Y42.889 E182.83347
G1 X51.572 Y29.935 E184.1991
G1 X50.299 Y29.934 E184.29399
G1 X72.77 Y52.405 E186.66283
G1 X72.819 Y52.505 E186.67114
G1 X73.223 Y53.428 E186.74624
G1 X73.454 Y54.001 E186.79229
G1 X73.66 Y54.568 E186.83726
G1 X49.025 Y29.933 E189.43423
G1 X48.6 Y29.932 E189.46591
G1 X48.385 Y29.943 E189.48195
G1 X47.813 Y29.994 E189.52476
G1 X74.207 Y56.388 E192.30715
G1 X74.256 Y56.574 E192.32149
G1 X74.471 Y57.535 E192.3949
G1 X74.561 Y58.015 E192.4313
G1 X46.801 Y30.254 E195.35775
G1 X46.678 Y30.301 E195.36756
G1 X46.377 Y30.44 E195.39228
G1 X46.149 Y30.564 E195.41162
G1 X45.958 Y30.684 E195.42844
G1 X74.793 Y59.52 E198.46821
G1 X74.804 Y59.609 E198.4749
G1 X74.863 Y60.127 E198.51376
G1 X74.888 Y60.651 E198.55286
G1 X74.884 Y60.883 E198.57016
G1 X45.227 Y31.227 E201.69648
G1 X45.072 Y31.343 E201.71091
G1 X44.493 Y31.686 E201.76107
G1 X44.438 Y31.71 E201.76555
G1 X74.764 Y62.036 E204.96244
G1 X74.747 Y62.226 E204.97666
