M73 P0
;MINX:25.0
;MAXX:73.8
;MINY:35.5
;MAXY:90.2
;MINZ:0.0
;MAXZ:6.3
;MachineType:ENTINA TINA2
;FilamentType:PLA
;Extruder0Temperature:200
;InfillDensity:10
;FLAVOR:Marlin
;TIME:3298
;FilamentUsed:2337.5
;Layer height: 0.2

;Generated with Cura_SteamEngine 3.1
M104 T0 S215
M82 ; absolute extrusion mode
;(**** start.gcode for tina2****)
M104 S150
G28 Z
G28 X Y; Home extruder
G1 X55 Y55 F1000
G1 Z10 F200
G29
G1 Z15 F100
M107 ; Turn off fan
G90 ; Absolute positioning
M82 ; Extruder in absolute mode
M109 S215.0
G92 E0 ; Reset extruder position
G1 X90 Y6 Z0.27 F2000
G1 X20 Y6 Z0.27 E15 F1000
G92 E0 ; Reset extruder position

;LAYER_COUNT:25
;LAYER:-6
M107
M203 Z5
G1 F3600 X65.239 Y39.834 Z0.349
G1 F1200 X65.635 Y40.192 E0.05887
G1 X66.255 Y40.803 E0.15486
G1 X66.63 Y41.203 E0.21532
G1 X67.453 Y42.166 E0.35501
G1 X67.632 Y42.394 E0.38698
G1 X68.326 Y43.322 E0.51476
G1 X68.928 Y44.207 E0.63279
G1 X69.592 Y45.278 E0.77175
G1 X69.727 Y45.509 E0.80126
G1 X70.204 Y46.374 E0.91019
G1 X70.349 Y46.656 E0.94515
G1 X70.892 Y47.766 E1.08142
G1 X71.415 Y48.981 E1.22729
G1 X71.664 Y49.629 E1.30384
G1 X71.899 Y50.292 E1.38141
G1 X72.126 Y50.99 E1.46235
G1 X72.298 Y51.567 E1.52874
G1 X72.494 Y52.292 E1.61156
G1 X72.697 Y53.143 E1.70804
G1 X72.862 Y53.929 E1.7966
G1 X72.992 Y54.655 E1.87793
G1 X73.107 Y55.394 E1.96041
G1 X73.231 Y56.336 E2.06518
G1 X73.309 Y57.071 E2.14669
G1 X73.373 Y57.83 E2.23068
G1 X73.388 Y58.349 E2.28794
G1 X73.375 Y58.646 E2.32072
G1 X73.344 Y58.947 E2.35409
G1 X73.283 Y59.303 E2.39392
G1 X73.212 Y59.97 E2.46789
G1 X73.227 Y60.647 E2.54256
G1 X73.271 Y61.017 E2.58365
G1 X73.319 Y61.329 E2.61846
G1 X73.369 Y61.798 E2.67047
G1 X73.414 Y62.422 E2.73946
G1 X73.43 Y63.306 E2.83696
G1 X73.397 Y64.287 E2.9452
G1 X73.322 Y65.248 E3.0515
G1 X73.226 Y66.09 E3.14495
G1 X73.082 Y67.131 E3.26084
G1 X72.932 Y68.074 E3.36613
G1 X72.631 Y69.736 E3.55239
G1 X72.507 Y70.249 E3.61059
G1 X72.411 Y70.547 E3.64511
G1 X72.311 Y70.798 E3.67491
G1 X72.182 Y71.073 E3.7084
G1 X71.978 Y71.446 E3.75529
G1 X71.692 Y72.055 E3.82948
G1 X71.457 Y72.814 E3.9171
G1 X71.32 Y73.361 E3.97928
G1 X71.207 Y73.749 E4.02384
G1 X70.981 Y74.406 E4.10046
G1 X70.825 Y74.806 E4.14781
G1 X70.489 Y75.558 E4.23863
G1 X70.357 Y75.829 E4.27187
G1 X70.026 Y76.444 E4.34889
G1 X69.804 Y76.822 E4.39723
G1 X69.389 Y77.473 E4.48237
G1 X69.223 Y77.718 E4.515
G1 X68.699 Y78.429 E4.6124
G1 X68.505 Y78.673 E4.64677
G1 X67.991 Y79.291 E4.73541
G1 X67.81 Y79.495 E4.76549
G1 X67.262 Y80.079 E4.8538
G1 X66.877 Y80.449 E4.91268
G1 X66.216 Y80.998 E5.00744
G1 X66.219 Y81.002 E5.00799
G1 X66.182 Y81.033 E5.01331
G1 X65.795 Y81.469 E5.0776
G1 X65.771 Y81.457 E5.08056
G1 X65.194 Y82.197 E5.18404
G1 X64.843 Y82.596 E5.24264
G1 X64.505 Y82.947 E5.29637
G1 X64.108 Y83.328 E5.35705
G1 X63.807 Y83.595 E5.40142
G1 X63.266 Y84.042 E5.47881
G1 X62.826 Y84.376 E5.53972
G1 X62.429 Y84.658 E5.59342
G1 X61.954 Y84.979 E5.65664
G1 X61.58 Y85.216 E5.70547
G1 X61.11 Y85.501 E5.76608
G1 X60 Y86.116 E5.90602
G1 X59.496 Y86.371 E5.9683
G1 X59.157 Y86.521 E6.00918
G1 X58.893 Y86.616 E6.04012
G1 X58.587 Y86.706 E6.0753
G1 X58.137 Y86.811 E6.12625
G1 X58.145 Y86.835 E6.12904
G1 X57.772 Y86.958 E6.17235
G1 X57.341 Y87.152 E6.22447
G1 X56.747 Y87.444 E6.29746
G1 X56.165 Y87.697 E6.36744
G1 X55.836 Y87.827 E6.40645
G1 X55.182 Y88.055 E6.48283
G1 X54.553 Y88.24 E6.55513
G1 X54.23 Y88.324 E6.59193
G1 X53.049 Y88.6 E6.72568
G1 X52.404 Y88.794 E6.79995
G1 X51.647 Y89.145 E6.89196
G1 X51.259 Y89.351 E6.94041
G1 X51.001 Y89.467 E6.9716
G1 X50.724 Y89.573 E7.00431
G1 X50.457 Y89.654 E7.03508
G1 X50.159 Y89.725 E7.06886
G1 X49.895 Y89.77 E7.09839
G1 X49.594 Y89.802 E7.13177
G1 X49.298 Y89.816 E7.16445
G1 X49.014 Y89.81 E7.19577
G1 X48.729 Y89.787 E7.2273
G1 X48.426 Y89.742 E7.26108
G1 X48.153 Y89.685 E7.29184
G1 X47.877 Y89.608 E7.32343
G1 X47.601 Y89.511 E7.35569
G1 X47.318 Y89.392 E7.38955
G1 X47.069 Y89.268 E7.42022
G1 X46.828 Y89.129 E7.4509
G1 X46.574 Y88.958 E7.48467
G1 X46.345 Y88.784 E7.51638
G1 X46.13 Y88.597 E7.54781
G1 X45.922 Y88.392 E7.58001
G1 X45.728 Y88.175 E7.61211
G1 X45.554 Y87.954 E7.64313
G1 X45.427 Y87.771 E7.66769
G1 X45.014 Y87.244 E7.74152
G1 X44.528 Y86.764 E7.81685
G1 X43.984 Y86.346 E7.8925
G1 X43.79 Y86.239 E7.91693
G1 X43.802 Y86.216 E7.91979
G1 X43.123 Y85.861 E8.00429
G1 X42.655 Y85.595 E8.06365
G1 X42.056 Y85.218 E8.1417
G1 X41.578 Y84.883 E8.20606
G1 X41.009 Y84.52 E8.28049
G1 X40.193 Y84.157 E8.37898
G1 X39.875 Y84.046 E8.41612
G1 X39.606 Y83.939 E8.44804
G1 X38.827 Y83.592 E8.54208
G1 X38.253 Y83.297 E8.61325
G1 X37.771 Y83.018 E8.67466
G1 X37.39 Y82.777 E8.72438
G1 X36.916 Y82.443 E8.78832
G1 X36.644 Y82.233 E8.82622
G1 X36.438 Y82.062 E8.85574
G1 X36.164 Y81.82 E8.89605
G1 X35.96 Y81.626 E8.9271
G1 X35.712 Y81.373 E8.96616
G1 X35.51 Y81.152 E8.99918
G1 X35.157 Y80.726 E9.06019
G1 X34.852 Y80.304 E9.11761
G1 X34.586 Y79.881 E9.17271
G1 X34.212 Y79.32 E9.24706
G1 X33.578 Y78.627 E9.35064
G1 X33.287 Y78.351 E9.39486
G1 X32.759 Y77.813 E9.47799
G1 X32.569 Y77.607 E9.50889
G1 X32.105 Y77.078 E9.58649
G1 X31.529 Y76.348 E9.68903
G1 X31.373 Y76.134 E9.71823
G1 X30.986 Y75.572 E9.79348
G1 X30.833 Y75.335 E9.82459
G1 X30.502 Y74.782 E9.89566
G1 X30.339 Y74.491 E9.93244
G1 X30.058 Y73.947 E9.99996
G1 X29.887 Y73.584 E10.04421
G1 X29.628 Y72.979 E10.11678
G1 X29.52 Y72.696 E10.15018
G1 X29.329 Y72.151 E10.21386
G1 X29.222 Y71.798 E10.25454
G1 X29.065 Y71.21 E10.32165
G1 X28.983 Y70.842 E10.36323
G1 X28.884 Y70.295 E10.42453
G1 X28.826 Y69.873 E10.4715
G1 X28.776 Y69.352 E10.52922
G1 X28.753 Y68.863 E10.5832
G1 X28.705 Y68.195 E10.65705
G1 X28.571 Y67.525 E10.7324
G1 X28.32 Y66.8 E10.81701
G1 X28.163 Y66.411 E10.86326
G1 X27.946 Y65.819 E10.93279
G1 X27.844 Y65.512 E10.96847
G1 X27.601 Y64.72 E11.05982
G1 X27.375 Y63.83 E11.16108
G1 X27.235 Y63.167 E11.23581
G1 X27.077 Y62.217 E11.342
G1 X26.968 Y61.295 E11.44439
G1 X26.904 Y60.432 E11.53981
G1 X26.877 Y59.503 E11.6423
G1 X26.887 Y58.569 E11.7453
G1 X26.898 Y58.266 E11.77874
G1 X26.94 Y57.601 E11.85222
G1 X27.055 Y56.459 E11.97879
G1 X27.194 Y55.515 E12.08401
G1 X27.367 Y54.596 E12.18713
G1 X27.546 Y53.802 E12.27688
G1 X27.672 Y53.099 E12.35564
G1 X27.705 Y52.418 E12.43083
G1 X27.651 Y51.737 E12.50616
G1 X27.511 Y51.069 E12.58142
G1 X27.29 Y50.425 E12.6565
G1 X27.072 Y49.968 E12.71234
G1 X26.85 Y49.544 E12.76512
G1 X26.673 Y49.163 E12.81144
G1 X26.49 Y48.714 E12.86491
G1 X26.387 Y48.429 E12.89833
G1 X26.245 Y47.97 E12.95131
G1 X26.137 Y47.548 E12.99935
G1 X26.041 Y47.083 E13.05171
G1 X25.981 Y46.689 E13.09565
G1 X25.923 Y46.084 E13.16268
G1 X25.905 Y45.68 E13.20727
G1 X25.908 Y45.204 E13.25976
G1 X25.922 Y44.901 E13.29321
G1 X25.965 Y44.425 E13.34592
G1 X26.046 Y43.878 E13.40689
G1 X26.137 Y43.436 E13.45666
G1 X26.249 Y43.002 E13.50608
G1 X26.39 Y42.55 E13.5583
G1 X26.532 Y42.16 E13.60406
G1 X26.701 Y41.756 E13.65236
G1 X26.885 Y41.37 E13.69951
G1 X27.124 Y40.928 E13.75492
G1 X27.287 Y40.656 E13.78989
G1 X27.548 Y40.261 E13.8421
G1 X27.8 Y39.918 E13.88903
G1 X28.101 Y39.546 E13.9418
G1 X28.373 Y39.245 E13.98654
G1 X28.702 Y38.911 E14.03824
G1 X29.024 Y38.614 E14.08654
G1 X29.372 Y38.326 E14.13636
G1 X29.833 Y37.985 E14.19959
G1 X30.202 Y37.741 E14.24837
G1 X30.474 Y37.578 E14.28334
G1 X30.906 Y37.344 E14.33752
G1 X31.304 Y37.154 E14.38615
G1 X31.706 Y36.986 E14.4342
G1 X32.257 Y36.791 E14.49865
G1 X32.656 Y36.673 E14.54453
G1 X33.087 Y36.567 E14.59348
G1 X33.509 Y36.485 E14.64088
G1 X33.966 Y36.42 E14.69179
G1 X34.446 Y36.376 E14.74494
G1 X34.765 Y36.362 E14.78015
G1 X35.214 Y36.359 E14.82966
G1 X35.74 Y36.383 E14.88773
G1 X36.235 Y36.435 E14.94262
G1 X36.641 Y36.498 E14.98792
G1 X37.094 Y36.591 E15.03892
G1 X37.516 Y36.699 E15.08695
G1 X37.972 Y36.84 E15.13959
G1 X38.26 Y36.944 E15.17335
G1 X38.706 Y37.125 E15.22643
G1 X39.09 Y37.304 E15.27315
G1 X39.499 Y37.519 E15.32411
G1 X39.855 Y37.73 E15.36974
G1 X40.267 Y38.002 E15.42418
G1 X40.601 Y38.247 E15.46986
G1 X40.938 Y38.519 E15.51762
G1 X41.138 Y38.694 E15.54692
G1 X41.664 Y39.109 E15.62081
G1 X42.248 Y39.462 E15.69606
G1 X42.87 Y39.738 E15.7711
G1 X43.444 Y39.915 E15.83733
G1 X44.243 Y40.077 E15.92724
G1 X44.905 Y40.176 E16.00105
G1 X45.588 Y40.192 E16.07639
G1 X46.267 Y40.122 E16.15166
G1 X46.933 Y39.967 E16.22707
G1 X47.572 Y39.729 E16.30226
G1 X48.179 Y39.41 E16.37788
G1 X48.863 Y38.917 E16.47085
G1 X49.248 Y38.625 E16.52414
G1 X49.586 Y38.39 E16.56954
G1 X50.095 Y38.07 E16.63584
G1 X50.43 Y37.883 E16.67814
G1 X50.887 Y37.65 E16.73471
G1 X51.316 Y37.453 E16.78677
G1 X51.751 Y37.274 E16.83864
G1 X52.095 Y37.147 E16.87908
G1 X52.581 Y36.989 E16.93543
G1 X52.931 Y36.887 E16.97563
G1 X53.436 Y36.761 E17.03303
G1 X53.877 Y36.666 E17.08277
G1 X54.433 Y36.572 E17.14496
G1 X54.711 Y36.533 E17.17591
G1 X55.221 Y36.477 E17.23249
G1 X55.613 Y36.45 E17.27582
G1 X56.145 Y36.43 E17.33453
G1 X56.599 Y36.432 E17.38459
G1 X57.284 Y36.458 E17.46018
G1 X57.808 Y36.504 E17.51819
G1 X58.182 Y36.55 E17.55974
G1 X58.628 Y36.618 E17.60949
G1 X58.953 Y36.678 E17.64594
G1 X59.532 Y36.807 E17.71135
G1 X59.794 Y36.875 E17.7412
G1 X60.346 Y37.036 E17.80461
G1 X60.673 Y37.145 E17.84262
G1 X61.128 Y37.312 E17.89607
G1 X61.414 Y37.428 E17.9301
G1 X61.839 Y37.613 E17.98121
G1 X62.112 Y37.741 E18.01446
G1 X62.811 Y38.107 E18.10147
G1 X63.238 Y38.357 E18.15604
G1 X63.454 Y38.492 E18.18413
G1 X64.113 Y38.939 E18.27194
G1 X64.716 Y39.397 E18.35544
G1 X65.239 Y39.834 E18.43059
G1 F3600 X65.6 Y40.161
G1 F1200 X65.6 Y81.677 E23.00873
G1 F1680 E20.00873
G1 F3600 X67.2 Y80.139
G1 F1680 E23.00873
G1 F1200 X67.2 Y41.87 E27.2288
G1 F1680 E24.2288
G1 F3600 X68.8 Y44.019
G1 F1680 E27.2288
G1 F1200 X68.8 Y78.292 E31.00822
G1 F1680 E28.00822
G1 F3600 X70.4 Y75.741
G1 F1680 E31.00822
G1 F1200 X70.4 Y46.761 E34.20396
G1 F1680 E31.20396
G1 F3600 X72 Y50.603
G1 F1680 E34.20396
G1 F1200 X72 Y71.406 E36.49799
G1 F1680 E33.49799
G1 F3600 X64 Y83.424
G1 F1680 E36.49799
G1 F1200 X64 Y38.863 E41.41191
G1 F1680 E38.41191
G1 F3600 X62.4 Y37.892
G1 F1680 E41.41191
G1 F1200 X62.4 Y84.678 E46.57119
G1 F1680 E43.57119
G1 F3600 X60.8 Y85.673
G1 F1680 E46.57119
G1 F1200 X60.8 Y37.192 E51.91738
G1 F1680 E48.91738
G1 F3600 X59.2 Y36.734
G1 F1680 E51.91738
G1 F1200 X59.2 Y86.502 E57.4055
G1 F1680 E54.4055
G1 F3600 X57.6 Y87.036
G1 F1680 E57.4055
G1 F1200 X57.6 Y36.486 E62.97985
G1 F1680 E59.97985
G1 F3600 X56 Y36.435
G1 F1680 E62.97985
G1 F1200 X56 Y87.763 E68.63999
G1 F1680 E65.63999
G1 F3600 X54.4 Y88.28
G1 F1680 E68.63999
G1 F1200 X54.4 Y36.577 E74.34148
G1 F1680 E71.34148
G1 F3600 X52.8 Y36.925
G1 F1680 E74.34148
G1 F1200 X52.8 Y88.675 E80.04816
G1 F1680 E77.04816
G1 F3600 X51.2 Y89.378
G1 F1680 E80.04816
G1 F1200 X51.2 Y37.506 E85.7683
G1 F1680 E82.7683
G1 F3600 X49.6 Y38.381
G1 F1680 E85.7683
G1 F1200 X49.6 Y89.802 E91.43869
G1 F1680 E88.43869
G1 F3600 X48 Y89.642
G1 F1680 E91.43869
G1 F1200 X48 Y39.504 E96.96761
G1 F1680 E93.96761
G1 F3600 X46.4 Y40.091
G1 F1680 E96.96761
G1 F1200 X46.4 Y88.825 E102.3417
G1 F1680 E99.3417
G1 F3600 X44.8 Y87.032
G1 F1680 E102.3417
G1 F1200 X44.8 Y40.161 E107.51035
G1 F1680 E104.51035
G1 F3600 X43.2 Y39.84
G1 F1680 E107.51035
G1 F1200 X43.2 Y85.901 E112.58968
G1 F1680 E109.58968
G1 F3600 X41.6 Y84.898
G1 F1680 E112.58968
G1 F1200 X41.6 Y39.059 E117.64453
G1 F1680 E114.64453
G1 F3600 X40 Y37.826
G1 F1680 E117.64453
G1 F1200 X40 Y84.089 E122.74614
G1 F1680 E119.74614
G1 F3600 X38.4 Y83.372
G1 F1680 E122.74614
G1 F1200 X38.4 Y37.001 E127.85965
G1 F1680 E124.85965
G1 F3600 X36.8 Y36.531
G1 F1680 E127.85965
G1 F1200 X36.8 Y82.353 E132.91263
G1 F1680 E129.91263
G1 F3600 X35.2 Y80.777
G1 F1680 E132.91263
G1 F1200 X35.2 Y36.359 E137.81078
G1 F1680 E134.81078
G1 F3600 X33.6 Y36.472
G1 F1680 E137.81078
G1 F1200 X33.6 Y78.651 E142.46202
G1 F1680 E139.46202
G1 F3600 X32 Y76.944
G1 F1680 E142.46202
G1 F1200 X32 Y36.881 E146.87993
G1 F1680 E143.87993
G1 F3600 X30.4 Y37.622
G1 F1680 E146.87993
G1 F1200 X30.4 Y74.599 E150.95753
M104 T0 S200
G1 F1680 E147.95753
G1 F3600 X28.8 Y69.602
G1 F1680 E150.95753
G1 F1200 X28.8 Y38.82 E154.35198
G1 F1680 E151.35198
G1 F3600 X27.2 Y40.801
G1 F1680 E154.35198
G1 F1200 X27.2 Y50.236 E155.39242
G1 F1680 E152.39242
G1 F3600 X27.2 Y55.483
G1 F1680 E155.39242
G1 F1200 X27.2 Y62.956 E156.21649
G1 F1680 E153.21649
G1 F3600 X65.272 Y39.796
;TIME_ELAPSED:79.536454
;LAYER:-5
G1 X65.272 Y39.796 Z0.619
;TYPE:SUPPORT
G1 F1680 E156.21649
G1 F1980 X65.669 Y40.155 E156.25639
G1 X66.286 Y40.762 E156.32091
G1 X66.667 Y41.169 E156.36247
G1 F3600 X66.921 Y41.466
G1 F1980 X65.149 Y39.694 E156.54927
G1 X65.272 Y39.796 E156.56118
G1 F1680 E153.56118
G1 F3600 X66.921 Y41.466
G1 F1680 E156.56118
G1 F1980 X67.421 Y42.048 E156.61837
G1 X67.591 Y42.26 E156.63863
G1 X68.247 Y43.126 E156.71961
G1 X68.411 Y43.355 E156.74061
G1 X69.087 Y44.361 E156.83096
G1 X69.635 Y45.252 E156.90893
G1 X69.77 Y45.483 E156.92887
G1 X69.896 Y45.713 E156.94842
G1 X61.667 Y37.484 E157.8159
G1 X61.15 Y37.265 E157.85776
G1 X60.695 Y37.099 E157.89386
G1 X60.255 Y36.954 E157.92839
G1 X59.715 Y36.805 E157.97015
G1 X71.152 Y48.242 E159.17581
G1 X71.465 Y48.969 E159.23481
G1 X71.711 Y49.612 E159.28613
G1 X71.947 Y50.275 E159.33859
G1 X71.963 Y50.326 E159.34257
G1 X58.129 Y36.491 E160.80097
G1 X57.866 Y36.457 E160.82074
G1 X57.291 Y36.406 E160.86377
G1 X57.018 Y36.391 E160.88415
G1 X56.75 Y36.386 E160.90413
G1 X72.505 Y52.14 E162.56494
G1 X72.542 Y52.279 E162.57566
G1 X72.737 Y53.089 E162.63776
G1 X72.885 Y53.793 E162.69139
G1 X55.497 Y36.406 E164.52434
G1 X55.263 Y36.423 E164.54183
G1 X54.703 Y36.481 E164.58379
G1 X54.422 Y36.521 E164.60495
G1 X54.353 Y36.534 E164.61018
G1 X73.148 Y55.329 E166.59151
G1 X73.157 Y55.386 E166.59581
G1 X73.266 Y56.209 E166.65769
G1 X73.327 Y56.781 E166.70057
G1 X53.291 Y36.745 E168.81272
G1 X52.909 Y36.839 E168.84205
G1 X52.557 Y36.942 E168.86939
G1 X52.3 Y37.026 E168.88954
G1 X73.433 Y58.159 E171.11733
G1 X73.437 Y58.351 E171.13165
G1 X73.425 Y58.652 E171.1541
G1 X73.394 Y58.946 E171.17614
G1 X73.331 Y59.309 E171.2036
G1 X73.33 Y59.329 E171.2051
G1 X51.375 Y37.374 E173.51954
G1 X51.221 Y37.438 E173.53197
G1 X50.857 Y37.607 E173.56189
G1 X50.512 Y37.784 E173.59079
G1 X73.274 Y60.546 E175.99031
G1 X73.276 Y60.644 E175.99762
G1 X73.32 Y61.011 E176.02517
G1 X73.367 Y61.323 E176.04869
G1 X73.418 Y61.799 E176.08437
G1 X73.432 Y61.977 E176.09768
G1 X49.708 Y38.253 E178.59861
G1 X49.562 Y38.343 E178.6114
G1 X49.218 Y38.583 E178.64266
G1 X48.961 Y38.779 E178.66676
G1 X73.48 Y63.298 E181.25149
G1 X73.447 Y64.29 E181.32548
G1 X73.428 Y64.519 E181.34261
G1 X48.224 Y39.315 E183.99955
G1 X48.151 Y39.367 E184.00624
G1 X47.55 Y39.682 E184.05682
G1 X47.382 Y39.745 E184.07019
G1 X73.322 Y65.685 E186.80473
G1 X73.244 Y66.345 E186.85427
G1 X73.177 Y66.813 E186.88951
G1 X46.403 Y40.039 E189.71196
G1 X46.258 Y40.072 E189.72305
G1 X45.585 Y40.141 E189.77347
G1 X45.223 Y40.132 E189.80047
G1 X73.008 Y67.917 E192.7295
G1 X72.981 Y68.083 E192.74203
G1 X72.816 Y68.998 E192.81134
G1 X43.745 Y39.927 E195.87594
G1 X43.454 Y39.865 E195.89812
G1 X42.887 Y39.689 E195.94237
G1 X42.27 Y39.416 E195.99266
G1 X41.691 Y39.066 E196.0431
G1 X41.312 Y38.767 E196.07908
G1 X72.606 Y70.06 E199.37797
G1 X72.559 Y70.249 E199.39249
G1 X72.457 Y70.564 E199.41717
G1 X72.362 Y70.808 E199.43669
G1 X72.272 Y70.999 E199.45243
G1 X38.108 Y36.836 E203.05386
G1 X37.987 Y36.792 E203.06346
G1 X37.539 Y36.652 E203.09845
G1 X37.115 Y36.543 E203.13108
G1 X36.649 Y36.448 E203.16653
G1 X36.411 Y36.411 E203.18449
G1 X71.846 Y71.846 E206.91996
G1 X71.739 Y72.073 E206.93867
G1 X71.518 Y72.79 E206.9946
G1 X35.035 Y36.308 E210.8405
G1 X34.86 Y36.307 E210.85354
G1 X34.443 Y36.325 E210.88466
G1 X33.963 Y36.367 E210.92057
G1 X33.84 Y36.386 E210.92985
G1 X71.244 Y73.79 E214.87289
G1 X71.208 Y73.908 E214.88209
G1 X71.028 Y74.422 E214.92269
G1 X70.91 Y74.729 E214.9472
G1 X32.771 Y36.589 E218.96778
G1 X32.649 Y36.619 E218.97715
G1 X32.087 Y36.792 E219.02098
G1 X31.802 Y36.894 E219.04354
G1 X70.519 Y75.61 E223.12495
G1 X70.408 Y75.836 E223.14372
G1 X70.08 Y76.444 E223.19521
G1 X30.918 Y37.282 E227.32358
G1 X30.542 Y37.478 E227.35519
G1 X30.175 Y37.697 E227.38704
