M73 P0
;MINX:29.6
;MAXX:70.4
;MINY:37.2
;MAXY:82.8
;MINZ:0.0
;MAXZ:5.3
;MachineType:ENTINA TINA2
;FilamentType:PLA
;Extruder0Temperature:200
;InfillDensity:10
;FLAVOR:Marlin
;TIME:2022
;FilamentUsed:1455.0
;Layer height: 0.2

;Generated with Cura_SteamEngine 3.1
M104 T0 S215
M82 ; absolute extrusion mode
;(**** start.gcode for tina2****)
M104 S150
G28 Z
G28 X Y; Home extruder
G1 X55 Y55 F1000
G1 Z10 F200
G29
G1 Z15 F100
M107 ; Turn off fan
G90 ; Absolute positioning
M82 ; Extruder in absolute mode
M109 S215.0
G92 E0 ; Reset extruder position
G1 X90 Y6 Z0.27 F2000
G1 X20 Y6 Z0.27 E15 F1000
G92 E0 ; Reset extruder position

;LAYER_COUNT:20
;LAYER:-6
M107
M203 Z5
G1 F3600 X63.408 Y41.327 Z0.349
G1 F1200 X63.819 Y41.724 E0.06301
G1 X64.103 Y42.016 E0.10793
G1 X64.458 Y42.406 E0.16609
G1 X65.029 Y43.082 E0.26367
G1 X65.555 Y43.772 E0.35934
G1 X65.789 Y44.095 E0.40333
G1 X66.16 Y44.643 E0.4763
G1 X66.766 Y45.617 E0.6028
G1 X66.904 Y45.855 E0.63314
G1 X67.366 Y46.7 E0.73934
G1 X67.737 Y47.448 E0.83141
G1 X68.167 Y48.422 E0.94882
G1 X68.407 Y49.02 E1.01988
G1 X68.634 Y49.645 E1.0932
G1 X68.864 Y50.347 E1.17467
G1 X69.057 Y51.011 E1.25092
G1 X69.291 Y51.934 E1.35592
G1 X69.422 Y52.534 E1.42364
G1 X69.54 Y53.155 E1.49335
G1 X69.664 Y53.947 E1.58175
G1 X69.777 Y54.791 E1.67565
G1 X69.822 Y55.249 E1.7264
G1 X69.838 Y55.645 E1.7701
G1 X69.831 Y55.952 E1.80397
G1 X69.807 Y56.22 E1.83364
G1 X69.757 Y56.557 E1.87121
G1 X69.697 Y57.225 E1.94517
G1 X69.718 Y57.748 E2.00289
G1 X69.695 Y57.748 E2.00542
G1 X69.847 Y58.743 E2.11642
G1 X69.879 Y59.036 E2.14892
G1 X69.92 Y59.598 E2.21106
G1 X69.929 Y59.855 E2.23942
G1 X69.932 Y60.585 E2.31992
G1 X69.887 Y61.482 E2.41896
G1 X69.841 Y61.999 E2.4762
G1 X69.732 Y62.955 E2.5823
G1 X69.637 Y63.615 E2.65583
G1 X69.403 Y65.009 E2.8117
G1 X69.287 Y65.534 E2.871
G1 X69.199 Y65.826 E2.90463
G1 X69.106 Y66.074 E2.93383
G1 X68.981 Y66.355 E2.96775
G1 X68.884 Y66.54 E2.99078
G1 X68.611 Y67.155 E3.06498
G1 X68.401 Y67.873 E3.14748
G1 X68.331 Y68.188 E3.18306
G1 X68.201 Y68.681 E3.23928
G1 X68.107 Y68.992 E3.27511
G1 X67.893 Y69.607 E3.34692
G1 X67.778 Y69.887 E3.3803
G1 X67.615 Y70.254 E3.42458
G1 X67.353 Y70.795 E3.49087
G1 X67.056 Y71.345 E3.55979
G1 X66.558 Y72.138 E3.66306
G1 X66.064 Y72.821 E3.75601
G1 X65.865 Y73.079 E3.79194
G1 X65.503 Y73.514 E3.85435
G1 X65.195 Y73.865 E3.90584
G1 X64.989 Y74.076 E3.93836
G1 X64.723 Y74.325 E3.97854
G1 X64.383 Y74.606 E4.02718
G1 X63.894 Y75.064 E4.10106
G1 X63.477 Y75.565 E4.17294
G1 X63.153 Y75.973 E4.23039
G1 X62.852 Y76.313 E4.28047
G1 X62.615 Y76.56 E4.31822
G1 X62.152 Y76.998 E4.3885
G1 X61.755 Y77.339 E4.44621
G1 X60.937 Y77.959 E4.5594
G1 X60.503 Y78.257 E4.61745
G1 X59.495 Y78.872 E4.74766
G1 X58.943 Y79.173 E4.817
G1 X58.606 Y79.334 E4.85818
G1 X58.358 Y79.434 E4.88767
G1 X58.064 Y79.53 E4.92178
G1 X57.328 Y79.765 E5.00697
G1 X56.839 Y79.991 E5.06638
G1 X56.498 Y80.173 E5.109
G1 X55.934 Y80.436 E5.17763
G1 X55.722 Y80.527 E5.20307
G1 X55.217 Y80.72 E5.26268
G1 X54.571 Y80.93 E5.33759
G1 X53.972 Y81.091 E5.40599
G1 X53.187 Y81.275 E5.4949
G1 X52.257 Y81.587 E5.60307
G1 X51.96 Y81.719 E5.63891
G1 X51.681 Y81.823 E5.67175
G1 X51.396 Y81.908 E5.70454
G1 X51.134 Y81.97 E5.73423
G1 X50.842 Y82.019 E5.76688
G1 X50.557 Y82.047 E5.79846
G1 X50.255 Y82.06 E5.8318
G1 X49.962 Y82.052 E5.86412
G1 X49.693 Y82.028 E5.8939
G1 X49.391 Y81.983 E5.92757
G1 X49.106 Y81.92 E5.95976
G1 X48.83 Y81.841 E5.99142
G1 X48.569 Y81.749 E6.02193
G1 X48.282 Y81.626 E6.05637
G1 X47.789 Y81.37 E6.11762
G1 X47.309 Y81.053 E6.18106
G1 X47.079 Y80.873 E6.21326
G1 X46.87 Y80.689 E6.24397
G1 X46.254 Y80.069 E6.34035
G1 X46.246 Y80.077 E6.3416
G1 X45.757 Y79.69 E6.41036
G1 X45.075 Y79.289 E6.49761
G1 X44.816 Y79.16 E6.52951
G1 X44.498 Y78.989 E6.56933
G1 X44.024 Y78.714 E6.62976
G1 X43.36 Y78.273 E6.71766
G1 X42.787 Y77.925 E6.79159
G1 X42.165 Y77.648 E6.86667
G1 X41.597 Y77.433 E6.93364
G1 X41.212 Y77.256 E6.98037
G1 X40.627 Y76.951 E7.05312
G1 X40.211 Y76.707 E7.10631
G1 X39.928 Y76.525 E7.14341
G1 X39.728 Y76.385 E7.17033
G1 X39.241 Y76.012 E7.23798
G1 X38.822 Y75.644 E7.29947
G1 X38.579 Y75.407 E7.3369
G1 X38.418 Y75.236 E7.3628
G1 X38.056 Y74.807 E7.4247
G1 X37.804 Y74.477 E7.47049
G1 X37.656 Y74.256 E7.49982
G1 X37.328 Y73.739 E7.56734
G1 X37.309 Y73.751 E7.56982
G1 X37.048 Y73.41 E7.61717
G1 X36.168 Y72.508 E7.75613
G1 X35.964 Y72.288 E7.78922
G1 X35.396 Y71.621 E7.88583
G1 X34.962 Y71.049 E7.965
G1 X34.606 Y70.531 E8.03432
G1 X34.253 Y69.951 E8.10919
G1 X34.017 Y69.519 E8.16347
G1 X33.837 Y69.168 E8.20697
G1 X33.681 Y68.834 E8.24762
G1 X33.493 Y68.395 E8.30029
G1 X33.399 Y68.152 E8.32902
G1 X33.227 Y67.663 E8.38618
G1 X33.135 Y67.366 E8.42047
G1 X33.019 Y66.938 E8.46937
G1 X32.931 Y66.547 E8.51356
G1 X32.837 Y66.028 E8.57173
G1 X32.787 Y65.656 E8.61312
G1 X32.759 Y65.373 E8.64448
G1 X32.731 Y64.928 E8.69364
G1 X32.649 Y64.258 E8.76808
G1 X32.384 Y63.32 E8.87557
G1 X32.066 Y62.448 E8.97792
G1 X31.938 Y62.045 E9.02455
G1 X31.784 Y61.498 E9.08721
G1 X31.694 Y61.146 E9.12728
G1 X31.545 Y60.462 E9.20447
G1 X31.43 Y59.789 E9.27976
G1 X31.367 Y59.335 E9.33031
G1 X31.327 Y58.983 E9.36937
G1 X31.292 Y58.599 E9.41189
G1 X31.261 Y58.154 E9.46109
G1 X31.236 Y57.171 E9.56952
G1 X31.255 Y56.352 E9.65986
G1 X31.306 Y55.596 E9.74341
G1 X31.381 Y54.893 E9.82138
G1 X31.453 Y54.364 E9.88025
G1 X31.525 Y53.911 E9.93083
G1 X31.637 Y53.328 E9.9963
G1 X31.736 Y52.666 E10.07011
G1 X31.752 Y51.983 E10.14545
G1 X31.682 Y51.304 E10.22072
G1 X31.526 Y50.636 E10.29637
G1 X31.336 Y50.146 E10.35432
G1 X31.351 Y50.131 E10.35666
G1 X31.078 Y49.551 E10.42735
G1 X30.968 Y49.292 E10.45838
G1 X30.802 Y48.838 E10.51168
G1 X30.72 Y48.586 E10.54091
G1 X30.586 Y48.073 E10.59938
G1 X30.507 Y47.698 E10.64164
G1 X30.434 Y47.202 E10.69692
G1 X30.408 Y46.968 E10.72289
G1 X30.38 Y46.46 E10.77899
G1 X30.374 Y46.232 E10.80414
G1 X30.4 Y45.604 E10.87345
G1 X30.441 Y45.198 E10.91845
G1 X30.533 Y44.626 E10.98234
G1 X30.657 Y44.097 E11.04225
G1 X30.723 Y43.857 E11.0697
G1 X30.964 Y43.172 E11.14978
G1 X31.203 Y42.637 E11.21439
G1 X31.357 Y42.33 E11.25227
G1 X31.455 Y42.156 E11.27429
G1 X31.759 Y41.661 E11.33835
G1 X31.928 Y41.424 E11.37045
G1 X32.348 Y40.894 E11.44502
G1 X32.568 Y40.641 E11.48199
G1 X32.773 Y40.423 E11.51499
G1 X33.14 Y40.083 E11.57016
G1 X33.629 Y39.686 E11.63962
G1 X34.059 Y39.375 E11.69814
G1 X34.509 Y39.1 E11.75629
G1 X34.681 Y39.003 E11.77807
G1 X34.991 Y38.847 E11.81634
G1 X35.273 Y38.715 E11.85067
G1 X35.52 Y38.61 E11.88027
G1 X36.215 Y38.365 E11.96153
G1 X36.743 Y38.227 E12.02171
G1 X37.241 Y38.129 E12.07768
G1 X37.751 Y38.06 E12.13444
G1 X38.059 Y38.036 E12.1685
G1 X38.572 Y38.017 E12.22511
G1 X39.111 Y38.037 E12.28459
G1 X39.347 Y38.053 E12.31068
G1 X39.964 Y38.134 E12.3793
G1 X40.465 Y38.235 E12.43566
G1 X40.779 Y38.316 E12.47142
G1 X41.195 Y38.444 E12.51941
G1 X41.7 Y38.63 E12.57876
G1 X42.261 Y38.887 E12.6468
G1 X42.542 Y39.031 E12.68162
G1 X43.11 Y39.375 E12.75485
G1 X43.5 Y39.655 E12.80779
G1 X44.061 Y40.022 E12.88172
G1 X44.674 Y40.322 E12.95698
G1 X45.32 Y40.541 E13.0322
G1 X45.99 Y40.677 E13.10759
G1 X46.671 Y40.728 E13.18289
G1 X47.353 Y40.692 E13.25821
G1 X48.025 Y40.57 E13.33352
G1 X48.676 Y40.365 E13.40879
G1 X49.293 Y40.081 E13.48369
G1 X50.169 Y39.549 E13.5967
G1 X50.579 Y39.326 E13.64817
G1 X50.821 Y39.204 E13.67806
G1 X51.164 Y39.048 E13.71961
G1 X51.675 Y38.841 E13.78041
G1 X51.879 Y38.769 E13.80426
G1 X52.318 Y38.628 E13.85511
G1 X52.552 Y38.56 E13.88198
G1 X52.948 Y38.46 E13.92702
G1 X53.321 Y38.384 E13.969
G1 X53.93 Y38.275 E14.03722
G1 X54.111 Y38.252 E14.05734
G1 X54.917 Y38.18 E14.14658
G1 X55.534 Y38.162 E14.21464
G1 X56.095 Y38.18 E14.27654
G1 X56.454 Y38.202 E14.3162
G1 X56.984 Y38.254 E14.37493
G1 X57.721 Y38.374 E14.45727
G1 X58.196 Y38.478 E14.51089
G1 X58.786 Y38.638 E14.5783
G1 X59.153 Y38.755 E14.62078
G1 X59.571 Y38.906 E14.66979
G1 X59.904 Y39.043 E14.7095
G1 X60.383 Y39.256 E14.76731
G1 X60.732 Y39.431 E14.81036
G1 X61.371 Y39.789 E14.89113
G1 X61.611 Y39.937 E14.92222
G1 X61.916 Y40.138 E14.9625
G1 X62.423 Y40.503 E15.03139
G1 X62.915 Y40.895 E15.10076
G1 X63.408 Y41.327 E15.17305
G1 F1680 E12.17305
G1 F3600 X64 Y41.911
G1 F1680 E15.17305
G1 F1200 X64 Y74.965 E18.81804
G1 F1680 E15.81804
G1 F3600 X65.6 Y73.398
G1 F1680 E18.81804
G1 F1200 X65.6 Y43.835 E22.07807
G1 F1680 E19.07807
G1 F3600 X67.2 Y46.397
G1 F1680 E22.07807
G1 F1200 X67.2 Y71.079 E24.79986
G1 F1680 E21.79986
G1 F3600 X68.8 Y66.73
G1 F1680 E24.79986
G1 F1200 X68.8 Y50.152 E26.62798
G1 F1680 E23.62798
G1 F3600 X62.4 Y40.487
G1 F1680 E26.62798
G1 F1200 X62.4 Y76.764 E30.62839
G1 F1680 E27.62839
G1 F3600 X60.8 Y78.054
G1 F1680 E30.62839
G1 F1200 X60.8 Y39.47 E34.8832
G1 F1680 E31.8832
G1 F3600 X59.2 Y38.772
G1 F1680 E34.8832
G1 F1200 X59.2 Y79.033 E39.32294
G1 F1680 E36.32294
G1 F3600 X57.6 Y79.679
G1 F1680 E39.32294
G1 F1200 X57.6 Y38.355 E43.8799
G1 F1680 E40.8799
G1 F3600 X56 Y38.177
G1 F1680 E43.8799
G1 F1200 X56 Y80.406 E48.53666
G1 F1680 E45.53666
G1 F3600 X54.4 Y80.976
G1 F1680 E48.53666
G1 F1200 X54.4 Y38.226 E53.25087
G1 F1680 E50.25087
G1 F3600 X52.8 Y38.497
G1 F1680 E53.25087
G1 F1200 X52.8 Y81.405 E57.98251
G1 F1680 E54.98251
G1 F3600 X51.2 Y81.955
G1 F1680 E57.98251
G1 F1200 X51.2 Y39.033 E62.71569
G1 F1680 E59.71569
G1 F3600 X49.6 Y39.894
G1 F1680 E62.71569
G1 F1200 X49.6 Y82.014 E67.36043
G1 F1680 E64.36043
G1 F3600 X48 Y81.479
G1 F1680 E67.36043
G1 F1200 X48 Y40.574 E71.87119
G1 F1680 E68.87119
G1 F3600 X46.4 Y40.708
G1 F1680 E71.87119
G1 F1200 X46.4 Y80.215 E76.22778
G1 F1680 E73.22778
G1 F3600 X44.8 Y79.151
G1 F1680 E76.22778
G1 F1200 X44.8 Y40.365 E80.50487
G1 F1680 E77.50487
G1 F3600 X43.2 Y39.44
G1 F1680 E80.50487
G1 F1200 X43.2 Y78.175 E84.77633
G1 F1680 E81.77633
G1 F3600 X41.6 Y77.434
G1 F1680 E84.77633
G1 F1200 X41.6 Y38.594 E89.05937
G1 F1680 E86.05937
G1 F3600 X40 Y38.142
G1 F1680 E89.05937
G1 F1200 X40 Y76.571 E93.29709
G1 F1680 E90.29709
G1 F3600 X38.4 Y75.214
G1 F1680 E93.29709
G1 F1200 X38.4 Y38.023 E97.39829
G1 F1680 E94.39829
G1 F3600 X36.8 Y38.215
G1 F1680 E97.39829
G1 F1200 X36.8 Y73.155 E101.25126
G1 F1680 E98.25126
G1 F3600 X35.2 Y71.362
G1 F1680 E101.25126
G1 F1200 X35.2 Y38.749 E104.84763
G1 F1680 E101.84763
G1 F3600 X33.6 Y39.709
M104 T0 S200
G1 F1680 E104.84763
G1 F1200 X33.6 Y68.644 E108.0384
G1 F1680 E105.0384
G1 F3600 X32 Y62.24
G1 F1680 E108.0384
G1 F1200 X32 Y41.333 E110.3439
G1 F1680 E107.3439
G1 F3600 X30.4 Y45.604
G1 F1680 E110.3439
G1 F1200 X30.4 Y46.822 E110.47821
G1 F1680 E107.47821
G1 F3600 X63.211 Y41.082
;TIME_ELAPSED:57.653163
;LAYER:-5
G1 X63.211 Y41.082 Z0.619
;TYPE:SUPPORT
G1 F1680 E110.47821
G1 F1980 X62.803 Y40.737 E110.51804
G1 X62.276 Y40.33 E110.56768
G1 X62.045 Y40.165 E110.58884
G1 X61.4 Y39.748 E110.64609
G1 X61.368 Y39.73 E110.64883
G1 X66.096 Y44.458 E111.14724
G1 F3600 X65.83 Y44.065
G1 F1980 X65.205 Y43.224 E111.22535
G1 X65.084 Y43.069 E111.24001
G1 X64.496 Y42.372 E111.30798
G1 X63.945 Y41.777 E111.36843
G1 X63.637 Y41.475 E111.40058
G1 X63.211 Y41.082 E111.44379
G1 F1680 E108.44379
G1 F3600 X61.368 Y39.73
G1 F1680 E111.44379
G1 F1980 X60.763 Y39.39 E111.49552
G1 X60.409 Y39.213 E111.52502
G1 X60.204 Y39.118 E111.54186
G1 X59.806 Y38.943 E111.57427
G1 X59.167 Y38.707 E111.62505
G1 X59.026 Y38.661 E111.6361
G1 X67.77 Y47.405 E112.55788
G1 X67.819 Y47.505 E112.56618
G1 X68.213 Y48.402 E112.63921
G1 X68.454 Y49.001 E112.68733
G1 X68.66 Y49.568 E112.7323
G1 X57.349 Y38.257 E113.92468
G1 X56.741 Y38.175 E113.97041
G1 X55.939 Y38.12 E114.03034
G1 X69.208 Y51.388 E115.42907
G1 X69.341 Y51.924 E115.47024
G1 X69.471 Y52.535 E115.5168
G1 X69.564 Y53.018 E115.55347
G1 X54.692 Y38.146 E117.12124
G1 X54.398 Y38.168 E117.14322
G1 X53.956 Y38.219 E117.17638
G1 X53.56 Y38.287 E117.20633
G1 X69.791 Y54.517 E118.91731
G1 X69.827 Y54.785 E118.93747
G1 X69.872 Y55.246 E118.972
G1 X69.888 Y55.651 E119.00221
G1 X69.884 Y55.883 E119.01951
G1 X52.518 Y38.517 E120.85019
G1 X52.302 Y38.579 E120.86694
G1 X51.886 Y38.712 E120.8995
G1 X51.56 Y38.832 E120.92539
G1 X69.764 Y57.036 E122.84442
G1 X69.747 Y57.226 E122.85864
G1 X69.77 Y57.798 E122.90131
G1 X69.753 Y57.798 E122.90258
G1 X69.843 Y58.388 E122.94706
G1 X50.676 Y39.221 E124.9676
G1 X50.549 Y39.284 E124.97817
G1 X50.148 Y39.501 E125.01216
G1 X49.859 Y39.677 E125.03738
G1 X69.978 Y59.795 E127.15823
G1 X69.979 Y59.853 E127.16255
G1 X69.982 Y60.586 E127.21719
G1 X69.963 Y61.054 E127.25211
G1 X49.047 Y40.138 E129.45702
G1 X48.656 Y40.317 E129.48908
G1 X48.122 Y40.486 E129.53083
G1 X69.865 Y62.228 E131.82287
G1 X69.789 Y62.889 E131.87247
G1 X69.723 Y63.359 E131.90785
G1 X47.022 Y40.658 E134.30094
G1 X46.67 Y40.677 E134.32721
G1 X45.995 Y40.626 E134.37767
G1 X45.647 Y40.556 E134.40413
G1 X69.547 Y64.456 E136.92361
G1 X69.452 Y65.019 E136.96617
G1 X69.341 Y65.522 E137.00457
G1 X43.183 Y39.364 E139.76209
G1 X43.137 Y39.332 E139.76626
G1 X42.899 Y39.184 E139.78716
G1 X42.504 Y38.953 E139.82127
G1 X41.927 Y38.673 E139.86907
G1 X41.659 Y38.559 E139.89078
G1 X40.969 Y38.315 E139.94534
G1 X40.823 Y38.277 E139.95658
G1 X68.991 Y66.446 E142.92604
G1 X68.929 Y66.563 E142.93591
G1 X68.657 Y67.173 E142.9857
G1 X68.61 Y67.337 E142.99841
G1 X39.269 Y37.996 E146.09147
G1 X38.584 Y37.965 E146.14259
G1 X38.055 Y37.985 E146.18205
G1 X37.99 Y37.99 E146.18691
G1 X68.342 Y68.342 E149.38655
G1 X68.249 Y68.694 E149.41369
G1 X68.155 Y69.007 E149.43805
G1 X68.047 Y69.319 E149.46266
G1 X36.875 Y38.148 E152.74869
G1 X36.703 Y38.182 E152.76175
G1 X36.198 Y38.315 E152.80068
G1 X35.881 Y38.427 E152.82574
G1 X67.682 Y70.227 E156.17808
G1 X67.658 Y70.279 E156.18235
G1 X67.391 Y70.829 E156.22792
G1 X67.258 Y71.076 E156.24883
G1 X34.978 Y38.796 E159.65172
G1 X34.88 Y38.842 E159.65979
G1 X34.602 Y38.986 E159.68312
G1 X34.162 Y39.253 E159.72149
G1 X66.784 Y71.875 E163.16042
G1 X66.6 Y72.166 E163.18609
G1 X66.265 Y72.629 E163.22869
G1 X33.422 Y39.786 E166.69092
G1 X33.106 Y40.043 E166.72128
G1 X32.743 Y40.38 E166.75821
G1 X65.709 Y73.346 E170.23341
G1 X65.538 Y73.549 E170.25319
G1 X65.238 Y73.893 E170.28721
G1 X65.112 Y74.022 E170.30066
G1 X32.15 Y41.059 E173.77549
G1 X31.968 Y41.285 E173.79712
G1 X31.69 Y41.673 E173.8327
G1 X31.613 Y41.795 E173.84345
G1 X64.44 Y74.623 E177.30405
G1 X64.416 Y74.643 E177.30638
G1 X63.931 Y75.098 E177.35595
G1 X63.802 Y75.257 E177.37121
G1 X31.157 Y42.612 E180.81257
G1 F3600 X31.156 Y42.614
G1 F1980 X30.916 Y43.152 E180.85649
G1 X30.788 Y43.516 E180.88525
G1 X63.23 Y75.958 E184.30521
G1 X62.92 Y76.313 E184.34034
G1 X62.665 Y76.58 E184.36786
G1 X62.622 Y76.622 E184.37234
G1 X30.506 Y44.506 E187.75794
G1 X30.457 Y44.747 E187.77627
G1 X30.392 Y45.179 E187.80883
G1 X30.349 Y45.599 E187.84031
G1 X30.347 Y45.621 E187.84195
G1 X61.958 Y77.231 E191.17426
G1 X61.878 Y77.3 E191.18213
G1 X61.243 Y77.79 E191.24192
G1 X30.353 Y46.9 E194.49827
G1 X30.358 Y46.97 E194.50351
G1 X30.383 Y47.209 E194.52142
G1 X30.439 Y47.602 E194.55101
G1 X30.479 Y47.823 E194.56775
G1 X30.539 Y48.098 E194.58873
G1 X30.631 Y48.45 E194.61585
G1 X60.498 Y78.317 E197.76436
G1 X60.075 Y78.584 E197.80165
G1 X59.71 Y78.802 E197.83334
G1 X31.424 Y50.516 E200.81519
G1 X31.476 Y50.65 E200.8259
G1 X31.632 Y51.311 E200.87653
G1 X31.701 Y51.983 E200.92688
G1 X31.698 Y52.063 E200.93285
G1 X58.889 Y79.254 E203.79926
G1 X58.63 Y79.378 E203.82067
G1 X58.375 Y79.48 E203.84114
G1 X58.076 Y79.577 E203.86457
G1 X57.972 Y79.61 E203.8727
G1 X31.597 Y53.235 E206.6531
G1 X31.585 Y53.317 E206.65927
G1 X31.477 Y53.884 E206.7023
G1 X31.41 Y54.32 E206.73518
G1 X57.044 Y79.954 E209.43746
G1 X56.747 Y80.096 E209.462
G1 X56.586 Y80.183 E209.47564
G1 X56.19 Y80.373 E209.50838
G1 X31.267 Y55.45 E212.1357
G1 X31.261 Y55.513 E212.14042
G1 X31.235 Y55.833 E212.16435
G1 X31.203 Y56.35 E212.20296
G1 X31.196 Y56.652 E212.22548
G1 X55.289 Y80.745 E214.76531
G1 X55.128 Y80.804 E214.77809
G1 X54.665 Y80.953 E214.81435
G1 X54.319 Y81.047 E214.84107
G1 X31.203 Y57.932 E217.27786
G1 X31.21 Y58.168 E217.29546
G1 X31.241 Y58.603 E217.32796
G1 X31.274 Y58.976 E217.35588
G1 X31.313 Y59.314 E217.38124
G1 X53.298 Y81.299 E219.69885
G1 X53.201 Y81.322 E219.70628
