M73 P0
;MINX:30.0
;MAXX:70.0
;MINY:40.0
;MAXY:80.0
;MINZ:0.0
;MAXZ:5.3
;MachineType:ENTINA TINA2
;FilamentType:PLA
;Extruder0Temperature:200
;InfillDensity:10
;FLAVOR:Marlin
;TIME:936
;FilamentUsed:987.9
;Layer height: 0.2

;Generated with Cura_SteamEngine 3.1
M104 T0 S215
M82 ; absolute extrusion mode
;(**** start.gcode for tina2****)
M104 S150
G28 Z
G28 X Y; Home extruder
G1 X55 Y55 F1000
G1 Z10 F200
G29
G1 Z15 F100
M107 ; Turn off fan
G90 ; Absolute positioning
M82 ; Extruder in absolute mode
M109 S215.0
G92 E0 ; Reset extruder position
G1 X90 Y6 Z0.27 F2000
G1 X20 Y6 Z0.27 E15 F1000
G92 E0 ; Reset extruder position

;LAYER_COUNT:20
;LAYER:-6
M107
M203 Z5
G1 F3600 X61.998 Y44.555 Z0.349
G1 F1200 X62.154 Y44.696 E0.02319
G1 X65.326 Y47.868 E0.51786
G1 X65.645 Y48.223 E0.5705
G1 X65.861 Y48.512 E0.61028
G1 X66.195 Y49.038 E0.67899
G1 X66.292 Y49.208 E0.70058
G1 X68.385 Y53.326 E1.20997
G1 X68.518 Y53.632 E1.24676
G1 X68.638 Y53.985 E1.28788
G1 X68.786 Y54.565 E1.35389
G1 X68.831 Y54.785 E1.37865
G1 X69.527 Y59.183 E1.86967
G1 X69.579 Y59.669 E1.92357
G1 X69.586 Y60.033 E1.96372
G1 X69.548 Y60.616 E2.02814
G1 X69.52 Y60.867 E2.05599
G1 X68.825 Y65.255 E2.54591
G1 X68.721 Y65.742 E2.60082
G1 X68.619 Y66.075 E2.63923
G1 X68.4 Y66.631 E2.70512
G1 X68.308 Y66.833 E2.7296
G1 X66.216 Y70.932 E3.23708
G1 X66.031 Y71.246 E3.27727
G1 X65.825 Y71.538 E3.31668
G1 X65.445 Y71.998 E3.38247
G1 X65.304 Y72.154 E3.40566
G1 X62.132 Y75.326 E3.90034
G1 X61.777 Y75.645 E3.95297
G1 X61.488 Y75.861 E3.99275
G1 X60.969 Y76.191 E4.06058
G1 X60.797 Y76.289 E4.08241
G1 X56.674 Y78.385 E4.59244
G1 X56.368 Y78.518 E4.62924
G1 X56.015 Y78.638 E4.67035
G1 X55.441 Y78.784 E4.73566
G1 X55.218 Y78.83 E4.76077
G1 X50.817 Y79.527 E5.25214
M73 P1
G1 X50.331 Y79.579 E5.30604
G1 X49.967 Y79.586 E5.34618
G1 X49.384 Y79.548 E5.41061
G1 X49.133 Y79.52 E5.43846
G1 X44.747 Y78.825 E5.92816
G1 X44.258 Y78.721 E5.98329
G1 X43.925 Y78.619 E6.02169
G1 X43.361 Y78.396 E6.08857
G1 X43.156 Y78.303 E6.11339
G1 X39.068 Y76.216 E6.61954
G1 X38.754 Y76.031 E6.65973
G1 X38.462 Y75.825 E6.69914
G1 X38.002 Y75.445 E6.76493
G1 X37.843 Y75.301 E6.78859
G1 X34.674 Y72.132 E7.2828
G1 X34.355 Y71.777 E7.33543
G1 X34.139 Y71.488 E7.37521
G1 X33.805 Y70.962 E7.44392
G1 X33.708 Y70.792 E7.46551
G1 X31.673 Y66.798 E7.95982
G1 X31.482 Y66.368 E8.0117
G1 X31.362 Y66.015 E8.05282
G1 X31.214 Y65.435 E8.11882
G1 X31.169 Y65.215 E8.14359
G1 X30.471 Y60.805 E8.63595
G1 X30.421 Y60.331 E8.68851
G1 X30.414 Y59.967 E8.72866
G1 X30.452 Y59.384 E8.79308
G1 X30.48 Y59.133 E8.82093
G1 X31.175 Y54.745 E9.31085
G1 X31.279 Y54.258 E9.36576
G1 X31.381 Y53.925 E9.40417
G1 X31.6 Y53.369 E9.47006
G1 X31.697 Y53.156 E9.49587
G1 X33.784 Y49.068 E10.00202
G1 X33.969 Y48.754 E10.04221
G1 X34.175 Y48.462 E10.08162
G1 X34.555 Y48.002 E10.14741
G1 X34.696 Y47.846 E10.1706
G1 X37.868 Y44.674 E10.66528
G1 X38.223 Y44.355 E10.71791
G1 X38.512 Y44.139 E10.75769
G1 X39.031 Y43.809 E10.82552
G1 X39.203 Y43.711 E10.84735
G1 X43.326 Y41.615 E11.35738
G1 X43.632 Y41.482 E11.39418
G1 X43.985 Y41.362 E11.43529
G1 X44.559 Y41.216 E11.5006
G1 X44.782 Y41.17 E11.52571
G1 X49.183 Y40.473 E12.01708
G1 X49.669 Y40.421 E12.07098
G1 X50.033 Y40.414 E12.11112
G1 X50.616 Y40.452 E12.17555
G1 X50.867 Y40.48 E12.2034
G1 X55.255 Y41.175 E12.69331
G1 X55.742 Y41.279 E12.74823
G1 X56.075 Y41.381 E12.78663
G1 X56.639 Y41.604 E12.85351
G1 X56.844 Y41.697 E12.87834
G1 X60.932 Y43.784 E13.38449
G1 X61.246 Y43.969 E13.42467
G1 X61.538 Y44.175 E13.46408
G1 X61.998 Y44.555 E13.52988
G1 F3600 X62.4 Y44.942
G1 F1200 X62.4 Y75.058 E16.85089
G1 F1680 E13.85089
M73 P2
G1 F3600 X60.8 Y76.288
G1 F1680 E16.85089
G1 F1200 X60.8 Y43.717 E20.44262
G1 F1680 E17.44262
G1 F3600 X59.2 Y42.9
G1 F1680 E20.44262
G1 F1200 X59.2 Y77.101 E24.2141
G1 F1680 E21.2141
G1 F3600 X57.6 Y77.915
G1 F1680 E24.2141
G1 F1200 X57.6 Y42.083 E28.16544
G1 F1680 E25.16544
G1 F3600 X56 Y41.359
G1 F1680 E28.16544
G1 F1200 X56 Y78.642 E32.27678
G1 F1680 E29.27678
G1 F3600 X54.4 Y78.96
G1 F1680 E32.27678
G1 F1200 X54.4 Y41.04 E36.45837
G1 F1680 E33.45837
G1 F3600 X52.8 Y40.787
G1 F1680 E36.45837
G1 F1200 X52.8 Y79.213 E40.69576
G1 F1680 E37.69576
G1 F3600 X51.2 Y79.467
G1 F1680 E40.69576
G1 F1200 X51.2 Y40.533 E44.98917
G1 F1680 E41.98917
G1 F3600 X49.6 Y40.428
G1 F1680 E44.98917
G1 F1200 X49.6 Y79.562 E49.30463
G1 F1680 E46.30463
G1 F3600 X48 Y79.34
G1 F1680 E49.30463
G1 F1200 X48 Y40.66 E53.57003
G1 F1680 E50.57003
G1 F3600 X46.4 Y40.913
G1 F1680 E53.57003
G1 F1200 X46.4 Y79.086 E57.77952
G1 F1680 E54.77952
G1 F3600 X44.8 Y78.833
G1 F1680 E57.77952
G1 F1200 X44.8 Y41.167 E61.9331
G1 F1680 E58.9331
G1 F3600 X43.2 Y41.679
G1 F1680 E61.9331
G1 F1200 X43.2 Y78.322 E65.97386
G1 F1680 E62.97386
G1 F3600 X41.6 Y77.508
G1 F1680 E65.97386
G1 F1200 X41.6 Y42.492 E69.83522
G1 F1680 E66.83522
G1 F3600 X40 Y43.305
G1 F1680 E69.83522
G1 F1200 X40 Y76.691 E73.51683
G1 F1680 E70.51683
G1 F3600 X38.4 Y75.773
G1 F1680 E73.51683
G1 F1200 X38.4 Y44.222 E76.99608
G1 F1680 E73.99608
G1 F3600 X36.8 Y45.742
G1 F1680 E76.99608
G1 F1200 X36.8 Y74.258 E80.14065
G1 F1680 E77.14065
G1 F3600 X35.2 Y72.658
G1 F1680 E80.14065
M73 P3
G1 F1200 X35.2 Y47.342 E82.93235
G1 F1680 E79.93235
G1 F3600 X33.6 Y49.428
G1 F1680 E82.93235
G1 F1200 X33.6 Y70.58 E85.26486
G1 F1680 E82.26486
G1 F3600 X32 Y67.439
G1 F1680 E85.26486
G1 F1200 X32 Y52.562 E86.90541
G1 F1680 E83.90541
G1 F3600 X64 Y46.542
G1 F1680 E86.90541
G1 F1200 X64 Y73.458 E89.87354
G1 F1680 E86.87354
G1 F3600 X65.6 Y71.811
M104 T0 S200
G1 F1680 E89.87354
G1 F1200 X65.6 Y48.173 E92.4802
G1 F1680 E89.4802
G1 F3600 X67.2 Y50.995
G1 F1680 E92.4802
G1 F1200 X67.2 Y69.004 E94.46612
G1 F1680 E91.46612
G1 F3600 X68.8 Y65.373
G1 F1680 E94.46612
G1 F1200 X68.8 Y54.634 E95.65036
G1 F1680 E92.65036
G1 F3600 X62.017 Y44.503
;TIME_ELAPSED:50.450444
;LAYER:-5
G1 X62.017 Y44.503 Z0.619
;TYPE:SUPPORT
G1 F1680 E95.65036
G1 F1980 X62.189 Y44.66 E95.66772
G1 X65.464 Y47.941 E96.01327
G1 X65.687 Y48.194 E96.03841
G1 X65.895 Y48.472 E96.06429
G1 X66.229 Y48.998 E96.11074
G1 X66.335 Y49.182 E96.12657
G1 F1680 E93.12657
G1 F3600 X66.966 Y50.42
G1 F1680 E96.12657
G1 F1980 X59.587 Y43.041 E96.90445
G1 X60.956 Y43.74 E97.01903
G1 X61.278 Y43.929 E97.04686
G1 X61.571 Y44.135 E97.07356
G1 X62.017 Y44.503 E97.11666
G1 F1680 E94.11666
G1 F3600 X59.587 Y43.041
G1 F1680 E97.11666
G1 F1980 X56.988 Y41.715 E97.33415
G1 X68.288 Y53.015 E98.52537
G1 X68.366 Y53.168 E98.53817
G1 X68.568 Y53.622 E98.57521
G1 X68.683 Y53.958 E98.60168
G1 X68.831 Y54.536 E98.64616
G1 X68.877 Y54.759 E98.66313
G1 X68.899 Y54.899 E98.6737
G1 X55.099 Y41.099 E100.12846
G1 X53.588 Y40.86 E100.24249
G1 X69.139 Y56.411 E101.88184
G1 X69.378 Y57.923 E101.99595
G1 X52.075 Y40.62 E103.81999
G1 X50.86 Y40.428 E103.91168
G1 X50.62 Y40.401 E103.92969
G1 X50.581 Y40.399 E103.9326
M73 P4
G1 X69.603 Y59.421 E105.93785
G1 X69.628 Y59.662 E105.95591
G1 X69.635 Y60.036 E105.9838
G1 X69.598 Y60.62 E106.02742
G1 X69.592 Y60.682 E106.03206
G1 X49.317 Y40.407 E108.1694
G1 X49.186 Y40.421 E108.17922
G1 X48.212 Y40.575 E108.25273
G1 X69.425 Y61.788 E110.48896
G1 X69.251 Y62.887 E110.5719
G1 X47.113 Y40.749 E112.90563
G1 X46.014 Y40.923 E112.98858
G1 X69.077 Y63.986 E115.41982
G1 X68.903 Y65.084 E115.50269
G1 X44.916 Y41.097 E118.03135
G1 X44.758 Y41.122 E118.04327
G1 X44.542 Y41.167 E118.05972
G1 X43.964 Y41.315 E118.10419
G1 X43.887 Y41.341 E118.11025
G1 X68.658 Y66.113 E120.72161
G1 X68.445 Y66.651 E120.76474
G1 X68.348 Y66.864 E120.78218
G1 X68.277 Y67.004 E120.79389
G1 X42.994 Y41.721 E123.45916
G1 X42.151 Y42.151 E123.5297
G1 X67.847 Y67.847 E126.23852
G1 X67.416 Y68.689 E126.30902
G1 X41.307 Y42.58 E129.06138
G1 X40.464 Y43.01 E129.13192
G1 X66.987 Y69.532 E131.92786
G1 X66.557 Y70.375 E131.9984
G1 X39.622 Y43.44 E134.83783
G1 X39.182 Y43.663 E134.8746
G1 X38.997 Y43.769 E134.89049
G1 X38.802 Y43.893 E134.90771
G1 X66.114 Y71.205 E137.78688
G1 X66.071 Y71.278 E137.7932
G1 X65.863 Y71.571 E137.81998
G1 X65.567 Y71.931 E137.85472
G1 X38.063 Y44.427 E140.75413
G1 X37.941 Y44.534 E140.76623
G1 X37.419 Y45.056 E140.82126
G1 X64.945 Y72.582 E143.72298
G1 X64.308 Y73.218 E143.79008
G1 X36.782 Y45.691 E146.69186
G1 X36.145 Y46.327 E146.75896
G1 X63.671 Y73.853 E149.66069
G1 X63.035 Y74.49 E149.72779
G1 X35.508 Y46.963 E152.62962
G1 X34.871 Y47.599 E152.69672
G1 X62.397 Y75.125 E155.59845
G1 X62.059 Y75.464 E155.63413
G1 X61.805 Y75.687 E155.65933
G1 X61.736 Y75.737 E155.66568
G1 X34.267 Y48.267 E158.56145
G1 X34.136 Y48.426 E158.57681
G1 X33.929 Y48.72 E158.60361
G1 X33.749 Y49.023 E158.62988
G1 X60.972 Y76.245 E161.49961
G1 X60.816 Y76.335 E161.51304
G1 X60.135 Y76.681 E161.56998
G1 X33.318 Y49.865 E164.39691
G1 X32.888 Y50.708 E164.46745
G1 X59.292 Y77.111 E167.25085
G1 X58.449 Y77.541 E167.32139
G1 X32.458 Y51.55 E170.0613
M73 P5
G1 X32.028 Y52.393 E170.13184
G1 X57.606 Y77.971 E172.82822
G1 X56.832 Y78.366 E172.89299
G1 X56.76 Y78.397 E172.89883
G1 X31.602 Y53.239 E175.55093
G1 X31.553 Y53.346 E175.55971
G1 X31.335 Y53.902 E175.60422
G1 X31.253 Y54.163 E175.62462
G1 X55.826 Y78.737 E178.2151
G1 X55.456 Y78.832 E178.24357
G1 X55.241 Y78.877 E178.25995
G1 X54.768 Y78.951 E178.29563
G1 X31.046 Y55.229 E180.79635
G1 X30.872 Y56.328 E180.87929
G1 X53.67 Y79.125 E183.28255
G1 X52.571 Y79.299 E183.3655
G1 X30.699 Y57.427 E185.67119
G1 X30.525 Y58.526 E185.75413
G1 X51.472 Y79.473 E187.96232
G1 X50.813 Y79.578 E188.01206
G1 X50.353 Y79.627 E188.04654
G1 X30.382 Y59.657 E190.15179
G1 X30.363 Y59.959 E190.17434
G1 X30.37 Y60.336 E190.20245
G1 X30.421 Y60.812 E190.23814
G1 X30.45 Y60.997 E190.25209
G1 X49.002 Y79.549 E192.2078
G1 X47.489 Y79.309 E192.322
G1 X30.689 Y62.508 E194.09307
G1 X30.928 Y64.021 E194.20725
G1 X45.978 Y79.07 E195.79373
G1 X44.728 Y78.872 E195.88807
G1 X44.447 Y78.812 E195.90949
G1 X31.193 Y65.558 E197.30669
G1 X31.314 Y66.033 E197.34323
G1 X31.43 Y66.377 E197.37029
G1 X31.628 Y66.82 E197.40646
G1 X32.09 Y67.728 E197.4824
G1 X42.268 Y77.906 E198.55534
G1 X39.667 Y76.578 E198.77304
G1 X33.412 Y70.323 E199.43242
G1 F3600 X33.663 Y70.816
G1 F1980 X33.767 Y70.997 E199.44798
G1 X34.1 Y71.523 E199.49439
G1 X34.312 Y71.804 E199.52063
G1 X34.628 Y72.157 E199.55594
G1 X37.808 Y75.337 E199.89117
G1 X37.978 Y75.492 E199.90832
G1 X38.427 Y75.863 E199.95174
G1 X38.721 Y76.07 E199.97854
G1 X39.041 Y76.259 E200.00624
G1 X39.667 Y76.578 E200.05862
G1 F1680 E197.05862
G1 F3600 X62.118 Y44.393
;TIME_ELAPSED:94.474247
;LAYER:-4
M106 S255
G1 X62.118 Y44.393 Z0.869
G1 F1680 E200.05862
G1 F2400 X61.66 Y44.016 E200.08205
G1 X61.638 Y44 E200.08312
G1 X38.361 Y44 E201.00248
G1 X38.397 Y43.973 E201.00426
G1 X38.922 Y43.64 E201.02881
G1 X38.992 Y43.6 E201.03199
G1 X61.013 Y43.6 E201.90175
M73 P6
G1 X60.229 Y43.2 E201.93651
G1 X39.763 Y43.2 E202.74484
G1 X40.548 Y42.8 E202.77964
G1 X59.446 Y42.8 E203.52604
G1 X58.662 Y42.4 E203.5608
G1 X41.333 Y42.4 E204.24524
G1 X42.118 Y42 E204.28004
G1 X57.879 Y42 E204.90254
G1 X57.095 Y41.6 E204.9373
G1 X42.902 Y41.6 E205.49787
G1 X43.104 Y41.497 E205.50683
G1 X43.565 Y41.292 E205.52676
G1 X43.836 Y41.2 E205.53806
G1 X56.164 Y41.2 E206.02497
G1 X56.143 Y41.192 E206.02586
G1 X55.789 Y41.083 E206.04049
G1 X55.299 Y40.979 E206.06027
G1 X54.169 Y40.8 E206.10546
G1 X45.832 Y40.8 E206.43474
G1 X48.355 Y40.4 E206.53564
G1 X49.162 Y40.272 E206.56791
G1 X49.659 Y40.22 E206.58764
G1 X50.03 Y40.213 E206.6023
G1 X50.646 Y40.253 E206.62668
G1 X50.879 Y40.279 E206.63594
G1 F3600 X51.644 Y40.4
G1 F2400 X48.355 Y40.4 E206.76585
G1 F1680 E203.76585
G1 F3600 X37.871 Y44.4
G1 F1680 E206.76585
G1 F2400 X62.126 Y44.4 E207.72383
G1 X62.118 Y44.393 E207.72425
G1 F3600 X62.542 Y44.8
G1 F2400 X62.942 Y45.2 E207.74659
G1 X37.056 Y45.2 E208.769
G1 X36.656 Y45.6 E208.79134
G1 X63.342 Y45.6 E209.84534
G1 X63.742 Y46 E209.86768
G1 X36.256 Y46 E210.95328
G1 X35.856 Y46.4 E210.97562
G1 X64.142 Y46.4 E212.09282
G1 X64.542 Y46.8 E212.11516
G1 X35.456 Y46.8 E213.26395
G1 X35.056 Y47.2 E213.2863
G1 X64.942 Y47.2 E214.46669
G1 X65.342 Y47.6 E214.48903
G1 X34.656 Y47.6 E215.70102
G1 X34.56 Y47.696 E215.70638
G1 X34.393 Y47.88 E215.71619
G1 X34.295 Y48 E215.72231
G1 X65.714 Y48 E216.96325
G1 X65.801 Y48.098 E216.96843
G1 X66.025 Y48.397 E216.98318
G1 F3600 X66.027 Y48.4
G1 F2400 X33.973 Y48.4 E218.2492
G1 X33.804 Y48.637 E218.2607
G1 X33.708 Y48.8 E218.26817
G1 X66.281 Y48.8 E219.55468
G1 X66.358 Y48.922 E219.56038
G1 X66.464 Y49.107 E219.5688
G1 X66.512 Y49.2 E219.57294
G1 X33.491 Y49.2 E220.87715
G1 X33.287 Y49.6 E220.89488
G1 X66.716 Y49.6 E222.21521
G1 X66.92 Y50 E222.23294
G1 X33.083 Y50 E223.56938
M73 P7
G1 X32.879 Y50.4 E223.58712
G1 X67.123 Y50.4 E224.93963
G1 X67.327 Y50.8 E224.95737
G1 X32.674 Y50.8 E226.32604
G1 X32.47 Y51.2 E226.34377
G1 X67.531 Y51.2 E227.72855
G1 X67.735 Y51.6 E227.74629
G1 X32.266 Y51.6 E229.14719
G1 X32.062 Y52 E229.16492
G1 X67.939 Y52 E230.58193
G1 X68.143 Y52.4 E230.59967
G1 X31.858 Y52.4 E232.0328
G1 X31.653 Y52.8 E232.05055
G1 X68.347 Y52.8 E233.49983
G1 X68.501 Y53.104 E233.51329
G1 X68.544 Y53.2 E233.51744
G1 X31.456 Y53.2 E234.98229
G1 X31.417 Y53.285 E234.98598
G1 X31.293 Y53.6 E234.99935
G1 X68.718 Y53.6 E236.4775
G1 X68.827 Y53.921 E236.49089
G1 X68.848 Y54 E236.49412
G1 X31.148 Y54 E237.98314
G1 X31.083 Y54.209 E237.99178
G1 X31.043 Y54.4 E237.99949
G1 X68.95 Y54.4 E239.49668
G1 X68.979 Y54.515 E239.50136
G1 X69.024 Y54.734 E239.51019
G1 X69.035 Y54.8 E239.51284
G1 X30.964 Y54.8 E241.01651
G1 X30.9 Y55.2 E241.0325
G1 X69.098 Y55.2 E242.54119
G1 X69.162 Y55.6 E242.55719
G1 X30.837 Y55.6 E244.07089
G1 X30.773 Y56 E244.08689
G1 X69.225 Y56 E245.6056
G1 X69.289 Y56.4 E245.6216
G1 X30.71 Y56.4 E247.14534
G1 X30.647 Y56.8 E247.16133
G1 X69.352 Y56.8 E248.69004
G1 X69.415 Y57.2 E248.70603
G1 X30.583 Y57.2 E250.23975
G1 X30.52 Y57.6 E250.25575
G1 X69.479 Y57.6 E251.79449
G1 X69.542 Y58 E251.81048
G1 X30.457 Y58 E253.3542
G1 X30.393 Y58.4 E253.3702
G1 X69.606 Y58.4 E254.91897
G1 X69.669 Y58.8 E254.93496
G1 X30.33 Y58.8 E256.48871
G1 X30.279 Y59.119 E256.50147
G1 X30.27 Y59.2 E256.50469
G1 X69.731 Y59.2 E258.06326
G1 X69.773 Y59.6 E258.07915
G1 X30.237 Y59.6 E259.64068
G1 X30.213 Y59.972 E259.6554
G1 X30.213 Y60 E259.6565
G1 X69.785 Y60 E261.21946
G1 X69.785 Y60.026 E261.22048
G1 X69.761 Y60.4 E261.23529
G1 X30.226 Y60.4 E262.79678
G1 X30.268 Y60.8 E262.81266
G1 X69.727 Y60.8 E264.37115
G1 X69.719 Y60.879 E264.37429
G1 X69.668 Y61.2 E264.38712
G1 X30.329 Y61.2 E265.94087
M73 P8
G1 X30.393 Y61.6 E265.95687
G1 X69.604 Y61.6 E267.50557
G1 X69.541 Y62 E267.52156
G1 X30.456 Y62 E269.06528
G1 X30.519 Y62.4 E269.08127
G1 X69.478 Y62.4 E270.62001
G1 X69.414 Y62.8 E270.63601
G1 X30.583 Y62.8 E272.1697
G1 X30.646 Y63.2 E272.18569
G1 X69.351 Y63.2 E273.7144
G1 X69.288 Y63.6 E273.73039
G1 X30.71 Y63.6 E275.25408
G1 X30.773 Y64 E275.27008
G1 X69.224 Y64 E276.78875
G1 X69.161 Y64.4 E276.80475
G1 X30.837 Y64.4 E278.31841
G1 X30.9 Y64.8 E278.3344
G1 X69.098 Y64.8 E279.84308
G1 X69.034 Y65.2 E279.85908
G1 X30.963 Y65.2 E281.36275
G1 X30.974 Y65.264 E281.36532
G1 X31.019 Y65.483 E281.37415
G1 X31.048 Y65.6 E281.37891
G1 X68.955 Y65.6 E282.8761
G1 X68.915 Y65.789 E282.88373
G1 X68.85 Y66 E282.89245
G1 X31.151 Y66 E284.38142
G1 X31.171 Y66.077 E284.38457
G1 X31.28 Y66.4 E284.39803
G1 X68.704 Y66.4 E285.87614
G1 X68.581 Y66.713 E285.88943
G1 X68.541 Y66.8 E285.89321
G1 X31.454 Y66.8 E287.35801
G1 X31.494 Y66.888 E287.36183
G1 X31.653 Y67.2 E287.37566
G1 X68.344 Y67.2 E288.82482
G1 X68.139 Y67.6 E288.84258
G1 X31.856 Y67.6 E290.27562
G1 X32.06 Y68 E290.29336
G1 X67.935 Y68 E291.71029
G1 X67.731 Y68.4 E291.72803
G1 X32.264 Y68.4 E293.12885
G1 X32.468 Y68.8 E293.14658
G1 X67.527 Y68.8 E294.53129
G1 X67.323 Y69.2 E294.54902
G1 X32.672 Y69.2 E295.91761
G1 X32.876 Y69.6 E295.93534
G1 X67.118 Y69.6 E297.28778
G1 X66.914 Y70 E297.30552
G1 X33.079 Y70 E298.64188
G1 X33.283 Y70.4 E298.65961
G1 X66.71 Y70.4 E299.97986
G1 X66.506 Y70.8 E299.99759
G1 X33.487 Y70.8 E301.30172
G1 X33.534 Y70.891 E301.30577
G1 X33.635 Y71.068 E301.31382
G1 X33.718 Y71.2 E301.31998
G1 X66.288 Y71.2 E302.60637
G1 X66.195 Y71.359 E302.61365
