M73 P0
;MINX:8.8
;MAXX:91.2
;MINY:21.8
;MAXY:98.2
;MINZ:0.0
;MAXZ:91.3
;MachineType:ENTINA TINA2
;FilamentType:PLA
;Extruder0Temperature:200
;InfillDensity:25
;FLAVOR:Marlin
;TIME:10539
;FilamentUsed:13749.7
;Layer height: 0.35

;Generated with Cura_SteamEngine 3.1
M104 T0 S215
M82 ; absolute extrusion mode
;(**** start.gcode for tina2****)
M104 S150
G28 Z
G28 X Y; Home extruder
G1 X55 Y55 F1000
G1 Z10 F200
G29
G1 Z15 F100
M107 ; Turn off fan
G90 ; Absolute positioning
M82 ; Extruder in absolute mode
M109 S215.0
G92 E0 ; Reset extruder position
G1 X90 Y6 Z0.27 F2000
G1 X20 Y6 Z0.27 E15 F1000
G92 E0 ; Reset extruder position

;LAYER_COUNT:259
;LAYER:-5
M107
M203 Z5
G1 F3600 X87.067 Y23.027 Z0.349
G1 F1200 X87.477 Y23.256 E0.05179
G1 X87.79 Y23.455 E0.09269
G1 X88.063 Y23.658 E0.1302
G1 X88.472 Y24.013 E0.18993
G1 X88.6 Y24.134 E0.20935
G1 X89.043 Y24.593 E0.27969
G1 X89.302 Y24.895 E0.32357
G1 X89.479 Y25.13 E0.35601
G1 X89.649 Y25.387 E0.38999
G1 X89.772 Y25.595 E0.41664
G1 X89.888 Y25.816 E0.44416
G1 X90.215 Y26.517 E0.52946
G1 X90.341 Y26.832 E0.56687
G1 X90.445 Y27.162 E0.60503
G1 X90.562 Y27.649 E0.66026
G1 X90.599 Y27.833 E0.68095
G1 X90.676 Y28.328 E0.7362
G1 X90.699 Y28.529 E0.75851
G1 X90.743 Y29.096 E0.82122
G1 X90.75 Y29.295 E0.84318
G1 X90.662 Y58.264 E4.03772
G1 X90.619 Y58.866 E4.10427
G1 X90.056 Y63.323 E4.59967
G1 X89.95 Y63.877 E4.66187
G1 X88.898 Y68.167 E5.14896
G1 X88.783 Y68.564 E5.19454
G1 X88.094 Y70.585 E5.43
G1 X87.395 Y72.375 E5.64191
G1 X87.286 Y72.637 E5.6732
G1 X86.4 Y74.564 E5.90708
G1 X85.419 Y76.473 E6.14376
G1 X84.788 Y77.578 E6.28408
G1 X84.641 Y77.821 E6.3154
G1 X83.551 Y79.54 E6.53986
G1 X82.467 Y81.093 E6.74871
G1 X82.221 Y81.421 E6.79392
G1 X79.788 Y84.368 E7.21534
G1 X79.435 Y84.759 E7.27343
G1 X76.751 Y87.404 E7.68897
G1 X76.52 Y87.619 E7.72377
G1 X75.566 Y88.437 E7.86235
G1 X75.318 Y88.64 E7.89769
G1 X73.312 Y90.182 E8.1767
G1 X73.022 Y90.388 E8.21593
G1 X70.964 Y91.754 E8.48831
G1 X70.649 Y91.946 E8.52899
G1 X68.532 Y93.148 E8.79745
G1 X68.193 Y93.324 E8.83957
G1 X65.923 Y94.404 E9.11678
G1 X65.492 Y94.581 E9.16816
G1 X61.412 Y96.057 E9.64661
G1 X60.988 Y96.187 E9.69552
G1 X59.24 Y96.657 E9.89512
G1 X58.88 Y96.739 E9.93584
G1 X56.542 Y97.206 E10.19875
G1 X56.225 Y97.259 E10.23419
G1 X54.945 Y97.443 E10.3768
G1 X54.603 Y97.478 E10.41471
G1 X50.941 Y97.741 E10.81957
G1 X50.622 Y97.751 E10.85476
G1 X49.383 Y97.749 E10.99139
G1 X49.044 Y97.739 E11.02879
G1 X45.381 Y97.477 E11.43376
G1 X44.98 Y97.435 E11.47822
G1 X43.727 Y97.254 E11.61783
G1 X43.454 Y97.206 E11.64839
G1 X41.147 Y96.746 E11.9078
G1 X40.642 Y96.623 E11.96512
G1 X37.023 Y95.559 E12.38109
G1 X36.629 Y95.422 E12.42709
G1 X34.329 Y94.515 E12.69973
G1 X34.038 Y94.388 E12.73474
G1 X32.311 Y93.575 E12.94523
G1 X32.104 Y93.471 E12.97078
G1 X30.43 Y92.58 E13.1799
G1 X30.113 Y92.392 E13.22054
G1 X26.922 Y90.343 E13.63872
G1 X26.519 Y90.052 E13.69354
G1 X24.092 Y88.139 E14.03432
G1 X23.715 Y87.807 E14.08971
G1 X20.526 Y84.713 E14.57969
G1 X20.119 Y84.259 E14.64693
G1 X17.092 Y80.458 E15.18275
G1 X16.734 Y79.963 E15.25012
G1 X15.683 Y78.341 E15.46325
G1 X15.527 Y78.084 E15.4964
G1 X14.264 Y75.866 E15.77786
G1 X14.13 Y75.603 E15.81041
G1 X12.279 Y71.545 E16.30226
G1 X12.09 Y71.087 E16.3569
G1 X11.653 Y69.892 E16.49721
G1 X11.577 Y69.665 E16.52361
G1 X10.74 Y66.863 E16.84609
G1 X10.635 Y66.449 E16.89318
G1 X9.911 Y63.153 E17.26531
G1 X9.818 Y62.608 E17.32628
G1 X9.328 Y58.039 E17.83301
G1 X9.306 Y57.547 E17.88732
G1 X9.253 Y29.126 E21.02142
G1 X9.291 Y28.54 E21.08618
G1 X9.362 Y27.981 E21.14832
G1 X9.433 Y27.593 E21.19181
G1 X9.499 Y27.327 E21.22204
G1 X9.647 Y26.871 E21.2749
G1 X9.846 Y26.35 E21.3364
G1 X9.994 Y26.019 E21.37639
G1 X10.133 Y25.754 E21.40939
G1 X10.28 Y25.512 E21.44061
G1 X10.448 Y25.27 E21.4731
G1 X10.762 Y24.883 E21.52805
G1 X11.516 Y24.055 E21.65155
G1 X11.778 Y23.799 E21.69194
G1 X12.005 Y23.604 E21.72494
G1 X12.233 Y23.432 E21.75643
G1 X12.473 Y23.274 E21.78812
G1 X12.809 Y23.082 E21.83079
G1 X13.184 Y22.894 E21.87705
G1 X13.646 Y22.701 E21.93227
G1 X13.906 Y22.614 E21.9625
G1 X14.481 Y22.467 E22.02795
G1 X14.937 Y22.38 E22.07914
G1 X15.145 Y22.351 E22.1023
G1 X15.826 Y22.287 E22.17773
G1 X16.04 Y22.277 E22.20135
G1 X83.94 Y22.276 E29.68895
G1 X84.194 Y22.288 E29.71699
G1 X84.844 Y22.348 E29.78898
G1 X85.075 Y22.382 E29.81472
G1 X85.653 Y22.496 E29.87969
G1 X85.99 Y22.582 E29.91804
G1 X86.337 Y22.701 E29.9585
G1 X86.871 Y22.932 E30.02266
G1 X87.067 Y23.027 E30.04668
G1 F3600 X86.4 Y22.729
G1 F1200 X86.4 Y74.564 E35.76273
G1 F1680 E32.76273
G1 F3600 X84.8 Y77.557
G1 F1680 E35.76273
G1 F1200 X84.8 Y22.344 E41.85128
G1 F1680 E38.85128
G1 F3600 X83.2 Y22.276
G1 F1680 E41.85128
G1 F1200 X83.2 Y80.043 E48.22148
G1 F1680 E45.22148
G1 F3600 X81.6 Y82.174
G1 F1680 E48.22148
G1 F1200 X81.6 Y22.276 E54.82667
G1 F1680 E51.82667
G1 F3600 X80 Y22.276
G1 F1680 E54.82667
G1 F1200 X80 Y84.112 E61.64557
G1 F1680 E58.64557
G1 F3600 X78.4 Y85.779
G1 F1680 E61.64557
G1 F1200 X78.4 Y22.276 E68.6483
G1 F1680 E65.6483
G1 F3600 X76.8 Y22.276
G1 F1680 E68.6483
G1 F1200 X76.8 Y87.356 E75.82493
G1 F1680 E72.82493
G1 F3600 X75.2 Y88.731
G1 F1680 E75.82493
G1 F1200 X75.2 Y22.276 E83.15319
G1 F1680 E80.15319
G1 F3600 X73.6 Y22.276
G1 F1680 E83.15319
G1 F1200 X73.6 Y89.961 E90.61708
G1 F1680 E87.61708
G1 F3600 X72 Y91.067
G1 F1680 E90.61708
G1 F1200 X72 Y22.276 E98.20294
G1 F1680 E95.20294
G1 F3600 X70.4 Y22.276
G1 F1680 E98.20294
G1 F1200 X70.4 Y92.088 E105.90139
G1 F1680 E102.90139
G1 F3600 X68.8 Y92.996
G1 F1680 E105.90139
G1 F1200 X68.8 Y22.276 E113.69996
G1 F1680 E110.69996
G1 F3600 X67.2 Y22.276
G1 F1680 E113.69996
G1 F1200 X67.2 Y93.797 E121.58687
G1 F1680 E118.58687
G1 F3600 X65.6 Y94.537
G1 F1680 E121.58687
G1 F1200 X65.6 Y22.276 E129.55538
G1 F1680 E126.55538
G1 F3600 X64 Y22.276
G1 F1680 E129.55538
G1 F1200 X64 Y95.121 E137.58828
G1 F1680 E134.58828
G1 F3600 X62.4 Y95.7
G1 F1680 E137.58828
G1 F1200 X62.4 Y22.276 E145.68504
G1 F1680 E142.68504
G1 F3600 X60.8 Y22.276
G1 F1680 E145.68504
G1 F1200 X60.8 Y96.238 E153.84112
G1 F1680 E150.84112
G1 F3600 X59.2 Y96.667
G1 F1680 E153.84112
G1 F1200 X59.2 Y22.276 E162.04452
G1 F1680 E159.04452
G1 F3600 X57.6 Y22.276
G1 F1680 E162.04452
G1 F1200 X57.6 Y96.995 E170.28408
G1 F1680 E167.28408
G1 F3600 X56 Y97.292
G1 F1680 E170.28408
G1 F1200 X56 Y22.276 E178.55639
G1 F1680 E175.55639
G1 F3600 X54.4 Y22.276
G1 F1680 E178.55639
G1 F1200 X54.4 Y97.493 E186.85087
G1 F1680 E183.85087
G1 F3600 X52.8 Y97.608
G1 F1680 E186.85087
G1 F1200 X52.8 Y22.276 E195.15803
G1 F1680 E192.15803
G1 F3600 X51.2 Y22.276
G1 F1680 E195.15803
G1 F1200 X51.2 Y97.723 E203.47787
G1 F1680 E200.47787
G1 F3600 X49.6 Y97.749
G1 F1680 E203.47787
G1 F1200 X49.6 Y22.276 E211.80058
G1 F1680 E208.80058
G1 F3600 X48 Y22.276
G1 F1680 E211.80058
G1 F1200 X48 Y97.664 E220.11391
G1 F1680 E217.11391
G1 F3600 X46.4 Y97.549
G1 F1680 E220.11391
G1 F1200 X46.4 Y22.276 E228.41456
G1 F1680 E225.41456
G1 F3600 X44.8 Y22.276
G1 F1680 E228.41456
G1 F1200 X44.8 Y97.408 E236.69967
G1 F1680 E233.69967
G1 F3600 X43.2 Y97.155
G1 F1680 E236.69967
G1 F1200 X43.2 Y22.276 E244.95687
G1 F1680 E241.95687
G1 F3600 X41.6 Y22.276
G1 F1680 E244.95687
G1 F1200 X41.6 Y96.836 E253.1789
G1 F1680 E250.1789
G1 F3600 X40 Y96.434
G1 F1680 E253.1789
G1 F1200 X40 Y22.276 E261.3566
G1 F1680 E258.3566
G1 F3600 X38.4 Y22.276
G1 F1680 E261.3566
G1 F1200 X38.4 Y95.963 E269.48236
G1 F1680 E266.48236
G1 F3600 X36.8 Y95.481
G1 F1680 E269.48236
G1 F1200 X36.8 Y22.276 E277.55496
G1 F1680 E274.55496
G1 F3600 X35.2 Y22.276
G1 F1680 E277.55496
G1 F1200 X35.2 Y94.858 E285.55887
G1 F1680 E282.55887
G1 F3600 X33.6 Y94.181
G1 F1680 E285.55887
G1 F1200 X33.6 Y22.276 E293.48812
G1 F1680 E290.48812
G1 F3600 X32 Y22.276
G1 F1680 E293.48812
G1 F1200 X32 Y93.415 E301.3329
G1 F1680 E298.3329
G1 F3600 X30.4 Y92.562
G1 F1680 E301.3329
G1 F1200 X30.4 Y22.276 E309.08362
G1 F1680 E306.08362
G1 F3600 X28.8 Y22.276
G1 F1680 E309.08362
G1 F1200 X28.8 Y91.548 E316.72252
G1 F1680 E313.72252
G1 F3600 X27.2 Y90.521
G1 F1680 E316.72252
G1 F1200 X27.2 Y22.276 E324.24816
G1 F1680 E321.24816
G1 F3600 X25.6 Y22.276
G1 F1680 E324.24816
G1 F1200 X25.6 Y89.327 E331.64214
G1 F1680 E328.64214
G1 F3600 X24 Y88.057
G1 F1680 E331.64214
G1 F1200 X24 Y22.276 E338.89608
G1 F1680 E335.89608
G1 F3600 X22.4 Y22.276
G1 F1680 E338.89608
G1 F1200 X22.4 Y86.531 E345.98173
G1 F1680 E342.98173
G1 F3600 X20.8 Y84.978
G1 F1680 E345.98173
G1 F1200 X20.8 Y22.276 E352.89613
G1 F1680 E349.89613
G1 F3600 X19.2 Y22.276
G1 F1680 E352.89613
G1 F1200 X19.2 Y83.105 E359.60399
G1 F1680 E356.60399
G1 F3600 X17.6 Y81.095
G1 F1680 E359.60399
G1 F1200 X17.6 Y22.276 E366.09019
G1 F1680 E363.09019
G1 F3600 X16 Y22.278
G1 F1680 E366.09019
G1 F1200 X16 Y78.83 E372.32641
G1 F1680 E369.32641
G1 F3600 X14.4 Y76.104
G1 F1680 E372.32641
G1 F1200 X14.4 Y22.487 E378.23897
G1 F1680 E375.23897
G1 F3600 X12.8 Y23.087
G1 F1680 E378.23897
G1 F1200 X12.8 Y72.687 E383.70855
G1 F1680 E380.70855
G1 F3600 X11.2 Y68.402
G1 F1680 E383.70855
G1 F1200 X11.2 Y24.402 E388.56061
G1 F1680 E385.56061
G1 F3600 X9.6 Y27.015
G1 F1680 E388.56061
G1 F1200 X9.6 Y60.575 E392.2614
G1 F1680 E389.2614
G1 F3600 X88 Y70.826
M104 T0 S200
G1 F1680 E392.2614
G1 F1200 X88 Y23.612 E397.46788
G1 F1680 E394.46788
G1 F3600 X89.6 Y25.313
G1 F1680 E397.46788
G1 F1200 X89.6 Y65.305 E401.87796
G1 F1680 E398.87796
G1 F3600 X87.092 Y22.983
;TIME_ELAPSED:196.522102
;LAYER:-4
G1 X87.092 Y22.983 Z0.619
;TYPE:SUPPORT
G1 F1680 E401.87796
G1 F1980 X86.892 Y22.886 E401.89453
G1 X86.356 Y22.654 E401.93806
G1 X86.261 Y22.621 E401.94556
G1 X90.341 Y26.701 E402.37566
G1 X90.391 Y26.824 E402.38556
G1 X90.496 Y27.156 E402.41152
G1 X90.607 Y27.623 E402.4473
G1 X90.648 Y27.824 E402.46259
G1 X90.725 Y28.321 E402.50008
G1 X90.73 Y28.363 E402.50323
G1 X84.645 Y22.278 E403.1447
G1 X84.196 Y22.235 E403.17832
G1 X83.942 Y22.225 E403.19727
G1 X83.319 Y22.225 E403.24371
G1 X90.799 Y29.705 E404.03223
G1 X90.795 Y30.974 E404.12683
G1 X82.047 Y22.225 E405.04907
G1 X80.774 Y22.225 E405.14396
G1 X90.791 Y32.243 E406.19999
G1 X90.787 Y33.511 E406.2945
G1 X79.501 Y22.225 E407.48425
G1 X78.228 Y22.225 E407.57914
G1 X90.784 Y34.781 E408.90277
G1 X90.78 Y36.05 E408.99736
G1 X76.955 Y22.225 E410.45476
G1 X75.683 Y22.225 E410.54958
G1 X90.776 Y37.318 E412.14064
G1 X90.772 Y38.588 E412.23531
G1 X74.41 Y22.225 E413.96021
G1 X73.137 Y22.225 E414.0551
G1 X90.768 Y39.856 E415.91372
G1 X90.764 Y41.126 E416.00839
G1 X71.864 Y22.225 E418.00084
G1 X70.591 Y22.225 E418.09573
G1 X90.76 Y42.394 E420.2219
G1 X90.757 Y43.663 E420.31649
G1 X69.319 Y22.225 E422.57644
G1 X68.046 Y22.225 E422.67133
G1 X90.753 Y44.933 E425.0651
G1 X90.749 Y46.201 E425.15962
G1 X66.773 Y22.225 E427.68711
G1 X65.5 Y22.225 E427.78201
G1 X90.745 Y47.47 E430.44328
G1 X90.741 Y48.739 E430.53787
G1 X64.227 Y22.225 E433.33291
G1 X62.955 Y22.225 E433.42773
G1 X90.738 Y50.008 E436.35655
G1 X90.733 Y51.277 E436.45115
G1 X61.682 Y22.225 E439.51369
G1 X60.409 Y22.225 E439.60858
G1 X90.73 Y52.546 E442.80495
G1 X90.726 Y53.815 E442.89954
G1 X59.136 Y22.225 E446.22969
G1 X57.863 Y22.225 E446.32458
G1 X90.722 Y55.084 E449.7885
G1 X90.718 Y56.353 E449.88309
G1 X56.591 Y22.225 E453.48074
G1 X55.318 Y22.225 E453.57563
G1 X90.714 Y57.622 E457.30705
G1 X90.712 Y58.264 E457.3549
G1 X90.671 Y58.851 E457.39877
G1 X54.045 Y22.225 E461.25979
G1 X52.772 Y22.225 E461.35469
G1 X90.529 Y59.982 E465.33494
G1 X90.386 Y61.112 E465.41985
G1 X51.5 Y22.225 E469.51917
G1 X50.227 Y22.225 E469.61406
G1 X90.243 Y62.242 E473.83251
G1 X90.105 Y63.331 E473.91434
G1 X90.098 Y63.37 E473.91729
G1 X48.954 Y22.225 E478.25465
G1 X47.681 Y22.225 E478.34954
G1 X89.867 Y64.411 E482.79669
G1 X89.618 Y65.434 E482.87517
G1 X46.408 Y22.225 E487.43022
G1 X45.136 Y22.225 E487.52504
G1 X89.367 Y66.457 E492.18782
G1 X89.117 Y67.479 E492.26625
G1 X43.863 Y22.225 E497.03682
G1 X42.59 Y22.225 E497.13171
G1 X88.856 Y68.491 E502.00897
G1 X88.828 Y68.587 E502.01642
G1 X88.536 Y69.444 E502.08391
G1 X41.317 Y22.225 E507.06163
G1 X40.044 Y22.225 E507.15652
G1 X88.213 Y70.394 E512.23439
G1 X88.153 Y70.569 E512.24818
G1 X87.862 Y71.315 E512.30786
G1 X38.772 Y22.225 E517.48282
G1 X37.499 Y22.225 E517.57771
G1 X87.505 Y72.231 E522.84923
G1 X87.423 Y72.44 E522.86596
G1 X87.331 Y72.658 E522.8836
G1 X87.12 Y73.119 E522.92139
G1 X36.226 Y22.225 E528.28652
G1 X34.953 Y22.225 E528.38141
G1 X86.72 Y73.992 E533.83857
G1 X86.49 Y74.492 E533.8796
G1 X86.306 Y74.851 E533.90967
G1 X33.68 Y22.225 E539.45738
G1 X32.408 Y22.225 E539.5522
G1 X85.875 Y75.693 E545.18862
G1 X85.481 Y76.462 E545.25303
G1 X85.441 Y76.532 E545.25904
G1 X31.135 Y22.225 E550.9839
G1 X29.862 Y22.225 E551.0788
G1 X84.977 Y77.341 E556.88894
G1 X84.725 Y77.78 E556.92668
G1 X84.501 Y78.137 E556.95809
G1 X28.589 Y22.225 E562.85221
G1 X27.316 Y22.225 E562.9471
G1 X84.008 Y78.917 E568.92344
G1 X83.693 Y79.416 E568.96743
G1 X83.505 Y79.686 E568.99195
G1 X26.044 Y22.225 E575.04936
G1 X24.771 Y22.225 E575.14425
G1 X82.982 Y80.436 E581.28072
G1 X82.459 Y81.187 E581.34894
G1 X23.498 Y22.225 E587.56452
G1 X22.225 Y22.225 E587.65942
G1 X81.896 Y81.896 E593.9498
G1 X81.32 Y82.592 E594.01714
G1 X20.952 Y22.225 E600.38094
G1 X19.68 Y22.225 E600.47576
G1 X80.743 Y83.289 E606.91293
G1 X80.167 Y83.985 E606.98028
G1 X18.407 Y22.225 E613.49087
G1 X17.134 Y22.225 E613.58577
G1 X79.582 Y84.673 E620.16889
G1 X79.418 Y84.849 E620.18682
G1 X78.947 Y85.311 E620.236
G1 X15.869 Y22.233 E626.88554
G1 X15.822 Y22.234 E626.88904
G1 X15.143 Y22.299 E626.93989
G1 X14.917 Y22.331 E626.9569
G1 X14.73 Y22.367 E626.9711
G1 X78.306 Y85.943 E633.67314
G1 X77.664 Y86.573 E633.74018
G1 X13.715 Y22.624 E640.48154
G1 X13.626 Y22.653 E640.48852
G1 X13.244 Y22.809 E640.51928
G1 X12.927 Y22.962 E640.54551
G1 X12.833 Y23.015 E640.55356
G1 X77.023 Y87.205 E647.32032
G1 X76.747 Y87.476 E647.34915
G1 X76.488 Y87.713 E647.37532
G1 X76.363 Y87.819 E647.38754
G1 X12.051 Y23.506 E654.16722
G1 X11.967 Y23.568 E654.175
G1 X11.757 Y23.748 E654.19562
G1 X11.47 Y24.027 E654.22545
G1 X11.388 Y24.116 E654.23447
G1 X75.678 Y88.406 E661.01178
G1 X75.533 Y88.53 E661.026
G1 X75.363 Y88.668 E661.04232
G1 X74.969 Y88.97 E661.07933
G1 X10.781 Y24.782 E667.84588
G1 X10.723 Y24.847 E667.85237
G1 X10.409 Y25.235 E667.88958
G1 X10.232 Y25.489 E667.91265
G1 X10.226 Y25.499 E667.91352
G1 X74.249 Y89.523 E674.66273
G1 X73.53 Y90.076 E674.73035
G1 X9.796 Y26.343 E681.44899
G1 X9.732 Y26.492 E681.46108
G1 X9.601 Y26.846 E681.48921
G1 X9.46 Y27.279 E681.52316
G1 X72.786 Y90.605 E688.19884
G1 X72.02 Y91.112 E688.26731
G1 X9.263 Y28.355 E694.88301
G1 X9.227 Y28.68 E694.90739
G1 X9.202 Y29.122 E694.94039
G1 X9.202 Y29.567 E694.97356
G1 X71.255 Y91.62 E701.51504
G1 X71.034 Y91.768 E701.53487
G1 X70.775 Y91.928 E701.55756
G1 X70.466 Y92.104 E701.58407
G1 X9.205 Y30.842 E708.04212
G1 X9.207 Y32.117 E708.13716
G1 X69.654 Y92.565 E714.50939
G1 X68.843 Y93.026 E714.57893
G1 X9.21 Y33.393 E720.8653
G1 X9.212 Y34.668 E720.96034
G1 X68.009 Y93.465 E727.15859
G1 X67.148 Y93.877 E727.22974
G1 X9.214 Y35.942 E733.33706
G1 X9.217 Y37.218 E733.43218
G1 X66.287 Y94.289 E739.44842
G1 X66.063 Y94.397 E739.46695
G1 X65.635 Y94.578 E739.50159
G1 X65.391 Y94.666 E739.52093
G1 X9.219 Y38.493 E745.44251
G1 X9.221 Y39.768 E745.53755
G1 X64.458 Y95.005 E751.3605
G1 X63.524 Y95.344 E751.43457
G1 X9.224 Y41.044 E757.15875
G1 X9.226 Y42.318 E757.25372
G1 X62.59 Y95.683 E762.87928
G1 X61.656 Y96.022 E762.95335
G1 X9.228 Y43.593 E768.48024
G1 X9.23 Y44.868 E768.57528
G1 X60.681 Y96.319 E773.99913
G1 X59.679 Y96.59 E774.0765
G1 X9.233 Y46.144 E779.3944
G1 X9.235 Y47.419 E779.48944
G1 X58.65 Y96.834 E784.69866
G1 X57.589 Y97.046 E784.77931
G1 X9.237 Y48.694 E789.87647
G1 X9.24 Y49.969 E789.97151
G1 X56.528 Y97.258 E794.95655
G1 X56.229 Y97.309 E794.97916
G1 X55.424 Y97.426 E795.0398
G1 X9.242 Y51.244 E799.9082
G1 X9.244 Y52.519 E800.00324
G1 X54.275 Y97.55 E804.7503
G1 X53.088 Y97.635 E804.83901
G1 X9.247 Y53.795 E809.46058
G1 X9.249 Y55.07 E809.55562
G1 X51.9 Y97.721 E814.05179
G1 X50.995 Y97.787 E814.11943
G1 X50.704 Y97.797 E814.14113
G1 X9.251 Y56.345 E818.51096
