M73 P0
;MINX:8.8
;MAXX:91.2
;MINY:21.8
;MAXY:98.2
;MINZ:0.0
;MAXZ:91.3
;MachineType:ENTINA TINA2
;FilamentType:PLA
;Extruder0Temperature:200
;InfillDensity:100
;FLAVOR:Marlin
;TIME:10111
;FilamentUsed:27236.4
;Layer height: 0.4

;Generated with Cura_SteamEngine 3.1
M104 T0 S215
M82 ; absolute extrusion mode
;(**** start.gcode for tina2****)
M104 S150
G28 Z
G28 X Y; Home extruder
G1 X55 Y55 F1000
G1 Z10 F200
G29
G1 Z15 F100
M107 ; Turn off fan
G90 ; Absolute positioning
M82 ; Extruder in absolute mode
M109 S215.0
G92 E0 ; Reset extruder position
G1 X90 Y6 Z0.27 F2000
G1 X20 Y6 Z0.27 E15 F1000
G92 E0 ; Reset extruder position

;LAYER_COUNT:226
;LAYER:-5
M107
M203 Z5
G1 F3600 X87.029 Y23.095 Z0.349
G1 F1200 X87.433 Y23.321 E0.05105
G1 X87.862 Y23.595 E0.10718
G1 X87.975 Y23.685 E0.12311
G1 X88.54 Y24.182 E0.20609
G1 X88.863 Y24.512 E0.25701
G1 X88.974 Y24.636 E0.27536
G1 X89.414 Y25.172 E0.35184
G1 X89.769 Y25.77 E0.42852
G1 X89.869 Y25.959 E0.4521
G1 X90.056 Y26.353 E0.5002
G1 X90.134 Y26.535 E0.52203
G1 X90.377 Y27.182 E0.59825
G1 X90.489 Y27.685 E0.65507
G1 X90.524 Y27.868 E0.67562
G1 X90.617 Y28.482 E0.7441
G1 X90.661 Y28.912 E0.79176
G1 X90.67 Y29.268 E0.83103
G1 X90.583 Y58.271 E4.02932
G1 X90.572 Y58.532 E4.05813
G1 X90.554 Y58.732 E4.08027
G1 X89.96 Y63.424 E4.60181
G1 X89.892 Y63.769 E4.64059
G1 X88.801 Y68.222 E5.14616
G1 X88.729 Y68.47 E5.17464
G1 X88.112 Y70.294 E5.38697
G1 X87.953 Y70.734 E5.43856
G1 X87.299 Y72.403 E5.63624
G1 X86.41 Y74.358 E5.87307
G1 X85.424 Y76.294 E6.11265
G1 X85.282 Y76.554 E6.14532
G1 X84.733 Y77.512 E6.26708
G1 X83.619 Y79.29 E6.49845
G1 X83.399 Y79.619 E6.54209
G1 X82.338 Y81.134 E6.74606
G1 X82.091 Y81.453 E6.79054
G1 X79.593 Y84.476 E7.22299
G1 X79.396 Y84.685 E7.25466
G1 X76.71 Y87.334 E7.67067
G1 X76.419 Y87.601 E7.71422
G1 X75.289 Y88.561 E7.87773
G1 X73.27 Y90.114 E8.15862
G1 X73.057 Y90.266 E8.18747
G1 X70.921 Y91.687 E8.47038
G1 X70.654 Y91.849 E8.50482
G1 X68.473 Y93.087 E8.78137
G1 X68.166 Y93.248 E8.8196
G1 X65.917 Y94.321 E9.09438
G1 X65.542 Y94.477 E9.13917
G1 X61.345 Y95.995 E9.63133
G1 X61.091 Y96.074 E9.66067
G1 X59.385 Y96.536 E9.85557
G1 X58.973 Y96.636 E9.90232
G1 X56.492 Y97.134 E10.18137
G1 X56.253 Y97.175 E10.20811
G1 X54.918 Y97.367 E10.35684
G1 X54.68 Y97.392 E10.38323
G1 X51.013 Y97.656 E10.78865
G1 X50.634 Y97.671 E10.83048
G1 X49.361 Y97.67 E10.97086
G1 X49.002 Y97.658 E11.01047
G1 X45.312 Y97.39 E11.41845
G1 X45.004 Y97.356 E11.45262
G1 X43.574 Y97.147 E11.61199
G1 X41.133 Y96.658 E11.88652
G1 X40.357 Y96.456 E11.97494
G1 X37.01 Y95.467 E12.3598
G1 X36.584 Y95.317 E12.40961
G1 X34.503 Y94.497 E12.65626
G1 X34.147 Y94.347 E12.69886
G1 X32.457 Y93.557 E12.90458
G1 X30.653 Y92.609 E13.12931
G1 X30.118 Y92.3 E13.19744
G1 X26.955 Y90.272 E13.61177
G1 X26.652 Y90.053 E13.653
G1 X24.252 Y88.167 E13.9896
G1 X23.867 Y87.835 E14.04566
G1 X20.597 Y84.677 E14.54696
G1 X20.259 Y84.299 E14.60288
G1 X17.013 Y80.222 E15.17756
G1 X16.806 Y79.926 E15.21739
G1 X15.935 Y78.579 E15.39427
G1 X15.558 Y77.977 E15.4726
G1 X14.329 Y75.814 E15.74694
G1 X14.113 Y75.381 E15.8003
G1 X12.268 Y71.321 E16.29207
G1 X12.171 Y71.073 E16.32144
G1 X11.712 Y69.817 E16.4689
G1 X11.621 Y69.536 E16.50147
G1 X10.776 Y66.69 E16.82885
G1 X9.966 Y63.027 E17.24254
G1 X9.915 Y62.745 E17.27415
G1 X9.404 Y58 E17.80042
G1 X9.386 Y57.55 E17.85008
G1 X9.33 Y29.197 E20.97669
G1 X9.342 Y28.837 E21.01641
G1 X9.422 Y28.123 E21.09564
G1 X9.509 Y27.609 E21.15312
G1 X9.538 Y27.487 E21.16695
G1 X9.727 Y26.874 E21.23769
G1 X9.892 Y26.442 E21.28869
G1 X10.085 Y26.012 E21.34066
G1 X10.238 Y25.725 E21.37653
G1 X10.338 Y25.577 E21.39622
G1 X10.747 Y25.029 E21.47163
G1 X10.888 Y24.858 E21.49607
G1 X11.544 Y24.138 E21.60348
G1 X11.851 Y23.838 E21.65081
G1 X12.009 Y23.7 E21.67395
G1 X12.159 Y23.581 E21.69506
G1 X12.292 Y23.493 E21.71265
G1 X12.859 Y23.148 E21.78584
G1 X13.17 Y22.986 E21.82451
G1 X13.791 Y22.73 E21.89858
G1 X13.93 Y22.682 E21.91479
G1 X14.364 Y22.572 E21.96417
G1 X14.981 Y22.449 E22.03354
G1 X15.423 Y22.383 E22.08282
G1 X15.561 Y22.371 E22.0981
G1 X15.986 Y22.352 E22.14501
G1 X84.116 Y22.355 E29.65798
G1 X84.501 Y22.373 E29.70048
G1 X85.02 Y22.448 E29.75831
G1 X85.639 Y22.574 E29.82797
G1 X86.205 Y22.731 E29.89274
G1 X86.36 Y22.786 E29.91088
G1 X87.029 Y23.095 E29.99214
G1 F3600 X86.4 Y22.805
G1 F1200 X86.4 Y74.378 E35.6793
G1 F1680 E32.6793
G1 F3600 X84.8 Y77.396
G1 F1680 E35.6793
G1 F1200 X84.8 Y22.417 E41.74205
G1 F1680 E38.74205
G1 F3600 X83.2 Y22.355
G1 F1680 E41.74205
G1 F1200 X83.2 Y79.904 E48.08821
G1 F1680 E45.08821
G1 F3600 X81.6 Y82.048
G1 F1680 E48.08821
G1 F1200 X81.6 Y22.355 E54.67079
G1 F1680 E51.67079
G1 F3600 X80 Y22.355
G1 F1680 E54.67079
G1 F1200 X80 Y83.984 E61.46687
G1 F1680 E58.46687
G1 F3600 X78.4 Y85.668
G1 F1680 E61.46687
G1 F1200 X78.4 Y22.355 E68.44864
G1 F1680 E65.44864
G1 F3600 X76.8 Y22.355
G1 F1680 E68.44864
G1 F1200 X76.8 Y87.246 E75.60443
G1 F1680 E72.60443
G1 F3600 X75.2 Y88.63
G1 F1680 E75.60443
G1 F1200 X75.2 Y22.355 E82.91284
G1 F1680 E79.91284
G1 F3600 X73.6 Y22.355
G1 F1680 E82.91284
G1 F1200 X73.6 Y89.861 E90.357
G1 F1680 E87.357
G1 F3600 X72 Y90.97
G1 F1680 E90.357
G1 F1200 X72 Y22.355 E97.92344
G1 F1680 E94.92344
G1 F3600 X70.4 Y22.355
G1 F1680 E97.92344
G1 F1200 X70.4 Y91.994 E105.60281
G1 F1680 E102.60281
G1 F3600 X68.8 Y92.902
G1 F1680 E105.60281
G1 F1200 X68.8 Y22.355 E113.38231
G1 F1680 E110.38231
G1 F3600 X67.2 Y22.355
G1 F1680 E113.38231
G1 F1200 X67.2 Y93.709 E121.2508
G1 F1680 E118.2508
G1 F3600 X65.6 Y94.453
G1 F1680 E121.2508
G1 F1200 X65.6 Y22.355 E129.20134
G1 F1680 E126.20134
G1 F3600 X64 Y22.355
G1 F1680 E129.20134
G1 F1200 X64 Y95.035 E137.21605
G1 F1680 E134.21605
G1 F3600 X62.4 Y95.614
G1 F1680 E137.21605
G1 F1200 X62.4 Y22.355 E145.29461
G1 F1680 E142.29461
G1 F3600 X60.8 Y22.354
G1 F1680 E145.29461
G1 F1200 X60.8 Y96.153 E153.43272
G1 F1680 E150.43272
G1 F3600 X59.2 Y96.581
G1 F1680 E153.43272
G1 F1200 X59.2 Y22.354 E161.61803
G1 F1680 E158.61803
G1 F3600 X57.6 Y22.354
G1 F1680 E161.61803
G1 F1200 X57.6 Y96.912 E169.83983
G1 F1680 E166.83983
G1 F3600 X56 Y97.212
G1 F1680 E169.83983
G1 F1200 X56 Y22.354 E178.09472
G1 F1680 E175.09472
G1 F3600 X54.4 Y22.354
G1 F1680 E178.09472
G1 F1200 X54.4 Y97.413 E186.37178
G1 F1680 E183.37178
G1 F3600 X52.8 Y97.528
G1 F1680 E186.37178
G1 F1200 X52.8 Y22.354 E194.66151
G1 F1680 E191.66151
G1 F3600 X51.2 Y22.354
G1 F1680 E194.66151
G1 F1200 X51.2 Y97.643 E202.96393
G1 F1680 E199.96393
G1 F3600 X49.6 Y97.67
G1 F1680 E202.96393
G1 F1200 X49.6 Y22.354 E211.26932
G1 F1680 E208.26932
G1 F3600 X48 Y22.354
G1 F1680 E211.26932
G1 F1200 X48 Y97.585 E219.56535
G1 F1680 E216.56535
G1 F3600 X46.4 Y97.469
G1 F1680 E219.56535
G1 F1200 X46.4 Y22.354 E227.84858
G1 F1680 E224.84858
G1 F3600 X44.8 Y22.354
G1 F1680 E227.84858
G1 F1200 X44.8 Y97.326 E236.11604
G1 F1680 E233.11604
G1 F3600 X43.2 Y97.072
G1 F1680 E236.11604
G1 F1200 X43.2 Y22.354 E244.35549
G1 F1680 E241.35549
G1 F3600 X41.6 Y22.354
G1 F1680 E244.35549
G1 F1200 X41.6 Y96.751 E252.55954
G1 F1680 E249.55954
G1 F3600 X40 Y96.35
G1 F1680 E252.55954
G1 F1200 X40 Y22.354 E260.71937
G1 F1680 E257.71937
G1 F3600 X38.4 Y22.353
G1 F1680 E260.71937
G1 F1200 X38.4 Y95.877 E268.82716
G1 F1680 E265.82716
G1 F3600 X36.8 Y95.393
G1 F1680 E268.82716
G1 F1200 X36.8 Y22.353 E276.88157
G1 F1680 E273.88157
G1 F3600 X35.2 Y22.353
G1 F1680 E276.88157
G1 F1200 X35.2 Y94.771 E284.86739
G1 F1680 E281.86739
G1 F3600 X33.6 Y94.091
G1 F1680 E284.86739
G1 F1200 X33.6 Y22.353 E292.77823
G1 F1680 E289.77823
G1 F3600 X32 Y22.353
G1 F1680 E292.77823
G1 F1200 X32 Y93.316 E300.6036
G1 F1680 E297.6036
G1 F3600 X30.4 Y92.462
G1 F1680 E300.6036
G1 F1200 X30.4 Y22.353 E308.3348
G1 F1680 E305.3348
G1 F3600 X28.8 Y22.353
G1 F1680 E308.3348
G1 F1200 X28.8 Y91.454 E315.95484
G1 F1680 E312.95484
G1 F3600 X27.2 Y90.429
G1 F1680 E315.95484
G1 F1200 X27.2 Y22.353 E323.46185
G1 F1680 E320.46185
G1 F3600 X25.6 Y22.353
G1 F1680 E323.46185
G1 F1200 X25.6 Y89.226 E330.8362
G1 F1680 E327.8362
G1 F3600 X24 Y87.949
G1 F1680 E330.8362
G1 F1200 X24 Y22.353 E338.06973
G1 F1680 E335.06973
G1 F3600 X22.4 Y22.353
G1 F1680 E338.06973
G1 F1200 X22.4 Y86.418 E345.13444
G1 F1680 E342.13444
G1 F3600 X20.8 Y84.873
G1 F1680 E345.13444
G1 F1200 X20.8 Y22.353 E352.02876
G1 F1680 E349.02876
G1 F3600 X19.2 Y22.353
G1 F1680 E352.02876
G1 F1200 X19.2 Y82.968 E358.71302
G1 F1680 E355.71302
G1 F3600 X17.6 Y80.959
G1 F1680 E358.71302
G1 F1200 X17.6 Y22.353 E365.17574
G1 F1680 E362.17574
G1 F3600 X16 Y22.353
G1 F1680 E365.17574
G1 F1200 X16 Y78.679 E371.38703
G1 F1680 E368.38703
G1 F3600 X14.4 Y75.938
G1 F1680 E371.38703
G1 F1200 X14.4 Y22.564 E377.27279
G1 F1680 E374.27279
G1 F3600 X12.8 Y23.183
G1 F1680 E377.27279
G1 F1200 X12.8 Y72.491 E382.71018
G1 F1680 E379.71018
G1 F3600 X11.2 Y68.118
G1 F1680 E382.71018
G1 F1200 X11.2 Y24.515 E387.51846
G1 F1680 E384.51846
G1 F3600 X9.6 Y27.285
G1 F1680 E387.51846
G1 F1200 X9.6 Y59.82 E391.10622
G1 F1680 E388.10622
G1 F3600 X88 Y70.604
M104 T0 S200
G1 F1680 E391.10622
G1 F1200 X88 Y23.707 E396.27774
G1 F1680 E393.27774
G1 F3600 X89.6 Y25.486
G1 F1680 E396.27774
G1 F1200 X89.6 Y64.961 E400.63081
G1 F1680 E397.63081
G1 F3600 X87.329 Y23.2
;TIME_ELAPSED:195.953032
;LAYER:-4
G1 X87.329 Y23.2 Z0.619
;TYPE:SUPPORT
G1 F1680 E400.63081
G1 F1980 X86.903 Y22.975 E400.66672
G1 X86.382 Y22.743 E400.70923
G1 X90.196 Y26.556 E401.11124
G1 X90.425 Y27.169 E401.16002
G1 X90.571 Y27.846 E401.21164
G1 X90.636 Y28.269 E401.24355
G1 X84.719 Y22.353 E401.86725
G1 X84.503 Y22.321 E401.88353
G1 X84.118 Y22.304 E401.91225
G1 X83.398 Y22.304 E401.96592
G1 X90.719 Y29.625 E402.73769
G1 X90.716 Y30.894 E402.83228
G1 X82.125 Y22.304 E403.73787
G1 X80.852 Y22.304 E403.83276
G1 X90.711 Y32.163 E404.87208
G1 X90.708 Y33.432 E404.96667
G1 X79.579 Y22.304 E406.13981
G1 X78.307 Y22.304 E406.23463
G1 X90.704 Y34.701 E407.54149
G1 X90.7 Y35.97 E407.63608
G1 X77.034 Y22.304 E409.07672
G1 X75.761 Y22.304 E409.17161
G1 X90.697 Y37.239 E410.74608
G1 X90.692 Y38.508 E410.84067
G1 X74.488 Y22.304 E412.54886
G1 X73.215 Y22.304 E412.64375
G1 X90.689 Y39.777 E414.48577
G1 X90.685 Y41.046 E414.58036
G1 X71.943 Y22.304 E416.5561
G1 X70.67 Y22.304 E416.65099
G1 X90.681 Y42.315 E418.76051
G1 X90.677 Y43.584 E418.8551
G1 X69.396 Y22.303 E421.0985
G1 X68.124 Y22.303 E421.19331
G1 X90.673 Y44.853 E423.57043
G1 X90.67 Y46.122 E423.66502
G1 X66.851 Y22.303 E426.17597
G1 X65.578 Y22.303 E426.27086
G1 X90.666 Y47.391 E428.91558
G1 X90.662 Y48.66 E429.01017
G1 X64.305 Y22.303 E431.78867
G1 X63.032 Y22.303 E431.88356
G1 X90.658 Y49.929 E434.79583
G1 X90.655 Y51.198 E434.89042
G1 X61.76 Y22.303 E437.93646
G1 X60.487 Y22.303 E438.03136
G1 X90.651 Y52.467 E441.21118
G1 X90.647 Y53.736 E441.30577
G1 X59.214 Y22.303 E444.61936
G1 X57.941 Y22.303 E444.71426
G1 X90.643 Y55.005 E448.16163
G1 X90.639 Y56.274 E448.25622
G1 X56.668 Y22.302 E451.83742
G1 X55.395 Y22.302 E451.93231
G1 X90.636 Y57.543 E455.64733
G1 X90.633 Y58.273 E455.70175
G1 X90.622 Y58.535 E455.7213
G1 X90.604 Y58.737 E455.73641
G1 X90.599 Y58.779 E455.73957
G1 X54.122 Y22.302 E459.58489
G1 X52.849 Y22.302 E459.67978
G1 X90.456 Y59.909 E463.64422
G1 X90.313 Y61.039 E463.72913
G1 X51.577 Y22.302 E467.81264
G1 X50.304 Y22.302 E467.90753
G1 X90.17 Y62.169 E472.11017
G1 X90.028 Y63.299 E472.19506
G1 X49.031 Y22.302 E476.51687
G1 X47.758 Y22.302 E476.61176
G1 X89.802 Y64.346 E481.04394
G1 X89.552 Y65.369 E481.12244
G1 X46.485 Y22.302 E485.66247
G1 X45.213 Y22.302 E485.75729
G1 X89.301 Y66.39 E490.40494
G1 X89.05 Y67.412 E490.48339
G1 X43.94 Y22.302 E495.23878
G1 X42.666 Y22.302 E495.33375
G1 X88.793 Y68.428 E500.1963
G1 X88.777 Y68.483 E500.20057
G1 X88.731 Y68.635 E500.2124
G1 X88.476 Y69.384 E500.27138
G1 X41.394 Y22.302 E505.23466
G1 X40.121 Y22.302 E505.32955
G1 X88.151 Y70.332 E510.39276
G1 X88.066 Y70.552 E510.41034
G1 X88 Y70.75 E510.4259
G1 X87.802 Y71.256 E510.4664
G1 X38.848 Y22.302 E515.62702
G1 X37.575 Y22.302 E515.72191
G1 X87.444 Y72.17 E520.97894
G1 X87.35 Y72.41 E520.99815
G1 X87.202 Y72.75 E521.02579
G1 X87.06 Y73.059 E521.05114
G1 X36.302 Y22.302 E526.40188
G1 X35.03 Y22.302 E526.4967
G1 X86.659 Y73.931 E531.93931
G1 X86.373 Y74.551 E531.9902
G1 X86.249 Y74.794 E532.01054
G1 X33.757 Y22.302 E537.54412
G1 X32.484 Y22.302 E537.63902
G1 X85.819 Y75.637 E543.26147
G1 X85.529 Y76.204 E543.30894
G1 X85.383 Y76.473 E543.33176
G1 X31.211 Y22.302 E549.04239
G1 X29.938 Y22.302 E549.13728
G1 X84.922 Y77.285 E554.93352
G1 X84.782 Y77.527 E554.95436
G1 X84.439 Y78.075 E555.00255
G1 X28.665 Y22.301 E560.88212
G1 X27.392 Y22.301 E560.97701
G1 X83.949 Y78.858 E566.93912
G1 X83.661 Y79.318 E566.97957
G1 X83.45 Y79.632 E567.00777
G1 X26.119 Y22.301 E573.05147
G1 X24.847 Y22.301 E573.14629
G1 X82.928 Y80.382 E579.26906
G1 X82.437 Y81.083 E579.33285
G1 X82.402 Y81.129 E579.33716
G1 X23.574 Y22.301 E585.53867
G1 X22.301 Y22.301 E585.63357
G1 X81.839 Y81.839 E591.90992
G1 X81.263 Y82.536 E591.97733
G1 X21.028 Y22.301 E598.32716
G1 X19.755 Y22.301 E598.42205
G1 X80.687 Y83.233 E604.84536
G1 X80.111 Y83.93 E604.91277
G1 X18.483 Y22.301 E611.4095
G1 X17.21 Y22.301 E611.50439
G1 X79.529 Y84.62 E618.07392
G1 X79.437 Y84.714 E618.08372
G1 X78.889 Y85.253 E618.14102
G1 X15.938 Y22.302 E624.77717
G1 X15.557 Y22.319 E624.8056
G1 X15.415 Y22.332 E624.81623
G1 X14.97 Y22.398 E624.84976
G1 X14.796 Y22.433 E624.86299
G1 X78.249 Y85.885 E631.55201
G1 X77.607 Y86.517 E631.61916
G1 X13.775 Y22.685 E638.34818
G1 X13.287 Y22.877 E638.38727
G1 X13.135 Y22.944 E638.39966
G1 X12.89 Y23.072 E638.42026
G1 X76.967 Y87.149 E645.17511
G1 X76.738 Y87.375 E645.19909
G1 X76.455 Y87.637 E645.22784
G1 X76.307 Y87.762 E645.24228
G1 X12.104 Y23.56 E652.01036
G1 X11.808 Y23.808 E652.03915
G1 X11.508 Y24.101 E652.07041
G1 X11.443 Y24.171 E652.07753
G1 X75.618 Y88.346 E658.84271
G1 X75.32 Y88.601 E658.87194
G1 X74.913 Y88.913 E658.91017
G1 X10.837 Y24.837 E665.66492
G1 X10.706 Y24.998 E665.68039
G1 X10.296 Y25.546 E665.7314
G1 X10.286 Y25.56 E665.73269
G1 X74.193 Y89.467 E672.46962
G1 X73.474 Y90.02 E672.53723
G1 X9.853 Y26.399 E679.24401
G1 F3600 X9.85 Y26.408
G1 F1980 X9.625 Y27.01 E679.29192
G1 X9.529 Y27.348 E679.31811
G1 X72.728 Y90.547 E685.9804
G1 X71.962 Y91.054 E686.04887
G1 X9.335 Y28.427 E692.65087
G1 X9.295 Y28.776 E692.67705
G1 X9.278 Y29.195 E692.70831
G1 X9.279 Y29.644 E692.74178
G1 X71.197 Y91.562 E699.26904
G1 X70.947 Y91.729 E699.29145
G1 X70.688 Y91.888 E699.3141
G1 X70.408 Y92.046 E699.33807
G1 X9.281 Y30.918 E705.78199
G1 X9.284 Y32.194 E705.8771
G1 X69.597 Y92.507 E712.23516
G1 X68.785 Y92.968 E712.30476
G1 X9.287 Y33.47 E718.57691
G1 X9.289 Y34.745 E718.67195
G1 X67.949 Y93.405 E724.85575
G1 X67.088 Y93.816 E724.92687
G1 X9.292 Y36.02 E731.01959
G1 X9.294 Y37.295 E731.11463
G1 X66.226 Y94.228 E737.11632
G1 X66.005 Y94.335 E737.13463
G1 X65.704 Y94.468 E737.15916
G1 X65.329 Y94.603 E737.18886
G1 X9.297 Y38.571 E743.09563
G1 X9.299 Y39.846 E743.19067
G1 X64.395 Y94.942 E748.99876
G1 X63.462 Y95.281 E749.07276
G1 X9.301 Y41.121 E754.78224
G1 X9.304 Y42.397 E754.87735
G1 X62.528 Y95.62 E760.48805
G1 X61.594 Y95.96 E760.56214
G1 X9.306 Y43.672 E766.07422
G1 X9.309 Y44.947 E766.16926
G1 X60.617 Y96.255 E771.57804
G1 X59.614 Y96.525 E771.65546
G1 X9.312 Y46.223 E776.95818
G1 X9.314 Y47.498 E777.05322
G1 X58.581 Y96.765 E782.24684
G1 X57.521 Y96.977 E782.32742
G1 X9.317 Y48.774 E787.40892
G1 X9.319 Y50.049 E787.50396
G1 X56.46 Y97.189 E792.4734
G1 X56.371 Y97.208 E792.48019
G1 X55.352 Y97.354 E792.55692
G1 X9.322 Y51.324 E797.4093
G1 X9.325 Y52.6 E797.50441
G1 X54.201 Y97.476 E802.23514
G1 X53.013 Y97.56 E802.32391
G1 X9.327 Y53.875 E806.92914
G1 X9.33 Y55.15 E807.02418
G1 X51.825 Y97.645 E811.50391
G1 X50.935 Y97.71 E811.57042
G1 X50.627 Y97.72 E811.5934
G1 X9.332 Y56.425 E815.94662
G1 X9.335 Y57.55 E816.03048
G1 X9.34 Y57.706 E816.04211
G1 X49.352 Y97.718 E820.26009
G1 X49.319 Y97.718 E820.26255
G1 X48.969 Y97.705 E820.28865
G1 X47.996 Y97.635 E820.36137
G1 X9.473 Y59.112 E824.42238
G1 X9.623 Y60.535 E824.52904
G1 X46.625 Y97.536 E828.42965
G1 X45.413 Y97.449 E828.52023
G1 X45.247 Y97.432 E828.53267
