M73 P0
;MINX:31.0
;MAXX:69.0
;MINY:40.0
;MAXY:80.0
;MINZ:0.0
;MAXZ:4.3
;MachineType:ENTINA TINA2
;FilamentType:PLA
;Extruder0Temperature:200
;InfillDensity:10
;FLAVOR:Marlin
;TIME:1492
;FilamentUsed:1305.1
;Layer height: 0.2

;Generated with Cura_SteamEngine 3.1
M104 T0 S215
M82 ; absolute extrusion mode
;(**** start.gcode for tina2****)
M104 S150
G28 Z
G28 X Y; Home extruder
G1 X55 Y55 F1000
G1 Z10 F200
G29
G1 Z15 F100
M107 ; Turn off fan
G90 ; Absolute positioning
M82 ; Extruder in absolute mode
M109 S215.0
G92 E0 ; Reset extruder position
G1 X90 Y6 Z0.27 F2000
G1 X20 Y6 Z0.27 E15 F1000
G92 E0 ; Reset extruder position

;LAYER_COUNT:15
;LAYER:-6
M107
M203 Z5
G1 F3600 X66.837 Y41.39 Z0.349
G1 F1200 X67.038 Y41.559 E0.02896
G1 X67.271 Y41.779 E0.0643
G1 X67.458 Y41.981 E0.09465
G1 X67.646 Y42.211 E0.12741
G1 X67.81 Y42.439 E0.15838
G1 X67.972 Y42.698 E0.19207
G1 X68.1 Y42.937 E0.22197
G1 X68.227 Y43.212 E0.25537
G1 X68.329 Y43.473 E0.28627
G1 X68.424 Y43.776 E0.32129
G1 X68.478 Y43.997 E0.34637
G1 X68.538 Y44.353 E0.38618
G1 X68.588 Y44.907 E0.44752
G1 X68.598 Y45.129 E0.47203
G1 X68.594 Y75.05 E3.77154
G1 X68.57 Y75.427 E3.8132
G1 X68.533 Y75.725 E3.84631
G1 X68.478 Y76.009 E3.87821
G1 X68.402 Y76.3 E3.91138
G1 X68.318 Y76.558 E3.9413
G1 X68.207 Y76.837 E3.97441
G1 X68.085 Y77.095 E4.00588
G1 X67.942 Y77.353 E4.03841
G1 X67.79 Y77.592 E4.06964
G1 X67.617 Y77.827 E4.10182
G1 X67.436 Y78.044 E4.13298
G1 X67.222 Y78.27 E4.1673
G1 X67.017 Y78.46 E4.19813
G1 X66.787 Y78.648 E4.23088
G1 X66.559 Y78.812 E4.26186
G1 X66.3 Y78.974 E4.29554
G1 X66.061 Y79.102 E4.32544
G1 X65.786 Y79.229 E4.35884
G1 X65.525 Y79.331 E4.38974
G1 X65.222 Y79.426 E4.42476
G1 X65.001 Y79.48 E4.44985
G1 X64.645 Y79.54 E4.48966
G1 X64.091 Y79.59 E4.551
G1 X63.869 Y79.6 E4.57551
G1 X36.078 Y79.6 E7.64013
G1 X35.575 Y79.572 E7.69568
G1 X35.277 Y79.535 E7.7288
G1 X34.993 Y79.48 E7.7607
G1 X34.702 Y79.404 E7.79386
G1 X34.442 Y79.319 E7.82403
G1 X34.165 Y79.209 E7.85689
G1 X33.906 Y79.086 E7.88851
G1 X33.649 Y78.944 E7.92089
G1 X33.41 Y78.792 E7.95213
G1 X33.163 Y78.61 E7.98596
G1 X32.962 Y78.441 E8.01492
G1 X32.729 Y78.221 E8.05025
G1 X32.542 Y78.019 E8.08061
G1 X32.35 Y77.784 E8.11407
G1 X32.19 Y77.561 E8.14434
G1 X32.028 Y77.302 E8.17803
G1 X31.9 Y77.063 E8.20792
G1 X31.773 Y76.788 E8.24133
G1 X31.671 Y76.527 E8.27223
G1 X31.576 Y76.224 E8.30725
G1 X31.52 Y75.995 E8.33324
G1 X31.462 Y75.647 E8.37215
G1 X31.412 Y75.093 E8.43349
G1 X31.402 Y74.871 E8.45799
G1 X31.406 Y44.95 E11.7575
G1 X31.43 Y44.573 E11.79916
G1 X31.467 Y44.275 E11.83227
G1 X31.522 Y43.991 E11.86417
G1 X31.598 Y43.7 E11.89734
G1 X31.682 Y43.442 E11.92726
G1 X31.793 Y43.163 E11.96037
G1 X31.915 Y42.905 E11.99184
G1 X32.061 Y42.642 E12.02501
G1 X32.21 Y42.408 E12.0556
G1 X32.392 Y42.161 E12.08944
G1 X32.561 Y41.96 E12.1184
G1 X32.781 Y41.727 E12.15373
G1 X32.983 Y41.54 E12.18409
G1 X33.213 Y41.352 E12.21685
G1 X33.441 Y41.188 E12.24782
G1 X33.7 Y41.026 E12.28151
G1 X33.939 Y40.898 E12.3114
G1 X34.214 Y40.771 E12.34481
G1 X34.475 Y40.669 E12.37571
G1 X34.778 Y40.574 E12.41072
G1 X34.999 Y40.52 E12.43581
G1 X35.355 Y40.46 E12.47562
G1 X35.909 Y40.41 E12.53696
G1 X36.131 Y40.4 E12.56147
G1 X64.048 Y40.404 E15.63999
G1 X64.425 Y40.428 E15.68164
G1 X64.723 Y40.465 E15.71476
G1 X65.007 Y40.52 E15.74666
G1 X65.298 Y40.596 E15.77982
G1 X65.556 Y40.68 E15.80974
G1 X65.835 Y40.791 E15.84286
G1 X66.093 Y40.913 E15.87433
G1 X66.351 Y41.056 E15.90686
G1 X66.59 Y41.208 E15.93809
G1 X66.837 Y41.39 E15.97192
G1 F3600 X67.2 Y41.712
G1 F1200 X67.2 Y78.291 E20.00564
G1 F1680 E17.00564
G1 F3600 X65.6 Y79.302
G1 F1680 E20.00564
G1 F1200 X65.6 Y40.698 E24.26265
G1 F1680 E21.26265
G1 F3600 X64 Y40.404
G1 F1680 E24.26265
G1 F1200 X64 Y79.595 E28.5844
G1 F1680 E25.5844
G1 F3600 X62.4 Y79.6
G1 F1680 E28.5844
G1 F1200 X62.4 Y40.404 E32.9067
G1 F1680 E29.9067
G1 F3600 X60.8 Y40.404
G1 F1680 E32.9067
G1 F1200 X60.8 Y79.6 E37.229
G1 F1680 E34.229
G1 F3600 X59.2 Y79.6
G1 F1680 E37.229
G1 F1200 X59.2 Y40.404 E41.5513
G1 F1680 E38.5513
G1 F3600 X57.6 Y40.404
G1 F1680 E41.5513
G1 F1200 X57.6 Y79.6 E45.87359
G1 F1680 E42.87359
G1 F3600 X56 Y79.6
G1 F1680 E45.87359
G1 F1200 X56 Y40.403 E50.196
G1 F1680 E47.196
G1 F3600 X54.4 Y40.403
G1 F1680 E50.196
G1 F1200 X54.4 Y79.6 E54.51841
G1 F1680 E51.51841
G1 F3600 X52.8 Y79.6
G1 F1680 E54.51841
G1 F1200 X52.8 Y40.403 E58.84082
G1 F1680 E55.84082
G1 F3600 X51.2 Y40.403
G1 F1680 E58.84082
G1 F1200 X51.2 Y79.6 E63.16323
G1 F1680 E60.16323
G1 F3600 X49.6 Y79.6
G1 F1680 E63.16323
G1 F1200 X49.6 Y40.402 E67.48575
G1 F1680 E64.48575
G1 F3600 X48 Y40.402
G1 F1680 E67.48575
G1 F1200 X48 Y79.6 E71.80827
G1 F1680 E68.80827
G1 F3600 X46.4 Y79.6
G1 F1680 E71.80827
G1 F1200 X46.4 Y40.402 E76.13079
G1 F1680 E73.13079
G1 F3600 X44.8 Y40.402
G1 F1680 E76.13079
G1 F1200 X44.8 Y79.6 E80.45331
G1 F1680 E77.45331
G1 F3600 X43.2 Y79.6
G1 F1680 E80.45331
G1 F1200 X43.2 Y40.402 E84.77583
G1 F1680 E81.77583
G1 F3600 X41.6 Y40.401
G1 F1680 E84.77583
G1 F1200 X41.6 Y79.6 E89.09846
G1 F1680 E86.09846
G1 F3600 X40 Y79.6
G1 F1680 E89.09846
G1 F1200 X40 Y40.401 E93.42109
G1 F1680 E90.42109
G1 F3600 X38.4 Y40.401
G1 F1680 E93.42109
G1 F1200 X38.4 Y79.6 E97.74372
G1 F1680 E94.74372
G1 F3600 X36.8 Y79.6
G1 F1680 E97.74372
G1 F1200 X36.8 Y40.401 E102.06635
G1 F1680 E99.06635
G1 F3600 X35.2 Y40.486
G1 F1680 E102.06635
G1 F1200 X35.2 Y79.52 E106.37078
G1 F1680 E103.37078
G1 F3600 X33.6 Y78.912
M104 T0 S200
G1 F1680 E106.37078
G1 F1200 X33.6 Y41.088 E110.54178
G1 F1680 E107.54178
G1 F3600 X32 Y42.751
G1 F1680 E110.54178
G1 F1200 X32 Y77.249 E114.34602
G1 F1680 E111.34602
G1 F3600 X66.874 Y41.355
;TIME_ELAPSED:58.709486
;LAYER:-5
G1 X66.874 Y41.355 Z0.619
;TYPE:SUPPORT
G1 F1680 E114.34602
G1 F1980 X66.635 Y41.179 E114.36814
G1 X67.814 Y42.358 E114.49243
G1 X67.849 Y42.408 E114.49698
G1 X68.015 Y42.676 E114.52048
G1 X68.14 Y42.905 E114.53992
G1 X68.278 Y43.204 E114.56447
G1 X68.374 Y43.448 E114.58402
G1 X68.469 Y43.751 E114.60769
G1 X68.527 Y43.99 E114.62602
G1 X68.587 Y44.341 E114.65256
G1 X68.593 Y44.41 E114.65773
G1 X64.578 Y40.395 E115.08098
G1 X64.432 Y40.376 E115.09195
G1 X64.049 Y40.353 E115.12055
G1 X63.263 Y40.353 E115.17914
G1 X68.648 Y45.737 E115.74676
G1 X68.648 Y47.01 E115.84166
G1 X61.99 Y40.353 E116.54347
G1 X60.717 Y40.353 E116.63837
G1 X68.648 Y48.283 E117.47438
G1 X68.648 Y49.556 E117.56927
G1 X59.444 Y40.352 E118.53954
G1 X58.171 Y40.352 E118.63443
G1 X68.648 Y50.828 E119.73884
G1 X68.648 Y52.101 E119.83373
G1 X56.898 Y40.352 E121.07233
G1 X55.625 Y40.351 E121.16723
G1 X68.647 Y53.373 E122.53997
G1 X68.647 Y54.646 E122.63487
G1 X54.352 Y40.351 E124.14181
G1 X53.079 Y40.351 E124.2367
G1 X68.647 Y55.919 E125.87785
G1 X68.647 Y57.192 E125.97274
G1 X51.806 Y40.351 E127.74808
G1 X50.533 Y40.351 E127.84297
G1 X68.647 Y58.465 E129.75251
G1 X68.647 Y59.737 E129.84732
G1 X49.26 Y40.351 E131.891
G1 X47.987 Y40.35 E131.98589
G1 X68.646 Y61.009 E134.16372
G1 X68.646 Y62.282 E134.25861
G1 X46.714 Y40.35 E136.57063
G1 X45.441 Y40.35 E136.66552
G1 X68.646 Y63.555 E139.11174
G1 X68.646 Y64.828 E139.20663
G1 X44.168 Y40.35 E141.78705
G1 X42.895 Y40.349 E141.88194
G1 X68.646 Y66.101 E144.5966
G1 X68.646 Y67.373 E144.69142
G1 X41.622 Y40.349 E147.54023
G1 X40.349 Y40.349 E147.63512
G1 X68.645 Y68.645 E150.61802
G1 X68.645 Y69.918 E150.71291
G1 X39.076 Y40.348 E153.83006
G1 X37.803 Y40.348 E153.92495
G1 X68.645 Y71.191 E157.17629
G1 X68.645 Y72.464 E157.27119
G1 X36.53 Y40.348 E160.65673
G1 X36.129 Y40.348 E160.68662
G1 X35.914 Y40.358 E160.70266
G1 X35.344 Y40.409 E160.74532
G1 X35.322 Y40.413 E160.74699
G1 X68.645 Y73.737 E164.25988
G1 X68.645 Y75.009 E164.35469
G1 X34.312 Y40.676 E167.974
G1 X34.206 Y40.716 E167.98244
G1 X33.907 Y40.856 E168.00705
G1 X33.677 Y40.98 E168.02653
G1 X33.472 Y41.109 E168.04459
G1 X68.498 Y76.134 E171.73689
G1 X68.45 Y76.312 E171.75064
G1 X68.36 Y76.592 E171.77256
G1 X68.257 Y76.849 E171.7932
G1 X68.155 Y77.064 E171.81094
G1 X32.764 Y41.674 E175.54172
G1 X32.743 Y41.691 E175.54374
G1 X32.524 Y41.924 E175.56757
G1 X32.357 Y42.122 E175.58688
G1 X32.179 Y42.362 E175.60915
G1 X67.665 Y77.847 E179.34995
G1 X67.655 Y77.859 E179.35112
G1 X67.475 Y78.075 E179.37208
G1 X67.257 Y78.305 E179.3957
G1 X67.046 Y78.5 E179.41712
G1 F3600 X67.045 Y78.5
G1 F1980 X31.728 Y43.183 E183.14015
G1 X31.642 Y43.401 E183.15762
G1 X31.548 Y43.685 E183.17992
G1 X31.472 Y43.974 E183.2022
G1 X31.435 Y44.163 E183.21655
G1 X66.301 Y79.029 E186.89205
G1 X66.093 Y79.142 E186.90969
G1 X65.792 Y79.281 E186.9344
G1 X65.549 Y79.376 E186.95385
G1 X65.416 Y79.417 E186.96423
G1 X31.354 Y45.355 E190.55496
G1 X31.354 Y46.628 E190.64986
G1 X64.343 Y79.616 E194.12743
G1 X64.085 Y79.64 E194.14674
G1 X63.87 Y79.65 E194.16279
G1 X63.103 Y79.649 E194.21996
G1 X31.354 Y47.9 E197.56687
G1 X31.354 Y49.173 E197.66176
G1 X61.83 Y79.649 E200.87447
G1 X60.558 Y79.649 E200.96929
G1 X31.353 Y50.445 E204.04796
G1 X31.353 Y51.718 E204.14285
G1 X59.285 Y79.649 E207.08732
G1 X58.011 Y79.649 E207.18229
G1 X31.353 Y52.991 E209.99251
G1 X31.353 Y54.264 E210.08741
G1 X56.738 Y79.649 E212.76343
G1 X55.466 Y79.649 E212.85825
G1 X31.353 Y55.536 E215.40019
G1 X31.353 Y56.808 E215.495
G1 X54.192 Y79.648 E217.90269
G1 X52.919 Y79.648 E217.99758
G1 X31.353 Y58.081 E220.27108
G1 X31.353 Y59.354 E220.36597
G1 X51.647 Y79.648 E222.50531
G1 X50.374 Y79.648 E222.6002
G1 X31.352 Y60.626 E224.60546
G1 X31.352 Y61.899 E224.70035
G1 X49.1 Y79.647 E226.57131
G1 X47.827 Y79.647 E226.6662
G1 X31.352 Y63.172 E228.40295
G1 X31.352 Y64.445 E228.49784
G1 X46.555 Y79.647 E230.10046
G1 X45.282 Y79.647 E230.19535
G1 X31.351 Y65.717 E231.66387
G1 X31.351 Y66.989 E231.75869
G1 X44.008 Y79.647 E233.09301
G1 X42.736 Y79.647 E233.18783
G1 X31.351 Y68.262 E234.38801
G1 X31.351 Y69.535 E234.4829
G1 X41.463 Y79.647 E235.54888
G1 X40.189 Y79.646 E235.64385
G1 X31.35 Y70.807 E236.57564
G1 X31.35 Y72.08 E236.67053
G1 X38.917 Y79.646 E237.46817
G1 X37.644 Y79.646 E237.56306
G1 X31.35 Y73.353 E238.22651
G1 X31.35 Y74.625 E238.32133
G1 X36.371 Y79.646 E238.85063
G1 X35.95 Y79.646 E238.88201
G1 X35.566 Y79.622 E238.91069
G1 X35.277 Y79.586 E238.9324
G1 X34.982 Y79.529 E238.9548
G1 F3600 X34.98 Y79.528
G1 F1980 X31.474 Y76.022 E239.32439
G1 F3600 X31.529 Y76.247
G1 F1980 X31.623 Y76.547 E239.34783
G1 X31.72 Y76.793 E239.36754
G1 X31.857 Y77.091 E239.39199
G1 X31.983 Y77.322 E239.4116
G1 X32.15 Y77.591 E239.4352
G1 X32.314 Y77.822 E239.45632
G1 X32.5 Y78.048 E239.47814
G1 X32.693 Y78.256 E239.49929
G1 X32.927 Y78.477 E239.52328
G1 X33.125 Y78.644 E239.54259
G1 X33.387 Y78.837 E239.56684
G1 X33.625 Y78.988 E239.58785
G1 X33.876 Y79.126 E239.60921
G1 X34.151 Y79.258 E239.63194
G1 X34.409 Y79.361 E239.65265
G1 X34.689 Y79.451 E239.67458
G1 X34.98 Y79.528 E239.69701
G1 F1680 E236.69701
G1 F3600 X67.684 Y42.177
G1 F1680 E239.69701
G1 F1980 X67.498 Y41.95 E239.71889
G1 X67.305 Y41.741 E239.74009
G1 X67.072 Y41.522 E239.76393
G1 X66.874 Y41.355 E239.78324
G1 F3600 X66.916 Y41.2
;TIME_ELAPSED:111.166466
;LAYER:-4
M106 S255
G1 X66.916 Y41.2 Z0.869
G1 F2400 X66.701 Y41.042 E239.79378
G1 X66.448 Y40.881 E239.80562
G1 X66.303 Y40.8 E239.81218
G1 X33.697 Y40.8 E241.1
G1 X33.854 Y40.715 E241.10705
G1 X34.138 Y40.583 E241.11942
G1 X34.405 Y40.48 E241.13072
G1 X34.66 Y40.4 E241.14128
G1 X34.717 Y40.382 E241.14364
G1 X34.96 Y40.323 E241.15352
G1 X35.33 Y40.26 E241.16834
G1 X35.899 Y40.209 E241.19091
G1 X36.121 Y40.199 E241.19968
G1 X64.047 Y40.203 E242.30266
G1 X64.451 Y40.229 E242.31865
G1 X64.754 Y40.266 E242.3307
G1 X65.049 Y40.323 E242.34257
G1 X65.344 Y40.4 E242.35461
G1 X34.66 Y40.4 E243.56652
G1 F1680 E240.56652
G1 F3600 X33.081 Y41.2
G1 F1680 E243.56652
G1 F2400 X66.916 Y41.2 E244.90288
G1 F3600 X67.374 Y41.6
G1 F2400 X32.624 Y41.6 E246.27538
G1 X32.85 Y41.389 E246.28759
G1 X33.081 Y41.2 E246.29938
G1 F1680 E243.29938
G1 F3600 X32.265 Y42
G1 F1680 E246.29938
G1 F2400 X32.236 Y42.034 E246.30115
G1 X32.041 Y42.299 E246.31414
G1 X31.977 Y42.4 E246.31887
G1 X68.021 Y42.4 E247.74247
G1 X68.148 Y42.605 E247.752
G1 X68.253 Y42.8 E247.76075
G1 X31.744 Y42.8 E249.20272
G1 X31.601 Y43.1 E249.21585
G1 X31.562 Y43.2 E249.22009
G1 X68.438 Y43.2 E250.67656
G1 X68.516 Y43.403 E250.68514
G1 X68.578 Y43.6 E250.6933
G1 X31.419 Y43.6 E252.16095
G1 X31.402 Y43.652 E252.16311
G1 X31.326 Y43.941 E252.17491
G1 X31.315 Y44 E252.17728
G1 X68.682 Y44 E253.65315
G1 X68.736 Y44.328 E253.66627
G1 X68.743 Y44.4 E253.66913
G1 X31.249 Y44.4 E255.15001
G1 X31.231 Y44.545 E255.15578
G1 X31.215 Y44.8 E255.16587
G1 X68.779 Y44.8 E256.64952
G1 X68.787 Y44.897 E256.65336
G1 X68.797 Y45.11 E256.66178
G1 X68.796 Y45.2 E256.66534
G1 X31.205 Y45.2 E258.15005
G1 X31.205 Y45.6 E258.16584
G1 X68.796 Y45.6 E259.65055
G1 X68.796 Y46 E259.66635
G1 X31.205 Y46 E261.15106
G1 X31.205 Y46.4 E261.16686
G1 X68.796 Y46.4 E262.65157
G1 X68.796 Y46.8 E262.66737
G1 X31.205 Y46.8 E264.15208
G1 X31.205 Y47.2 E264.16788
G1 X68.796 Y47.2 E265.65259
G1 X68.796 Y47.6 E265.66839
G1 X31.205 Y47.6 E267.15309
G1 X31.205 Y48 E267.16889
G1 X68.796 Y48 E268.6536
G1 X68.796 Y48.4 E268.6694
G1 X31.205 Y48.4 E270.15411
G1 X31.205 Y48.8 E270.16991
G1 X68.796 Y48.8 E271.65462
G1 X68.796 Y49.2 E271.67042
G1 X31.205 Y49.2 E273.15513
G1 X31.205 Y49.6 E273.17093
G1 X68.796 Y49.6 E274.65564
G1 X68.796 Y50 E274.67143
G1 X31.205 Y50 E276.15614
G1 X31.205 Y50.4 E276.17194
G1 X68.796 Y50.4 E277.65665
G1 X68.796 Y50.8 E277.67245
G1 X31.205 Y50.8 E279.15716
G1 X31.205 Y51.2 E279.17296
G1 X68.796 Y51.2 E280.65767
G1 X68.796 Y51.6 E280.67347
G1 X31.205 Y51.6 E282.15818
G1 X31.205 Y52 E282.17397
G1 X68.796 Y52 E283.65868
G1 X68.796 Y52.4 E283.67448
G1 X31.205 Y52.4 E285.15919
G1 X31.204 Y52.8 E285.17499
G1 X68.795 Y52.8 E286.6597
G1 X68.795 Y53.2 E286.6755
M73 P1
G1 X31.204 Y53.2 E288.16021
G1 X31.204 Y53.6 E288.17601
G1 X68.795 Y53.6 E289.66072
G1 X68.795 Y54 E289.67652
G1 X31.204 Y54 E291.16122
G1 X31.204 Y54.4 E291.17702
G1 X68.795 Y54.4 E292.66173
G1 X68.795 Y54.8 E292.67753
G1 X31.204 Y54.8 E294.16224
G1 X31.204 Y55.2 E294.17804
G1 X68.795 Y55.2 E295.66275
G1 X68.795 Y55.6 E295.67855
G1 X31.204 Y55.6 E297.16326
G1 X31.204 Y56 E297.17906
G1 X68.795 Y56 E298.66377
G1 X68.795 Y56.4 E298.67956
G1 X31.204 Y56.4 E300.16427
G1 X31.204 Y56.8 E300.18007
G1 X68.795 Y56.8 E301.66478
G1 X68.795 Y57.2 E301.68058
G1 X31.204 Y57.2 E303.16529
G1 X31.204 Y57.6 E303.18109
G1 X68.795 Y57.6 E304.6658
G1 X68.795 Y58 E304.6816
G1 X31.204 Y58 E306.16631
G1 X31.204 Y58.4 E306.1821
G1 X68.795 Y58.4 E307.66681
G1 X68.795 Y58.8 E307.68261
G1 X31.204 Y58.8 E309.16732
G1 X31.204 Y59.2 E309.18312
G1 X68.795 Y59.2 E310.66783
G1 X68.795 Y59.6 E310.68363
G1 X31.204 Y59.6 E312.16834
G1 X31.203 Y60 E312.18414
G1 X68.795 Y60 E313.66889
G1 X68.794 Y60.4 E313.68469
G1 X31.203 Y60.4 E315.16939
G1 X31.203 Y60.8 E315.18519
G1 X68.794 Y60.8 E316.6699
G1 X68.794 Y61.2 E316.6857
G1 X31.203 Y61.2 E318.17041
G1 X31.203 Y61.6 E318.18621
G1 X68.794 Y61.6 E319.67092
G1 X68.794 Y62 E319.68672
G1 X31.203 Y62 E321.17143
G1 X31.203 Y62.4 E321.18723
G1 X68.794 Y62.4 E322.67194
G1 X68.794 Y62.8 E322.68773
G1 X31.203 Y62.8 E324.17244
G1 X31.203 Y63.2 E324.18824
G1 X68.794 Y63.2 E325.67295
G1 X68.794 Y63.6 E325.68875
G1 X31.203 Y63.6 E327.17346
G1 X31.203 Y64 E327.18926
G1 X68.794 Y64 E328.67397
G1 X68.794 Y64.4 E328.68977
G1 X31.203 Y64.4 E330.17448
G1 X31.203 Y64.8 E330.19027
G1 X68.794 Y64.8 E331.67498
G1 X68.794 Y65.2 E331.69078
G1 X31.203 Y65.2 E333.17549
G1 X31.203 Y65.6 E333.19129
G1 X68.794 Y65.6 E334.676
G1 X68.794 Y66 E334.6918
G1 X31.203 Y66 E336.17651
G1 X31.203 Y66.4 E336.19231
G1 X68.794 Y66.4 E337.67702
G1 X68.794 Y66.8 E337.69282
G1 X31.203 Y66.8 E339.17752
G1 X31.203 Y67.2 E339.19332
G1 X68.794 Y67.2 E340.67803
G1 X68.793 Y67.6 E340.69383
G1 X31.202 Y67.6 E342.17854
G1 X31.202 Y68 E342.19434
G1 X68.793 Y68 E343.67905
G1 X68.793 Y68.4 E343.69485
G1 X31.202 Y68.4 E345.17956
G1 X31.202 Y68.8 E345.19536
G1 X68.793 Y68.8 E346.68007
G1 X68.793 Y69.2 E346.69586
G1 X31.202 Y69.2 E348.18057
G1 X31.202 Y69.6 E348.19637
G1 X68.793 Y69.6 E349.68108
G1 X68.793 Y70 E349.69688
G1 X31.202 Y70 E351.18159
