M73 P0
;MINX:32.9
;MAXX:67.1
;MINY:42.9
;MAXY:77.1
;MINZ:0.0
;MAXZ:8.0
;MachineType:ENTINA TINA2
;FilamentType:PLA
;Extruder0Temperature:200
;InfillDensity:10
;FLAVOR:Marlin
;TIME:1948
;FilamentUsed:618.3
;Layer height: 0.1

;Generated with Cura_SteamEngine 3.1
M104 T0 S215
M82 ; absolute extrusion mode
;(**** start.gcode for tina2****)
M104 S150
G28 Z
G28 X Y; Home extruder
G1 X55 Y55 F1000
G1 Z10 F200
G29
G1 Z15 F100
M107 ; Turn off fan
G90 ; Absolute positioning
M82 ; Extruder in absolute mode
M109 S215.0
G92 E0 ; Reset extruder position
G1 X90 Y6 Z0.27 F2000
G1 X20 Y6 Z0.27 E15 F1000
G92 E0 ; Reset extruder position

;LAYER_COUNT:66
;LAYER:-8
M107
M203 Z5
G1 F3600 X59.843 Y47.682 Z0.349
G1 F1200 X60.495 Y48.233 E0.09413
G1 X60.952 Y48.658 E0.16295
G1 X61.198 Y48.902 E0.20116
G1 X61.571 Y49.29 E0.26051
G1 X61.888 Y49.642 E0.31275
G1 X62.359 Y50.208 E0.39395
G1 X62.798 Y50.788 E0.47416
G1 X63.11 Y51.237 E0.53446
G1 X63.433 Y51.744 E0.60075
G1 X63.81 Y52.389 E0.68313
G1 X64.146 Y53.033 E0.76323
G1 X64.465 Y53.724 E0.84716
G1 X64.801 Y54.566 E0.94713
G1 X65.015 Y55.187 E1.01956
G1 X65.155 Y55.651 E1.07301
G1 X65.303 Y56.201 E1.13582
G1 X65.434 Y56.775 E1.20074
G1 X65.529 Y57.262 E1.25546
G1 X65.636 Y57.963 E1.33366
G1 X65.702 Y58.553 E1.39912
G1 X65.737 Y58.977 E1.44604
G1 X65.75 Y59.231 E1.47408
G1 X65.768 Y59.997 E1.55858
G1 X65.764 Y60.305 E1.59254
G1 X65.728 Y61.125 E1.68306
G1 X65.705 Y61.427 E1.71646
G1 X65.637 Y62.033 E1.7837
G1 X65.537 Y62.687 E1.85666
G1 X65.398 Y63.397 E1.93644
G1 X65.236 Y64.062 E2.01192
G1 X65.076 Y64.625 E2.07646
G1 X64.831 Y65.355 E2.16137
G1 X64.569 Y66.035 E2.24173
G1 X64.413 Y66.398 E2.2853
G1 X64.131 Y66.998 E2.35841
G1 X63.754 Y67.713 E2.44754
G1 X63.642 Y67.911 E2.47263
G1 X63.218 Y68.597 E2.56156
G1 X62.935 Y69.019 E2.61759
G1 X62.381 Y69.763 E2.71988
G1 X62.208 Y69.981 E2.75057
G1 X61.925 Y70.315 E2.79885
G1 X61.696 Y70.572 E2.83681
G1 X61.309 Y70.988 E2.89946
G1 X60.743 Y71.542 E2.9868
G1 X60.168 Y72.051 E3.07148
G1 X59.478 Y72.6 E3.16872
G1 X59.204 Y72.801 E3.20619
G1 X58.598 Y73.218 E3.28731
G1 X57.907 Y73.643 E3.37677
G1 X57.452 Y73.897 E3.43423
G1 X56.74 Y74.256 E3.52216
G1 X56.297 Y74.457 E3.5758
G1 X55.715 Y74.696 E3.64518
G1 X55.118 Y74.914 E3.71527
G1 X54.377 Y75.149 E3.80099
G1 X53.574 Y75.358 E3.89249
G1 X53.284 Y75.422 E3.92524
G1 X52.527 Y75.564 E4.01018
G1 X51.997 Y75.643 E4.06927
G1 X51.488 Y75.698 E4.12572
G1 X50.734 Y75.752 E4.20908
G1 X50.18 Y75.766 E4.27019
G1 X49.574 Y75.762 E4.33702
G1 X48.816 Y75.723 E4.42072
G1 X48.024 Y75.644 E4.50849
G1 X47.332 Y75.54 E4.58566
G1 X46.569 Y75.387 E4.67147
G1 X45.952 Y75.24 E4.74141
G1 X45.365 Y75.072 E4.80874
G1 X44.534 Y74.79 E4.90551
G1 X43.808 Y74.5 E4.99172
G1 X43.151 Y74.203 E5.07123
G1 X42.649 Y73.95 E5.13322
G1 X42.292 Y73.756 E5.17803
G1 X42.049 Y73.615 E5.20901
G1 X41.448 Y73.246 E5.28678
G1 X40.944 Y72.908 E5.3537
G1 X40.271 Y72.405 E5.44635
G1 X39.905 Y72.112 E5.49805
G1 X39.685 Y71.925 E5.52989
G1 X39.018 Y71.315 E5.62956
G1 X38.586 Y70.876 E5.69748
G1 X38.065 Y70.305 E5.78272
G1 X37.742 Y69.918 E5.83831
G1 X37.583 Y69.716 E5.86666
G1 X37.105 Y69.074 E5.95492
G1 X36.744 Y68.539 E6.02609
G1 X36.465 Y68.091 E6.08429
G1 X36.233 Y67.689 E6.13547
G1 X35.888 Y67.031 E6.2174
G1 X35.554 Y66.316 E6.30443
G1 X35.362 Y65.861 E6.35889
G1 X35.148 Y65.289 E6.42623
G1 X34.903 Y64.548 E6.5123
G1 X34.722 Y63.905 E6.58596
G1 X34.669 Y63.686 E6.61081
G1 X34.509 Y62.938 E6.69516
G1 X34.407 Y62.341 E6.76194
G1 X34.317 Y61.635 E6.84043
G1 X34.267 Y61.03 E6.90737
G1 X34.242 Y60.558 E6.95949
G1 X34.236 Y60.35 E6.98244
G1 X34.234 Y59.687 E7.05555
G1 X34.269 Y58.899 E7.14253
G1 X34.312 Y58.404 E7.19733
G1 X34.419 Y57.595 E7.28731
G1 X34.513 Y57.04 E7.34939
G1 X34.578 Y56.727 E7.38464
G1 X34.776 Y55.9 E7.47841
G1 X34.857 Y55.611 E7.51151
G1 X35.072 Y54.924 E7.59089
G1 X35.24 Y54.449 E7.64645
G1 X35.412 Y54.015 E7.69793
G1 X35.603 Y53.566 E7.75174
G1 X35.823 Y53.095 E7.80906
G1 X36.26 Y52.265 E7.9125
G1 X36.65 Y51.613 E7.99628
G1 X36.891 Y51.237 E8.04553
G1 X37.398 Y50.523 E8.1421
G1 X37.751 Y50.074 E8.20508
G1 X38.244 Y49.495 E8.28894
G1 X38.462 Y49.256 E8.32461
G1 X38.837 Y48.864 E8.38443
G1 X39.017 Y48.686 E8.41235
G1 X39.469 Y48.265 E8.48046
G1 X40.15 Y47.689 E8.57882
G1 X40.371 Y47.514 E8.60991
G1 X40.891 Y47.13 E8.68119
G1 X41.461 Y46.746 E8.75698
G1 X42.124 Y46.341 E8.84265
G1 X42.57 Y46.092 E8.89898
G1 X43.049 Y45.848 E8.95826
G1 X43.516 Y45.629 E9.01514
G1 X43.76 Y45.522 E9.04452
G1 X44.529 Y45.213 E9.13591
G1 X44.941 Y45.067 E9.18411
G1 X45.654 Y44.843 E9.26653
G1 X45.945 Y44.762 E9.29984
G1 X46.699 Y44.582 E9.38532
G1 X47.259 Y44.473 E9.44823
G1 X47.919 Y44.371 E9.52188
G1 X48.168 Y44.339 E9.54956
G1 X48.772 Y44.281 E9.61647
G1 X49.124 Y44.256 E9.65539
G1 X49.93 Y44.232 E9.74431
G1 X50.484 Y44.24 E9.8054
G1 X51.322 Y44.291 E9.89798
G1 X51.923 Y44.351 E9.96459
G1 X52.64 Y44.455 E10.04448
G1 X53.139 Y44.547 E10.10044
G1 X53.742 Y44.683 E10.1686
G1 X54.646 Y44.931 E10.27197
G1 X55.27 Y45.139 E10.34451
G1 X55.922 Y45.387 E10.42143
G1 X56.646 Y45.702 E10.5085
G1 X57.102 Y45.922 E10.56433
G1 X57.768 Y46.28 E10.64771
G1 X58.003 Y46.414 E10.67754
G1 X58.439 Y46.679 E10.73381
G1 X58.953 Y47.022 E10.80195
G1 X59.361 Y47.314 E10.85727
G1 X59.843 Y47.682 E10.92415
G1 F1680 E7.92415
G1 F3600 X53.342 Y55.663
G1 F1680 E10.92415
G1 F1200 X52.615 Y55.192 E11.01967
G1 X51.816 Y54.836 E11.11613
G1 X51.172 Y54.652 E11.18999
G1 X50.501 Y54.547 E11.26488
G1 X49.979 Y54.526 E11.32249
G1 X49.311 Y54.568 E11.3963
G1 X48.638 Y54.697 E11.47187
G1 X47.89 Y54.952 E11.55901
G1 X47.288 Y55.245 E11.63284
G1 X46.718 Y55.619 E11.70802
G1 X46.213 Y56.049 E11.78116
G1 X45.608 Y56.732 E11.88178
G1 X45.238 Y57.297 E11.95625
G1 X44.842 Y58.169 E12.06186
G1 X44.655 Y58.815 E12.13603
G1 X44.544 Y59.559 E12.21898
G1 X44.526 Y60.022 E12.27007
G1 X44.615 Y60.981 E12.37628
G1 X44.636 Y61.092 E12.38874
G1 X44.808 Y61.736 E12.46224
G1 X45.028 Y62.288 E12.52777
G1 X45.344 Y62.879 E12.60167
G1 X45.734 Y63.43 E12.67612
G1 X46.185 Y63.926 E12.75004
G1 X46.7 Y64.365 E12.82467
G1 X47.052 Y64.608 E12.87183
G1 X47.636 Y64.937 E12.94575
G1 X48.269 Y65.193 E13.02105
G1 X48.943 Y65.371 E13.09792
G1 X49.602 Y65.459 E13.17123
G1 X50.02 Y65.473 E13.21735
G1 X50.163 Y65.464 E13.23315
G1 X50.163 Y65.488 E13.2358
G1 X50.688 Y65.431 E13.29404
G1 X51.305 Y65.315 E13.36327
G1 X51.715 Y65.213 E13.40986
G1 X51.71 Y65.194 E13.41202
G1 X52.227 Y65.003 E13.4728
G1 X52.392 Y64.912 E13.49358
G1 X52.405 Y64.934 E13.4964
G1 X52.776 Y64.717 E13.54379
G1 X52.916 Y64.623 E13.56239
G1 X53.012 Y64.57 E13.57448
G1 X53.352 Y64.343 E13.61956
G1 X53.345 Y64.332 E13.621
G1 X53.698 Y64.036 E13.6718
G1 X54.198 Y63.515 E13.75143
G1 X54.597 Y62.976 E13.82538
G1 X54.932 Y62.381 E13.90068
G1 X55.188 Y61.752 E13.97557
G1 X55.342 Y61.192 E14.03961
G1 X55.45 Y60.53 E14.11358
G1 X55.474 Y59.844 E14.18928
G1 X55.37 Y58.943 E14.28929
G1 X55.203 Y58.294 E14.36319
G1 X54.948 Y57.658 E14.43875
G1 X54.549 Y56.958 E14.5276
G1 X54.301 Y56.616 E14.57419
G1 X53.857 Y56.115 E14.64801
G1 X53.342 Y55.663 E14.72357
G1 F3600 X52.8 Y55.311
G1 F1200 X52.8 Y44.485 E15.9174
G1 F1680 E12.9174
G1 F3600 X51.2 Y44.284
G1 F1680 E15.9174
G1 F1200 X51.2 Y54.66 E17.0616
G1 F1680 E14.0616
G1 F3600 X49.6 Y54.55
G1 F1680 E17.0616
G1 F1200 X49.6 Y44.241 E18.19842
G1 F1680 E15.19842
G1 F3600 X48 Y44.36
G1 F1680 E18.19842
G1 F1200 X48 Y54.915 E19.36236
G1 F1680 E16.36236
G1 F3600 X46.4 Y55.89
G1 F1680 E19.36236
G1 F1200 X46.4 Y44.653 E20.60151
G1 F1680 E17.60151
G1 F3600 X44.8 Y45.116
G1 F1680 E20.60151
G1 F1200 X44.8 Y58.315 E22.05701
G1 F1680 E19.05701
G1 F3600 X44.8 Y61.707
G1 F1680 E22.05701
G1 F1200 X44.8 Y74.88 E23.50965
G1 F1680 E20.50965
G1 F3600 X46.4 Y75.346
G1 F1680 E23.50965
G1 F1200 X46.4 Y64.11 E24.74869
G1 F1680 E21.74869
G1 F3600 X48 Y65.085
G1 F1680 E24.74869
G1 F1200 X48 Y75.64 E25.91263
G1 F1680 E22.91263
G1 F3600 X49.6 Y75.762
G1 F1680 E25.91263
G1 F1200 X49.6 Y65.459 E27.04878
G1 F1680 E24.04878
G1 F3600 X51.2 Y65.334
G1 F1680 E27.04878
G1 F1200 X51.2 Y75.719 E28.19398
G1 F1680 E25.19398
G1 F3600 X52.8 Y75.513
G1 F1680 E28.19398
G1 F1200 X52.8 Y64.7 E29.38637
G1 F1680 E26.38637
G1 F3600 X54.4 Y63.242
G1 F1680 E29.38637
G1 F1200 X54.4 Y75.142 E30.69863
G1 F1680 E27.69863
G1 F3600 X56 Y74.579
G1 F1680 E30.69863
G1 F1200 X56 Y45.421 E33.914
G1 F1680 E30.914
G1 F3600 X54.4 Y44.864
G1 F1680 E33.914
G1 F1200 X54.4 Y56.752 E35.22494
G1 F1680 E32.22494
G1 F3600 X62.4 Y50.263
G1 F1680 E35.22494
G1 F1200 X62.4 Y69.738 E37.37252
G1 F1680 E34.37252
G1 F3600 X60.8 Y71.487
G1 F1680 E37.37252
G1 F1200 X60.8 Y48.517 E39.90552
G1 F1680 E36.90552
G1 F3600 X59.2 Y47.199
G1 F1680 E39.90552
G1 F1200 X59.2 Y72.804 E42.72908
G1 F1680 E39.72908
G1 F3600 X57.6 Y73.815
G1 F1680 E42.72908
G1 F1200 X57.6 Y46.19 E45.7754
G1 F1680 E42.7754
G1 F3600 X64 Y52.754
G1 F1680 E45.7754
G1 F1200 X64 Y67.247 E47.3736
G1 F1680 E44.3736
G1 F3600 X65.6 Y62.275
G1 F1680 E47.3736
G1 F1200 X65.6 Y57.728 E47.87502
G1 F1680 E44.87502
G1 F3600 X43.2 Y45.777
G1 F1680 E47.87502
G1 F1200 X43.2 Y74.225 E51.01209
G1 F1680 E48.01209
G1 F3600 X41.6 Y73.339
G1 F1680 E51.01209
G1 F1200 X41.6 Y46.661 E53.95398
G1 F1680 E50.95398
G1 F3600 X40 Y47.815
G1 F1680 E53.95398
G1 F1200 X40 Y72.188 E56.64169
G1 F1680 E53.64169
G1 F3600 X38.4 Y70.672
M104 T0 S200
G1 F1680 E56.64169
G1 F1200 X38.4 Y49.323 E58.99593
G1 F1680 E55.99593
G1 F3600 X36.8 Y51.378
G1 F1680 E58.99593
G1 F1200 X36.8 Y68.621 E60.89738
G1 F1680 E57.89738
G1 F3600 X35.2 Y65.427
G1 F1680 E60.89738
G1 F1200 X35.2 Y54.562 E62.09551
G1 F1680 E59.09551
G1 F3600 X59.789 Y47.573
;TIME_ELAPSED:36.630468
;LAYER:-7
G1 X59.789 Y47.573 Z0.619
;TYPE:SUPPORT
G1 F1680 E62.09551
G1 F1980 X60.532 Y48.199 E62.16793
G1 X61.076 Y48.709 E62.22351
G1 X61.5 Y49.14 E62.26858
G1 X62.057 Y49.761 E62.33076
G1 X62.529 Y50.343 E62.38662
G1 X62.838 Y50.758 E62.42519
G1 X63.153 Y51.211 E62.46632
G1 X63.478 Y51.722 E62.51146
G1 X63.853 Y52.364 E62.56688
G1 F3600 X63.891 Y52.436
G1 F1980 X57.571 Y46.116 E63.23312
G1 X57.125 Y45.876 E63.27087
G1 X56.666 Y45.655 E63.30885
G1 X55.94 Y45.339 E63.36787
G1 X55.466 Y45.155 E63.40577
G1 X55.272 Y45.09 E63.42102
G1 X64.91 Y54.727 E64.43699
G1 X65.063 Y55.17 E64.47192
G1 X65.204 Y55.637 E64.50828
G1 X65.381 Y56.311 E64.56023
G1 X65.428 Y56.519 E64.57612
G1 X53.479 Y44.569 E65.83581
G1 X53.152 Y44.497 E65.86077
G1 X52.45 Y44.37 E65.91395
G1 X51.939 Y44.302 E65.95238
G1 X65.697 Y58.061 E67.40277
G1 X65.765 Y58.677 E67.44896
G1 X65.8 Y59.23 E67.49027
G1 X65.805 Y59.441 E67.506
G1 X50.556 Y44.192 E69.11351
G1 X50.53 Y44.19 E69.11546
G1 X50.242 Y44.182 E69.13693
G1 X49.685 Y44.184 E69.17845
G1 X49.29 Y44.199 E69.20792
G1 X65.796 Y60.705 E70.94794
G1 X65.777 Y61.127 E70.97943
G1 X65.734 Y61.641 E71.01788
G1 X65.704 Y61.885 E71.03621
G1 X48.115 Y44.296 E72.8904
G1 X48.009 Y44.308 E72.89835
G1 X47.509 Y44.38 E72.936
G1 X47.168 Y44.436 E72.96176
G1 X47.013 Y44.467 E72.97355
G1 X65.533 Y62.988 E74.92594
G1 X65.474 Y63.281 E74.94821
G1 X65.297 Y64.024 E75.00515
G1 X45.976 Y44.703 E77.04192
G1 X45.475 Y44.843 E77.0807
G1 X45.005 Y44.991 E77.11743
G1 X44.995 Y44.995 E77.11823
G1 X65.002 Y65.002 E79.22733
G1 X64.85 Y65.449 E79.26252
G1 X64.662 Y65.935 E79.30136
G1 X44.068 Y45.341 E81.47233
G1 X43.731 Y45.476 E81.4994
G1 X43.184 Y45.73 E81.54435
G1 X52.875 Y55.42 E82.5659
G1 X52.591 Y55.237 E82.59109
G1 X51.801 Y54.884 E82.65559
G1 X51.16 Y54.7 E82.7053
G1 X50.83 Y54.648 E82.7302
G1 X42.341 Y46.159 E83.62509
G1 X42.097 Y46.296 E83.64595
G1 X41.682 Y46.547 E83.6821
G1 X41.545 Y46.636 E83.69428
G1 X49.514 Y54.605 E84.53435
G1 X49.316 Y54.618 E84.54914
G1 X48.651 Y54.746 E84.59962
G1 X48.45 Y54.814 E84.61544
G1 X40.785 Y47.149 E85.42347
G1 X40.339 Y47.473 E85.46456
G1 X40.109 Y47.654 E85.48638
G1 X40.06 Y47.697 E85.49124
G1 X47.54 Y55.177 E86.27976
G1 X47.313 Y55.289 E86.29863
G1 X46.748 Y55.658 E86.34893
G1 X39.375 Y48.285 E87.12618
G1 X38.982 Y48.646 E87.16595
G1 X38.726 Y48.909 E87.19331
G1 X46.086 Y56.268 E87.96913
G1 X45.65 Y56.76 E88.01814
G1 X45.513 Y56.968 E88.0367
G1 X38.113 Y49.568 E88.81679
G1 X37.705 Y50.047 E88.8637
G1 X37.536 Y50.263 E88.88414
G1 X45.067 Y57.795 E89.67809
G1 X44.89 Y58.184 E89.70995
G1 X44.731 Y58.732 E89.75248
G1 X36.997 Y50.997 E90.56784
G1 X36.848 Y51.208 E90.58709
G1 X36.493 Y51.766 E90.63639
G1 X44.583 Y59.857 E91.48927
G1 X44.577 Y60.019 E91.50136
G1 X44.665 Y60.97 E91.57255
G1 X44.685 Y61.079 E91.58081
G1 X44.742 Y61.288 E91.59696
G1 X36.032 Y52.579 E92.51509
G1 X35.81 Y53.006 E92.55097
G1 X35.62 Y53.404 E92.58384
G1 X35.609 Y53.428 E92.58581
G1 X56.566 Y74.385 E94.79505
G1 X56.167 Y74.566 E94.82771
G1 X55.681 Y74.763 E94.8668
G1 F3600 X55.673 Y74.765
G1 F1980 X35.233 Y54.325 E97.02154
G1 X35.192 Y54.43 E97.02994
G1 X35.061 Y54.795 E97.05884
G1 X34.909 Y55.274 E97.0963
G1 X54.726 Y75.091 E99.18537
G1 X54.391 Y75.197 E99.21156
G1 X53.805 Y75.352 E99.25674
G1 X53.732 Y75.369 E99.26233
G1 X34.634 Y56.271 E101.2756
G1 X34.501 Y56.84 E101.31915
G1 X34.438 Y57.158 E101.34332
G1 X34.412 Y57.322 E101.3557
G1 X52.678 Y75.589 E103.28131
G1 X52.033 Y75.688 E103.32995
G1 X51.647 Y75.731 E103.3589
G1 X51.555 Y75.738 E103.36578
G1 X34.257 Y58.44 E105.1893
G1 X34.214 Y58.935 E105.22633
G1 X34.184 Y59.64 E105.27893
G1 X50.355 Y75.811 E106.98364
G1 X50.179 Y75.816 E106.99677
G1 X49.571 Y75.812 E107.04209
G1 X49.056 Y75.785 E107.08053
G1 X34.211 Y60.94 E108.64546
G1 X34.221 Y61.124 E108.65919
G1 X34.267 Y61.64 E108.69781
G1 X34.356 Y62.358 E108.75174
G1 X47.634 Y75.635 E110.15142
G1 X47.323 Y75.589 E110.17486
G1 X46.608 Y75.446 E110.22921
G1 X46.03 Y75.304 E110.27358
G1 X34.685 Y63.959 E111.46954
G1 X34.706 Y64.041 E111.47585
G1 X34.911 Y64.749 E111.53079
G1 X35.099 Y65.301 E111.57426
G1 X35.305 Y65.852 E111.61811
G1 X44.141 Y74.688 E112.54958
G1 X43.866 Y74.579 E112.57163
G1 X43.096 Y74.232 E112.63459
G1 X42.625 Y73.993 E112.67396
G1 X42.263 Y73.795 E112.70471
G1 X41.598 Y73.401 E112.76233
G1 X41.548 Y73.367 E112.76684
G1 X36.621 Y68.441 E113.28618
G1 F3600 X36.652 Y68.492
G1 F1980 X37.064 Y69.102 E113.34105
G1 X37.549 Y69.755 E113.40168
G1 X37.975 Y70.275 E113.45179
G1 X38.16 Y70.489 E113.47288
G1 X38.656 Y71.021 E113.52709
G1 X39.089 Y71.452 E113.57263
G1 X39.614 Y71.929 E113.62551
G1 X39.821 Y72.109 E113.64596
G1 X40.155 Y72.378 E113.67792
G1 X40.732 Y72.818 E113.73201
G1 X40.952 Y72.974 E113.75212
G1 X41.548 Y73.367 E113.80533
G1 F1680 E110.80533
G1 F3600 X47.658 Y64.89
G1 F1680 E113.80533
G1 F1980 X48.285 Y65.144 E113.85576
G1 F3600 X48.709 Y65.255
G1 F1980 X57.421 Y73.967 E114.77416
G1 X57.51 Y73.922 E114.78159
G1 X58.126 Y73.572 E114.83441
G1 X58.232 Y73.505 E114.84375
G1 X50.14 Y65.414 E115.69674
G1 X50.213 Y65.409 E115.70219
G1 X50.213 Y65.43 E115.70376
G1 X50.637 Y65.381 E115.73558
G1 X51.268 Y65.269 E115.78335
G1 X59 Y73 E116.59838
G1 X59.307 Y72.788 E116.62619
G1 X59.732 Y72.46 E116.66621
G1 X52.22 Y64.948 E117.45811
G1 X52.411 Y64.842 E117.47439
G1 X52.424 Y64.863 E117.47623
G1 X52.748 Y64.673 E117.50423
G1 X52.898 Y64.572 E117.51771
G1 X52.985 Y64.525 E117.52508
G1 X53.036 Y64.491 E117.52965
G1 X60.431 Y71.886 E118.30922
G1 X60.611 Y71.728 E118.32707
G1 X61.092 Y71.274 E118.37637
G1 X53.735 Y63.918 E119.15188
G1 X54.131 Y63.512 E119.19415
G1 X54.332 Y63.242 E119.21924
G1 X61.714 Y70.624 E119.99744
G1 X61.838 Y70.489 E120.0111
G1 X62.207 Y70.059 E120.05334
G1 X62.303 Y69.94 E120.06474
G1 X54.826 Y62.462 E120.853
G1 X54.885 Y62.358 E120.86191
G1 X55.14 Y61.734 E120.91216
G1 X55.189 Y61.553 E120.92613
G1 X62.851 Y69.215 E121.73385
G1 X62.977 Y69.046 E121.74956
G1 X63.261 Y68.624 E121.78748
G1 X63.365 Y68.456 E121.8022
G1 X55.399 Y60.49 E122.64196
G1 X55.423 Y59.845 E122.69007
G1 X55.345 Y59.163 E122.74124
G1 X63.841 Y67.66 E123.63692
G1 X63.858 Y67.629 E123.63956
G1 X64.176 Y67.02 E123.69077
G1 X64.273 Y66.819 E123.70741
G1 X54.594 Y57.139 E124.7278
G1 X54.507 Y56.986 E124.74092
G1 X54.261 Y56.647 E124.77214
G1 X53.82 Y56.149 E124.82172
G1 X53.31 Y55.702 E124.87228
G1 F1680 E121.87228
G1 F3600 X44.857 Y61.719
G1 F1680 E124.87228
G1 F1980 X45.073 Y62.264 E124.91598
