M73 P0
;MINX:1.4
;MAXX:98.0
;MINY:15.0
;MAXY:108.0
;MINZ:0.0
;MAXZ:18.3
;MachineType:ENTINA TINA2
;FilamentType:PLA
;Extruder0Temperature:200
;InfillDensity:10
;FLAVOR:Marlin
;TIME:8139
;FilamentUsed:9566.9
;Layer height: 0.35

;Generated with Cura_SteamEngine 3.1
M104 T0 S215
M82 ; absolute extrusion mode
;(**** start.gcode for tina2****)
M104 S150
G28 Z
G28 X Y; Home extruder
G1 X55 Y55 F1000
G1 Z10 F200
G29
G1 Z15 F100
M107 ; Turn off fan
G90 ; Absolute positioning
M82 ; Extruder in absolute mode
M109 S215.0
G92 E0 ; Reset extruder position
G1 X90 Y6 Z0.27 F2000
G1 X20 Y6 Z0.27 E15 F1000
G92 E0 ; Reset extruder position

;LAYER_COUNT:49
;LAYER:-5
M107
M203 Z5
G1 F3600 X78.944 Y18.777 Z0.349
G1 F1200 X79.299 Y19.176 E0.05889
G1 X79.459 Y19.385 E0.08792
G1 X79.626 Y19.631 E0.12071
G1 X79.77 Y19.878 E0.15224
G1 X79.915 Y20.168 E0.18799
G1 X80.012 Y20.397 E0.21541
G1 X80.112 Y20.678 E0.2483
G1 X80.198 Y20.98 E0.28293
G1 X80.253 Y21.235 E0.3117
G1 X80.298 Y21.55 E0.34679
G1 X80.331 Y21.992 E0.39566
G1 X80.338 Y22.175 E0.41586
G1 X80.334 Y23.295 E0.53937
G1 X80.31 Y23.672 E0.58102
G1 X80.273 Y23.97 E0.61414
G1 X80.218 Y24.254 E0.64604
G1 X80.142 Y24.545 E0.6792
G1 X80.058 Y24.803 E0.70912
G1 X79.947 Y25.082 E0.74224
G1 X79.825 Y25.34 E0.77371
G1 X79.681 Y25.599 E0.80639
G1 X79.542 Y25.818 E0.83499
G1 X79.339 Y26.091 E0.87251
G1 X79.053 Y26.425 E0.92099
G1 X78.924 Y26.565 E0.94199
G1 X78.525 Y26.922 E1.00103
G1 X77.864 Y27.438 E1.0935
G1 X77.38 Y27.918 E1.16867
G1 X76.96 Y28.457 E1.24402
G1 X76.611 Y29.044 E1.31933
G1 X76.34 Y29.67 E1.39455
G1 X76.149 Y30.326 E1.46989
G1 X76.043 Y31 E1.54513
G1 X76.022 Y31.682 E1.62037
G1 X76.088 Y32.363 E1.69582
G1 X76.24 Y33.028 E1.77105
G1 X76.473 Y33.67 E1.84636
G1 X76.786 Y34.277 E1.92167
G1 X77.173 Y34.84 E1.99701
G1 X77.628 Y35.348 E2.07221
G1 X78.143 Y35.797 E2.14756
G1 X78.711 Y36.176 E2.22286
G1 X79.322 Y36.479 E2.29806
G1 X79.967 Y36.705 E2.37343
G1 X80.636 Y36.847 E2.44885
G1 X81.377 Y36.903 E2.53079
G1 X85.435 Y36.884 E2.97829
G1 X89.223 Y36.904 E3.39601
G1 X91.247 Y36.889 E3.61921
G1 X92.874 Y36.899 E3.79863
G1 X93.229 Y36.923 E3.83787
G1 X93.551 Y36.965 E3.87368
G1 X93.796 Y37.013 E3.90121
G1 X94.101 Y37.093 E3.93598
G1 X94.379 Y37.184 E3.96824
G1 X94.632 Y37.286 E3.99832
G1 X94.904 Y37.416 E4.03156
G1 X95.149 Y37.553 E4.06252
G1 X95.388 Y37.706 E4.09381
G1 X95.647 Y37.9 E4.1295
G1 X96.126 Y38.323 E4.19996
G1 X96.481 Y38.722 E4.25886
G1 X96.641 Y38.931 E4.28788
G1 X96.808 Y39.177 E4.32067
G1 X96.958 Y39.435 E4.35358
G1 X97.093 Y39.705 E4.38687
G1 X97.194 Y39.943 E4.41538
G1 X97.294 Y40.224 E4.44827
G1 X97.38 Y40.526 E4.4829
G1 X97.435 Y40.781 E4.51166
G1 X97.48 Y41.096 E4.54675
G1 X97.514 Y41.55 E4.59696
G1 X97.52 Y41.706 E4.61417
G1 X97.516 Y42.841 E4.73933
G1 X97.492 Y43.218 E4.78099
G1 X97.455 Y43.516 E4.81411
G1 X97.4 Y43.8 E4.84601
G1 X97.324 Y44.091 E4.87917
G1 X97.24 Y44.35 E4.9092
G1 X97.133 Y44.62 E4.94122
G1 X96.997 Y44.906 E4.97615
G1 X96.749 Y45.528 E5.04999
G1 X96.578 Y46.189 E5.12528
G1 X96.492 Y46.868 E5.20075
G1 X96.492 Y47.55 E5.27596
G1 X96.578 Y48.228 E5.35132
G1 X96.75 Y48.891 E5.42686
G1 X97.046 Y49.61 E5.5126
G1 X97.094 Y49.707 E5.52453
G1 X97.194 Y49.943 E5.5528
G1 X97.294 Y50.224 E5.58569
G1 X97.38 Y50.526 E5.62032
G1 X97.435 Y50.781 E5.64908
G1 X97.48 Y51.096 E5.68417
G1 X97.514 Y51.55 E5.73438
G1 X97.52 Y51.706 E5.75159
G1 X97.516 Y52.841 E5.87675
G1 X97.492 Y53.218 E5.91841
G1 X97.455 Y53.516 E5.95153
G1 X97.4 Y53.8 E5.98342
G1 X97.324 Y54.091 E6.01659
G1 X97.24 Y54.35 E6.04662
G1 X97.133 Y54.62 E6.07864
G1 X96.997 Y54.906 E6.11357
G1 X96.749 Y55.528 E6.18741
G1 X96.578 Y56.189 E6.2627
G1 X96.492 Y56.868 E6.33817
G1 X96.492 Y57.55 E6.41338
G1 X96.578 Y58.228 E6.48874
G1 X96.75 Y58.891 E6.56428
G1 X97.046 Y59.61 E6.65002
G1 X97.094 Y59.707 E6.66195
G1 X97.194 Y59.943 E6.69022
G1 X97.294 Y60.224 E6.72311
G1 X97.38 Y60.526 E6.75774
G1 X97.435 Y60.781 E6.7865
G1 X97.48 Y61.096 E6.82159
G1 X97.514 Y61.55 E6.8718
G1 X97.52 Y61.706 E6.88901
G1 X97.516 Y62.841 E7.01417
G1 X97.492 Y63.218 E7.05583
G1 X97.455 Y63.516 E7.08894
G1 X97.4 Y63.8 E7.12084
G1 X97.324 Y64.091 E7.15401
G1 X97.24 Y64.35 E7.18404
G1 X97.133 Y64.62 E7.21606
G1 X96.997 Y64.906 E7.25098
G1 X96.749 Y65.528 E7.32483
G1 X96.578 Y66.189 E7.40012
G1 X96.492 Y66.868 E7.47559
G1 X96.492 Y67.55 E7.5508
G1 X96.578 Y68.228 E7.62616
G1 X96.75 Y68.891 E7.70169
G1 X97.046 Y69.61 E7.78744
G1 X97.094 Y69.707 E7.79937
G1 X97.194 Y69.943 E7.82764
G1 X97.294 Y70.224 E7.86053
G1 X97.38 Y70.526 E7.89515
G1 X97.435 Y70.781 E7.92392
G1 X97.48 Y71.096 E7.95901
G1 X97.514 Y71.55 E8.00921
G1 X97.52 Y71.706 E8.02643
G1 X97.516 Y72.841 E8.15159
G1 X97.492 Y73.218 E8.19325
G1 X97.455 Y73.516 E8.22636
G1 X97.4 Y73.8 E8.25826
G1 X97.324 Y74.091 E8.29143
G1 X97.24 Y74.35 E8.32145
G1 X97.133 Y74.62 E8.35348
G1 X96.997 Y74.906 E8.3884
G1 X96.749 Y75.528 E8.46224
G1 X96.578 Y76.189 E8.53754
G1 X96.492 Y76.868 E8.61301
G1 X96.492 Y77.55 E8.68822
G1 X96.578 Y78.228 E8.76358
G1 X96.75 Y78.891 E8.83911
G1 X97.046 Y79.61 E8.92486
G1 X97.094 Y79.707 E8.93679
G1 X97.194 Y79.943 E8.96506
G1 X97.294 Y80.224 E8.99795
G1 X97.38 Y80.526 E9.03257
G1 X97.435 Y80.781 E9.06134
G1 X97.48 Y81.096 E9.09643
G1 X97.514 Y81.55 E9.14663
G1 X97.52 Y81.706 E9.16385
G1 X97.516 Y82.841 E9.28901
G1 X97.492 Y83.218 E9.33067
G1 X97.455 Y83.516 E9.36378
G1 X97.4 Y83.8 E9.39568
G1 X97.324 Y84.091 E9.42885
G1 X97.24 Y84.349 E9.45877
G1 X97.129 Y84.628 E9.49188
G1 X97.007 Y84.886 E9.52335
G1 X96.863 Y85.145 E9.55603
G1 X96.724 Y85.364 E9.58463
G1 X96.526 Y85.63 E9.6212
G1 X96.106 Y86.111 E9.69162
G1 X95.706 Y86.468 E9.75074
G1 X95.489 Y86.637 E9.78107
G1 X95.258 Y86.793 E9.81181
G1 X94.99 Y86.951 E9.84612
G1 X94.733 Y87.081 E9.87788
G1 X94.464 Y87.196 E9.91014
G1 X94.207 Y87.289 E9.94027
G1 X93.915 Y87.373 E9.97378
G1 X93.654 Y87.429 E10.00322
G1 X93.321 Y87.479 E10.04035
G1 X93.116 Y87.495 E10.06302
G1 X92.452 Y87.588 E10.13696
G1 X91.793 Y87.769 E10.21232
G1 X91.162 Y88.03 E10.28762
G1 X90.569 Y88.369 E10.36295
G1 X90.025 Y88.781 E10.4382
G1 X89.536 Y89.257 E10.51345
G1 X89.111 Y89.792 E10.5888
G1 X88.757 Y90.375 E10.66401
G1 X88.479 Y91 E10.73944
G1 X88.283 Y91.653 E10.81463
G1 X88.171 Y92.322 E10.88943
G1 X88.145 Y92.705 E10.93176
G1 X88.12 Y93.202 E10.98663
G1 X88.08 Y93.518 E11.02176
G1 X88.026 Y93.8 E11.05342
G1 X87.95 Y94.091 E11.08659
G1 X87.866 Y94.35 E11.11661
G1 X87.758 Y94.624 E11.14909
G1 X87.623 Y94.906 E11.18357
G1 X87.375 Y95.528 E11.25741
G1 X87.204 Y96.189 E11.3327
G1 X87.118 Y96.868 E11.40817
G1 X87.118 Y97.55 E11.48338
G1 X87.204 Y98.228 E11.55874
G1 X87.376 Y98.891 E11.63428
G1 X87.672 Y99.61 E11.72002
G1 X87.72 Y99.707 E11.73195
G1 X87.82 Y99.943 E11.76022
G1 X87.92 Y100.224 E11.79311
G1 X88.006 Y100.526 E11.82774
G1 X88.061 Y100.781 E11.8565
G1 X88.106 Y101.096 E11.89159
G1 X88.14 Y101.55 E11.9418
G1 X88.146 Y101.706 E11.95901
G1 X88.142 Y102.841 E12.08417
G1 X88.12 Y103.202 E12.12406
G1 X88.08 Y103.518 E12.15918
G1 X88.026 Y103.8 E12.19084
G1 X87.95 Y104.091 E12.22401
G1 X87.866 Y104.349 E12.25393
G1 X87.755 Y104.628 E12.28704
G1 X87.633 Y104.886 E12.31851
G1 X87.489 Y105.145 E12.35119
G1 X87.35 Y105.364 E12.3798
G1 X87.147 Y105.637 E12.41731
G1 X86.855 Y105.978 E12.46682
G1 X86.732 Y106.111 E12.48679
G1 X86.332 Y106.468 E12.54592
G1 X86.115 Y106.637 E12.57625
G1 X85.884 Y106.793 E12.60698
G1 X85.616 Y106.951 E12.64129
G1 X85.359 Y107.081 E12.67305
G1 X85.09 Y107.196 E12.70531
G1 X84.833 Y107.289 E12.73545
G1 X84.541 Y107.373 E12.76896
G1 X84.28 Y107.429 E12.79839
G1 X83.96 Y107.477 E12.83408
G1 X83.492 Y107.513 E12.88584
G1 X83.3 Y107.52 E12.90702
G1 X53.02 Y107.516 E16.24612
G1 X52.643 Y107.492 E16.28778
G1 X52.345 Y107.455 E16.32089
G1 X52.061 Y107.4 E16.35279
G1 X51.77 Y107.324 E16.38596
G1 X51.51 Y107.239 E16.41612
G1 X51.233 Y107.129 E16.44899
G1 X50.972 Y107.005 E16.48085
G1 X50.854 Y106.94 E16.49571
G1 X50.249 Y106.653 E16.56955
G1 X49.599 Y106.44 E16.64498
G1 X48.928 Y106.311 E16.72033
G1 X48.247 Y106.268 E16.79557
G1 X47.565 Y106.311 E16.87093
G1 X46.896 Y106.44 E16.94606
G1 X46.245 Y106.653 E17.0216
G1 X46.157 Y106.696 E17.0324
G1 X46.15 Y106.681 E17.03422
G1 X45.359 Y107.081 E17.13197
G1 X45.09 Y107.196 E17.16423
G1 X44.833 Y107.289 E17.19437
G1 X44.541 Y107.373 E17.22787
G1 X44.28 Y107.429 E17.25731
G1 X43.96 Y107.477 E17.29299
G1 X43.492 Y107.513 E17.34475
G1 X43.3 Y107.52 E17.36594
G1 X13.02 Y107.516 E20.70503
G1 X12.643 Y107.492 E20.74669
G1 X12.345 Y107.455 E20.77981
G1 X12.061 Y107.4 E20.81171
G1 X11.77 Y107.324 E20.84487
G1 X11.51 Y107.239 E20.87504
G1 X11.233 Y107.129 E20.9079
G1 X10.972 Y107.005 E20.93977
G1 X10.717 Y106.864 E20.9719
G1 X10.493 Y106.721 E21.00121
G1 X10.219 Y106.518 E21.03881
G1 X9.768 Y106.125 E21.10478
G1 X9.418 Y105.738 E21.16232
G1 X9.247 Y105.522 E21.1927
G1 X9.074 Y105.269 E21.22649
G1 X8.934 Y105.037 E21.25638
G1 X8.791 Y104.759 E21.29085
G1 X8.684 Y104.514 E21.32033
G1 X8.581 Y104.232 E21.35344
G1 X8.495 Y103.941 E21.3869
G1 X8.436 Y103.682 E21.41619
G1 X8.387 Y103.365 E21.45156
G1 X8.346 Y102.903 E21.50271
G1 X8.335 Y102.421 E21.55588
G1 X8.341 Y102.219 E21.57816
G1 X8.397 Y101.506 E21.65703
G1 X8.511 Y100.939 E21.72081
G1 X8.531 Y100.814 E21.73477
G1 X8.589 Y100.598 E21.75943
G1 X8.82 Y99.958 E21.83446
G1 X9.134 Y99.261 E21.91876
G1 X9.329 Y98.607 E21.99402
G1 X9.442 Y97.934 E22.06927
G1 X9.468 Y97.251 E22.14464
G1 X9.408 Y96.571 E22.21992
G1 X9.262 Y95.904 E22.29521
G1 X9.036 Y95.266 E22.36985
G1 X8.796 Y94.77 E22.43061
G1 X8.677 Y94.497 E22.46346
G1 X8.581 Y94.232 E22.49454
G1 X8.495 Y93.941 E22.528
G1 X8.436 Y93.682 E22.55729
G1 X8.387 Y93.365 E22.59266
G1 X8.346 Y92.903 E22.64381
G1 X8.315 Y91.678 E22.77894
G1 X8.206 Y91.004 E22.85423
G1 X8.014 Y90.349 E22.9295
G1 X7.739 Y89.723 E23.0049
G1 X7.389 Y89.138 E23.08007
G1 X6.967 Y88.601 E23.15538
G1 X6.481 Y88.122 E23.23063
G1 X5.939 Y87.707 E23.30591
G1 X5.352 Y87.367 E23.38072
G1 X4.944 Y87.183 E23.43007
G1 X4.806 Y87.129 E23.44641
G1 X4.539 Y87.002 E23.47902
G1 X4.29 Y86.864 E23.51041
G1 X4.07 Y86.724 E23.53917
G1 X3.804 Y86.526 E23.57573
G1 X3.321 Y86.104 E23.64646
G1 X2.964 Y85.704 E23.70558
G1 X2.797 Y85.489 E23.7356
G1 X2.638 Y85.253 E23.76698
G1 X2.483 Y84.99 E23.80065
G1 X2.353 Y84.733 E23.83241
G1 X2.237 Y84.463 E23.86481
G1 X2.145 Y84.207 E23.89481
G1 X2.061 Y83.915 E23.92832
G1 X2.005 Y83.654 E23.95775
G1 X1.957 Y83.334 E23.99344
G1 X1.92 Y82.856 E24.0463
G1 X1.914 Y82.688 E24.06484
G1 X1.918 Y81.572 E24.18791
G1 X1.942 Y81.195 E24.22957
G1 X1.979 Y80.897 E24.26268
G1 X2.034 Y80.613 E24.29458
G1 X2.11 Y80.322 E24.32775
G1 X2.194 Y80.063 E24.35777
G1 X2.302 Y79.789 E24.39025
G1 X2.437 Y79.507 E24.42473
G1 X2.685 Y78.885 E24.49857
G1 X2.856 Y78.224 E24.57386
G1 X2.942 Y77.545 E24.64933
G1 X2.942 Y76.863 E24.72454
G1 X2.856 Y76.185 E24.7999
G1 X2.684 Y75.522 E24.87544
G1 X2.237 Y74.463 E25.00219
G1 X2.145 Y74.207 E25.03219
G1 X2.061 Y73.915 E25.0657
G1 X2.005 Y73.654 E25.09513
G1 X1.957 Y73.334 E25.13082
G1 X1.92 Y72.856 E25.18368
G1 X1.914 Y72.688 E25.20222
G1 X1.918 Y71.572 E25.32529
G1 X1.942 Y71.195 E25.36695
G1 X1.979 Y70.897 E25.40006
G1 X2.034 Y70.613 E25.43196
G1 X2.11 Y70.322 E25.46513
G1 X2.194 Y70.063 E25.49515
G1 X2.302 Y69.789 E25.52763
G1 X2.437 Y69.507 E25.56211
G1 X2.685 Y68.885 E25.63595
G1 X2.856 Y68.224 E25.71124
G1 X2.942 Y67.545 E25.78671
G1 X2.942 Y66.863 E25.86192
G1 X2.856 Y66.185 E25.93728
G1 X2.684 Y65.522 E26.01282
G1 X2.237 Y64.463 E26.13957
G1 X2.145 Y64.207 E26.16957
G1 X2.061 Y63.915 E26.20308
G1 X2.005 Y63.654 E26.23251
G1 X1.957 Y63.334 E26.2682
G1 X1.92 Y62.856 E26.32106
G1 X1.914 Y62.688 E26.3396
G1 X1.918 Y61.572 E26.46267
G1 X1.942 Y61.195 E26.50433
G1 X1.979 Y60.897 E26.53744
G1 X2.034 Y60.613 E26.56934
G1 X2.11 Y60.322 E26.60251
G1 X2.194 Y60.063 E26.63253
G1 X2.302 Y59.789 E26.66501
G1 X2.437 Y59.507 E26.69949
G1 X2.685 Y58.885 E26.77333
G1 X2.856 Y58.224 E26.84862
G1 X2.942 Y57.545 E26.92409
G1 X2.942 Y56.863 E26.9993
G1 X2.856 Y56.185 E27.07466
G1 X2.684 Y55.522 E27.1502
G1 X2.237 Y54.463 E27.27695
G1 X2.145 Y54.207 E27.30695
G1 X2.061 Y53.915 E27.34046
G1 X2.005 Y53.654 E27.36989
G1 X1.957 Y53.334 E27.40558
G1 X1.92 Y52.856 E27.45844
G1 X1.914 Y52.688 E27.47698
G1 X1.918 Y51.572 E27.60005
G1 X1.942 Y51.195 E27.64171
G1 X1.979 Y50.897 E27.67482
G1 X2.034 Y50.613 E27.70672
G1 X2.11 Y50.322 E27.73989
G1 X2.194 Y50.063 E27.76991
G1 X2.302 Y49.789 E27.80239
G1 X2.437 Y49.507 E27.83687
G1 X2.685 Y48.885 E27.91071
G1 X2.856 Y48.224 E27.986
G1 X2.942 Y47.545 E28.06147
G1 X2.942 Y46.863 E28.13668
G1 X2.856 Y46.185 E28.21204
G1 X2.684 Y45.522 E28.28758
G1 X2.237 Y44.463 E28.41433
G1 X2.145 Y44.207 E28.44433
G1 X2.061 Y43.915 E28.47784
G1 X2.005 Y43.654 E28.50727
G1 X1.957 Y43.334 E28.54296
G1 X1.92 Y42.856 E28.59582
G1 X1.914 Y42.688 E28.61436
G1 X1.918 Y41.572 E28.73743
G1 X1.942 Y41.195 E28.77909
G1 X1.979 Y40.897 E28.8122
G1 X2.034 Y40.613 E28.8441
G1 X2.11 Y40.322 E28.87727
G1 X2.194 Y40.064 E28.90719
G1 X2.305 Y39.785 E28.9403
G1 X2.427 Y39.527 E28.97177
G1 X2.573 Y39.264 E29.00494
G1 X2.71 Y39.049 E29.03305
G1 X2.908 Y38.783 E29.06962
G1 X3.328 Y38.302 E29.14004
G1 X3.73 Y37.943 E29.19947
G1 X3.945 Y37.776 E29.22949
G1 X4.815 Y37.196 E29.3448
G1 X5.328 Y36.747 E29.41997
G1 X5.78 Y36.236 E29.49521
G1 X6.165 Y35.671 E29.5706
G1 X6.476 Y35.063 E29.64591
G1 X6.707 Y34.42 E29.72125
G1 X6.855 Y33.754 E29.79649
G1 X6.917 Y33.08 E29.87112
G1 X6.918 Y31.572 E30.03742
G1 X6.942 Y31.195 E30.07907
G1 X6.979 Y30.897 E30.11219
G1 X7.034 Y30.613 E30.14409
G1 X7.11 Y30.322 E30.17725
G1 X7.194 Y30.064 E30.20718
G1 X7.305 Y29.785 E30.24029
G1 X7.427 Y29.527 E30.27176
G1 X7.573 Y29.264 E30.30493
G1 X7.71 Y29.049 E30.33304
G1 X7.908 Y28.783 E30.36961
G1 X8.328 Y28.302 E30.44003
G1 X8.73 Y27.943 E30.49946
G1 X8.945 Y27.776 E30.52948
G1 X9.176 Y27.62 E30.56022
G1 X9.444 Y27.462 E30.59453
G1 X9.701 Y27.332 E30.62629
G1 X9.971 Y27.216 E30.65869
G1 X10.227 Y27.124 E30.68869
G1 X10.516 Y27.041 E30.72185
G1 X10.788 Y26.982 E30.75254
G1 X11.099 Y26.936 E30.78721
G1 X11.557 Y26.9 E30.83787
G1 X11.743 Y26.893 E30.85839
G1 X13.23 Y26.89 E31.02237
G1 X15.267 Y26.903 E31.247
G1 X17.092 Y26.893 E31.44826
G1 X19.029 Y26.898 E31.66186
G1 X22.155 Y26.884 E32.00658
G1 X26.634 Y26.904 E32.5005
G1 X30.435 Y26.884 E32.91966
G1 X34.224 Y26.904 E33.33749
G1 X35.261 Y26.896 E33.45185
G1 X35.93 Y26.848 E33.52581
G1 X36.598 Y26.714 E33.60094
G1 X37.246 Y26.497 E33.6763
G1 X37.861 Y26.199 E33.75166
G1 X38.433 Y25.826 E33.82696
G1 X38.954 Y25.385 E33.90224
G1 X39.414 Y24.881 E33.97748
G1 X39.808 Y24.323 E34.05281
G1 X40.127 Y23.72 E34.12804
G1 X40.371 Y23.075 E34.20408
G1 X40.57 Y22.112 E34.31252
G1 X40.584 Y21.989 E34.32617
G1 X40.719 Y21.27 E34.40684
G1 X41.002 Y20.445 E34.50302
G1 X41.078 Y20.284 E34.52266
G1 X41.421 Y19.689 E34.59839
G1 X41.529 Y19.521 E34.62041
G1 X41.583 Y19.45 E34.63025
G1 X41.896 Y19.062 E34.68522
G1 X41.99 Y18.964 E34.7002
G1 X42.423 Y18.562 E34.76535
G1 X42.553 Y18.451 E34.7842
G1 X43.045 Y18.103 E34.85066
G1 X43.165 Y18.032 E34.86603
G1 X43.664 Y17.774 E34.92798
G1 X44.145 Y17.592 E34.98469
G1 X44.362 Y17.523 E35.0098
G1 X44.593 Y17.465 E35.03607
G1 X45.084 Y17.385 E35.09092
G1 X45.322 Y17.361 E35.1173
G1 X45.668 Y17.347 E35.15549
G1 X48.671 Y17.337 E35.48664
G1 X49.818 Y17.343 E35.61313
G1 X50.116 Y17.337 E35.646
G1 X52.887 Y17.338 E35.95157
G1 X53.555 Y17.359 E36.02527
G1 X53.555 Y17.352 E36.02604
G1 X62.589 Y17.347 E37.02225
G1 X64.515 Y17.352 E37.23464
G1 X67.622 Y17.338 E37.57727
G1 X72.058 Y17.358 E38.06645
G1 X74.078 Y17.343 E38.28921
G1 X75.692 Y17.353 E38.46719
G1 X76.047 Y17.377 E38.50643
G1 X76.369 Y17.419 E38.54224
G1 X76.614 Y17.467 E38.56977
G1 X76.914 Y17.545 E38.60395
G1 X77.208 Y17.643 E38.63812
G1 X77.44 Y17.736 E38.66569
G1 X77.73 Y17.875 E38.70115
G1 X77.963 Y18.005 E38.73057
G1 X78.196 Y18.154 E38.76107
G1 X78.462 Y18.353 E38.7977
G1 X78.944 Y18.777 E38.86849
G1 F3600 X78.4 Y18.307
G1 F1200 X78.4 Y27.02 E39.82931
G1 F1680 E36.82931
G1 F3600 X76.8 Y28.727
G1 F1680 E39.82931
G1 F1200 X76.8 Y17.516 E41.06559
G1 F1680 E38.06559
G1 F3600 X75.2 Y17.35
