M73 P0
;MINX:3.0
;MAXX:99.0
;MINY:11.0
;MAXY:103.0
;MINZ:0.0
;MAXZ:17.9
;MachineType:ENTINA TINA2
;FilamentType:PLA
;Extruder0Temperature:200
;InfillDensity:10
;FLAVOR:Marlin
;TIME:7773
;FilamentUsed:9168.4
;Layer height: 0.35

;Generated with Cura_SteamEngine 3.1
M104 T0 S215
M82 ; absolute extrusion mode
;(**** start.gcode for tina2****)
M104 S150
G28 Z
G28 X Y; Home extruder
G1 X55 Y55 F1000
G1 Z10 F200
G29
G1 Z15 F100
M107 ; Turn off fan
G90 ; Absolute positioning
M82 ; Extruder in absolute mode
M109 S215.0
G92 E0 ; Reset extruder position
G1 X90 Y6 Z0.27 F2000
G1 X20 Y6 Z0.27 E15 F1000
G92 E0 ; Reset extruder position

;LAYER_COUNT:48
;LAYER:-5
M107
M203 Z5
G1 F3600 X94.651 Y13.677 Z0.349
G1 F1200 X94.909 Y13.801 E0.03157
G1 X95.158 Y13.94 E0.06301
G1 X95.385 Y14.086 E0.09278
G1 X95.647 Y14.283 E0.12892
G1 X96.002 Y14.589 E0.18061
G1 X96.125 Y14.704 E0.19918
G1 X96.481 Y15.104 E0.25822
G1 X96.641 Y15.313 E0.28725
G1 X96.808 Y15.559 E0.32004
G1 X96.958 Y15.817 E0.35295
G1 X97.093 Y16.087 E0.38624
G1 X97.194 Y16.325 E0.41475
G1 X97.294 Y16.606 E0.44764
G1 X97.38 Y16.908 E0.48226
G1 X97.435 Y17.163 E0.51103
G1 X97.48 Y17.479 E0.54623
G1 X97.513 Y17.928 E0.59588
G1 X97.52 Y18.104 E0.6153
G1 X97.516 Y19.182 E0.73417
G1 X97.492 Y19.561 E0.77605
G1 X97.455 Y19.859 E0.80917
G1 X97.4 Y20.144 E0.84117
G1 X97.325 Y20.431 E0.87389
G1 X97.24 Y20.692 E0.90416
G1 X97.129 Y20.971 E0.93727
G1 X97.007 Y21.229 E0.96874
G1 X96.863 Y21.488 E1.00142
G1 X96.724 Y21.707 E1.03002
G1 X96.526 Y21.973 E1.06659
G1 X96.106 Y22.454 E1.137
G1 X95.707 Y22.811 E1.19604
G1 X95.499 Y22.971 E1.22498
G1 X95.22 Y23.161 E1.26221
G1 X94.69 Y23.573 E1.33623
G1 X94.208 Y24.055 E1.4114
G1 X93.79 Y24.595 E1.48671
G1 X93.443 Y25.183 E1.562
G1 X93.174 Y25.811 E1.63733
G1 X92.986 Y26.467 E1.71258
G1 X92.883 Y27.142 E1.78788
G1 X92.864 Y27.825 E1.86323
G1 X92.934 Y28.504 E1.9385
G1 X93.087 Y29.17 E2.01386
G1 X93.324 Y29.81 E2.08911
G1 X93.639 Y30.415 E2.16433
G1 X94.029 Y30.977 E2.23977
G1 X94.486 Y31.484 E2.31504
G1 X95.003 Y31.929 E2.39026
G1 X95.568 Y32.304 E2.46504
G1 X96.162 Y32.624 E2.53944
G1 X96.391 Y32.772 E2.56951
G1 X96.64 Y32.96 E2.60391
G1 X96.997 Y33.268 E2.65591
G1 X97.129 Y33.391 E2.6758
G1 X97.481 Y33.786 E2.73415
G1 X97.641 Y33.995 E2.76317
G1 X97.808 Y34.241 E2.79596
G1 X97.958 Y34.499 E2.82887
G1 X98.093 Y34.769 E2.86216
G1 X98.194 Y35.007 E2.89067
G1 X98.294 Y35.288 E2.92356
G1 X98.38 Y35.59 E2.95819
G1 X98.435 Y35.845 E2.98695
G1 X98.48 Y36.16 E3.02204
G1 X98.514 Y36.614 E3.07225
G1 X98.52 Y36.77 E3.08946
G1 X98.516 Y37.878 E3.21165
G1 X98.492 Y38.255 E3.2533
G1 X98.455 Y38.553 E3.28642
G1 X98.4 Y38.837 E3.31832
G1 X98.324 Y39.128 E3.35148
G1 X98.24 Y39.386 E3.38141
G1 X98.132 Y39.657 E3.41358
G1 X97.991 Y39.954 E3.44983
G1 X97.743 Y40.576 E3.52367
G1 X97.571 Y41.237 E3.59899
G1 X97.485 Y41.915 E3.67435
G1 X97.485 Y42.597 E3.74956
G1 X97.57 Y43.274 E3.8248
G1 X97.742 Y43.938 E3.90044
G1 X98.043 Y44.67 E3.98772
G1 X98.092 Y44.766 E3.99961
G1 X98.194 Y45.007 E4.02846
G1 X98.294 Y45.288 E4.06135
G1 X98.38 Y45.59 E4.09598
G1 X98.435 Y45.845 E4.12475
G1 X98.48 Y46.16 E4.15984
G1 X98.514 Y46.614 E4.21004
G1 X98.52 Y46.77 E4.22726
G1 X98.516 Y47.878 E4.34944
G1 X98.492 Y48.255 E4.3911
G1 X98.455 Y48.553 E4.42421
G1 X98.4 Y48.837 E4.45611
G1 X98.324 Y49.128 E4.48928
G1 X98.24 Y49.386 E4.5192
G1 X98.132 Y49.657 E4.55137
G1 X97.991 Y49.954 E4.58762
G1 X97.743 Y50.576 E4.66147
G1 X97.571 Y51.237 E4.73678
G1 X97.485 Y51.915 E4.81215
G1 X97.485 Y52.597 E4.88736
G1 X97.57 Y53.274 E4.9626
G1 X97.742 Y53.938 E5.03824
G1 X98.043 Y54.67 E5.12551
G1 X98.092 Y54.766 E5.1374
G1 X98.194 Y55.007 E5.16626
G1 X98.294 Y55.288 E5.19915
G1 X98.38 Y55.59 E5.23378
G1 X98.435 Y55.845 E5.26254
G1 X98.48 Y56.16 E5.29763
G1 X98.514 Y56.614 E5.34784
G1 X98.52 Y56.77 E5.36505
G1 X98.516 Y57.878 E5.48724
G1 X98.492 Y58.255 E5.52889
G1 X98.455 Y58.553 E5.56201
G1 X98.4 Y58.837 E5.59391
G1 X98.324 Y59.128 E5.62707
G1 X98.24 Y59.386 E5.65699
G1 X98.132 Y59.657 E5.68916
G1 X97.991 Y59.954 E5.72542
G1 X97.743 Y60.576 E5.79926
G1 X97.571 Y61.237 E5.87458
G1 X97.485 Y61.915 E5.94994
G1 X97.485 Y62.597 E6.02515
G1 X97.57 Y63.274 E6.10039
G1 X97.742 Y63.938 E6.17603
G1 X98.043 Y64.67 E6.26331
G1 X98.092 Y64.766 E6.27519
G1 X98.194 Y65.007 E6.30405
G1 X98.294 Y65.288 E6.33694
G1 X98.38 Y65.59 E6.37157
G1 X98.435 Y65.845 E6.40034
G1 X98.48 Y66.16 E6.43543
G1 X98.514 Y66.614 E6.48563
G1 X98.52 Y66.77 E6.50285
G1 X98.516 Y67.878 E6.62503
G1 X98.492 Y68.255 E6.66669
G1 X98.455 Y68.553 E6.6998
G1 X98.4 Y68.837 E6.7317
G1 X98.324 Y69.128 E6.76487
G1 X98.24 Y69.386 E6.79479
G1 X98.132 Y69.657 E6.82696
G1 X97.991 Y69.954 E6.86321
G1 X97.743 Y70.576 E6.93705
G1 X97.571 Y71.237 E7.01237
G1 X97.485 Y71.915 E7.08774
G1 X97.485 Y72.597 E7.16294
G1 X97.57 Y73.274 E7.23819
G1 X97.742 Y73.938 E7.31382
G1 X98.043 Y74.67 E7.4011
G1 X98.092 Y74.766 E7.41299
G1 X98.194 Y75.007 E7.44185
G1 X98.294 Y75.288 E7.47474
G1 X98.38 Y75.59 E7.50936
G1 X98.435 Y75.845 E7.53813
G1 X98.48 Y76.16 E7.57322
G1 X98.514 Y76.614 E7.62342
G1 X98.52 Y76.77 E7.64064
G1 X98.516 Y77.878 E7.76282
G1 X98.492 Y78.255 E7.80448
G1 X98.455 Y78.553 E7.8376
G1 X98.4 Y78.837 E7.86949
G1 X98.324 Y79.128 E7.90266
G1 X98.24 Y79.386 E7.93258
G1 X98.129 Y79.665 E7.96569
G1 X98.007 Y79.923 E7.99716
G1 X97.863 Y80.182 E8.02984
G1 X97.724 Y80.401 E8.05845
G1 X97.526 Y80.667 E8.09501
G1 X97.106 Y81.148 E8.16543
G1 X96.706 Y81.505 E8.22455
G1 X96.489 Y81.674 E8.25488
G1 X96.258 Y81.83 E8.28562
G1 X95.99 Y81.988 E8.31993
G1 X95.733 Y82.118 E8.35169
G1 X95.464 Y82.233 E8.38395
G1 X95.207 Y82.326 E8.41409
G1 X94.915 Y82.41 E8.44759
G1 X94.654 Y82.466 E8.47703
G1 X94.333 Y82.514 E8.51282
G1 X93.864 Y82.55 E8.56469
G1 X93.712 Y82.556 E8.58147
G1 X93.045 Y82.621 E8.65537
G1 X92.38 Y82.774 E8.73062
G1 X91.739 Y83.009 E8.8059
G1 X91.133 Y83.323 E8.88117
G1 X90.571 Y83.711 E8.95648
G1 X90.062 Y84.167 E9.03184
G1 X89.616 Y84.683 E9.10705
G1 X89.238 Y85.252 E9.18238
G1 X88.934 Y85.864 E9.25773
G1 X88.711 Y86.509 E9.33299
G1 X88.571 Y87.175 E9.40804
G1 X88.517 Y87.83 E9.48051
G1 X88.494 Y88.204 E9.52183
G1 X88.455 Y88.515 E9.5564
G1 X88.4 Y88.798 E9.58819
G1 X88.324 Y89.092 E9.62167
G1 X88.242 Y89.344 E9.6509
G1 X88.129 Y89.628 E9.6846
G1 X87.989 Y89.922 E9.72051
G1 X87.74 Y90.544 E9.79439
G1 X87.569 Y91.205 E9.86968
G1 X87.482 Y91.882 E9.94495
G1 X87.482 Y92.565 E10.02027
G1 X87.567 Y93.242 E10.09551
G1 X87.739 Y93.906 E10.17115
G1 X88.04 Y94.638 E10.25843
G1 X88.092 Y94.74 E10.27105
G1 X88.194 Y94.982 E10.30001
G1 X88.294 Y95.263 E10.33291
G1 X88.38 Y95.565 E10.36753
G1 X88.435 Y95.82 E10.3963
G1 X88.479 Y96.128 E10.43061
G1 X88.514 Y96.589 E10.48159
G1 X88.52 Y96.745 E10.49881
G1 X88.516 Y97.841 E10.61967
G1 X88.494 Y98.204 E10.65977
G1 X88.455 Y98.515 E10.69433
G1 X88.4 Y98.798 E10.72612
G1 X88.324 Y99.092 E10.75961
G1 X88.242 Y99.344 E10.78883
G1 X88.129 Y99.628 E10.82254
G1 X88.007 Y99.886 E10.85401
G1 X87.863 Y100.145 E10.88669
G1 X87.724 Y100.364 E10.91529
G1 X87.526 Y100.63 E10.95186
G1 X87.109 Y101.108 E11.02181
G1 X86.706 Y101.468 E11.0814
G1 X86.489 Y101.637 E11.11173
G1 X86.258 Y101.793 E11.14247
G1 X85.994 Y101.949 E11.17628
G1 X85.733 Y102.081 E11.20854
G1 X85.464 Y102.196 E11.2408
G1 X85.207 Y102.289 E11.27094
G1 X84.915 Y102.373 E11.30444
G1 X84.654 Y102.429 E11.33388
G1 X84.334 Y102.477 E11.36956
G1 X83.866 Y102.513 E11.42132
G1 X83.674 Y102.52 E11.44251
G1 X54.368 Y102.516 E14.6742
G1 X53.991 Y102.492 E14.71586
G1 X53.693 Y102.455 E14.74897
G1 X53.409 Y102.4 E14.78087
G1 X53.118 Y102.324 E14.81404
G1 X52.858 Y102.239 E14.8442
G1 X52.581 Y102.129 E14.87707
G1 X52.32 Y102.005 E14.90893
G1 X51.43 Y101.506 E15.02145
G1 X50.798 Y101.252 E15.09656
G1 X50.136 Y101.079 E15.17201
G1 X49.459 Y100.993 E15.24727
G1 X48.777 Y100.991 E15.32247
G1 X48.099 Y101.076 E15.39783
G1 X47.437 Y101.246 E15.4732
G1 X46.806 Y101.496 E15.54804
G1 X46.376 Y101.724 E15.60171
G1 X45.98 Y101.957 E15.65238
G1 X45.74 Y102.078 E15.68202
G1 X45.464 Y102.196 E15.71512
G1 X45.207 Y102.289 E15.74526
G1 X44.915 Y102.373 E15.77876
G1 X44.654 Y102.429 E15.8082
G1 X44.334 Y102.477 E15.84388
G1 X43.866 Y102.513 E15.89564
G1 X43.674 Y102.52 E15.91683
G1 X14.368 Y102.516 E19.14852
G1 X13.991 Y102.492 E19.19018
G1 X13.693 Y102.455 E19.22329
G1 X13.409 Y102.4 E19.25519
G1 X13.118 Y102.324 E19.28836
G1 X12.858 Y102.239 E19.31852
G1 X12.581 Y102.129 E19.35139
G1 X12.32 Y102.005 E19.38325
G1 X12.073 Y101.868 E19.4144
G1 X11.818 Y101.705 E19.44777
G1 X11.588 Y101.534 E19.47938
G1 X11.244 Y101.24 E19.52928
G1 X11.096 Y101.103 E19.55152
G1 X10.756 Y100.726 E19.6075
G1 X10.586 Y100.507 E19.63807
G1 X10.421 Y100.268 E19.6701
G1 X10.269 Y100.011 E19.70302
G1 X10.138 Y99.754 E19.73483
G1 X10.019 Y99.481 E19.76767
G1 X9.923 Y99.216 E19.79876
G1 X9.842 Y98.936 E19.8309
G1 X9.779 Y98.658 E19.86233
G1 X9.736 Y98.374 E19.89401
G1 X9.697 Y97.903 E19.94612
G1 X9.686 Y97.42 E19.9994
G1 X9.692 Y97.229 E20.02047
G1 X9.747 Y96.528 E20.09801
G1 X9.826 Y96.128 E20.14297
G1 X9.95 Y95.591 E20.20375
G1 X10.013 Y95.388 E20.22719
G1 X10.15 Y95.043 E20.26812
G1 X10.294 Y94.747 E20.30442
G1 X10.547 Y94.126 E20.37837
G1 X10.724 Y93.467 E20.45361
G1 X10.815 Y92.789 E20.52905
G1 X10.82 Y92.107 E20.60426
G1 X10.74 Y91.429 E20.67954
G1 X10.573 Y90.763 E20.75526
G1 X10.246 Y89.966 E20.85026
G1 X10.143 Y89.764 E20.87526
G1 X10.015 Y89.471 E20.91052
G1 X9.923 Y89.216 E20.94041
G1 X9.842 Y88.936 E20.97256
G1 X9.779 Y88.658 E21.00399
G1 X9.736 Y88.374 E21.03566
G1 X9.697 Y87.903 E21.08778
G1 X9.686 Y87.423 E21.14073
G1 X9.689 Y87.322 E21.15187
G1 X9.67 Y86.653 E21.22567
G1 X9.564 Y85.978 E21.30102
G1 X9.374 Y85.322 E21.37633
G1 X9.103 Y84.696 E21.45155
G1 X8.755 Y84.108 E21.5269
G1 X8.335 Y83.569 E21.60225
G1 X7.851 Y83.087 E21.67758
G1 X7.31 Y82.672 E21.75277
G1 X6.725 Y82.328 E21.8276
G1 X6.521 Y82.236 E21.85228
G1 X6.111 Y82.042 E21.9023
G1 X5.856 Y81.901 E21.93443
G1 X5.636 Y81.761 E21.96319
G1 X5.37 Y81.563 E21.99975
G1 X4.887 Y81.141 E22.07048
G1 X4.53 Y80.741 E22.12961
G1 X4.363 Y80.526 E22.15963
G1 X4.204 Y80.29 E22.19101
G1 X4.049 Y80.027 E22.22467
G1 X3.919 Y79.77 E22.25643
G1 X3.803 Y79.5 E22.28884
G1 X3.711 Y79.244 E22.31883
G1 X3.627 Y78.952 E22.35234
G1 X3.571 Y78.691 E22.38178
G1 X3.523 Y78.371 E22.41746
G1 X3.486 Y77.893 E22.47033
G1 X3.48 Y77.725 E22.48886
G1 X3.484 Y76.636 E22.60895
G1 X3.508 Y76.259 E22.65061
G1 X3.545 Y75.961 E22.68373
G1 X3.6 Y75.677 E22.71562
G1 X3.676 Y75.386 E22.74879
G1 X3.76 Y75.128 E22.77871
G1 X3.869 Y74.853 E22.81133
G1 X4.012 Y74.55 E22.84828
G1 X4.259 Y73.928 E22.92208
G1 X4.429 Y73.267 E22.99734
G1 X4.514 Y72.59 E23.07258
G1 X4.514 Y71.906 E23.14801
G1 X4.426 Y71.229 E23.2233
G1 X4.254 Y70.567 E23.29872
G1 X3.803 Y69.5 E23.42646
G1 X3.711 Y69.244 E23.45646
G1 X3.627 Y68.952 E23.48997
G1 X3.571 Y68.691 E23.5194
G1 X3.523 Y68.371 E23.55508
G1 X3.486 Y67.893 E23.60795
G1 X3.48 Y67.725 E23.62649
G1 X3.484 Y66.636 E23.74658
G1 X3.508 Y66.259 E23.78824
G1 X3.545 Y65.961 E23.82135
G1 X3.6 Y65.677 E23.85325
G1 X3.676 Y65.386 E23.88642
G1 X3.76 Y65.128 E23.91634
G1 X3.869 Y64.853 E23.94896
G1 X4.012 Y64.55 E23.98591
G1 X4.259 Y63.928 E24.05971
G1 X4.429 Y63.267 E24.13497
G1 X4.514 Y62.59 E24.21021
G1 X4.514 Y61.906 E24.28564
G1 X4.426 Y61.229 E24.36092
G1 X4.254 Y60.567 E24.43635
G1 X3.803 Y59.5 E24.56409
G1 X3.711 Y59.244 E24.59409
G1 X3.627 Y58.952 E24.62759
G1 X3.571 Y58.691 E24.65703
G1 X3.523 Y58.371 E24.69271
G1 X3.486 Y57.893 E24.74558
G1 X3.48 Y57.725 E24.76412
G1 X3.484 Y56.636 E24.88421
G1 X3.508 Y56.259 E24.92586
G1 X3.545 Y55.961 E24.95898
G1 X3.6 Y55.677 E24.99088
G1 X3.676 Y55.386 E25.02404
G1 X3.76 Y55.128 E25.05397
G1 X3.869 Y54.853 E25.08659
G1 X4.012 Y54.55 E25.12353
G1 X4.259 Y53.928 E25.19733
G1 X4.429 Y53.267 E25.2726
G1 X4.514 Y52.59 E25.34784
G1 X4.514 Y51.906 E25.42327
G1 X4.426 Y51.229 E25.49855
G1 X4.254 Y50.567 E25.57397
G1 X3.803 Y49.5 E25.70172
G1 X3.711 Y49.244 E25.73171
G1 X3.627 Y48.952 E25.76522
G1 X3.571 Y48.691 E25.79466
G1 X3.523 Y48.371 E25.83034
G1 X3.486 Y47.893 E25.88321
G1 X3.48 Y47.725 E25.90174
G1 X3.484 Y46.636 E26.02183
G1 X3.508 Y46.259 E26.06349
G1 X3.545 Y45.961 E26.09661
G1 X3.6 Y45.677 E26.12851
G1 X3.676 Y45.386 E26.16167
G1 X3.76 Y45.128 E26.19159
G1 X3.869 Y44.853 E26.22421
G1 X4.012 Y44.55 E26.26116
G1 X4.259 Y43.928 E26.33496
G1 X4.429 Y43.267 E26.41022
G1 X4.514 Y42.59 E26.48547
G1 X4.514 Y41.906 E26.56089
G1 X4.426 Y41.229 E26.63618
G1 X4.254 Y40.567 E26.7116
G1 X3.803 Y39.5 E26.83934
G1 X3.711 Y39.244 E26.86934
G1 X3.627 Y38.952 E26.90285
G1 X3.571 Y38.691 E26.93228
G1 X3.523 Y38.371 E26.96797
G1 X3.486 Y37.893 E27.02083
G1 X3.48 Y37.725 E27.03937
G1 X3.484 Y36.636 E27.15946
G1 X3.508 Y36.259 E27.20112
G1 X3.545 Y35.961 E27.23423
G1 X3.6 Y35.677 E27.26613
G1 X3.676 Y35.386 E27.2993
G1 X3.76 Y35.128 E27.32922
G1 X3.871 Y34.849 E27.36233
G1 X3.993 Y34.591 E27.3938
G1 X4.132 Y34.341 E27.42535
G1 X4.295 Y34.086 E27.45872
G1 X4.464 Y33.858 E27.49002
G1 X4.887 Y33.373 E27.56098
G1 X5.225 Y33.035 E27.61369
G1 X5.215 Y33.025 E27.61525
G1 X5.333 Y32.899 E27.63429
G1 X5.734 Y32.347 E27.70953
G1 X6.063 Y31.748 E27.78489
G1 X6.312 Y31.112 E27.86021
G1 X6.481 Y30.451 E27.93544
G1 X6.564 Y29.773 E28.01077
G1 X6.562 Y29.095 E28.08553
G1 X6.527 Y28.772 E28.12136
G1 X6.486 Y28.236 E28.18064
G1 X6.48 Y28.068 E28.19918
G1 X6.484 Y26.979 E28.31927
G1 X6.507 Y26.606 E28.36048
G1 X6.545 Y26.302 E28.39426
G1 X6.6 Y26.02 E28.42594
G1 X6.676 Y25.729 E28.45911
G1 X6.76 Y25.471 E28.48903
G1 X6.871 Y25.192 E28.52214
G1 X6.993 Y24.934 E28.55361
G1 X7.132 Y24.684 E28.58516
G1 X7.295 Y24.429 E28.61853
G1 X7.464 Y24.201 E28.64983
G1 X7.77 Y23.843 E28.70176
G1 X7.888 Y23.715 E28.72096
G1 X8.275 Y23.366 E28.77842
G1 X8.494 Y23.196 E28.809
G1 X8.733 Y23.031 E28.84102
G1 X8.99 Y22.879 E28.87395
G1 X9.248 Y22.747 E28.90591
G1 X9.511 Y22.633 E28.93752
G1 X9.78 Y22.536 E28.96905
G1 X10.075 Y22.45 E29.00294
G1 X10.331 Y22.394 E29.03183
G1 X10.65 Y22.344 E29.06744
G1 X11.104 Y22.309 E29.11765
G1 X11.316 Y22.3 E29.14105
G1 X12.91 Y22.295 E29.31683
G1 X14.748 Y22.306 E29.51952
G1 X16.395 Y22.297 E29.70114
G1 X18.437 Y22.303 E29.92632
G1 X21.709 Y22.288 E30.28714
G1 X25.878 Y22.307 E30.74688
G1 X29.596 Y22.288 E31.15688
G1 X33.304 Y22.307 E31.56578
G1 X35.136 Y22.294 E31.76781
G1 X36.874 Y22.306 E31.95947
G1 X37.228 Y22.33 E31.9986
G1 X37.545 Y22.372 E32.03386
G1 X37.991 Y22.458 E32.08395
G1 X38.656 Y22.544 E32.15789
G1 X39.341 Y22.546 E32.23343
G1 X40.166 Y22.43 E32.3253
G1 X40.332 Y22.393 E32.34405
G1 X40.648 Y22.345 E32.3793
G1 X41.104 Y22.309 E32.42974
G1 X41.316 Y22.3 E32.45314
G1 X42.91 Y22.295 E32.62892
G1 X44.748 Y22.306 E32.83161
G1 X46.395 Y22.297 E33.01323
G1 X48.437 Y22.303 E33.23841
G1 X51.708 Y22.288 E33.59912
G1 X53.422 Y22.296 E33.78813
G1 X54.092 Y22.257 E33.86214
G1 X54.762 Y22.132 E33.9373
G1 X55.413 Y21.922 E34.01273
G1 X56.031 Y21.632 E34.08801
G1 X56.607 Y21.266 E34.16327
G1 X57.133 Y20.832 E34.23847
G1 X57.601 Y20.333 E34.31391
G1 X58.001 Y19.78 E34.38917
G1 X58.328 Y19.182 E34.46433
G1 X58.577 Y18.548 E34.53944
G1 X58.72 Y18.004 E34.60147
G1 X58.825 Y17.472 E34.66126
G1 X58.945 Y16.948 E34.72054
G1 X59.01 Y16.741 E34.74447
G1 X59.139 Y16.41 E34.78364
G1 X59.275 Y16.125 E34.81847
G1 X59.587 Y15.585 E34.88724
G1 X60.041 Y14.999 E34.96899
G1 X60.168 Y14.867 E34.98918
G1 X60.585 Y14.481 E35.05185
G1 X60.738 Y14.35 E35.07406
G1 X61.147 Y14.061 E35.12928
G1 X61.282 Y13.981 E35.14659
G1 X61.857 Y13.683 E35.218
G1 X62.322 Y13.511 E35.27268
G1 X62.574 Y13.434 E35.30173
G1 X62.818 Y13.375 E35.32942
G1 X63.327 Y13.301 E35.38614
G1 X63.54 Y13.282 E35.40972
G1 X63.833 Y13.273 E35.44204
G1 X67.028 Y13.264 E35.79437
G1 X70.795 Y13.265 E36.20977
G1 X71.463 Y13.286 E36.28347
G1 X71.463 Y13.28 E36.28413
G1 X79.984 Y13.272 E37.22378
G1 X82.074 Y13.28 E37.45425
G1 X85.723 Y13.266 E37.85665
G1 X89.362 Y13.282 E38.25794
G1 X91.088 Y13.27 E38.44827
G1 X92.874 Y13.281 E38.64523
G1 X93.24 Y13.306 E38.68568
G1 X93.54 Y13.345 E38.71904
G1 X93.805 Y13.397 E38.74882
G1 X94.095 Y13.472 E38.78185
G1 X94.365 Y13.562 E38.81324
