M73 P0
;MINX:6.2
;MAXX:98.0
;MINY:11.0
;MAXY:123.0
;MINZ:0.0
;MAXZ:3.8
;MachineType:ENTINA TINA2
;FilamentType:PLA
;Extruder0Temperature:200
;InfillDensity:10
;FLAVOR:Marlin
;TIME:5894
;FilamentUsed:6177.8
;Layer height: 0.2

;Generated with Cura_SteamEngine 3.1
M104 T0 S215
M82 ; absolute extrusion mode
;(**** start.gcode for tina2****)
M104 S150
G28 Z
G28 X Y; Home extruder
G1 X55 Y55 F1000
G1 Z10 F200
G29
G1 Z15 F100
M107 ; Turn off fan
G90 ; Absolute positioning
M82 ; Extruder in absolute mode
M109 S215.0
G92 E0 ; Reset extruder position
G1 X90 Y6 Z0.27 F2000
G1 X20 Y6 Z0.27 E15 F1000
G92 E0 ; Reset extruder position

;LAYER_COUNT:13
;LAYER:-6
M107
M203 Z5
G1 F3600 X81.278 Y20.805 Z0.349
G1 F1200 X81.48 Y20.994 E0.03051
G1 X82.552 Y22.168 E0.20582
G1 X82.899 Y22.594 E0.26641
G1 X83.615 Y23.538 E0.39706
G1 X83.857 Y23.9 E0.44508
G1 X84.515 Y24.963 E0.58294
G1 X84.716 Y25.321 E0.62822
G1 X85.406 Y26.659 E0.79423
G1 X85.481 Y26.824 E0.81421
G1 X86.357 Y28.919 E1.06462
G1 X86.528 Y29.382 E1.11905
G1 X86.579 Y29.545 E1.13788
G1 X87.126 Y31.518 E1.36366
G1 X87.212 Y31.893 E1.40609
G1 X87.257 Y32.173 E1.43736
G1 X87.475 Y33.962 E1.6361
G1 X87.514 Y34.536 E1.69954
G1 X87.513 Y34.846 E1.73373
G1 X87.414 Y36.577 E1.92492
G1 X87.374 Y36.987 E1.97035
G1 X87.309 Y37.368 E2.01297
G1 X87.012 Y38.778 E2.17187
G1 X86.891 Y39.283 E2.22913
G1 X86.425 Y40.782 E2.40224
G1 X86.198 Y41.393 E2.47412
G1 X85.572 Y42.902 E2.65427
G1 X85.432 Y43.188 E2.68938
G1 X84.707 Y44.582 E2.86265
G1 X84.585 Y44.795 E2.88972
G1 X84.29 Y45.397 E2.96365
G1 X84.069 Y46.043 E3.03894
G1 X83.931 Y46.711 E3.11416
G1 X83.878 Y47.392 E3.18948
G1 X83.913 Y48.074 E3.26479
G1 X84.033 Y48.746 E3.34006
G1 X84.236 Y49.397 E3.41526
G1 X84.52 Y50.019 E3.49066
G1 X84.881 Y50.598 E3.5659
G1 X85.313 Y51.131 E3.64156
G1 X85.933 Y51.703 E3.73458
G1 X87.05 Y52.581 E3.89126
G1 X87.404 Y52.894 E3.94337
G1 X88.405 Y53.878 E4.09815
G1 X88.648 Y54.137 E4.13732
G1 X88.859 Y54.392 E4.17381
G1 X89.664 Y55.432 E4.31884
G1 X89.911 Y55.787 E4.36653
G1 X90.074 Y56.066 E4.40216
G1 X90.728 Y57.292 E4.55539
G1 X90.909 Y57.684 E4.60301
G1 X91.109 Y58.29 E4.67338
G1 X91.158 Y58.462 E4.6931
G1 X91.453 Y59.683 E4.83162
G1 X91.507 Y59.95 E4.86166
G1 X91.541 Y60.156 E4.88468
G1 X91.727 Y61.537 E5.03834
G1 X91.859 Y62.193 E5.11213
G1 X92.076 Y62.841 E5.18749
G1 X92.374 Y63.456 E5.26285
G1 X92.747 Y64.028 E5.33816
G1 X93.191 Y64.551 E5.41381
G1 X93.841 Y65.124 E5.50936
G1 X94.304 Y65.472 E5.57323
G1 X94.653 Y65.811 E5.62689
G1 X95.158 Y66.358 E5.70898
G1 X95.282 Y66.505 E5.73019
G1 X95.685 Y67.026 E5.80282
G1 X95.916 Y67.416 E5.85281
G1 X96.238 Y68.044 E5.93063
G1 X96.381 Y68.359 E5.96878
G1 X96.558 Y68.868 E6.02821
G1 X96.716 Y69.444 E6.09407
G1 X96.84 Y70.045 E6.16174
G1 X96.91 Y70.812 E6.24667
G1 X96.928 Y71.286 E6.29898
G1 X96.901 Y71.781 E6.35365
G1 X96.842 Y72.374 E6.41936
G1 X96.787 Y72.763 E6.46269
G1 X96.681 Y73.206 E6.51292
G1 X96.393 Y74.193 E6.6263
G1 X96.245 Y74.847 E6.70024
G1 X96.179 Y75.527 E6.77558
G1 X96.2 Y76.215 E6.85148
G1 X96.383 Y77.186 E6.96044
G1 X97.106 Y79.688 E7.24764
G1 X97.149 Y79.859 E7.26708
G1 X97.275 Y80.477 E7.33663
G1 X97.449 Y81.665 E7.46903
G1 X97.488 Y82.058 E7.51258
G1 X97.496 Y82.283 E7.53741
G1 X97.517 Y85.984 E7.94554
G1 X97.497 Y86.383 E7.9896
G1 X97.378 Y87.734 E8.13915
G1 X97.315 Y88.185 E8.18937
G1 X97.072 Y89.42 E8.32817
G1 X96.964 Y89.851 E8.37717
G1 X96.585 Y91.137 E8.52501
G1 X96.445 Y91.55 E8.5731
G1 X95.58 Y93.709 E8.82958
G1 X95.375 Y94.122 E8.88042
G1 X94.393 Y95.894 E9.10383
G1 X94.215 Y96.189 E9.14182
G1 X94.044 Y96.438 E9.17513
G1 X92.884 Y98.049 E9.39404
G1 X92.724 Y98.257 E9.42298
G1 X92.514 Y98.506 E9.4589
G1 X90.955 Y100.203 E9.71302
G1 X90.742 Y100.403 E9.74524
G1 X89.202 Y101.743 E9.97035
G1 X88.725 Y102.214 E10.04427
G1 X88.304 Y102.751 E10.11952
G1 X87.953 Y103.336 E10.19475
G1 X87.679 Y103.962 E10.2701
G1 X87.486 Y104.617 E10.3454
G1 X87.377 Y105.291 E10.42069
G1 X87.355 Y105.967 E10.49528
G1 X87.378 Y106.335 E10.53594
G1 X87.498 Y107.581 E10.67397
G1 X87.516 Y108.04 E10.72463
G1 X87.489 Y108.523 E10.77797
G1 X87.3 Y110.417 E10.98787
G1 X87.259 Y110.71 E11.0205
G1 X87.138 Y111.228 E11.07916
G1 X86.586 Y113.058 E11.28994
G1 X86.456 Y113.432 E11.3336
G1 X86.405 Y113.556 E11.34839
G1 X86.183 Y114.027 E11.40581
G1 X85.276 Y115.717 E11.61731
G1 X85.038 Y116.104 E11.66741
G1 X84.819 Y116.398 E11.70784
G1 X83.607 Y117.879 E11.91887
G1 X83.231 Y118.29 E11.9803
G1 X82.891 Y118.596 E12.03074
G1 X81.412 Y119.807 E12.24153
G1 X81.051 Y120.072 E12.29092
G1 X80.723 Y120.27 E12.33317
G1 X79.033 Y121.177 E12.54467
G1 X78.569 Y121.396 E12.60125
G1 X78.438 Y121.45 E12.61688
G1 X78.081 Y121.574 E12.65855
G1 X76.234 Y122.132 E12.87132
G1 X75.758 Y122.245 E12.92527
G1 X75.443 Y122.291 E12.96037
G1 X73.523 Y122.483 E13.17316
G1 X73.071 Y122.507 E13.22307
G1 X72.927 Y122.507 E13.23895
G1 X72.475 Y122.483 E13.28886
G1 X70.555 Y122.291 E13.50165
G1 X70.24 Y122.245 E13.53675
G1 X69.764 Y122.132 E13.5907
G1 X67.917 Y121.574 E13.80347
G1 X67.56 Y121.45 E13.84514
G1 X67.429 Y121.396 E13.86077
G1 X66.965 Y121.177 E13.91735
G1 X65.275 Y120.27 E14.12885
G1 X64.947 Y120.072 E14.1711
G1 X64.586 Y119.807 E14.22049
G1 X63.107 Y118.596 E14.43128
G1 X62.702 Y118.225 E14.49185
G1 X62.391 Y117.879 E14.54315
G1 X61.179 Y116.398 E14.75418
G1 X60.961 Y116.103 E14.79463
G1 X60.722 Y115.717 E14.8447
G1 X59.815 Y114.027 E15.0562
G1 X59.593 Y113.556 E15.11362
G1 X59.542 Y113.432 E15.12841
G1 X59.412 Y113.058 E15.17207
G1 X58.86 Y111.228 E15.38285
G1 X58.744 Y110.734 E15.43881
G1 X58.7 Y110.431 E15.47257
G1 X58.506 Y108.481 E15.68867
G1 X58.485 Y108.065 E15.7346
G1 X58.485 Y107.909 E15.7518
G1 X58.508 Y107.478 E15.7994
G1 X58.702 Y105.539 E16.01429
G1 X58.744 Y105.247 E16.04682
G1 X58.77 Y105.128 E16.06025
G1 X58.867 Y104.464 E16.13425
G1 X58.88 Y103.781 E16.20958
G1 X58.807 Y103.102 E16.28489
G1 X58.649 Y102.438 E16.36015
G1 X58.408 Y101.799 E16.43546
G1 X58.089 Y101.195 E16.51079
G1 X57.696 Y100.637 E16.58605
G1 X57.251 Y100.149 E16.65888
G1 X56.817 Y99.724 E16.72586
G1 X56.527 Y99.408 E16.77316
G1 X55.299 Y98 E16.97918
G1 X54.796 Y97.352 E17.06964
G1 X54.783 Y97.362 E17.07145
G1 X54.723 Y97.288 E17.08196
G1 X54.231 Y96.816 E17.15714
G1 X53.682 Y96.409 E17.2325
G1 X53.087 Y96.074 E17.3078
G1 X52.454 Y95.818 E17.3831
G1 X51.794 Y95.643 E17.45839
G1 X51.117 Y95.553 E17.53371
G1 X50.434 Y95.549 E17.60902
G1 X49.757 Y95.632 E17.68424
G1 X49.095 Y95.798 E17.7595
G1 X48.458 Y96.048 E17.83496
G1 X47.86 Y96.375 E17.91012
G1 X47.311 Y96.773 E17.98489
G1 X46.649 Y97.376 E18.08364
G1 X46.217 Y97.75 E18.14665
G1 X45.739 Y98.221 E18.22065
G1 X45.318 Y98.757 E18.29581
G1 X44.967 Y99.343 E18.37114
G1 X44.693 Y99.968 E18.44639
G1 X44.499 Y100.623 E18.52172
G1 X44.39 Y101.297 E18.59701
G1 X44.367 Y101.979 E18.67226
G1 X44.377 Y102.089 E18.68444
G1 X44.36 Y102.089 E18.68632
G1 X44.434 Y102.69 E18.75309
G1 X44.616 Y104.569 E18.96127
G1 X44.635 Y104.994 E19.00818
G1 X44.617 Y105.417 E19.05487
G1 X44.435 Y107.297 E19.26315
G1 X44.359 Y107.814 E19.32078
G1 X44.226 Y108.352 E19.38189
G1 X43.678 Y110.149 E19.58906
G1 X43.555 Y110.493 E19.62935
G1 X43.362 Y110.915 E19.68052
G1 X42.456 Y112.618 E19.89324
G1 X42.226 Y113.008 E19.94317
G1 X41.876 Y113.485 E20.00841
G1 X40.68 Y114.94 E20.21611
G1 X40.385 Y115.265 E20.26451
G1 X40.068 Y115.553 E20.31174
G1 X38.605 Y116.756 E20.52061
G1 X38.128 Y117.106 E20.58585
G1 X37.738 Y117.336 E20.63578
G1 X36.035 Y118.242 E20.84849
G1 X35.604 Y118.438 E20.90071
G1 X35.269 Y118.558 E20.93995
G1 X33.472 Y119.106 E21.14712
G1 X32.84 Y119.258 E21.2188
G1 X32.55 Y119.299 E21.2511
G1 X30.653 Y119.489 E21.46133
G1 X30.164 Y119.516 E21.51534
G1 X29.585 Y119.489 E21.57926
G1 X27.688 Y119.299 E21.78949
G1 X27.398 Y119.259 E21.82178
G1 X26.884 Y119.138 E21.88001
G1 X25.037 Y118.58 E22.09277
G1 X24.68 Y118.456 E22.13445
G1 X24.549 Y118.402 E22.15007
G1 X24.083 Y118.182 E22.2069
G1 X22.395 Y117.276 E22.41816
G1 X22.067 Y117.078 E22.46041
G1 X21.706 Y116.813 E22.50979
G1 X20.227 Y115.602 E22.72058
G1 X19.822 Y115.231 E22.78115
G1 X19.511 Y114.885 E22.83245
G1 X18.299 Y113.404 E23.04349
G1 X18.038 Y113.048 E23.09216
G1 X17.842 Y112.723 E23.13402
G1 X16.935 Y111.033 E23.34552
G1 X16.706 Y110.547 E23.40477
G1 X16.662 Y110.438 E23.41773
G1 X16.538 Y110.081 E23.4594
G1 X15.977 Y108.223 E23.67343
G1 X15.859 Y107.72 E23.7304
G1 X15.804 Y107.306 E23.77646
G1 X15.62 Y105.404 E23.98718
G1 X15.601 Y105.007 E24.03101
G1 X15.62 Y104.594 E24.0766
G1 X15.827 Y102.511 E24.30743
G1 X15.878 Y101.843 E24.38131
G1 X15.843 Y101.16 E24.45672
G1 X15.722 Y100.488 E24.53202
G1 X15.518 Y99.837 E24.60725
G1 X15.234 Y99.216 E24.68255
G1 X14.87 Y98.633 E24.75834
G1 X14.253 Y97.913 E24.86291
G1 X12.928 Y96.623 E25.06683
G1 X12.604 Y96.271 E25.11959
G1 X11.462 Y94.965 E25.3109
G1 X11.231 Y94.677 E25.35161
G1 X10.51 Y93.693 E25.48613
G1 X10.297 Y93.384 E25.52752
G1 X9.835 Y92.66 E25.62223
G1 X9.562 Y92.201 E25.68112
G1 X8.915 Y90.932 E25.83819
G1 X8.772 Y90.634 E25.87464
G1 X8.151 Y89.176 E26.0494
G1 X8.012 Y88.802 E26.0934
G1 X7.546 Y87.419 E26.25433
G1 X7.45 Y87.088 E26.29234
G1 X7.121 Y85.762 E26.44299
G1 X7.067 Y85.485 E26.47411
G1 X6.863 Y84.193 E26.61835
G1 X6.821 Y83.813 E26.66051
G1 X6.727 Y82.367 E26.82031
G1 X6.719 Y82.109 E26.84877
G1 X6.727 Y80.469 E27.02962
G1 X6.735 Y80.216 E27.05753
G1 X6.891 Y77.79 E27.32561
G1 X6.92 Y77.499 E27.35786
G1 X6.987 Y77.107 E27.40171
G1 X7.329 Y75.553 E27.57718
G1 X7.449 Y75.109 E27.6279
G1 X7.585 Y74.74 E27.67127
G1 X7.66 Y74.556 E27.69318
G1 X7.881 Y73.923 E27.76711
G1 X8.023 Y73.255 E27.84242
G1 X8.079 Y72.575 E27.91766
G1 X8.048 Y71.887 E27.99361
G1 X7.864 Y70.96 E28.09783
G1 X7.603 Y70.07 E28.2001
G1 X7.527 Y69.768 E28.23444
G1 X7.438 Y69.146 E28.30373
G1 X7.423 Y69 E28.31992
G1 X7.389 Y68.456 E28.38002
G1 X7.38 Y68.191 E28.40926
G1 X7.409 Y67.636 E28.47055
G1 X7.467 Y67.086 E28.53154
G1 X7.522 Y66.729 E28.57137
G1 X7.649 Y66.2 E28.63136
G1 X7.816 Y65.65 E28.69475
G1 X7.968 Y65.237 E28.74328
G1 X8.167 Y64.813 E28.79492
G1 X8.427 Y64.327 E28.85571
G1 X8.754 Y63.803 E28.92382
G1 X9.002 Y63.491 E28.96777
G1 X9.429 Y63.001 E29.03944
G1 X9.83 Y62.587 E29.103
G1 X9.931 Y62.495 E29.11806
G1 X10.458 Y62.084 E29.19176
G1 X10.968 Y61.649 E29.26568
G1 X11.428 Y61.144 E29.34101
G1 X11.82 Y60.585 E29.4163
G1 X12.138 Y59.981 E29.49157
G1 X12.377 Y59.343 E29.5667
G1 X12.518 Y58.763 E29.63252
G1 X12.663 Y57.983 E29.72001
G1 X12.657 Y57.982 E29.72068
G1 X13.142 Y55.529 E29.99642
G1 X13.183 Y55.359 E30.0157
G1 X13.385 Y54.662 E30.09573
G1 X13.703 Y53.982 E30.17851
G1 X14.379 Y52.761 E30.33241
G1 X14.51 Y52.545 E30.36027
G1 X14.891 Y52.033 E30.43064
G1 X15.735 Y51.057 E30.57293
G1 X16.142 Y50.525 E30.6468
G1 X16.485 Y49.934 E30.72215
G1 X16.752 Y49.306 E30.7974
G1 X16.937 Y48.649 E30.87267
G1 X17.037 Y47.974 E30.94792
G1 X17.052 Y47.291 E31.02325
G1 X16.98 Y46.612 E31.09855
G1 X16.823 Y45.947 E31.1739
G1 X16.584 Y45.308 E31.24913
G1 X16.265 Y44.702 E31.32465
G1 X15.84 Y44.104 E31.40555
G1 X15.192 Y43.31 E31.51856
G1 X14.953 Y42.989 E31.5627
G1 X14.724 Y42.612 E31.61134
G1 X13.774 Y40.835 E31.83354
G1 X13.566 Y40.382 E31.88851
G1 X13.445 Y40.041 E31.92841
G1 X12.896 Y38.237 E32.13635
G1 X12.77 Y37.725 E32.1945
G1 X12.739 Y37.556 E32.21344
G1 X12.691 Y37.197 E32.25338
G1 X12.509 Y35.316 E32.46178
G1 X12.491 Y34.907 E32.50692
G1 X12.509 Y34.48 E32.55405
G1 X12.691 Y32.599 E32.76245
G1 X12.739 Y32.239 E32.8025
G1 X12.77 Y32.07 E32.82144
G1 X12.906 Y31.524 E32.88349
G1 X13.444 Y29.759 E33.08697
G1 X13.565 Y29.416 E33.12708
G1 X13.774 Y28.962 E33.18219
G1 X14.725 Y27.185 E33.40445
G1 X14.956 Y26.805 E33.45348
G1 X15.238 Y26.427 E33.50549
G1 X16.465 Y24.937 E33.71834
G1 X16.741 Y24.632 E33.7637
G1 X17.073 Y24.331 E33.81312
G1 X18.521 Y23.141 E34.0198
G1 X18.994 Y22.793 E34.08455
G1 X19.392 Y22.558 E34.13552
G1 X20.973 Y21.714 E34.33315
G1 X21.437 Y21.495 E34.38973
G1 X21.568 Y21.441 E34.40536
G1 X21.925 Y21.317 E34.44703
G1 X23.772 Y20.759 E34.6598
G1 X24.248 Y20.646 E34.71375
G1 X24.563 Y20.6 E34.74886
G1 X26.483 Y20.408 E34.96164
G1 X26.935 Y20.384 E35.01155
G1 X27.079 Y20.384 E35.02743
G1 X27.531 Y20.408 E35.07734
G1 X29.306 Y20.582 E35.27402
G1 X29.917 Y20.657 E35.3419
G1 X29.917 Y20.637 E35.34411
G1 X30.084 Y20.65 E35.36258
G1 X30.766 Y20.618 E35.43787
G1 X31.438 Y20.502 E35.51307
G1 X32.091 Y20.301 E35.58841
G1 X32.713 Y20.019 E35.66372
G1 X33.299 Y19.658 E35.73962
G1 X34.041 Y19.024 E35.84725
G1 X35.351 Y17.679 E36.05429
G1 X35.671 Y17.385 E36.10221
G1 X36.942 Y16.273 E36.28844
G1 X37.451 Y15.871 E36.35996
G1 X38.347 Y15.217 E36.48229
G1 X38.551 Y15.077 E36.50957
G1 X39.478 Y14.481 E36.6311
G1 X39.78 Y14.311 E36.66932
G1 X41.084 Y13.65 E36.83053
G1 X41.384 Y13.511 E36.86699
G1 X42.814 Y12.904 E37.0383
G1 X43.042 Y12.817 E37.06521
M73 P1
G1 X44.403 Y12.351 E37.22385
G1 X44.979 Y12.186 E37.28992
G1 X46.288 Y11.866 E37.43852
G1 X46.585 Y11.811 E37.47183
G1 X47.762 Y11.627 E37.6032
G1 X48.06 Y11.59 E37.63631
G1 X49.583 Y11.489 E37.80463
G1 X49.876 Y11.48 E37.83696
G1 X51.5 Y11.488 E38.01604
G1 X51.765 Y11.497 E38.04528
G1 X54.211 Y11.655 E38.31557
G1 X54.551 Y11.694 E38.35331
G1 X54.98 Y11.77 E38.40136
G1 X56.489 Y12.108 E38.57188
G1 X56.91 Y12.228 E38.62016
G1 X57.399 Y12.416 E38.67793
G1 X58.031 Y12.639 E38.75183
G1 X58.698 Y12.782 E38.82706
G1 X59.379 Y12.842 E38.90245
G1 X60.067 Y12.813 E38.97838
G1 X61.014 Y12.626 E39.08483
G1 X61.878 Y12.372 E39.18414
G1 X62.218 Y12.287 E39.22278
G1 X62.831 Y12.2 E39.29106
G1 X62.994 Y12.183 E39.30913
G1 X63.489 Y12.151 E39.36383
G1 X63.778 Y12.142 E39.39572
G1 X64.366 Y12.173 E39.46065
G1 X64.927 Y12.234 E39.52288
G1 X65.302 Y12.292 E39.56472
G1 X65.654 Y12.378 E39.60468
G1 X66.309 Y12.57 E39.67995
G1 X66.663 Y12.694 E39.72131
G1 X67.044 Y12.867 E39.76745
G1 X67.531 Y13.117 E39.82782
G1 X68.063 Y13.435 E39.89617
G1 X68.472 Y13.749 E39.95303
G1 X69.103 Y14.304 E40.04569
G1 X69.3 Y14.493 E40.0758
G1 X69.416 Y14.617 E40.09452
G1 X69.759 Y15.037 E40.15432
G1 X69.913 Y15.24 E40.18242
G1 X70.349 Y15.748 E40.25624
G1 X70.856 Y16.206 E40.33159
G1 X71.416 Y16.596 E40.40684
G1 X72.021 Y16.912 E40.48211
G1 X72.66 Y17.149 E40.55726
G1 X73.233 Y17.287 E40.62226
G1 X73.731 Y17.377 E40.67806
G1 X73.898 Y17.401 E40.69667
G1 X76.468 Y17.91 E40.98558
G1 X76.636 Y17.951 E41.00465
G1 X77.33 Y18.153 E41.08435
G1 X77.868 Y18.399 E41.14959
G1 X78.023 Y18.477 E41.16872
G1 X79.129 Y19.087 E41.30801
G1 X79.41 Y19.253 E41.344
G1 X79.519 Y19.325 E41.3584
G1 X79.945 Y19.647 E41.41729
G1 X80.091 Y19.766 E41.43806
G1 X81.278 Y20.805 E41.61202
G1 F3600 X81.6 Y21.126
G1 F1200 X81.6 Y119.654 E52.47709
G1 F1680 E49.47709
G1 F3600 X80 Y120.659
G1 F1680 E52.47709
G1 F1200 X80 Y19.692 E63.61112
G1 F1680 E60.61112
G1 F3600 X78.4 Y18.685
G1 F1680 E63.61112
G1 F1200 X78.4 Y121.464 E74.94497
G1 F1680 E71.94497
G1 F3600 X76.8 Y121.962
G1 F1680 E74.94497
G1 F1200 X76.8 Y17.999 E86.40938
G1 F1680 E83.40938
G1 F3600 X75.2 Y17.659
G1 F1680 E86.40938
G1 F1200 X75.2 Y122.316 E97.95033
G1 F1680 E94.95033
G1 F3600 X73.6 Y122.476
G1 F1680 E97.95033
G1 F1200 X73.6 Y17.354 E109.54255
G1 F1680 E106.54255
G1 F3600 X72 Y16.902
G1 F1680 E109.54255
G1 F1200 X72 Y122.435 E121.18009
G1 F1680 E118.18009
G1 F3600 X70.4 Y122.268
G1 F1680 E121.18009
G1 F1200 X70.4 Y15.795 E132.92129
G1 F1680 E129.92129
G1 F3600 X68.8 Y14.038
G1 F1680 E132.92129
G1 F1200 X68.8 Y121.84 E144.80905
G1 F1680 E141.80905
G1 F3600 X67.2 Y121.287
G1 F1680 E144.80905
G1 F1200 X67.2 Y12.948 E156.75602
G1 F1680 E153.75602
G1 F3600 X65.6 Y12.365
G1 F1680 E156.75602
G1 F1200 X65.6 Y120.444 E168.67432
G1 F1680 E165.67432
G1 F3600 X64 Y119.327
G1 F1680 E168.67432
G1 F1200 X64 Y12.154 E180.49272
G1 F1680 E177.49272
G1 F3600 X62.4 Y12.261
G1 F1680 E180.49272
G1 F1200 X62.4 Y117.889 E192.14074
G1 F1680 E189.14074
G1 F3600 X60.8 Y115.842
G1 F1680 E192.14074
G1 F1200 X60.8 Y12.668 E203.51814
G1 F1680 E200.51814
G1 F3600 X59.2 Y12.827
G1 F1680 E203.51814
G1 F1200 X59.2 Y112.355 E214.49349
G1 F1680 E211.49349
G1 F3600 X57.6 Y100.531
G1 F1680 E214.49349
G1 F1200 X57.6 Y12.487 E224.20245
G1 F1680 E221.20245
