M73 P0
;MINX:11.5
;MAXX:88.5
;MINY:8.2
;MAXY:111.8
;MINZ:0.0
;MAXZ:31.3
;MachineType:ENTINA TINA2
;FilamentType:PLA
;Extruder0Temperature:200
;InfillDensity:10
;FLAVOR:Marlin
;TIME:12242
;FilamentUsed:8902.8
;Layer height: 0.2

;Generated with Cura_SteamEngine 3.1
M104 T0 S215
M82 ; absolute extrusion mode
;(**** start.gcode for tina2****)
M104 S150
G28 Z
G28 X Y; Home extruder
G1 X55 Y55 F1000
G1 Z10 F200
G29
G1 Z15 F100
M107 ; Turn off fan
G90 ; Absolute positioning
M82 ; Extruder in absolute mode
M109 S215.0
G92 E0 ; Reset extruder position
G1 X90 Y6 Z0.27 F2000
G1 X20 Y6 Z0.27 E15 F1000
G92 E0 ; Reset extruder position

;LAYER_COUNT:150
;LAYER:-6
M107
M203 Z5
G1 F3600 X85.223 Y35.289 Z0.349
G1 F1200 X85.481 Y35.411 E0.03147
G1 X85.74 Y35.555 E0.06415
G1 X85.959 Y35.694 E0.09275
G1 X86.225 Y35.892 E0.12932
G1 X86.708 Y36.314 E0.20005
G1 X86.911 Y36.524 E0.23226
G1 X87.17 Y36.819 E0.27555
G1 X87.337 Y37.034 E0.30557
G1 X87.493 Y37.265 E0.33631
G1 X87.651 Y37.533 E0.37061
G1 X87.783 Y37.792 E0.40267
G1 X87.886 Y38.031 E0.43137
G1 X87.991 Y38.323 E0.46559
G1 X88.072 Y38.605 E0.49794
G1 X88.128 Y38.859 E0.52662
G1 X88.177 Y39.189 E0.56341
G1 X88.213 Y39.65 E0.6144
G1 X88.22 Y39.835 E0.63482
G1 X88.216 Y43.797 E1.07172
G1 X88.193 Y44.164 E1.11227
G1 X88.154 Y44.473 E1.14662
G1 X88.113 Y44.694 E1.17141
G1 X88.02 Y45.671 E1.27963
G1 X88.02 Y47.8 E1.5144
G1 X88.091 Y48.659 E1.60945
G1 X88.161 Y49.075 E1.65597
G1 X88.21 Y49.627 E1.71708
G1 X88.22 Y49.849 E1.74159
G1 X88.216 Y53.785 E2.17563
G1 X88.192 Y54.162 E2.21728
G1 X88.155 Y54.46 E2.2504
G1 X88.1 Y54.744 E2.2823
G1 X88.024 Y55.035 E2.31546
G1 X87.94 Y55.293 E2.34538
G1 X87.829 Y55.572 E2.3785
G1 X87.707 Y55.83 E2.40997
G1 X87.563 Y56.089 E2.44265
G1 X87.424 Y56.308 E2.47125
G1 X87.226 Y56.574 E2.50782
G1 X86.804 Y57.057 E2.57854
G1 X86.594 Y57.26 E2.61075
G1 X86.301 Y57.517 E2.65373
G1 X86.084 Y57.686 E2.68406
G1 X85.853 Y57.842 E2.7148
G1 X85.585 Y58 E2.74911
G1 X85.328 Y58.13 E2.78087
G1 X85.059 Y58.245 E2.81313
G1 X84.802 Y58.338 E2.84327
G1 X84.51 Y58.422 E2.87677
G1 X84.249 Y58.478 E2.90621
G1 X83.929 Y58.526 E2.94189
G1 X83.461 Y58.562 E2.99365
G1 X83.269 Y58.569 E3.01484
G1 X80.233 Y58.565 E3.34963
G1 X79.856 Y58.541 E3.39129
G1 X79.558 Y58.504 E3.4244
G1 X79.274 Y58.449 E3.4563
G1 X78.983 Y58.373 E3.48947
G1 X78.723 Y58.288 E3.51963
G1 X78.446 Y58.178 E3.5525
G1 X78.187 Y58.055 E3.58412
G1 X77.934 Y57.915 E3.616
G1 X77.771 Y57.811 E3.63732
G1 X77.185 Y57.486 E3.71122
G1 X76.549 Y57.233 E3.7867
G1 X75.888 Y57.062 E3.86199
G1 X75.211 Y56.977 E3.93723
G1 X74.529 Y56.977 E4.01244
G1 X73.851 Y57.063 E4.0878
G1 X73.19 Y57.235 E4.16312
G1 X72.556 Y57.488 E4.23839
G1 X71.959 Y57.82 E4.31372
G1 X71.408 Y58.223 E4.389
G1 X70.913 Y58.693 E4.46427
G1 X70.481 Y59.222 E4.53959
G1 X70.119 Y59.802 E4.61498
G1 X69.834 Y60.422 E4.69023
G1 X69.627 Y61.078 E4.76609
G1 X69.577 Y61.4 E4.80202
G1 X69.558 Y61.398 E4.80413
G1 X69.448 Y62.26 E4.89995
G1 X69.394 Y62.541 E4.93151
G1 X69.322 Y62.818 E4.96307
G1 X69.23 Y63.097 E4.99546
G1 X69.129 Y63.351 E5.02561
G1 X69.001 Y63.619 E5.05836
G1 X68.86 Y63.875 E5.09059
G1 X68.704 Y64.118 E5.12243
G1 X68.523 Y64.362 E5.15593
G1 X68.107 Y64.839 E5.22573
G1 X67.701 Y65.202 E5.28578
G1 X67.484 Y65.371 E5.31611
G1 X67.253 Y65.527 E5.34685
G1 X66.985 Y65.685 E5.38116
G1 X66.728 Y65.815 E5.41292
G1 X66.459 Y65.93 E5.44518
G1 X66.202 Y66.023 E5.47532
G1 X65.91 Y66.107 E5.50882
G1 X65.649 Y66.163 E5.53826
G1 X65.328 Y66.211 E5.57405
G1 X65.215 Y66.22 E5.58655
G1 X64.551 Y66.313 E5.66049
G1 X63.893 Y66.493 E5.73571
G1 X63.262 Y66.754 E5.81102
G1 X62.669 Y67.092 E5.88628
G1 X62.123 Y67.503 E5.96165
G1 X61.634 Y67.979 E6.0369
G1 X61.209 Y68.514 E6.11225
G1 X60.854 Y69.097 E6.18752
G1 X60.576 Y69.72 E6.26275
G1 X60.379 Y70.375 E6.33817
G1 X60.266 Y71.048 E6.41342
G1 X60.238 Y71.73 E6.4887
G1 X60.298 Y72.41 E6.56397
G1 X60.442 Y73.077 E6.63922
G1 X60.671 Y73.727 E6.71522
G1 X60.85 Y74.055 E6.75642
G1 X60.828 Y74.068 E6.75924
G1 X61.269 Y74.818 E6.85518
G1 X61.401 Y75.077 E6.88724
G1 X61.504 Y75.316 E6.91594
G1 X61.609 Y75.608 E6.95016
G1 X61.69 Y75.89 E6.98251
G1 X61.746 Y76.144 E7.01119
G1 X61.795 Y76.474 E7.04798
G1 X61.831 Y76.935 E7.09897
G1 X61.838 Y77.12 E7.11939
G1 X61.834 Y80.17 E7.45573
G1 X61.81 Y80.547 E7.49738
G1 X61.773 Y80.845 E7.5305
G1 X61.718 Y81.129 E7.5624
G1 X61.642 Y81.42 E7.59556
G1 X61.558 Y81.678 E7.62548
G1 X61.447 Y81.957 E7.6586
G1 X61.325 Y82.215 E7.69007
G1 X61.182 Y82.473 E7.7226
G1 X60.708 Y83.215 E7.81969
G1 X60.721 Y83.222 E7.82132
G1 X60.458 Y83.771 E7.88845
G1 X60.243 Y84.419 E7.96373
G1 X60.112 Y85.09 E8.03912
G1 X60.066 Y85.771 E8.11439
G1 X60.107 Y86.452 E8.18962
G1 X60.233 Y87.124 E8.26502
G1 X60.443 Y87.773 E8.34024
G1 X60.733 Y88.391 E8.41552
G1 X61.099 Y88.968 E8.49087
G1 X61.534 Y89.494 E8.56614
G1 X62.033 Y89.96 E8.64143
G1 X62.586 Y90.36 E8.71669
G1 X63.186 Y90.687 E8.79205
G1 X63.822 Y90.936 E8.86736
G1 X64.489 Y91.103 E8.94319
G1 X65.449 Y91.192 E9.0495
G1 X75.781 Y91.193 E10.18885
G1 X77.111 Y91.237 E10.3356
G1 X77.111 Y91.207 E10.33891
G1 X77.57 Y91.19 E10.38956
G1 X77.676 Y91.177 E10.40133
G1 X77.967 Y91.159 E10.43348
G1 X78.227 Y91.16 E10.46216
G1 X78.576 Y91.187 E10.50076
G1 X79.127 Y91.273 E10.56225
G1 X79.62 Y91.388 E10.61808
G1 X80.096 Y91.533 E10.67295
G1 X80.383 Y91.641 E10.70676
G1 X80.88 Y91.858 E10.76657
G1 X81.26 Y92.051 E10.81357
G1 X81.691 Y92.312 E10.86913
G1 X81.931 Y92.482 E10.90156
G1 X82.364 Y92.84 E10.96352
G1 X82.569 Y93.043 E10.99533
G1 X82.961 Y93.474 E11.05958
G1 X83.085 Y93.626 E11.08121
G1 X83.329 Y93.988 E11.12935
G1 X83.459 Y94.205 E11.15725
G1 X83.645 Y94.565 E11.20193
G1 X83.855 Y95.054 E11.26062
G1 X83.955 Y95.349 E11.29496
G1 X84.091 Y95.885 E11.35594
G1 X84.145 Y96.244 E11.39598
G1 X84.178 Y96.548 E11.4297
G1 X84.209 Y97.068 E11.48714
G1 X84.194 Y97.692 E11.55597
G1 X84.154 Y98.169 E11.60876
G1 X84.068 Y98.726 E11.67091
G1 X83.99 Y99.065 E11.70927
G1 X83.921 Y99.273 E11.73344
G1 X83.697 Y99.838 E11.80046
G1 X83.594 Y100.066 E11.82805
G1 X83.501 Y100.233 E11.84913
G1 X83.14 Y100.814 E11.92456
G1 X83.042 Y100.956 E11.94358
G1 X82.632 Y101.427 E12.01244
G1 X82.438 Y101.624 E12.04293
G1 X82.085 Y101.932 E12.09459
G1 X81.816 Y102.132 E12.13156
G1 X81.39 Y102.403 E12.18723
G1 X81.066 Y102.582 E12.22805
G1 X80.934 Y102.646 E12.24423
G1 X80.316 Y102.912 E12.31842
G1 X80.042 Y103.011 E12.35055
G1 X79.438 Y103.192 E12.42008
G1 X79.282 Y103.23 E12.43779
G1 X78.783 Y103.323 E12.49376
G1 X78.47 Y103.358 E12.52849
G1 X78.181 Y103.372 E12.5604
G1 X77.912 Y103.367 E12.59007
G1 X77.01 Y103.298 E12.68983
G1 X77.01 Y103.307 E12.69082
G1 X76.93 Y103.303 E12.69965
G1 X75.795 Y103.337 E12.82487
G1 X61.765 Y103.337 E14.37201
G1 X61.097 Y103.379 E14.44582
G1 X60.426 Y103.508 E14.52117
G1 X59.777 Y103.721 E14.59649
G1 X59.16 Y104.013 E14.67177
G1 X58.585 Y104.381 E14.74705
G1 X58.066 Y104.815 E14.82165
G1 X57.701 Y105.183 E14.87881
G1 X57.301 Y105.54 E14.93793
G1 X57.084 Y105.709 E14.96826
G1 X56.853 Y105.865 E14.999
G1 X56.585 Y106.023 E15.03331
G1 X56.328 Y106.153 E15.06507
G1 X56.059 Y106.268 E15.09733
G1 X55.802 Y106.361 E15.12747
G1 X55.51 Y106.445 E15.16097
G1 X55.249 Y106.501 E15.19041
G1 X54.929 Y106.549 E15.22609
G1 X54.461 Y106.585 E15.27785
G1 X54.269 Y106.592 E15.29904
G1 X44.564 Y106.588 E16.36925
G1 X44.187 Y106.564 E16.41091
G1 X43.889 Y106.527 E16.44402
G1 X43.605 Y106.472 E16.47592
G1 X43.314 Y106.396 E16.50909
G1 X43.054 Y106.311 E16.53925
G1 X42.777 Y106.201 E16.57212
G1 X42.518 Y106.078 E16.60374
G1 X42.26 Y105.935 E16.63626
G1 X42.041 Y105.796 E16.66487
G1 X41.775 Y105.598 E16.70143
G1 X41.292 Y105.176 E16.77216
G1 X41.173 Y105.057 E16.79072
G1 X40.669 Y104.615 E16.86464
G1 X40.105 Y104.232 E16.93982
G1 X39.495 Y103.923 E17.01523
G1 X38.853 Y103.694 E17.09039
G1 X38.182 Y103.546 E17.16617
G1 X37.378 Y103.485 E17.25508
G1 X30.059 Y103.485 E18.06218
G1 X29.607 Y103.505 E18.11207
G1 X29.337 Y103.529 E18.14196
G1 X29.023 Y103.537 E18.1766
G1 X28.721 Y103.525 E18.20993
G1 X28.46 Y103.5 E18.23884
G1 X28.024 Y103.428 E18.28757
G1 X27.464 Y103.309 E18.3507
G1 X27.291 Y103.285 E18.36996
G1 X27.294 Y103.265 E18.37219
G1 X26.534 Y103.185 E18.45646
G1 X26.298 Y103.148 E18.48281
G1 X24.46 Y102.794 E18.68922
G1 X24.108 Y102.704 E18.72928
G1 X23.81 Y102.607 E18.76384
G1 X23.553 Y102.505 E18.79433
G1 X23.284 Y102.378 E18.82713
G1 X23.01 Y102.227 E18.86163
G1 X22.798 Y102.092 E18.88935
G1 X22.553 Y101.913 E18.92281
G1 X22.319 Y101.718 E18.9564
G1 X22.131 Y101.54 E18.98495
G1 X21.902 Y101.294 E19.02201
G1 X21.74 Y101.096 E19.05022
G1 X21.561 Y100.848 E19.08395
G1 X21.414 Y100.613 E19.11451
G1 X21.266 Y100.341 E19.14866
G1 X21.15 Y100.09 E19.17915
G1 X21.042 Y99.812 E19.21204
G1 X20.958 Y99.546 E19.2428
G1 X20.884 Y99.249 E19.27656
G1 X20.829 Y98.943 E19.31084
G1 X20.798 Y98.694 E19.33851
G1 X20.774 Y98.274 E19.3849
G1 X20.752 Y96.266 E19.60634
G1 X20.771 Y95.885 E19.64841
G1 X20.803 Y95.615 E19.67839
G1 X20.861 Y95.292 E19.71458
G1 X20.92 Y95.05 E19.74205
G1 X21.007 Y94.768 E19.77459
G1 X21.116 Y94.483 E19.80824
G1 X21.246 Y94.2 E19.84258
G1 X21.369 Y93.973 E19.87105
G1 X21.534 Y93.707 E19.90557
G1 X21.692 Y93.486 E19.93553
G1 X21.887 Y93.248 E19.96946
G1 X22.063 Y93.056 E19.99818
G1 X22.289 Y92.84 E20.03266
G1 X22.522 Y92.645 E20.06616
G1 X22.746 Y92.481 E20.09677
G1 X22.986 Y92.326 E20.12828
G1 X23.236 Y92.187 E20.15982
G1 X23.506 Y92.057 E20.19287
G1 X23.777 Y91.949 E20.22504
G1 X24.035 Y91.861 E20.2551
G1 X24.457 Y91.751 E20.30319
G1 X25.776 Y91.472 E20.45186
G1 X28.109 Y91.031 E20.71368
G1 X28.284 Y91.003 E20.73323
G1 X28.661 Y90.957 E20.77511
G1 X28.926 Y90.941 E20.80439
G1 X29.232 Y90.943 E20.83813
G1 X29.508 Y90.961 E20.86863
G1 X29.82 Y91.001 E20.90332
G1 X30.494 Y91.045 E20.9778
G1 X34.452 Y91.045 E21.41426
G1 X35.12 Y91.003 E21.48807
G1 X35.791 Y90.874 E21.56342
G1 X36.44 Y90.661 E21.63875
G1 X37.057 Y90.369 E21.71402
G1 X37.632 Y90.001 E21.7893
G1 X38.156 Y89.563 E21.86461
G1 X38.62 Y89.063 E21.93983
G1 X39.019 Y88.507 E22.0153
G1 X39.343 Y87.907 E22.09049
G1 X39.589 Y87.271 E22.16569
G1 X39.753 Y86.607 E22.24111
G1 X39.832 Y85.929 E22.31639
G1 X39.825 Y85.246 E22.39171
G1 X39.732 Y84.57 E22.46695
G1 X39.554 Y83.911 E22.54223
G1 X39.294 Y83.278 E22.61769
G1 X38.731 Y82.319 E22.74032
G1 X38.601 Y82.062 E22.77208
G1 X38.485 Y81.792 E22.80449
G1 X38.393 Y81.536 E22.83448
G1 X38.309 Y81.244 E22.86799
G1 X38.253 Y80.983 E22.89743
G1 X38.205 Y80.663 E22.93311
G1 X38.168 Y80.185 E22.98598
G1 X38.162 Y80.017 E23.00452
G1 X38.166 Y76.967 E23.34085
G1 X38.19 Y76.59 E23.38251
G1 X38.227 Y76.292 E23.41562
G1 X38.282 Y76.008 E23.44752
G1 X38.358 Y75.717 E23.48069
G1 X38.442 Y75.459 E23.51061
G1 X38.553 Y75.18 E23.54372
G1 X38.675 Y74.922 E23.57519
G1 X38.821 Y74.659 E23.60836
G1 X38.919 Y74.507 E23.62831
G1 X39.243 Y73.92 E23.70224
G1 X39.496 Y73.285 E23.77762
G1 X39.667 Y72.624 E23.85291
G1 X39.752 Y71.947 E23.92815
G1 X39.752 Y71.265 E24.00336
G1 X39.666 Y70.587 E24.07873
G1 X39.494 Y69.926 E24.15404
G1 X39.241 Y69.292 E24.22932
G1 X38.909 Y68.695 E24.30465
G1 X38.505 Y68.145 E24.3799
G1 X38.035 Y67.649 E24.45525
G1 X37.506 Y67.218 E24.5305
G1 X36.927 Y66.856 E24.6058
G1 X36.306 Y66.57 E24.68119
G1 X35.649 Y66.364 E24.75712
G1 X35.32 Y66.314 E24.79382
G1 X35.322 Y66.293 E24.79614
G1 X34.485 Y66.188 E24.88917
G1 X34.189 Y66.13 E24.92243
G1 X33.917 Y66.06 E24.9534
G1 X33.651 Y65.973 E24.98426
G1 X33.37 Y65.861 E25.01762
G1 X33.12 Y65.742 E25.04815
G1 X32.838 Y65.586 E25.08369
G1 X32.638 Y65.457 E25.10994
G1 X32.369 Y65.258 E25.14683
G1 X31.902 Y64.852 E25.21507
G1 X31.53 Y64.437 E25.27653
G1 X31.363 Y64.222 E25.30655
G1 X31.206 Y63.989 E25.33753
G1 X31.049 Y63.723 E25.3716
G1 X30.919 Y63.466 E25.40335
G1 X30.803 Y63.196 E25.43576
G1 X30.71 Y62.936 E25.46621
G1 X30.627 Y62.648 E25.49926
G1 X30.571 Y62.389 E25.52848
G1 X30.52 Y62.053 E25.56596
G1 X30.512 Y61.939 E25.57856
G1 X30.417 Y61.275 E25.65253
G1 X30.237 Y60.616 E25.72786
G1 X29.976 Y59.985 E25.80316
G1 X29.635 Y59.393 E25.8785
G1 X29.224 Y58.848 E25.95377
G1 X28.748 Y58.36 E26.02895
G1 X28.213 Y57.935 E26.10429
G1 X27.628 Y57.582 E26.17964
G1 X27.004 Y57.304 E26.25497
G1 X26.351 Y57.109 E26.33012
G1 X25.677 Y56.996 E26.40548
G1 X24.995 Y56.97 E26.48074
G1 X24.315 Y57.03 E26.55602
G1 X23.647 Y57.176 E26.63142
G1 X23.004 Y57.403 E26.70662
G1 X22.399 Y57.709 E26.78138
G1 X21.916 Y58 E26.84356
G1 X21.659 Y58.13 E26.87532
G1 X21.39 Y58.245 E26.90759
G1 X21.133 Y58.338 E26.93772
G1 X20.841 Y58.422 E26.97123
G1 X20.58 Y58.478 E27.00067
G1 X20.26 Y58.526 E27.03635
G1 X19.792 Y58.562 E27.08811
G1 X19.6 Y58.569 E27.1093
G1 X16.564 Y58.565 E27.44409
G1 X16.187 Y58.541 E27.48575
G1 X15.889 Y58.504 E27.51886
G1 X15.605 Y58.449 E27.55076
G1 X15.314 Y58.373 E27.58393
G1 X15.054 Y58.288 E27.61409
G1 X14.777 Y58.178 E27.64696
G1 X14.518 Y58.055 E27.67857
G1 X14.26 Y57.912 E27.7111
G1 X14.041 Y57.773 E27.73971
G1 X13.775 Y57.575 E27.77627
G1 X13.292 Y57.153 E27.847
G1 X13.081 Y56.934 E27.88054
G1 X12.83 Y56.648 E27.9225
G1 X12.663 Y56.433 E27.95252
G1 X12.504 Y56.197 E27.9839
G1 X12.349 Y55.934 E28.01756
G1 X12.219 Y55.677 E28.04932
G1 X12.103 Y55.407 E28.08173
G1 X12.011 Y55.151 E28.11173
G1 X11.927 Y54.859 E28.14523
G1 X11.871 Y54.598 E28.17467
G1 X11.823 Y54.278 E28.21035
G1 X11.786 Y53.8 E28.26322
G1 X11.78 Y53.632 E28.28176
G1 X11.784 Y49.671 E28.71855
G1 X11.807 Y49.303 E28.75921
G1 X11.847 Y48.988 E28.79423
G1 X11.887 Y48.773 E28.81834
G1 X11.98 Y47.796 E28.92657
G1 X11.98 Y45.667 E29.16134
G1 X11.909 Y44.808 E29.25639
G1 X11.839 Y44.392 E29.30291
G1 X11.79 Y43.84 E29.36402
G1 X11.78 Y43.618 E29.38853
G1 X11.784 Y39.682 E29.82257
G1 X11.808 Y39.305 E29.86422
G1 X11.845 Y39.007 E29.89734
G1 X11.9 Y38.723 E29.92924
G1 X11.976 Y38.432 E29.9624
G1 X12.06 Y38.174 E29.99232
G1 X12.171 Y37.895 E30.02543
G1 X12.293 Y37.637 E30.05691
G1 X12.432 Y37.387 E30.08845
G1 X12.584 Y37.149 E30.11959
G1 X12.774 Y36.893 E30.15475
G1 X13.196 Y36.41 E30.22547
G1 X13.406 Y36.207 E30.25768
G1 X13.701 Y35.948 E30.30097
G1 X13.916 Y35.781 E30.33099
G1 X14.147 Y35.625 E30.36173
G1 X14.415 Y35.467 E30.39604
G1 X14.672 Y35.337 E30.4278
G1 X14.942 Y35.221 E30.4602
G1 X15.198 Y35.129 E30.4902
G1 X15.49 Y35.045 E30.52371
G1 X15.751 Y34.989 E30.55314
G1 X16.071 Y34.941 E30.58883
G1 X16.539 Y34.905 E30.64059
G1 X16.731 Y34.898 E30.66177
G1 X19.767 Y34.902 E30.99657
G1 X20.144 Y34.926 E31.03822
G1 X20.442 Y34.963 E31.07134
G1 X20.726 Y35.018 E31.10324
G1 X21.017 Y35.094 E31.1364
G1 X21.275 Y35.178 E31.16632
G1 X21.554 Y35.289 E31.19944
G1 X21.812 Y35.411 E31.23091
G1 X22.074 Y35.556 E31.26393
G1 X22.219 Y35.65 E31.28298
G1 X22.805 Y35.976 E31.35693
G1 X23.439 Y36.229 E31.43221
G1 X24.1 Y36.4 E31.5075
G1 X24.777 Y36.488 E31.58278
G1 X25.46 Y36.488 E31.6581
G1 X26.137 Y36.403 E31.73334
G1 X26.798 Y36.233 E31.8086
G1 X27.433 Y35.98 E31.88398
G1 X28.031 Y35.65 E31.9593
G1 X28.582 Y35.247 E32.03458
G1 X29.077 Y34.777 E32.10985
G1 X29.511 Y34.249 E32.18522
G1 X29.872 Y33.67 E32.26046
G1 X30.16 Y33.051 E32.33575
G1 X30.368 Y32.395 E32.41163
G1 X30.42 Y32.061 E32.44891
G1 X30.44 Y32.063 E32.45113
G1 X30.546 Y31.218 E32.54504
G1 X30.604 Y30.922 E32.5783
G1 X30.676 Y30.643 E32.61007
G1 X30.761 Y30.384 E32.64013
G1 X30.873 Y30.103 E32.67349
G1 X30.992 Y29.853 E32.70402
G1 X31.148 Y29.571 E32.73956
G1 X31.277 Y29.371 E32.76581
G1 X31.476 Y29.102 E32.8027
G1 X31.882 Y28.635 E32.87094
G1 X32.297 Y28.263 E32.9324
G1 X32.512 Y28.096 E32.96242
G1 X32.743 Y27.94 E32.99316
G1 X33.011 Y27.782 E33.02747
G1 X33.268 Y27.652 E33.05923
G1 X33.538 Y27.536 E33.09163
G1 X33.794 Y27.444 E33.12163
G1 X34.086 Y27.36 E33.15514
G1 X34.347 Y27.304 E33.18457
G1 X34.673 Y27.254 E33.22094
G1 X34.778 Y27.247 E33.23255
G1 X35.442 Y27.155 E33.30647
G1 X36.102 Y26.975 E33.38191
G1 X36.733 Y26.715 E33.45717
G1 X37.326 Y26.378 E33.53238
G1 X37.872 Y25.968 E33.60768
G1 X38.362 Y25.492 E33.68301
G1 X38.787 Y24.958 E33.75827
G1 X39.143 Y24.375 E33.8336
G1 X39.422 Y23.751 E33.90897
G1 X39.619 Y23.098 E33.98419
G1 X39.734 Y22.425 E34.05948
G1 X39.762 Y21.743 E34.13475
G1 X39.703 Y21.063 E34.21001
