M73 P0
;MINX:1.4
;MAXX:98.6
;MINY:43.3
;MAXY:76.8
;MINZ:0.0
;MAXZ:81.3
;MachineType:ENTINA TINA2
;FilamentType:PLA
;Extruder0Temperature:200
;InfillDensity:10
;FLAVOR:Marlin
;TIME:4707
;FilamentUsed:3137.1
;Layer height: 0.2

;Generated with Cura_SteamEngine 3.1
M104 T0 S215
M82 ; absolute extrusion mode
;(**** start.gcode for tina2****)
M104 S150
G28 Z
G28 X Y; Home extruder
G1 X55 Y55 F1000
G1 Z10 F200
G29
G1 Z15 F100
M107 ; Turn off fan
G90 ; Absolute positioning
M82 ; Extruder in absolute mode
M109 S215.0
G92 E0 ; Reset extruder position
G1 X90 Y6 Z0.27 F2000
G1 X20 Y6 Z0.27 E15 F1000
G92 E0 ; Reset extruder position

;LAYER_COUNT:400
;LAYER:-6
M107
M203 Z5
G1 F3600 X71.212 Y48.069 Z0.349
G1 F1200 X71.442 Y48.225 E0.03065
G1 X71.683 Y48.41 E0.06415
G1 X71.91 Y48.609 E0.09744
G1 X72.086 Y48.779 E0.12442
G1 X72.29 Y49.002 E0.15775
G1 X72.473 Y49.221 E0.18922
G1 X72.684 Y49.495 E0.22736
G1 X72.869 Y49.773 E0.26418
G1 X72.997 Y49.996 E0.29254
G1 X73.126 Y50.254 E0.32435
G1 X73.244 Y50.534 E0.35785
G1 X73.527 Y51.344 E0.45247
G1 X73.534 Y51.342 E0.45327
G1 X73.85 Y51.976 E0.53139
G1 X74.231 Y52.542 E0.60663
G1 X74.68 Y53.056 E0.68189
G1 X75.192 Y53.51 E0.75735
G1 X75.755 Y53.895 E0.83256
G1 X76.363 Y54.206 E0.90787
G1 X77.003 Y54.436 E0.98286
G1 X77.526 Y54.56 E1.04214
G1 X86.251 Y56.163 E2.02038
G1 X86.962 Y56.274 E2.09973
G1 X87.364 Y56.327 E2.14445
G1 X87.536 Y56.357 E2.1637
G1 X88.26 Y56.517 E2.24547
G1 X88.738 Y56.599 E2.29895
G1 X89.649 Y56.724 E2.40035
G1 X89.898 Y56.773 E2.42833
G1 X90.774 Y56.973 E2.52742
G1 X91.073 Y57.032 E2.56103
G1 X91.337 Y57.076 E2.59054
G1 X91.984 Y57.221 E2.66366
G1 X92.681 Y57.421 E2.74362
G1 X93.052 Y57.552 E2.78701
G1 X93.316 Y57.665 E2.81867
G1 X93.567 Y57.791 E2.84964
G1 X93.838 Y57.949 E2.88424
G1 X94.08 Y58.112 E2.91641
G1 X94.289 Y58.272 E2.94544
G1 X94.519 Y58.473 E2.97912
G1 X94.719 Y58.672 E3.01023
G1 X94.933 Y58.912 E3.04569
G1 X95.083 Y59.102 E3.07239
G1 X95.313 Y59.433 E3.11683
G1 X95.453 Y59.664 E3.14662
G1 X95.642 Y60.011 E3.19019
G1 X95.77 Y60.286 E3.22364
G1 X95.87 Y60.547 E3.25446
G1 X95.956 Y60.816 E3.28561
G1 X96.03 Y61.11 E3.31904
G1 X96.081 Y61.388 E3.35021
G1 X96.11 Y61.633 E3.37741
G1 X96.124 Y61.995 E3.41736
G1 X96.103 Y62.569 E3.4807
G1 X96.084 Y62.797 E3.50593
G1 X96.018 Y63.257 E3.55718
G1 X95.948 Y63.617 E3.59762
G1 X95.876 Y63.894 E3.62918
G1 X95.781 Y64.18 E3.66241
G1 X95.675 Y64.444 E3.69378
G1 X95.548 Y64.708 E3.72609
G1 X95.407 Y64.961 E3.75803
G1 X95.25 Y65.204 E3.78993
G1 X95.08 Y65.435 E3.82156
G1 X94.88 Y65.673 E3.85584
G1 X94.692 Y65.87 E3.88587
G1 X94.245 Y66.27 E3.95202
G1 X93.796 Y66.604 E4.01373
G1 X93.576 Y66.744 E4.04248
G1 X93.321 Y66.884 E4.07456
G1 X93.035 Y67.02 E4.10948
G1 X92.78 Y67.12 E4.13969
G1 X92.494 Y67.213 E4.17285
G1 X92.226 Y67.282 E4.20337
G1 X91.947 Y67.335 E4.23469
G1 X91.661 Y67.371 E4.26647
G1 X91.345 Y67.388 E4.30137
G1 X90.687 Y67.371 E4.37396
G1 X89.936 Y67.288 E4.45728
G1 X89.181 Y67.166 E4.54161
G1 X87.96 Y66.926 E4.67883
G1 X87.292 Y66.809 E4.75362
G1 X86.437 Y66.647 E4.84958
G1 X86.437 Y66.641 E4.85024
G1 X85.878 Y66.551 E4.91268
G1 X84.928 Y66.359 E5.01956
G1 X84.299 Y66.253 E5.0899
G1 X83.693 Y66.13 E5.15809
G1 X80.355 Y65.559 E5.53153
G1 X61.473 Y62.049 E7.64939
G1 X60.807 Y61.969 E7.72336
G1 X60.124 Y61.973 E7.79868
G1 X59.447 Y62.063 E7.87399
G1 X58.787 Y62.238 E7.94929
G1 X58.155 Y62.495 E8.02452
G1 X57.56 Y62.83 E8.09982
G1 X57.011 Y63.237 E8.17518
G1 X56.519 Y63.709 E8.25037
G1 X56.09 Y64.24 E8.32564
G1 X55.731 Y64.822 E8.40105
G1 X55.449 Y65.444 E8.47636
G1 X55.247 Y66.096 E8.55163
G1 X55.13 Y66.766 E8.62663
G1 X55.099 Y67.274 E8.68276
G1 X55.09 Y68.853 E8.85688
G1 X55.074 Y69.257 E8.90147
G1 X55.002 Y69.94 E8.9772
G1 X54.857 Y70.765 E9.06957
G1 X54.764 Y71.156 E9.11389
G1 X54.679 Y71.436 E9.14616
G1 X54.578 Y71.703 E9.17764
G1 X54.466 Y71.951 E9.20765
G1 X54.322 Y72.224 E9.24168
G1 X54.165 Y72.478 E9.27461
G1 X54.004 Y72.708 E9.30557
G1 X53.825 Y72.931 E9.33711
G1 X53.622 Y73.154 E9.37036
G1 X53.42 Y73.349 E9.40132
G1 X53.188 Y73.547 E9.43496
G1 X52.97 Y73.709 E9.46491
G1 X52.73 Y73.866 E9.49653
G1 X52.459 Y74.02 E9.5309
G1 X52.193 Y74.147 E9.56341
G1 X51.939 Y74.252 E9.59372
G1 X51.668 Y74.343 E9.62524
G1 X51.369 Y74.423 E9.65937
G1 X51.112 Y74.475 E9.68829
G1 X50.795 Y74.516 E9.72354
G1 X50.375 Y74.544 E9.76995
G1 X49.704 Y74.545 E9.84395
G1 X49.185 Y74.514 E9.90128
G1 X48.912 Y74.477 E9.93166
G1 X48.635 Y74.422 E9.9628
G1 X48.331 Y74.341 E9.9975
G1 X48.084 Y74.258 E10.02623
G1 X47.793 Y74.141 E10.06082
G1 X47.534 Y74.016 E10.09253
G1 X47.281 Y73.874 E10.12452
G1 X47.044 Y73.721 E10.15563
G1 X46.798 Y73.538 E10.18944
G1 X46.589 Y73.362 E10.21957
G1 X46.367 Y73.148 E10.25358
G1 X46.188 Y72.952 E10.28285
G1 X45.99 Y72.706 E10.31767
G1 X45.821 Y72.468 E10.34986
G1 X45.675 Y72.231 E10.38055
G1 X45.546 Y71.988 E10.41089
G1 X45.414 Y71.699 E10.44593
G1 X45.319 Y71.448 E10.47552
G1 X45.229 Y71.156 E10.50922
G1 X45.108 Y70.631 E10.56863
G1 X44.993 Y69.95 E10.64479
G1 X44.971 Y69.779 E10.6638
G1 X44.92 Y69.226 E10.72504
G1 X44.911 Y69.046 E10.74492
G1 X44.888 Y67.376 E10.92909
G1 X44.836 Y66.707 E11.00309
G1 X44.698 Y66.038 E11.07841
G1 X44.476 Y65.392 E11.15374
G1 X44.176 Y64.78 E11.2289
G1 X43.8 Y64.21 E11.3042
G1 X43.355 Y63.692 E11.37951
G1 X42.849 Y63.234 E11.45477
G1 X42.288 Y62.843 E11.53017
G1 X41.683 Y62.528 E11.60539
G1 X41.043 Y62.29 E11.68069
G1 X40.378 Y62.135 E11.75599
G1 X39.699 Y62.066 E11.83125
G1 X39.021 Y62.082 E11.90603
G1 X38.588 Y62.137 E11.95417
G1 X18 Y65.65 E14.2573
G1 X16.775 Y65.852 E14.39421
G1 X16.069 Y66.005 E14.47387
G1 X15.53 Y66.104 E14.5343
G1 X14.695 Y66.222 E14.6273
G1 X13.656 Y66.403 E14.7436
G1 X12.508 Y66.615 E14.87233
G1 X12.306 Y66.64 E14.89478
G1 X12.304 Y66.634 E14.89548
G1 X11.274 Y66.82 E15.01089
G1 X10.269 Y66.989 E15.12328
G1 X9.783 Y67.048 E15.17726
G1 X9.101 Y67.094 E15.25264
G1 X8.745 Y67.1 E15.2919
G1 X8.458 Y67.085 E15.3236
G1 X8.164 Y67.052 E15.35622
G1 X7.883 Y67.002 E15.38769
G1 X7.599 Y66.933 E15.41992
G1 X7.312 Y66.843 E15.45309
G1 X7.037 Y66.738 E15.48555
G1 X6.798 Y66.628 E15.51456
G1 X6.505 Y66.471 E15.55122
G1 X6.293 Y66.341 E15.57864
G1 X5.951 Y66.099 E15.62484
G1 X5.706 Y65.901 E15.65958
G1 X5.437 Y65.662 E15.69926
G1 X5.227 Y65.451 E15.73209
G1 X5.044 Y65.24 E15.76289
G1 X4.865 Y65.008 E15.7952
G1 X4.702 Y64.765 E15.82747
G1 X4.555 Y64.513 E15.85964
G1 X4.451 Y64.305 E15.88529
G1 X4.309 Y63.961 E15.92632
G1 X4.124 Y63.381 E15.99346
G1 X4.079 Y63.215 E16.01242
G1 X3.981 Y62.755 E16.06429
G1 X3.918 Y62.351 E16.10938
G1 X3.895 Y62.082 E16.13915
G1 X3.887 Y61.788 E16.17158
G1 X3.897 Y61.494 E16.20402
G1 X3.923 Y61.224 E16.23393
G1 X3.972 Y60.923 E16.26756
G1 X4.036 Y60.646 E16.29891
G1 X4.12 Y60.362 E16.33157
G1 X4.227 Y60.071 E16.36576
G1 X4.331 Y59.833 E16.3944
G1 X4.548 Y59.417 E16.44614
G1 X4.705 Y59.158 E16.47954
G1 X4.92 Y58.837 E16.52215
G1 X5.088 Y58.618 E16.55258
G1 X5.273 Y58.406 E16.58361
G1 X5.493 Y58.184 E16.61808
G1 X5.71 Y57.992 E16.65003
G1 X5.922 Y57.826 E16.67972
G1 X6.188 Y57.645 E16.7152
G1 X6.415 Y57.51 E16.74433
G1 X6.677 Y57.376 E16.77678
G1 X6.955 Y57.255 E16.81021
G1 X7.256 Y57.146 E16.84551
G1 X7.471 Y57.08 E16.87031
G1 X8.45 Y56.835 E16.9816
G1 X8.603 Y56.803 E16.99884
G1 X9.014 Y56.734 E17.0448
G1 X9.016 Y56.74 E17.04549
G1 X9.654 Y56.627 E17.11694
G1 X9.653 Y56.622 E17.1175
G1 X10.565 Y56.492 E17.21909
G1 X10.807 Y56.446 E17.24626
G1 X11.8 Y56.29 E17.3571
G1 X11.801 Y56.3 E17.35821
G1 X12.153 Y56.233 E17.39772
G1 X12.437 Y56.188 E17.42943
G1 X12.435 Y56.179 E17.43045
G1 X12.939 Y56.101 E17.48669
G1 X13.89 Y55.924 E17.59336
G1 X14.21 Y55.875 E17.62906
G1 X14.8 Y55.81 E17.69451
G1 X15.144 Y55.759 E17.73286
G1 X18.627 Y55.13 E18.12316
G1 X22.421 Y54.493 E18.54739
G1 X23.074 Y54.341 E18.62133
G1 X23.714 Y54.103 E18.69663
G1 X24.318 Y53.787 E18.7718
G1 X24.879 Y53.396 E18.8472
G1 X25.385 Y52.938 E18.92246
G1 X25.829 Y52.419 E18.99778
G1 X26.205 Y51.849 E19.07308
G1 X26.503 Y51.24 E19.14785
G1 X26.643 Y50.862 E19.1923
G1 X26.721 Y50.622 E19.22013
G1 X26.832 Y50.343 E19.25324
G1 X26.954 Y50.085 E19.28471
G1 X27.1 Y49.822 E19.31788
G1 X27.273 Y49.551 E19.35334
G1 X27.489 Y49.26 E19.3933
G1 X27.668 Y49.045 E19.42415
G1 X28.022 Y48.671 E19.48094
G1 X28.236 Y48.475 E19.51294
G1 X28.469 Y48.287 E19.54595
G1 X28.685 Y48.133 E19.57521
G1 X28.953 Y47.969 E19.60985
G1 X29.189 Y47.843 E19.63936
G1 X29.475 Y47.714 E19.67395
G1 X29.742 Y47.613 E19.70543
G1 X30.058 Y47.516 E19.74188
G1 X30.391 Y47.437 E19.77962
G1 X30.665 Y47.387 E19.81034
G1 X31.067 Y47.334 E19.85505
G1 X31.571 Y47.288 E19.91086
G1 X31.778 Y47.279 E19.93371
G1 X31.778 Y47.29 E19.93492
G1 X32.358 Y47.253 E19.99901
G1 X32.358 Y47.248 E19.99956
G1 X32.814 Y47.227 E20.0499
G1 X33.11 Y47.235 E20.08255
G1 X33.321 Y47.253 E20.10591
G1 X33.321 Y47.264 E20.10712
G1 X33.803 Y47.275 E20.16029
G1 X35.122 Y47.269 E20.30574
G1 X35.649 Y47.277 E20.36386
G1 X35.927 Y47.3 E20.39462
G1 X36.235 Y47.346 E20.42896
G1 X36.42 Y47.386 E20.44983
G1 X37.082 Y47.485 E20.52365
G1 X37.708 Y47.502 E20.5927
G1 X39.271 Y47.474 E20.76509
G1 X45.813 Y47.471 E21.4865
G1 X46.482 Y47.429 E21.56042
G1 X47.148 Y47.3 E21.63523
G1 X47.528 Y47.186 E21.67898
G1 X47.939 Y47.047 E21.72682
G1 X48.244 Y46.964 E21.76168
G1 X48.516 Y46.909 E21.79228
G1 X48.821 Y46.867 E21.82623
G1 X49.081 Y46.845 E21.855
G1 X49.353 Y46.836 E21.88502
G1 X50.595 Y46.835 E22.02198
G1 X51.126 Y46.863 E22.08061
G1 X51.433 Y46.902 E22.11474
G1 X51.707 Y46.954 E22.14549
G1 X51.999 Y47.028 E22.17871
G1 X52.839 Y47.304 E22.27621
G1 X52.841 Y47.297 E22.27702
G1 X52.881 Y47.31 E22.28165
G1 X53.552 Y47.434 E22.3569
G1 X54.18 Y47.471 E22.42627
G1 X60.813 Y47.475 E23.15772
G1 X62.033 Y47.496 E23.29227
G1 X62.033 Y47.503 E23.29305
G1 X62.719 Y47.508 E23.3687
G1 X62.719 Y47.497 E23.36991
G1 X62.917 Y47.473 E23.3919
G1 X63.126 Y47.461 E23.41499
G1 X63.302 Y47.429 E23.43471
G1 X63.396 Y47.419 E23.44514
G1 X63.484 Y47.396 E23.45517
G1 X63.948 Y47.315 E23.50711
G1 X64.254 Y47.284 E23.54103
G1 X64.684 Y47.269 E23.58847
G1 X66.194 Y47.278 E23.75499
G1 X66.659 Y47.265 E23.80629
G1 X66.659 Y47.254 E23.8075
G1 X66.834 Y47.238 E23.82688
G1 X67.146 Y47.228 E23.8613
G1 X68.434 Y47.291 E24.0035
G1 X68.867 Y47.326 E24.05141
G1 X69.372 Y47.393 E24.10759
G1 X69.876 Y47.498 E24.16436
G1 X70.155 Y47.578 E24.19636
G1 X70.433 Y47.676 E24.22887
G1 X70.689 Y47.785 E24.25955
G1 X70.956 Y47.919 E24.29249
G1 X71.212 Y48.069 E24.32521
G1 F1680 E21.32521
G1 F3600 X70.4 Y47.665
G1 F1680 E24.32521
G1 F1200 X70.4 Y63.708 E26.09434
G1 F1680 E23.09434
G1 F3600 X68.8 Y63.411
G1 F1680 E26.09434
G1 F1200 X68.8 Y47.321 E27.86865
G1 F1680 E24.86865
G1 F3600 X67.2 Y47.231
G1 F1680 E27.86865
G1 F1200 X67.2 Y63.113 E29.62002
G1 F1680 E26.62002
G1 F3600 X65.6 Y62.816
G1 F1680 E29.62002
G1 F1200 X65.6 Y47.275 E31.33379
G1 F1680 E28.33379
G1 F3600 X64 Y47.309
G1 F1680 E31.33379
G1 F1200 X64 Y62.518 E33.01094
G1 F1680 E30.01094
G1 F3600 X62.4 Y62.221
G1 F1680 E33.01094
G1 F1200 X62.4 Y47.506 E34.63362
G1 F1680 E31.63362
G1 F3600 X60.8 Y47.475
G1 F1680 E34.63362
G1 F1200 X60.8 Y61.97 E36.23205
G1 F1680 E33.23205
G1 F3600 X59.2 Y62.129
G1 F1680 E36.23205
G1 F1200 X59.2 Y47.475 E37.848
G1 F1680 E34.848
G1 F3600 X57.6 Y47.474
G1 F1680 E37.848
G1 F1200 X57.6 Y62.808 E39.53894
G1 F1680 E36.53894
G1 F3600 X56 Y64.386
G1 F1680 E39.53894
G1 F1200 X56 Y47.473 E41.40401
G1 F1680 E38.40401
G1 F3600 X54.4 Y47.472
G1 F1680 E41.40401
G1 F1200 X54.4 Y72.077 E44.1173
G1 F1680 E41.1173
G1 F3600 X52.8 Y73.821
G1 F1680 E44.1173
G1 F1200 X52.8 Y47.292 E47.04276
G1 F1680 E44.04276
G1 F3600 X51.2 Y46.873
G1 F1680 E47.04276
G1 F1200 X51.2 Y74.458 E50.08466
G1 F1680 E47.08466
G1 F3600 X49.6 Y74.538
G1 F1680 E50.08466
G1 F1200 X49.6 Y46.835 E53.13958
G1 F1680 E50.13958
G1 F3600 X48 Y47.03
G1 F1680 E53.13958
G1 F1200 X48 Y74.224 E56.13837
G1 F1680 E53.13837
G1 F3600 X46.4 Y73.179
G1 F1680 E56.13837
G1 F1200 X46.4 Y47.434 E58.97738
G1 F1680 E55.97738
G1 F3600 X44.8 Y47.471
G1 F1680 E58.97738
G1 F1200 X44.8 Y66.532 E61.07931
G1 F1680 E58.07931
G1 F3600 X43.2 Y63.551
G1 F1680 E61.07931
G1 F1200 X43.2 Y47.472 E62.8524
G1 F1680 E59.8524
G1 F3600 X41.6 Y47.472
G1 F1680 E62.8524
G1 F1200 X41.6 Y62.497 E64.50927
G1 F1680 E61.50927
G1 F3600 X40 Y62.096
G1 F1680 E64.50927
G1 F1200 X40 Y47.473 E66.12181
G1 F1680 E63.12181
G1 F3600 X38.4 Y47.489
G1 F1680 E66.12181
G1 F1200 X38.4 Y62.17 E67.74074
G1 F1680 E64.74074
G1 F3600 X36.8 Y62.443
G1 F1680 E67.74074
G1 F1200 X36.8 Y47.443 E69.39485
G1 F1680 E66.39485
G1 F3600 X35.2 Y47.271
G1 F1680 E69.39485
G1 F1200 X35.2 Y62.716 E71.09803
G1 F1680 E68.09803
G1 F3600 X33.6 Y62.989
G1 F1680 E71.09803
G1 F1200 X33.6 Y47.271 E72.83132
G1 F1680 E69.83132
G1 F3600 X32 Y47.275
G1 F1680 E72.83132
G1 F1200 X32 Y63.262 E74.59427
G1 F1680 E71.59427
G1 F3600 X30.4 Y63.535
G1 F1680 E74.59427
G1 F1200 X30.4 Y47.435 E76.36968
G1 F1680 E73.36968
G1 F3600 X28.8 Y48.062
G1 F1680 E76.36968
G1 F1200 X28.8 Y63.808 E78.10605
G1 F1680 E75.10605
G1 F3600 X27.2 Y64.081
G1 F1680 E78.10605
G1 F1200 X27.2 Y49.665 E79.69576
G1 F1680 E76.69576
G1 F3600 X25.6 Y52.686
G1 F1680 E79.69576
G1 F1200 X25.6 Y64.354 E80.98244
G1 F1680 E77.98244
G1 F3600 X24 Y64.627
G1 F1680 E80.98244
G1 F1200 X24 Y53.953 E82.1595
G1 F1680 E79.1595
G1 F3600 X22.4 Y54.496
G1 F1680 E82.1595
G1 F1200 X22.4 Y64.9 E83.30679
G1 F1680 E80.30679
G1 F3600 X20.8 Y65.173
G1 F1680 E83.30679
G1 F1200 X20.8 Y54.765 E84.45453
G1 F1680 E81.45453
G1 F3600 X19.2 Y55.033
G1 F1680 E84.45453
G1 F1200 X19.2 Y65.446 E85.60281
G1 F1680 E82.60281
G1 F3600 X17.6 Y65.716
G1 F1680 E85.60281
G1 F1200 X17.6 Y55.315 E86.74977
G1 F1680 E83.74977
G1 F3600 X16 Y55.604
G1 F1680 E86.74977
G1 F1200 X16 Y66.018 E87.89816
G1 F1680 E84.89816
G1 F3600 X14.4 Y66.274
G1 F1680 E87.89816
G1 F1200 X14.4 Y55.854 E89.04722
G1 F1680 E86.04722
G1 F3600 X12.8 Y56.122
G1 F1680 E89.04722
G1 F1200 X12.8 Y66.562 E90.19848
G1 F1680 E87.19848
G1 F3600 X11.2 Y66.833
G1 F1680 E90.19848
G1 F1200 X11.2 Y56.384 E91.35073
G1 F1680 E88.35073
G1 F3600 X9.6 Y56.636
G1 F1680 E91.35073
G1 F1200 X9.6 Y67.061 E92.50034
G1 F1680 E89.50034
G1 F3600 X8 Y67.022
G1 F1680 E92.50034
G1 F1200 X8 Y56.947 E93.61135
G1 F1680 E90.61135
G1 F3600 X6.4 Y57.518
G1 F1680 E93.61135
G1 F1200 X6.4 Y66.406 E94.59146
G1 F1680 E91.59146
G1 F3600 X4.8 Y64.911
G1 F1680 E94.59146
G1 F1200 X4.8 Y59.016 E95.24153
G1 F1680 E92.24153
G1 F3600 X72 Y64.005
G1 F1680 E95.24153
G1 F1200 X72 Y48.696 E96.92971
G1 F1680 E93.92971
G1 F3600 X73.6 Y51.475
G1 F1680 E96.92971
G1 F1200 X73.6 Y64.303 E98.34431
G1 F1680 E95.34431
G1 F3600 X75.2 Y64.6
G1 F1680 E98.34431
G1 F1200 X75.2 Y53.516 E99.56658
G1 F1680 E96.56658
G1 F3600 X76.8 Y54.364
G1 F1680 E99.56658
G1 F1200 X76.8 Y64.898 E100.72821
G1 F1680 E97.72821
G1 F3600 X78.4 Y65.195
G1 F1680 E100.72821
G1 F1200 X78.4 Y54.721 E101.88322
G1 F1680 E98.88322
G1 F3600 X80 Y55.015
G1 F1680 E101.88322
G1 F1200 X80 Y65.493 E103.03867
G1 F1680 E100.03867
G1 F3600 X81.6 Y65.771
G1 F1680 E103.03867
G1 F1200 X81.6 Y55.309 E104.19235
G1 F1680 E101.19235
G1 F3600 X83.2 Y55.603
G1 F1680 E104.19235
G1 F1200 X83.2 Y66.045 E105.34384
G1 F1680 E102.34384
G1 F3600 X84.8 Y66.337
G1 F1680 E105.34384
G1 F1200 X84.8 Y55.897 E106.4951
G1 F1680 E103.4951
G1 F3600 X86.4 Y56.187
G1 F1680 E106.4951
G1 F1200 X86.4 Y66.635 E107.64724
G1 F1680 E104.64724
G1 F3600 X88 Y66.933
M104 T0 S200
G1 F1680 E107.64724
G1 F1200 X88 Y56.46 E108.80214
G1 F1680 E105.80214
G1 F3600 X89.6 Y56.718
G1 F1680 E108.80214
G1 F1200 X89.6 Y67.233 E109.96167
G1 F1680 E106.96167
G1 F3600 X91.2 Y67.384
G1 F1680 E109.96167
G1 F1200 X91.2 Y57.054 E111.1008
G1 F1680 E108.1008
G1 F3600 X92.8 Y57.464
G1 F1680 E111.1008
G1 F1200 X92.8 Y67.113 E112.16483
G1 F1680 E109.16483
G1 F3600 X94.4 Y66.132
G1 F1680 E112.16483
G1 F1200 X94.4 Y58.37 E113.02078
G1 F1680 E110.02078
G1 F3600 X96 Y60.991
G1 F1680 E113.02078
G1 F1200 X96 Y63.35 E113.28092
G1 F1680 E110.28092
G1 F3600 X71.236 Y48.024
;TIME_ELAPSED:66.758492
;LAYER:-5
G1 X71.236 Y48.024 Z0.619
;TYPE:SUPPORT
G1 F1680 E113.28092
G1 F1980 X70.974 Y47.871 E113.30353
G1 X70.707 Y47.738 E113.32577
