M73 P0
;MINX:5.0
;MAXX:95.0
;MINY:25.0
;MAXY:95.0
;MINZ:0.0
;MAXZ:19.8
;MachineType:ENTINA TINA2
;FilamentType:PLA
;Extruder0Temperature:200
;InfillDensity:10
;FLAVOR:Marlin
;TIME:4877
;FilamentUsed:4399.3
;Layer height: 0.2

;Generated with Cura_SteamEngine 3.1
M104 T0 S215
M82 ; absolute extrusion mode
;(**** start.gcode for tina2****)
M104 S150
G28 Z
G28 X Y; Home extruder
G1 X55 Y55 F1000
G1 Z10 F200
G29
G1 Z15 F100
M107 ; Turn off fan
G90 ; Absolute positioning
M82 ; Extruder in absolute mode
M109 S215.0
G92 E0 ; Reset extruder position
G1 X90 Y6 Z0.27 F2000
G1 X20 Y6 Z0.27 E15 F1000
G92 E0 ; Reset extruder position

;LAYER_COUNT:93
;LAYER:-6
M107
M203 Z5
G1 F3600 X87.215 Y33.565 Z0.349
G1 F1200 X88.364 Y34.013 E0.136
G1 X88.89 Y34.246 E0.19944
G1 X89.066 Y34.332 E0.22104
G1 X90.281 Y34.996 E0.37372
G1 X90.851 Y35.365 E0.4486
G1 X91.224 Y35.649 E0.5003
G1 X91.551 Y35.921 E0.5472
G1 X92.35 Y36.647 E0.66625
G1 X92.496 Y36.791 E0.68886
G1 X92.956 Y37.295 E0.76411
G1 X93.113 Y37.484 E0.79121
G1 X93.249 Y37.667 E0.81635
G1 X93.596 Y38.198 E0.8863
G1 X93.767 Y38.509 E0.92543
G1 X93.904 Y38.787 E0.95961
G1 X94.159 Y39.39 E1.03181
G1 X94.256 Y39.676 E1.06511
G1 X94.435 Y40.334 E1.14031
G1 X94.511 Y40.736 E1.18542
G1 X94.55 Y40.991 E1.21387
G1 X94.59 Y41.361 E1.25491
G1 X94.612 Y41.693 E1.2916
G1 X94.619 Y41.926 E1.31731
G1 X94.619 Y51.934 E2.42093
G1 X94.61 Y52.28 E2.4591
G1 X94.574 Y52.766 E2.51284
G1 X94.495 Y53.323 E2.57487
G1 X94.417 Y53.711 E2.61852
G1 X94.263 Y54.278 E2.68331
G1 X94.138 Y54.651 E2.72669
G1 X93.981 Y55.063 E2.77531
G1 X93.738 Y55.556 E2.83592
G1 X93.618 Y55.771 E2.86307
G1 X93.512 Y55.943 E2.88535
G1 X93.122 Y56.511 E2.96133
G1 X92.801 Y56.913 E3.01806
G1 X92.525 Y57.223 E3.06383
G1 X92.364 Y57.386 E3.08909
G1 X92.115 Y57.608 E3.12588
G1 X91.36 Y58.244 E3.23474
G1 X90.957 Y58.562 E3.29135
G1 X90.804 Y58.67 E3.312
G1 X90.316 Y58.989 E3.37629
G1 X90.145 Y59.091 E3.39825
G1 X89.056 Y59.68 E3.53478
G1 X88.906 Y59.753 E3.55317
G1 X88.206 Y60.054 E3.6372
G1 X87.347 Y60.391 E3.73895
G1 X86.902 Y60.544 E3.79084
G1 X85.431 Y60.965 E3.95957
G1 X85.105 Y61.048 E3.99666
G1 X84.113 Y61.26 E4.10853
G1 X83.469 Y61.358 E4.18036
G1 X83.107 Y61.403 E4.22059
G1 X82.494 Y61.499 E4.28901
G1 X82.236 Y61.531 E4.31768
G1 X81.088 Y61.641 E4.44485
G1 X80.542 Y61.666 E4.50512
G1 X80.015 Y61.674 E4.56325
G1 X79.413 Y61.705 E4.62972
G1 X78.509 Y61.699 E4.72941
G1 X78.039 Y61.712 E4.78126
G1 X77.535 Y61.699 E4.83685
G1 X76.926 Y61.711 E4.90402
G1 X75.87 Y61.692 E5.02049
G1 X75.87 Y61.703 E5.0217
G1 X75.502 Y61.712 E5.0623
G1 X74.988 Y61.699 E5.119
G1 X74.348 Y61.711 E5.18958
G1 X73.718 Y61.699 E5.25907
G1 X73.251 Y61.708 E5.31058
G1 X72.181 Y61.699 E5.42857
G1 X71.685 Y61.712 E5.48329
G1 X71.211 Y61.699 E5.53558
G1 X70.698 Y61.708 E5.59216
G1 X70.032 Y61.697 E5.66561
G1 X69.467 Y61.709 E5.72793
G1 X68.338 Y61.692 E5.85244
G1 X68.338 Y61.703 E5.85366
G1 X67.923 Y61.712 E5.89943
G1 X67.483 Y61.698 E5.94798
G1 X66.922 Y61.707 E6.00985
G1 X66.237 Y61.697 E6.08539
G1 X65.686 Y61.71 E6.14617
G1 X64.567 Y61.693 E6.26958
G1 X64.567 Y61.702 E6.27057
G1 X64.16 Y61.712 E6.31547
G1 X63.697 Y61.699 E6.36655
G1 X63.138 Y61.71 E6.4282
G1 X61.997 Y61.69 E6.55404
G1 X61.997 Y61.703 E6.55548
G1 X61.726 Y61.709 E6.58537
G1 X61.322 Y61.703 E6.62992
G1 X60.652 Y61.734 E6.70389
G1 X59.98 Y61.852 E6.77912
G1 X59.328 Y62.054 E6.85439
G1 X58.706 Y62.336 E6.9297
G1 X58.124 Y62.695 E7.00511
G1 X57.594 Y63.125 E7.08037
G1 X57.121 Y63.617 E7.15563
G1 X56.715 Y64.166 E7.23093
G1 X56.38 Y64.761 E7.30623
G1 X56.124 Y65.394 E7.38152
G1 X55.949 Y66.054 E7.45682
G1 X55.86 Y66.725 E7.53146
G1 X55.847 Y67.095 E7.57229
G1 X55.847 Y68.328 E7.70826
G1 X55.889 Y68.996 E7.78207
G1 X56.018 Y69.667 E7.85741
G1 X56.231 Y70.316 E7.93274
G1 X56.523 Y70.933 E8.00801
G1 X56.891 Y71.508 E8.08329
G1 X57.329 Y72.032 E8.1586
G1 X57.829 Y72.496 E8.23383
G1 X58.385 Y72.895 E8.30929
G1 X58.985 Y73.219 E8.38449
G1 X59.626 Y73.467 E8.46028
G1 X60.525 Y73.666 E8.56181
G1 X60.738 Y73.695 E8.58552
G1 X61.133 Y73.759 E8.62965
G1 X61.734 Y73.877 E8.69719
G1 X62.461 Y74.043 E8.77942
G1 X63.059 Y74.209 E8.84786
G1 X63.522 Y74.354 E8.90136
G1 X64.132 Y74.576 E8.97294
G1 X64.742 Y74.832 E9.04589
G1 X65.464 Y75.089 E9.1304
G1 X65.79 Y75.195 E9.16821
G1 X66.082 Y75.316 E9.20306
G1 X66.318 Y75.431 E9.23201
G1 X66.601 Y75.592 E9.26791
G1 X66.858 Y75.761 E9.30183
G1 X67.039 Y75.893 E9.32654
G1 X67.208 Y76.03 E9.35053
G1 X67.597 Y76.372 E9.40765
G1 X67.964 Y76.745 E9.46535
G1 X68.154 Y76.961 E9.49707
G1 X68.427 Y77.3 E9.54507
G1 X68.506 Y77.403 E9.55938
G1 X68.657 Y77.627 E9.58917
G1 X68.937 Y78.096 E9.64941
G1 X69.067 Y78.339 E9.6798
G1 X69.144 Y78.511 E9.70058
G1 X69.369 Y79.079 E9.76795
G1 X69.449 Y79.314 E9.79533
G1 X69.586 Y79.875 E9.85901
G1 X69.623 Y80.076 E9.88154
G1 X69.671 Y80.468 E9.92509
G1 X69.698 Y80.961 E9.97954
G1 X69.698 Y87.061 E10.65221
G1 X69.673 Y87.506 E10.70136
G1 X69.634 Y87.804 E10.7345
G1 X69.514 Y88.433 E10.80512
G1 X69.432 Y88.751 E10.84133
G1 X69.333 Y89.051 E10.87617
G1 X69.13 Y89.529 E10.93344
G1 X69.036 Y89.727 E10.95761
G1 X68.952 Y89.881 E10.97695
G1 X68.682 Y90.333 E11.03501
G1 X68.511 Y90.588 E11.06887
G1 X68.142 Y91.052 E11.13424
G1 X67.958 Y91.261 E11.16495
G1 X67.569 Y91.647 E11.22538
G1 X67.278 Y91.905 E11.26826
G1 X66.856 Y92.234 E11.32727
G1 X66.612 Y92.398 E11.35969
G1 X66.363 Y92.543 E11.39147
G1 X66.093 Y92.677 E11.4247
G1 X65.833 Y92.788 E11.45588
G1 X65.567 Y92.881 E11.48695
G1 X65.436 Y92.918 E11.50196
G1 X64.687 Y93.193 E11.58995
G1 X64.253 Y93.376 E11.64189
G1 X63.838 Y93.537 E11.69098
G1 X63.577 Y93.629 E11.72149
G1 X62.883 Y93.845 E11.80165
G1 X62.199 Y94.02 E11.8795
G1 X61.663 Y94.136 E11.93998
G1 X60.982 Y94.264 E12.01639
G1 X60.484 Y94.344 E12.07201
G1 X60.223 Y94.378 E12.10103
G1 X59.502 Y94.453 E12.18097
G1 X58.827 Y94.503 E12.25561
G1 X57.398 Y94.543 E12.41325
G1 X42.789 Y94.546 E14.02425
G1 X41.19 Y94.503 E14.20064
G1 X40.265 Y94.433 E14.30293
G1 X39.606 Y94.352 E14.37615
G1 X38.957 Y94.255 E14.44851
G1 X38.262 Y94.123 E14.52652
G1 X37.566 Y93.963 E14.60528
G1 X36.96 Y93.795 E14.67462
G1 X36.405 Y93.614 E14.739
G1 X36.405 Y93.619 E14.73955
G1 X35.872 Y93.426 E14.80206
G1 X35.234 Y93.156 E14.87845
G1 X34.202 Y92.8 E14.99884
G1 X33.921 Y92.684 E15.03236
G1 X33.682 Y92.567 E15.06171
G1 X33.401 Y92.407 E15.09736
G1 X33.155 Y92.245 E15.12985
G1 X32.944 Y92.091 E15.15865
G1 X32.716 Y91.901 E15.19138
G1 X32.402 Y91.619 E15.23792
G1 X32.081 Y91.302 E15.28767
G1 X31.88 Y91.076 E15.32102
G1 X31.57 Y90.695 E15.37519
G1 X31.385 Y90.442 E15.40975
G1 X31.028 Y89.846 E15.48636
G1 X30.922 Y89.643 E15.51161
G1 X30.838 Y89.452 E15.53462
G1 X30.597 Y88.829 E15.60829
G1 X30.536 Y88.647 E15.62945
G1 X30.491 Y88.458 E15.65088
G1 X30.361 Y87.78 E15.727
G1 X30.326 Y87.5 E15.75812
G1 X30.3 Y86.964 E15.8173
G1 X30.303 Y80.96 E16.47938
G1 X30.323 Y80.537 E16.52608
G1 X30.353 Y80.275 E16.55516
G1 X30.473 Y79.599 E16.63087
G1 X30.58 Y79.215 E16.67483
G1 X30.767 Y78.689 E16.73639
G1 X30.926 Y78.338 E16.77888
G1 X31.055 Y78.1 E16.80874
G1 X31.306 Y77.684 E16.86231
G1 X31.48 Y77.427 E16.89654
G1 X31.879 Y76.924 E16.96734
G1 X32.089 Y76.69 E17.00201
G1 X32.395 Y76.385 E17.04965
G1 X32.554 Y76.239 E17.07346
G1 X32.825 Y76.008 E17.11272
G1 X33.152 Y75.756 E17.15825
G1 X33.369 Y75.611 E17.18703
G1 X33.625 Y75.461 E17.21975
G1 X33.882 Y75.333 E17.25141
G1 X34.159 Y75.215 E17.28461
G1 X34.422 Y75.123 E17.31534
G1 X34.574 Y75.079 E17.33279
G1 X35.242 Y74.839 E17.41106
G1 X35.843 Y74.584 E17.48305
G1 X36.451 Y74.365 E17.55432
G1 X36.993 Y74.198 E17.61686
G1 X37.643 Y74.019 E17.6912
G1 X37.922 Y73.953 E17.72282
G1 X38.487 Y73.835 E17.78647
G1 X38.946 Y73.749 E17.83797
G1 X39.555 Y73.655 E17.90592
G1 X40.21 Y73.515 E17.97978
G1 X40.855 Y73.289 E18.05515
G1 X41.465 Y72.984 E18.13035
G1 X42.033 Y72.604 E18.20571
G1 X42.548 Y72.156 E18.28098
G1 X43.002 Y71.646 E18.35628
G1 X43.389 Y71.082 E18.43171
G1 X43.701 Y70.475 E18.50697
G1 X43.934 Y69.833 E18.58228
G1 X44.084 Y69.164 E18.65789
G1 X44.151 Y68.331 E18.75004
G1 X44.151 Y67.09 E18.88689
G1 X44.109 Y66.422 E18.9607
G1 X43.98 Y65.751 E19.03605
G1 X43.767 Y65.102 E19.11137
G1 X43.475 Y64.485 E19.18665
G1 X43.107 Y63.91 E19.26193
G1 X42.669 Y63.386 E19.33724
G1 X42.169 Y62.922 E19.41246
G1 X41.613 Y62.523 E19.48793
G1 X41.013 Y62.199 E19.56312
G1 X40.377 Y61.953 E19.63832
G1 X39.713 Y61.789 E19.71374
G1 X39.04 Y61.71 E19.78847
G1 X38.633 Y61.704 E19.83335
G1 X38.12 Y61.71 E19.88993
G1 X37.605 Y61.7 E19.94673
G1 X36.982 Y61.711 E20.01544
G1 X36.621 Y61.699 E20.05527
G1 X35.561 Y61.708 E20.17217
G1 X35.09 Y61.7 E20.22411
G1 X34.456 Y61.711 E20.29404
G1 X34.164 Y61.702 E20.32625
G1 X34.164 Y61.691 E20.32747
G1 X33.2 Y61.71 E20.43379
G1 X32.58 Y61.701 E20.50217
G1 X31.958 Y61.712 E20.57077
G1 X31.665 Y61.702 E20.6031
G1 X31.665 Y61.692 E20.6042
G1 X30.62 Y61.711 E20.71946
G1 X30.009 Y61.699 E20.78685
G1 X29.367 Y61.711 E20.85765
G1 X29.098 Y61.702 E20.88733
G1 X29.098 Y61.691 E20.88855
G1 X28.143 Y61.71 E20.99388
G1 X27.928 Y61.706 E21.01759
G1 X27.928 Y61.692 E21.01914
G1 X26.99 Y61.71 E21.12259
G1 X26.432 Y61.697 E21.18414
G1 X25.795 Y61.712 E21.25441
G1 X25.358 Y61.702 E21.30261
G1 X25.358 Y61.691 E21.30382
G1 X24.264 Y61.709 E21.42448
G1 X23.766 Y61.7 E21.4794
G1 X23.144 Y61.711 E21.548
G1 X22.877 Y61.702 E21.57746
G1 X22.877 Y61.692 E21.57857
G1 X21.843 Y61.712 E21.69261
G1 X21.563 Y61.702 E21.72351
G1 X21.563 Y61.695 E21.72428
G1 X20.549 Y61.703 E21.8361
G1 X20.033 Y61.676 E21.89308
G1 X19.109 Y61.651 E21.99501
G1 X17.798 Y61.539 E22.14011
G1 X17.371 Y61.483 E22.1876
G1 X16.678 Y61.372 E22.26499
G1 X16.42 Y61.34 E22.29366
G1 X16.052 Y61.28 E22.33478
G1 X14.989 Y61.07 E22.45426
G1 X14.444 Y60.933 E22.51623
G1 X13.493 Y60.652 E22.62558
G1 X13.382 Y60.624 E22.63821
G1 X12.739 Y60.42 E22.7126
G1 X11.515 Y59.948 E22.85726
G1 X10.962 Y59.689 E22.9246
G1 X9.879 Y59.102 E23.06044
G1 X9.31 Y58.744 E23.13457
G1 X8.879 Y58.431 E23.19331
G1 X8.492 Y58.118 E23.2482
G1 X7.649 Y57.358 E23.37336
G1 X7.49 Y57.2 E23.39808
G1 X7.04 Y56.709 E23.47152
G1 X6.848 Y56.474 E23.50499
G1 X6.49 Y55.94 E23.57588
G1 X6.29 Y55.599 E23.61948
G1 X6.104 Y55.243 E23.66377
G1 X5.886 Y54.712 E23.72707
G1 X5.755 Y54.337 E23.77087
G1 X5.563 Y53.604 E23.85443
G1 X5.49 Y53.217 E23.89786
G1 X5.431 Y52.78 E23.94648
G1 X5.396 Y52.365 E23.99241
G1 X5.381 Y51.985 E24.03435
G1 X5.384 Y41.888 E25.14778
G1 X5.395 Y41.618 E25.17758
G1 X5.435 Y41.17 E25.22718
G1 X5.524 Y40.593 E25.29156
G1 X5.652 Y40.01 E25.35738
G1 X5.798 Y39.535 E25.41218
G1 X5.93 Y39.18 E25.45395
G1 X6.156 Y38.664 E25.51607
G1 X6.333 Y38.324 E25.55834
G1 X6.491 Y38.054 E25.59283
G1 X6.874 Y37.492 E25.66783
G1 X7.043 Y37.282 E25.69756
G1 X7.326 Y36.961 E25.74475
G1 X7.468 Y36.817 E25.76705
G1 X7.972 Y36.367 E25.84156
G1 X8.446 Y35.925 E25.91302
G1 X8.858 Y35.583 E25.97207
G1 X9.296 Y35.264 E26.03182
G1 X9.861 Y34.908 E26.10546
G1 X10.88 Y34.353 E26.23342
G1 X11.021 Y34.283 E26.25078
G1 X11.523 Y34.059 E26.3114
G1 X12.681 Y33.602 E26.44868
G1 X13.215 Y33.416 E26.51104
G1 X14.573 Y33.033 E26.66663
G1 X14.883 Y32.957 E26.70183
G1 X16.057 Y32.717 E26.83397
G1 X16.571 Y32.635 E26.89136
G1 X17.426 Y32.509 E26.98667
G1 X18.017 Y32.443 E27.05224
G1 X18.457 Y32.413 E27.10088
G1 X18.959 Y32.363 E27.15651
G1 X19.923 Y32.329 E27.26288
G1 X20.427 Y32.3 E27.31855
G1 X21.213 Y32.307 E27.40523
G1 X21.743 Y32.293 E27.46369
G1 X22.872 Y32.31 E27.58821
G1 X22.872 Y32.298 E27.58953
G1 X23.235 Y32.288 E27.62957
G1 X24.051 Y32.298 E27.71956
G1 X24.478 Y32.288 E27.76666
G1 X25.404 Y32.311 E27.86881
G1 X25.404 Y32.298 E27.87024
G1 X25.789 Y32.289 E27.91271
G1 X26.257 Y32.301 E27.96434
G1 X26.781 Y32.291 E28.02213
G1 X27.465 Y32.303 E28.09757
G1 X28.04 Y32.291 E28.16099
G1 X29.18 Y32.311 E28.28672
G1 X29.18 Y32.298 E28.28815
G1 X29.565 Y32.289 E28.33062
G1 X30.046 Y32.302 E28.38368
G1 X30.549 Y32.293 E28.43916
G1 X31.679 Y32.308 E28.56378
G1 X31.679 Y32.295 E28.56521
G1 X31.927 Y32.289 E28.59257
G1 X32.915 Y32.311 E28.70155
G1 X32.915 Y32.298 E28.70298
G1 X33.264 Y32.289 E28.74148
G1 X34.168 Y32.309 E28.84119
G1 X34.168 Y32.298 E28.8424
G1 X34.602 Y32.288 E28.89028
G1 X35.074 Y32.3 E28.94234
G1 X35.555 Y32.292 E28.99539
G1 X36.239 Y32.304 E29.07083
G1 X36.614 Y32.301 E29.11218
G1 X36.991 Y32.289 E29.15378
G1 X37.943 Y32.308 E29.25878
G1 X37.943 Y32.297 E29.25999
G1 X38.372 Y32.288 E29.30731
G1 X38.858 Y32.3 E29.36092
G1 X39.651 Y32.293 E29.44837
G1 X40.32 Y32.262 E29.52222
G1 X40.993 Y32.144 E29.59757
G1 X41.645 Y31.943 E29.67281
G1 X42.267 Y31.66 E29.74816
G1 X42.848 Y31.301 E29.82348
G1 X43.379 Y30.872 E29.89876
G1 X43.852 Y30.379 E29.9741
G1 X44.259 Y29.829 E30.04955
G1 X44.652 Y29.107 E30.1402
G1 X44.826 Y28.755 E30.1835
G1 X44.957 Y28.526 E30.21259
G1 X45.21 Y28.143 E30.26321
G1 X45.381 Y27.92 E30.29419
G1 X45.646 Y27.605 E30.33959
G1 X45.831 Y27.412 E30.36907
G1 X46.043 Y27.216 E30.40091
G1 X46.285 Y27.021 E30.43518
G1 X46.521 Y26.854 E30.46706
G1 X46.739 Y26.716 E30.49551
G1 X46.998 Y26.571 E30.52824
G1 X47.191 Y26.478 E30.55187
G1 X47.547 Y26.325 E30.5946
G1 X47.829 Y26.225 E30.62759
G1 X48.088 Y26.151 E30.6573
G1 X48.397 Y26.084 E30.69216
G1 X48.689 Y26.04 E30.72473
G1 X48.929 Y26.016 E30.75133
G1 X49.308 Y26.002 E30.79315
G1 X50.872 Y26.011 E30.96562
G1 X51.243 Y26.036 E31.00662
G1 X51.525 Y26.073 E31.03799
G1 X51.819 Y26.13 E31.07101
G1 X52.091 Y26.2 E31.10198
G1 X52.4 Y26.303 E31.1379
G1 X52.638 Y26.396 E31.16608
G1 X52.987 Y26.561 E31.20865
G1 X53.153 Y26.652 E31.22952
G1 X53.464 Y26.84 E31.2696
G1 X53.706 Y27.008 E31.30209
G1 X53.933 Y27.188 E31.33403
G1 X54.144 Y27.377 E31.36527
G1 X54.359 Y27.597 E31.39919
G1 X54.543 Y27.808 E31.43006
G1 X54.797 Y28.143 E31.47642
G1 X54.936 Y28.353 E31.50419
G1 X55.157 Y28.72 E31.55144
G1 X55.255 Y28.906 E31.57462
G1 X55.375 Y29.163 E31.6059
G1 X55.694 Y29.752 E31.67976
G1 X56.092 Y30.308 E31.75517
G1 X56.557 Y30.808 E31.83046
G1 X57.081 Y31.245 E31.9057
G1 X57.656 Y31.614 E31.98104
G1 X58.274 Y31.906 E32.05642
G1 X58.922 Y32.118 E32.1316
G1 X59.595 Y32.247 E32.20717
G1 X59.951 Y32.265 E32.24647
G1 X59.951 Y32.286 E32.24879
G1 X61.165 Y32.3 E32.38267
G1 X61.811 Y32.288 E32.45392
G1 X62.054 Y32.296 E32.48073
G1 X62.054 Y32.308 E32.48206
G1 X63.011 Y32.289 E32.58761
G1 X63.743 Y32.302 E32.66834
G1 X64.31 Y32.29 E32.73088
G1 X64.613 Y32.3 E32.76431
G1 X64.921 Y32.301 E32.79828
G1 X65.585 Y32.289 E32.87151
G1 X65.913 Y32.3 E32.9077
G1 X66.22 Y32.302 E32.94156
G1 X66.862 Y32.29 E33.01236
G1 X67.179 Y32.301 E33.04734
G1 X68.046 Y32.291 E33.14296
G1 X68.585 Y32.303 E33.20241
G1 X69.257 Y32.29 E33.27653
G1 X69.549 Y32.297 E33.30874
G1 X69.549 Y32.311 E33.31028
G1 X70.524 Y32.289 E33.41782
G1 X70.858 Y32.298 E33.45467
G1 X70.858 Y32.308 E33.45577
G1 X71.797 Y32.29 E33.55934
G1 X72.473 Y32.303 E33.6339
G1 X73.044 Y32.29 E33.69688
G1 X73.597 Y32.303 E33.75788
G1 X74.289 Y32.289 E33.8342
G1 X74.977 Y32.301 E33.91008
G1 X75.601 Y32.29 E33.9789
G1 X75.915 Y32.3 E34.01355
G1 X75.915 Y32.308 E34.01443
G1 X76.87 Y32.289 E34.11976
G1 X77.143 Y32.296 E34.14988
G1 X77.143 Y32.308 E34.1512
G1 X78.083 Y32.29 E34.25488
G1 X78.472 Y32.301 E34.29779
G1 X79.525 Y32.3 E34.41391
G1 X80.078 Y32.331 E34.47499
G1 X80.779 Y32.349 E34.55231
G1 X82.019 Y32.438 E34.68941
G1 X82.517 Y32.502 E34.74477
G1 X83.102 Y32.603 E34.81024
G1 X83.645 Y32.676 E34.87066
G1 X84.063 Y32.744 E34.91736
G1 X85.155 Y32.966 E35.04024
G1 X85.547 Y33.066 E35.08485
G1 X86.274 Y33.284 E35.16855
G1 X86.582 Y33.366 E35.20369
G1 X87.215 Y33.565 E35.27687
G1 F1680 E32.27687
G1 F3600 X88 Y33.872
G1 F1680 E35.27687
G1 F1200 X88 Y60.135 E38.17299
G1 F1680 E35.17299
G1 F3600 X86.4 Y60.688
G1 F1680 E38.17299
G1 F1200 X86.4 Y33.318 E41.19119
G1 F1680 E38.19119
G1 F3600 X84.8 Y32.894
G1 F1680 E41.19119
G1 F1200 X84.8 Y61.114 E44.30312
G1 F1680 E41.30312
G1 F3600 X83.2 Y61.392
G1 F1680 E44.30312
G1 F1200 X83.2 Y32.617 E47.47626
G1 F1680 E44.47626
G1 F3600 X81.6 Y32.408
G1 F1680 E47.47626
G1 F1200 X81.6 Y61.592 E50.69449
G1 F1680 E47.69449
G1 F3600 X80 Y61.675
G1 F1680 E50.69449
G1 F1200 X80 Y32.327 E53.93081
G1 F1680 E50.93081
