M73 P0
;MINX:22.5
;MAXX:77.5
;MINY:32.5
;MAXY:87.5
;MINZ:0.0
;MAXZ:28.1
;MachineType:ENTINA TINA2
;FilamentType:PLA
;Extruder0Temperature:200
;InfillDensity:10
;FLAVOR:Marlin
;TIME:4163
;FilamentUsed:3304.8
;Layer height: 0.2

;Generated with Cura_SteamEngine 3.1
M104 T0 S215
M82 ; absolute extrusion mode
;(**** start.gcode for tina2****)
M104 S150
G28 Z
G28 X Y; Home extruder
G1 X55 Y55 F1000
G1 Z10 F200
G29
G1 Z15 F100
M107 ; Turn off fan
G90 ; Absolute positioning
M82 ; Extruder in absolute mode
M109 S215.0
G92 E0 ; Reset extruder position
G1 X90 Y6 Z0.27 F2000
G1 X20 Y6 Z0.27 E15 F1000
G92 E0 ; Reset extruder position

;LAYER_COUNT:134
;LAYER:-6
M107
M203 Z5
G1 F3600 X67.305 Y39.153 Z0.349
G1 F1200 X68.952 Y40.64 E0.24469
G1 X69.289 Y40.973 E0.29694
G1 X70.766 Y42.598 E0.53909
G1 X71.07 Y42.966 E0.59173
G1 X72.374 Y44.719 E0.83266
G1 X72.616 Y45.078 E0.8804
G1 X73.757 Y46.976 E1.12461
G1 X73.983 Y47.394 E1.17701
G1 X74.916 Y49.362 E1.41718
G1 X75.139 Y49.896 E1.481
G1 X75.844 Y51.868 E1.71194
G1 X75.974 Y52.291 E1.76074
G1 X76.517 Y54.444 E2.00559
G1 X76.626 Y54.997 E2.06774
G1 X76.946 Y57.171 E2.31006
G1 X76.987 Y57.609 E2.35857
G1 X77.094 Y59.833 E2.60411
G1 X77.09 Y60.304 E2.65605
G1 X76.982 Y62.463 E2.89443
G1 X76.931 Y62.949 E2.94832
G1 X76.627 Y65.002 E3.17718
G1 X76.535 Y65.475 E3.23031
G1 X76.013 Y67.566 E3.46797
G1 X75.844 Y68.131 E3.53301
G1 X75.139 Y70.103 E3.76394
G1 X74.968 Y70.522 E3.81385
G1 X74.024 Y72.525 E4.05803
G1 X73.763 Y73.013 E4.11906
G1 X72.616 Y74.921 E4.36455
G1 X72.38 Y75.271 E4.4111
G1 X71.049 Y77.059 E4.6569
G1 X70.778 Y77.388 E4.70391
G1 X69.299 Y79.017 E4.94654
G1 X68.951 Y79.362 E5.00057
G1 X67.347 Y80.813 E5.23909
G1 X66.947 Y81.135 E5.29571
G1 X65.216 Y82.419 E5.53338
G1 X64.803 Y82.691 E5.58791
G1 X62.941 Y83.803 E5.82707
G1 X62.525 Y84.024 E5.87902
G1 X60.523 Y84.967 E6.12305
G1 X60.103 Y85.139 E6.1731
G1 X58.038 Y85.875 E6.41485
G1 X57.566 Y86.013 E6.46907
G1 X55.483 Y86.533 E6.70582
G1 X55.002 Y86.627 E6.75987
G1 X52.949 Y86.931 E6.98873
G1 X52.463 Y86.982 E7.04262
G1 X50.304 Y87.09 E7.281
G1 X49.843 Y87.094 E7.33184
G1 X47.609 Y86.987 E7.57847
G1 X47.175 Y86.946 E7.62654
G1 X44.896 Y86.609 E7.88059
G1 X44.444 Y86.517 E7.93146
G1 X42.291 Y85.974 E8.17631
G1 X41.868 Y85.845 E8.22508
G1 X39.795 Y85.1 E8.46799
G1 X39.352 Y84.912 E8.52106
G1 X37.394 Y83.983 E8.76004
G1 X36.976 Y83.757 E8.81244
G1 X35.078 Y82.616 E9.05665
G1 X34.728 Y82.38 E9.1032
G1 X32.93 Y81.041 E9.35042
G1 X32.602 Y80.77 E9.39734
G1 X30.977 Y79.294 E9.63942
G1 X30.638 Y78.952 E9.69252
G1 X29.181 Y77.341 E9.93205
G1 X28.86 Y76.942 E9.98852
G1 X27.58 Y75.216 E10.22548
G1 X27.303 Y74.795 E10.28105
G1 X26.192 Y72.934 E10.52006
G1 X25.975 Y72.525 E10.57112
G1 X25.031 Y70.522 E10.8153
G1 X24.86 Y70.103 E10.8652
G1 X24.121 Y68.029 E11.10799
G1 X23.986 Y67.566 E11.16118
G1 X23.464 Y65.475 E11.39884
G1 X23.372 Y65.002 E11.45197
G1 X23.065 Y62.928 E11.68317
G1 X23.017 Y62.46 E11.73505
G1 X22.91 Y60.306 E11.97288
G1 X22.906 Y59.808 E12.02779
G1 X23.017 Y57.536 E12.27864
G1 X23.07 Y57.041 E12.33353
G1 X23.372 Y54.997 E12.56138
G1 X23.464 Y54.524 E12.61452
G1 X23.986 Y52.433 E12.85218
G1 X24.127 Y51.952 E12.90745
G1 X24.899 Y49.795 E13.16009
G1 X25.083 Y49.362 E13.21197
G1 X26.016 Y47.394 E13.45214
G1 X26.236 Y46.986 E13.50326
G1 X27.383 Y45.078 E13.74875
G1 X27.619 Y44.727 E13.79539
G1 X28.924 Y42.972 E14.03656
G1 X29.225 Y42.607 E14.08873
G1 X30.702 Y40.981 E14.33097
G1 X31.047 Y40.64 E14.38446
G1 X32.694 Y39.153 E14.62916
G1 X33.039 Y38.872 E14.67822
G1 X34.72 Y37.625 E14.90903
G1 X35.177 Y37.321 E14.96956
G1 X37.069 Y36.189 E15.21269
G1 X37.468 Y35.978 E15.26246
G1 X39.468 Y35.035 E15.50629
G1 X39.896 Y34.86 E15.55729
G1 X41.961 Y34.124 E15.79903
G1 X42.433 Y33.986 E15.85326
G1 X44.516 Y33.466 E16.09001
G1 X44.997 Y33.372 E16.14406
G1 X47.041 Y33.07 E16.3719
G1 X47.62 Y33.012 E16.43607
G1 X49.808 Y32.906 E16.67763
G1 X50.306 Y32.91 E16.73255
G1 X52.47 Y33.018 E16.97148
G1 X52.928 Y33.065 E17.02225
G1 X55.002 Y33.373 E17.25347
G1 X55.555 Y33.482 E17.31562
G1 X57.708 Y34.025 E17.56048
G1 X58.131 Y34.154 E17.60924
G1 X60.204 Y34.899 E17.85216
G1 X60.637 Y35.083 E17.90404
G1 X62.594 Y36.01 E18.14283
G1 X63.033 Y36.248 E18.1979
G1 X64.899 Y37.37 E18.438
G1 X65.279 Y37.626 E18.48853
G1 X66.96 Y38.872 E18.71927
G1 X67.305 Y39.153 E18.76834
G1 F1680 E15.76834
G1 F3600 X56.785 Y52.137
G1 F1680 E18.76834
G1 F1200 X56.391 Y51.814 E18.82452
G1 X55.974 Y51.506 E18.88169
G1 X55.559 Y51.228 E18.93677
G1 X55.124 Y50.966 E18.99277
G1 X54.673 Y50.725 E19.04916
G1 X54.219 Y50.509 E19.1046
G1 X53.735 Y50.309 E19.16235
G1 X53.253 Y50.137 E19.21878
G1 X52.77 Y49.99 E19.27446
G1 X52.274 Y49.867 E19.33081
G1 X51.775 Y49.768 E19.38691
G1 X51.27 Y49.693 E19.44321
G1 X50.762 Y49.643 E19.4995
G1 X50.254 Y49.618 E19.55558
G1 X49.743 Y49.618 E19.61193
G1 X49.236 Y49.643 E19.66791
G1 X48.732 Y49.693 E19.72376
G1 X48.226 Y49.768 E19.78017
G1 X47.725 Y49.866 E19.83646
G1 X47.229 Y49.99 E19.89284
G1 X46.746 Y50.137 E19.94852
G1 X46.264 Y50.309 E20.00495
G1 X45.78 Y50.509 E20.0627
G1 X45.326 Y50.725 E20.11814
G1 X44.874 Y50.967 E20.17468
G1 X44.436 Y51.231 E20.23108
G1 X44.033 Y51.499 E20.28445
G1 X43.64 Y51.788 E20.33824
G1 X43.223 Y52.132 E20.39785
G1 X42.815 Y52.503 E20.45867
G1 X42.448 Y52.872 E20.51606
G1 X42.108 Y53.251 E20.5722
G1 X41.804 Y53.623 E20.62518
G1 X41.514 Y54.013 E20.67877
G1 X41.226 Y54.444 E20.73594
G1 X40.964 Y54.882 E20.79222
G1 X40.727 Y55.325 E20.84762
G1 X40.507 Y55.787 E20.90405
G1 X40.31 Y56.263 E20.96086
G1 X40.138 Y56.743 E21.01708
G1 X39.989 Y57.233 E21.07356
G1 X39.868 Y57.72 E21.1289
G1 X39.769 Y58.218 E21.18489
G1 X39.693 Y58.728 E21.24175
G1 X39.643 Y59.237 E21.29815
G1 X39.618 Y59.743 E21.35402
G1 X39.618 Y60.254 E21.41037
G1 X39.643 Y60.763 E21.46656
G1 X39.694 Y61.276 E21.52341
G1 X39.769 Y61.778 E21.57938
G1 X39.866 Y62.263 E21.63393
G1 X39.99 Y62.765 E21.69095
G1 X40.141 Y63.265 E21.74854
G1 X40.314 Y63.747 E21.80502
G1 X40.507 Y64.213 E21.86064
G1 X40.719 Y64.663 E21.91549
G1 X40.964 Y65.121 E21.97277
G1 X41.224 Y65.554 E22.02846
G1 X41.501 Y65.967 E22.0833
G1 X41.81 Y66.386 E22.14071
G1 X42.142 Y66.79 E22.19838
G1 X42.483 Y67.165 E22.25427
G1 X42.839 Y67.521 E22.30979
G1 X43.218 Y67.864 E22.36616
G1 X43.608 Y68.184 E22.42179
G1 X44.009 Y68.483 E22.47695
G1 X44.448 Y68.777 E22.53521
G1 X44.891 Y69.041 E22.59208
G1 X45.324 Y69.272 E22.6462
G1 X45.78 Y69.489 E22.70189
G1 X46.259 Y69.687 E22.75904
G1 X46.742 Y69.86 E22.81562
G1 X47.237 Y70.01 E22.87265
G1 X47.734 Y70.134 E22.92914
G1 X48.224 Y70.23 E22.9842
G1 X48.726 Y70.305 E23.04017
G1 X49.236 Y70.356 E23.09669
G1 X49.744 Y70.381 E23.15278
G1 X50.256 Y70.381 E23.20924
G1 X50.763 Y70.356 E23.26522
G1 X51.273 Y70.305 E23.32174
G1 X51.775 Y70.23 E23.37771
G1 X52.265 Y70.134 E23.43277
G1 X52.762 Y70.01 E23.48926
G1 X53.257 Y69.86 E23.5463
G1 X53.74 Y69.687 E23.60287
G1 X54.219 Y69.489 E23.66003
G1 X54.675 Y69.272 E23.71572
G1 X55.108 Y69.041 E23.76983
G1 X55.551 Y68.777 E23.8267
G1 X55.99 Y68.483 E23.88497
G1 X56.391 Y68.184 E23.94012
G1 X56.781 Y67.864 E23.99576
G1 X57.16 Y67.521 E24.05212
G1 X57.52 Y67.161 E24.10827
G1 X57.863 Y66.782 E24.16463
G1 X58.187 Y66.387 E24.22097
G1 X58.486 Y65.984 E24.27631
G1 X58.775 Y65.551 E24.33372
G1 X59.045 Y65.098 E24.39187
G1 X59.281 Y64.657 E24.44703
G1 X59.498 Y64.197 E24.50311
G1 X59.695 Y63.721 E24.55992
G1 X59.861 Y63.256 E24.61437
G1 X60.009 Y62.766 E24.67081
G1 X60.134 Y62.265 E24.72775
G1 X60.23 Y61.775 E24.78282
G1 X60.305 Y61.273 E24.83879
G1 X60.356 Y60.763 E24.89531
G1 X60.381 Y60.256 E24.95128
G1 X60.381 Y59.744 E25.00774
G1 X60.356 Y59.236 E25.06383
G1 X60.305 Y58.726 E25.12035
G1 X60.23 Y58.224 E25.17632
G1 X60.134 Y57.734 E25.23139
G1 X60.01 Y57.237 E25.28787
G1 X59.86 Y56.742 E25.34491
G1 X59.687 Y56.259 E25.40148
G1 X59.489 Y55.78 E25.45864
G1 X59.272 Y55.324 E25.51433
G1 X59.041 Y54.891 E25.56845
G1 X58.777 Y54.448 E25.62532
G1 X58.482 Y54.007 E25.68382
G1 X58.179 Y53.601 E25.73969
G1 X57.862 Y53.214 E25.79485
G1 X57.522 Y52.838 E25.85075
G1 X57.157 Y52.473 E25.90768
G1 X56.785 Y52.137 E25.96295
G1 F1680 E22.96295
G1 F3600 X56 Y51.525
G1 F1680 E25.96295
G1 F1200 X56 Y33.595 E27.94017
G1 F1680 E24.94017
G1 F3600 X54.4 Y33.284
G1 F1680 E27.94017
G1 F1200 X54.4 Y50.595 E29.84912
G1 F1680 E26.84912
G1 F3600 X52.8 Y49.999
G1 F1680 E29.84912
G1 F1200 X52.8 Y33.052 E31.71793
G1 F1680 E28.71793
G1 F3600 X51.2 Y32.955
G1 F1680 E31.71793
G1 F1200 X51.2 Y49.686 E33.56293
G1 F1680 E30.56293
G1 F3600 X49.6 Y49.626
G1 F1680 E33.56293
G1 F1200 X49.6 Y32.916 E35.40561
G1 F1680 E32.40561
G1 F3600 X48 Y32.993
G1 F1680 E35.40561
G1 F1200 X48 Y49.813 E37.26041
G1 F1680 E34.26041
G1 F3600 X46.4 Y50.261
G1 F1680 E37.26041
G1 F1200 X46.4 Y33.164 E39.14577
G1 F1680 E36.14577
G1 F3600 X44.8 Y33.41
G1 F1680 E39.14577
G1 F1200 X44.8 Y51.012 E41.08681
G1 F1680 E38.08681
G1 F3600 X43.2 Y52.153
G1 F1680 E41.08681
G1 F1200 X43.2 Y33.794 E43.11133
G1 F1680 E40.11133
G1 F3600 X41.6 Y34.252
G1 F1680 E43.11133
G1 F1200 X41.6 Y53.898 E45.27777
G1 F1680 E42.27777
G1 F3600 X40 Y57.197
G1 F1680 E45.27777
G1 F1200 X40 Y34.822 E47.74515
G1 F1680 E44.74515
G1 F3600 X38.4 Y35.538
G1 F1680 E47.74515
G1 F1200 X38.4 Y84.46 E53.13998
G1 F1680 E50.13998
G1 F3600 X40 Y85.173
G1 F1680 E53.13998
G1 F1200 X40 Y62.799 E55.60725
G1 F1680 E52.60725
G1 F3600 X41.6 Y66.102
G1 F1680 E55.60725
G1 F1200 X41.6 Y85.748 E57.77369
G1 F1680 E54.77369
G1 F3600 X43.2 Y86.203
G1 F1680 E57.77369
G1 F1200 X43.2 Y67.848 E59.79777
G1 F1680 E56.79777
G1 F3600 X44.8 Y68.987
G1 F1680 E59.79777
G1 F1200 X44.8 Y86.589 E61.73881
G1 F1680 E58.73881
G1 F3600 X46.4 Y86.831
G1 F1680 E61.73881
G1 F1200 X46.4 Y69.738 E63.62372
G1 F1680 E60.62372
G1 F3600 X48 Y70.187
G1 F1680 E63.62372
G1 F1200 X48 Y87.005 E65.47831
G1 F1680 E62.47831
G1 F3600 X49.6 Y87.082
G1 F1680 E65.47831
G1 F1200 X49.6 Y70.374 E67.32077
G1 F1680 E64.32077
G1 F3600 X51.2 Y70.312
G1 F1680 E67.32077
G1 F1200 X51.2 Y87.046 E69.16609
G1 F1680 E66.16609
G1 F3600 X52.8 Y86.947
G1 F1680 E69.16609
G1 F1200 X52.8 Y69.998 E71.03513
G1 F1680 E68.03513
G1 F3600 X54.4 Y69.402
G1 F1680 E71.03513
G1 F1200 X54.4 Y86.717 E72.94452
G1 F1680 E69.94452
G1 F3600 X56 Y86.404
G1 F1680 E72.94452
G1 F1200 X56 Y68.475 E74.92162
G1 F1680 E71.92162
G1 F3600 X57.6 Y67.072
G1 F1680 E74.92162
G1 F1200 X57.6 Y86.004 E77.00933
G1 F1680 E74.00933
G1 F3600 X59.2 Y85.461
G1 F1680 E77.00933
G1 F1200 X59.2 Y64.808 E79.28682
G1 F1680 E76.28682
G1 F3600 X59.2 Y55.189
G1 F1680 E79.28682
G1 F1200 X59.2 Y34.539 E81.56398
G1 F1680 E78.56398
G1 F3600 X57.6 Y33.998
G1 F1680 E81.56398
G1 F1200 X57.6 Y52.924 E83.65102
G1 F1680 E80.65102
G1 F3600 X70.4 Y42.196
G1 F1680 E83.65102
G1 F1200 X70.4 Y77.805 E87.57777
G1 F1680 E84.57777
G1 F3600 X68.8 Y79.499
G1 F1680 E87.57777
G1 F1200 X68.8 Y40.503 E91.87801
G1 F1680 E88.87801
G1 F3600 X67.2 Y39.068
G1 F1680 E91.87801
G1 F1200 X67.2 Y80.932 E96.49452
G1 F1680 E93.49452
G1 F3600 X65.6 Y82.135
G1 F1680 E96.49452
G1 F1200 X65.6 Y37.864 E101.37646
G1 F1680 E98.37646
G1 F3600 X64 Y36.83
G1 F1680 E101.37646
G1 F1200 X64 Y83.171 E106.48667
G1 F1680 E103.48667
G1 F3600 X62.4 Y84.083
G1 F1680 E106.48667
G1 F1200 X62.4 Y35.919 E111.7979
G1 F1680 E108.7979
G1 F3600 X60.8 Y35.161
G1 F1680 E111.7979
G1 F1200 X60.8 Y84.837 E117.27587
G1 F1680 E114.27587
G1 F3600 X72 Y75.782
G1 F1680 E117.27587
G1 F1200 X72 Y44.217 E120.75667
G1 F1680 E117.75667
G1 F3600 X73.6 Y46.715
G1 F1680 E120.75667
G1 F1200 X73.6 Y73.285 E123.68665
G1 F1680 E120.68665
G1 F3600 X75.2 Y69.933
G1 F1680 E123.68665
G1 F1200 X75.2 Y50.067 E125.87735
G1 F1680 E122.87735
G1 F3600 X76.8 Y56.18
G1 F1680 E125.87735
G1 F1200 X76.8 Y63.834 E126.72139
G1 F1680 E123.72139
G1 F3600 X36.8 Y83.651
G1 F1680 E126.72139
G1 F1200 X36.8 Y36.349 E131.93757
G1 F1680 E128.93757
G1 F3600 X35.2 Y37.307
G1 F1680 E131.93757
G1 F1200 X35.2 Y82.689 E136.94202
G1 F1680 E133.94202
G1 F3600 X33.6 Y81.539
G1 F1680 E136.94202
G1 F1200 X33.6 Y38.455 E141.69307
G1 F1680 E138.69307
G1 F3600 X32 Y39.779
G1 F1680 E141.69307
G1 F1200 X32 Y80.223 E146.15299
G1 F1680 E143.15299
G1 F3600 X30.4 Y78.688
G1 F1680 E146.15299
G1 F1200 X30.4 Y41.313 E150.27448
G1 F1680 E147.27448
G1 F3600 X28.8 Y43.138
G1 F1680 E150.27448
G1 F1200 X28.8 Y76.861 E153.99325
G1 F1680 E150.99325
G1 F3600 X27.2 Y74.622
M104 T0 S200
G1 F1680 E153.99325
G1 F1200 X27.2 Y45.382 E157.21766
G1 F1680 E154.21766
G1 F3600 X25.6 Y48.271
G1 F1680 E157.21766
G1 F1200 X25.6 Y71.729 E159.80447
G1 F1680 E156.80447
G1 F3600 X24 Y67.614
G1 F1680 E159.80447
G1 F1200 X24 Y52.385 E161.48383
G1 F1680 E158.48383
G1 F3600 X67.338 Y39.113
;TIME_ELAPSED:87.370011
;LAYER:-5
G1 X67.338 Y39.113 Z0.619
;TYPE:SUPPORT
G1 F1680 E161.48383
G1 F1980 X68.986 Y40.602 E161.64939
G1 X69.325 Y40.937 E161.68492
G1 X70.804 Y42.564 E161.84881
G1 X71.109 Y42.934 E161.88456
G1 F1680 E158.88456
G1 F3600 X71.615 Y43.613
G1 F1680 E161.88456
G1 F1980 X66.386 Y38.384 E162.43579
G1 X66.99 Y38.832 E162.49184
G1 X67.338 Y39.113 E162.52518
G1 F1680 E159.52518
G1 F3600 X62.782 Y36.053
G1 F1680 E162.52518
G1 F1980 X62.552 Y35.932 E162.54456
G1 X60.542 Y34.984 E162.71021
G1 X60.371 Y34.915 E162.72396
G1 X75.084 Y49.628 E164.27497
G1 X75.142 Y49.766 E164.28613
G1 X75.809 Y51.626 E164.43342
G1 X58.373 Y34.19 E166.27148
G1 X58.043 Y34.072 E166.29761
G1 X57.586 Y33.939 E166.33309
G1 X56.604 Y33.694 E166.40853
G1 X76.304 Y53.394 E168.48526
G1 X76.583 Y54.512 E168.57115
G1 X76.675 Y54.988 E168.60729
G1 X76.685 Y55.047 E168.61175
G1 X54.951 Y33.313 E170.9029
G1 X53.457 Y33.092 E171.01548
G1 X76.904 Y56.539 E173.48721
G1 X76.996 Y57.166 E173.53444
G1 X77.037 Y57.605 E173.56731
G1 X77.054 Y57.962 E173.59395
G1 X52.036 Y32.944 E176.23129
G1 X50.7 Y32.881 E176.33099
G1 X77.119 Y59.3 E179.11602
G1 X77.144 Y59.833 E179.15579
G1 X77.14 Y60.307 E179.19113
G1 X77.126 Y60.58 E179.21151
G1 X49.418 Y32.872 E182.13242
G1 X48.204 Y32.931 E182.22302
G1 X77.066 Y61.792 E185.26553
G1 X77.032 Y62.468 E185.31599
G1 X76.981 Y62.956 E185.35256
G1 X76.978 Y62.977 E185.35414
G1 X47.024 Y33.024 E188.51177
G1 X45.914 Y33.186 E188.59539
G1 X76.813 Y64.085 E191.85269
G1 X76.658 Y65.115 E191.93033
G1 X76.643 Y65.188 E191.93589
G1 X44.812 Y33.357 E195.29144
G1 X44.512 Y33.415 E195.31422
G1 X43.78 Y33.598 E195.37046
G1 X76.401 Y66.219 E198.80929
G1 X76.145 Y67.235 E198.88739
G1 X42.761 Y33.852 E202.4066
G1 X42.411 Y33.939 E202.43349
G1 X41.954 Y34.072 E202.46897
G1 X41.773 Y34.136 E202.48328
G1 X75.863 Y68.226 E206.07697
G1 X75.526 Y69.162 E206.15112
G1 X40.836 Y34.472 E209.80806
G1 X39.897 Y34.806 E209.88235
G1 X75.19 Y70.099 E213.60286
G1 X75.142 Y70.233 E213.61347
G1 X74.961 Y70.659 E213.64797
G1 X74.806 Y70.987 E213.67501
G1 X59.281 Y55.462 E215.31162
G1 X59.226 Y55.347 E215.32113
G1 X58.996 Y54.916 E215.35754
G1 X58.732 Y54.474 E215.39592
G1 X58.439 Y54.037 E215.43514
G1 X58.138 Y53.632 E215.47275
G1 X57.822 Y53.247 E215.50988
G1 X57.484 Y52.872 E215.54751
G1 X57.121 Y52.509 E215.58578
G1 X56.751 Y52.175 E215.62293
G1 X56.357 Y51.854 E215.66082
G1 X55.944 Y51.548 E215.69913
G1 X55.531 Y51.271 E215.7362
G1 X55.097 Y51.009 E215.77399
G1 X54.649 Y50.77 E215.81184
G1 F3600 X54.533 Y50.715
G1 F1980 X39.012 Y35.194 E217.44803
G1 X38.147 Y35.602 E217.51932
G1 X52.528 Y49.982 E219.03528
G1 X52.262 Y49.916 E219.05571
G1 X51.765 Y49.817 E219.09348
G1 X51.263 Y49.744 E219.13129
G1 X50.988 Y49.715 E219.15191
G1 X37.288 Y36.015 E220.59613
G1 X37.044 Y36.143 E220.61667
G1 X36.481 Y36.481 E220.66562
G1 X49.671 Y49.671 E222.05608
G1 X49.239 Y49.693 E222.08832
G1 X48.738 Y49.743 E222.12585
G1 X48.504 Y49.777 E222.14348
G1 X35.684 Y36.957 E223.49493
G1 X35.158 Y37.272 E223.54064
G1 X34.898 Y37.444 E223.56387
G1 X47.442 Y49.988 E224.88623
G1 X47.243 Y50.039 E224.90155
G1 X46.761 Y50.184 E224.93907
G1 X46.469 Y50.288 E224.96217
G1 X34.16 Y37.978 E226.25981
G1 X33.429 Y38.52 E226.32764
G1 X45.571 Y50.662 E227.60763
G1 X45.348 Y50.769 E227.62606
G1 X44.899 Y51.011 E227.66408
G1 X44.741 Y51.105 E227.67779
G1 X32.71 Y39.074 E228.94607
G1 X32.654 Y39.118 E228.95138
G1 X32.038 Y39.675 E229.01328
G1 X43.97 Y51.606 E230.27107
