M73 P0
;MINX:-2.5
;MAXX:102.5
;MINY:7.5
;MAXY:112.5
;MINZ:0.0
;MAXZ:51.3
;MachineType:ENTINA TINA2
;FilamentType:PLA
;Extruder0Temperature:205
;InfillDensity:10
;FLAVOR:Marlin
;TIME:16700
;FilamentUsed:21787.7
;Layer height: 0.35

;Generated with Cura_SteamEngine 3.1
M104 T0 S220
M82 ; absolute extrusion mode
;(**** start.gcode for tina2****)
M104 S150
G28 Z
G28 X Y; Home extruder
G1 X55 Y55 F1000
G1 Z10 F200
G29
G1 Z15 F100
M107 ; Turn off fan
G90 ; Absolute positioning
M82 ; Extruder in absolute mode
M109 S220.0
G92 E0 ; Reset extruder position
G1 X90 Y6 Z0.27 F2000
G1 X20 Y6 Z0.27 E15 F1000
G92 E0 ; Reset extruder position

;LAYER_COUNT:144
;LAYER:-5
M107
M203 Z5
G1 F3600 X83.247 Y20 Z0.349
G1 F1200 X86.648 Y23.083 E0.5062
G1 X86.815 Y23.245 E0.53186
G1 X89.982 Y26.732 E1.05131
G1 X90.403 Y27.243 E1.12432
G1 X93.119 Y30.903 E1.62691
G1 X93.279 Y31.134 E1.6579
G1 X95.704 Y35.181 E2.17816
G1 X96.022 Y35.762 E2.2512
G1 X97.953 Y39.848 E2.74956
G1 X98.086 Y40.152 E2.78615
G1 X99.709 Y44.673 E3.31585
G1 X99.842 Y45.114 E3.36665
G1 X100.977 Y49.647 E3.88195
G1 X101.019 Y49.834 E3.90308
G1 X101.068 Y50.108 E3.93378
G1 X101.743 Y54.67 E4.44233
G1 X101.776 Y54.955 E4.47396
G1 X101.792 Y55.193 E4.50027
G1 X102.015 Y59.76 E5.00449
G1 X102.021 Y59.994 E5.0303
G1 X102.015 Y60.228 E5.05611
G1 X101.777 Y65.03 E5.5863
G1 X101.744 Y65.314 E5.61783
G1 X101.057 Y69.952 E6.13486
G1 X100.978 Y70.349 E6.1795
G1 X99.8 Y75.036 E6.71243
G1 X99.709 Y75.326 E6.74594
G1 X98.101 Y79.81 E7.27124
G1 X97.969 Y80.117 E7.30809
G1 X96.033 Y84.214 E7.80779
G1 X95.662 Y84.898 E7.8936
G1 X93.388 Y88.692 E8.38137
G1 X93.241 Y88.921 E8.41138
G1 X90.463 Y92.673 E8.92619
G1 X89.991 Y93.258 E9.00908
G1 X86.935 Y96.63 E9.51091
G1 X86.76 Y96.813 E9.53884
G1 X83.259 Y99.987 E10.05995
G1 X82.754 Y100.403 E10.1321
G1 X79.107 Y103.109 E10.63288
G1 X78.864 Y103.278 E10.66552
G1 X78.7 Y103.382 E10.68693
G1 X74.869 Y105.677 E11.1794
G1 X74.234 Y106.022 E11.25909
G1 X70.09 Y107.982 E11.7646
G1 X69.691 Y108.147 E11.81221
G1 X65.352 Y109.698 E12.32034
G1 X65.102 Y109.781 E12.34939
G1 X64.876 Y109.844 E12.37526
G1 X60.353 Y110.977 E12.88944
G1 X60.158 Y111.021 E12.91149
G1 X59.891 Y111.068 E12.94138
G1 X55.308 Y111.746 E13.45227
G1 X54.915 Y111.785 E13.49582
G1 X50.216 Y112.016 E14.01462
G1 X49.986 Y112.021 E14.03999
G1 X45.18 Y111.791 E14.57057
G1 X44.898 Y111.77 E14.60176
G1 X44.633 Y111.738 E14.63119
G1 X40.047 Y111.057 E15.14245
G1 X39.646 Y110.977 E15.18755
G1 X35.124 Y109.844 E15.70162
G1 X34.898 Y109.781 E15.72749
G1 X34.649 Y109.699 E15.7564
G1 X30.163 Y108.09 E16.28195
G1 X29.903 Y107.978 E16.31316
G1 X25.763 Y106.021 E16.81814
G1 X25.185 Y105.71 E16.89051
G1 X21.139 Y103.281 E17.41091
G1 X20.891 Y103.109 E17.44419
G1 X17.315 Y100.456 E17.93521
G1 X16.739 Y99.988 E18.01705
G1 X13.225 Y96.797 E18.54048
G1 X10.009 Y93.258 E19.0678
G1 X9.571 Y92.722 E19.14414
G1 X6.758 Y88.921 E19.66559
G1 X6.572 Y88.626 E19.70405
G1 X4.327 Y84.876 E20.18601
G1 X3.974 Y84.228 E20.26739
G1 X2.008 Y80.07 E20.77458
G1 X1.893 Y79.798 E20.80714
G1 X0.291 Y75.326 E21.33097
G1 X0.196 Y75.026 E21.36568
G1 X-.981 Y70.334 E21.89911
G1 X-1.067 Y69.891 E21.94888
G1 X-1.742 Y65.328 E22.45753
G1 X-1.779 Y64.992 E22.49481
G1 X-2.015 Y60.229 E23.02069
G1 X-2.021 Y60.004 E23.04551
G1 X-2.015 Y59.769 E23.07143
G1 X-1.778 Y55.005 E23.59742
G1 X-1.742 Y54.67 E23.63458
G1 X-1.066 Y50.108 E24.14314
G1 X-1.02 Y49.845 E24.17258
G1 X-.957 Y49.567 E24.20402
G1 X0.155 Y45.124 E24.70908
G1 X0.29 Y44.673 E24.76099
G1 X1.911 Y40.155 E25.29031
G1 X2.007 Y39.932 E25.31708
G1 X3.975 Y35.77 E25.82476
G1 X4.329 Y35.117 E25.90667
G1 X6.746 Y31.094 E26.42421
G1 X6.874 Y30.911 E26.44884
G1 X9.542 Y27.315 E26.94261
G1 X10.001 Y26.751 E27.0228
G1 X13.23 Y23.199 E27.55215
G1 X16.754 Y19.998 E28.07714
G1 X17.337 Y19.528 E28.15972
G1 X20.941 Y16.854 E28.65459
G1 X21.144 Y16.714 E28.68178
G1 X25.16 Y14.308 E29.19804
G1 X25.761 Y13.979 E29.27359
G1 X29.903 Y12.022 E29.77876
G1 X30.31 Y11.854 E29.82732
G1 X34.649 Y10.301 E30.33552
G1 X34.954 Y10.203 E30.37085
G1 X39.571 Y9.042 E30.89583
G1 X39.861 Y8.977 E30.92861
G1 X40.075 Y8.939 E30.95257
G1 X44.713 Y8.252 E31.46961
G1 X45.085 Y8.215 E31.51083
G1 X49.782 Y7.984 E32.02941
G1 X50.012 Y7.979 E32.05478
G1 X54.819 Y8.209 E32.58547
G1 X55.101 Y8.229 E32.61665
G1 X55.38 Y8.264 E32.64766
G1 X59.924 Y8.939 E33.15424
G1 X60.338 Y9.021 E33.20078
G1 X65.046 Y10.204 E33.73609
G1 X65.352 Y10.302 E33.77152
G1 X69.691 Y11.854 E34.27969
G1 X70.09 Y12.019 E34.3273
G1 X74.228 Y13.975 E34.83203
G1 X74.814 Y14.29 E34.90539
G1 X78.882 Y16.732 E35.42861
G1 X79.109 Y16.891 E35.45917
G1 X82.683 Y19.544 E35.95
G1 X83.247 Y20 E36.02998
G1 F3600 X83.2 Y19.962
G1 F1200 X83.2 Y100.036 E44.86006
G1 F1680 E41.86006
G1 F3600 X81.6 Y101.26
G1 F1680 E44.86006
G1 F1200 X81.6 Y18.741 E53.95976
G1 F1680 E50.95976
G1 F3600 X80 Y17.553
G1 F1680 E53.95976
G1 F1200 X80 Y102.447 E63.32136
G1 F1680 E60.32136
G1 F3600 X78.4 Y103.562
G1 F1680 E63.32136
G1 F1200 X78.4 Y16.443 E72.92832
G1 F1680 E69.92832
G1 F3600 X76.8 Y15.483
G1 F1680 E72.92832
G1 F1200 X76.8 Y104.521 E82.74689
G1 F1680 E79.74689
G1 F3600 X75.2 Y105.479
G1 F1680 E82.74689
G1 F1200 X75.2 Y14.522 E92.77708
G1 F1680 E89.77708
G1 F3600 X73.6 Y13.679
G1 F1680 E92.77708
G1 F1200 X73.6 Y106.322 E102.99319
G1 F1680 E99.99319
G1 F3600 X72 Y107.079
G1 F1680 E102.99319
G1 F1200 X72 Y12.922 E113.37626
G1 F1680 E110.37626
G1 F3600 X70.4 Y12.166
G1 F1680 E113.37626
G1 F1200 X70.4 Y107.836 E123.92617
G1 F1680 E120.92617
G1 F3600 X68.8 Y108.466
G1 F1680 E123.92617
G1 F1200 X68.8 Y11.536 E134.61503
G1 F1680 E131.61503
G1 F3600 X67.2 Y10.964
G1 F1680 E134.61503
G1 F1200 X67.2 Y109.038 E145.43004
G1 F1680 E142.43004
G1 F3600 X65.6 Y109.61
G1 F1680 E145.43004
G1 F1200 X65.6 Y10.391 E156.37131
G1 F1680 E153.37131
G1 F3600 X64 Y9.942
G1 F1680 E156.37131
G1 F1200 X64 Y110.064 E167.41216
G1 F1680 E164.41216
G1 F3600 X62.4 Y110.465
G1 F1680 E167.41216
G1 F1200 X62.4 Y9.54 E178.54157
G1 F1680 E175.54157
G1 F3600 X60.8 Y9.138
G1 F1680 E178.54157
G1 F1200 X60.8 Y110.866 E189.75952
G1 F1680 E186.75952
G1 F3600 X59.2 Y111.171
G1 F1680 E189.75952
G1 F1200 X59.2 Y8.832 E201.04485
G1 F1680 E198.04485
G1 F3600 X57.6 Y8.594
G1 F1680 E201.04485
G1 F1200 X57.6 Y111.407 E212.38244
G1 F1680 E209.38244
G1 F3600 X56 Y111.644
G1 F1680 E212.38244
G1 F1200 X56 Y8.357 E223.77231
G1 F1680 E220.77231
G1 F3600 X54.4 Y8.189
G1 F1680 E223.77231
G1 F1200 X54.4 Y111.811 E235.19912
G1 F1680 E232.19912
G1 F3600 X52.8 Y111.889
G1 F1680 E235.19912
G1 F1200 X52.8 Y8.113 E246.64291
G1 F1680 E243.64291
G1 F3600 X51.2 Y8.036
G1 F1680 E246.64291
G1 F1200 X51.2 Y111.968 E258.10391
G1 F1680 E255.10391
G1 F3600 X49.6 Y112.002
G1 F1680 E258.10391
G1 F1200 X49.6 Y7.992 E269.57351
G1 F1680 E266.57351
G1 F3600 X48 Y8.071
G1 F1680 E269.57351
G1 F1200 X48 Y111.925 E281.0259
G1 F1680 E278.0259
G1 F3600 X46.4 Y111.849
G1 F1680 E281.0259
G1 F1200 X46.4 Y8.15 E292.4612
G1 F1680 E289.4612
G1 F3600 X44.8 Y8.243
G1 F1680 E292.4612
G1 F1200 X44.8 Y111.758 E303.87621
G1 F1680 E300.87621
G1 F3600 X43.2 Y111.525
G1 F1680 E303.87621
G1 F1200 X43.2 Y8.476 E315.23983
G1 F1680 E312.23983
G1 F3600 X41.6 Y8.713
G1 F1680 E315.23983
G1 F1200 X41.6 Y111.287 E326.55108
G1 F1680 E323.55108
G1 F3600 X40 Y111.047
G1 F1680 E326.55108
G1 F1200 X40 Y8.952 E337.8095
G1 F1680 E334.8095
G1 F3600 X38.4 Y9.336
G1 F1680 E337.8095
G1 F1200 X38.4 Y110.664 E348.98334
G1 F1680 E345.98334
G1 F3600 X36.8 Y110.263
G1 F1680 E348.98334
G1 F1200 X36.8 Y9.738 E360.06863
G1 F1680 E357.06863
G1 F3600 X35.2 Y10.141
G1 F1680 E360.06863
G1 F1200 X35.2 Y109.863 E371.06537
G1 F1680 E368.06537
G1 F3600 X33.6 Y109.322
G1 F1680 E371.06537
G1 F1200 X33.6 Y10.676 E381.94346
G1 F1680 E378.94346
G1 F3600 X32 Y11.249
G1 F1680 E381.94346
G1 F1200 X32 Y108.748 E392.69506
G1 F1680 E389.69506
G1 F3600 X30.4 Y108.175
G1 F1680 E392.69506
G1 F1200 X30.4 Y11.821 E403.3204
G1 F1680 E400.3204
G1 F3600 X28.8 Y12.543
G1 F1680 E403.3204
G1 F1200 X28.8 Y107.456 E413.78684
G1 F1680 E410.78684
G1 F3600 X27.2 Y106.7
G1 F1680 E413.78684
G1 F1200 X27.2 Y13.299 E424.08654
G1 F1680 E421.08654
G1 F3600 X25.6 Y14.067
G1 F1680 E424.08654
G1 F1200 X25.6 Y105.933 E434.21697
G1 F1680 E431.21697
G1 F3600 X24 Y104.998
G1 F1680 E434.21697
G1 F1200 X24 Y15.002 E444.14118
G1 F1680 E441.14118
G1 F3600 X22.4 Y15.961
G1 F1680 E444.14118
G1 F1200 X22.4 Y104.038 E453.85378
G1 F1680 E450.85378
G1 F3600 X20.8 Y103.041
G1 F1680 E453.85378
G1 F1200 X20.8 Y16.958 E463.3465
G1 F1680 E460.3465
G1 F3600 X19.2 Y18.145
G1 F1680 E463.3465
G1 F1200 X19.2 Y101.854 E472.57742
G1 F1680 E469.57742
G1 F3600 X17.6 Y100.667
G1 F1680 E472.57742
G1 F1200 X17.6 Y19.332 E481.54656
G1 F1680 E478.54656
G1 F3600 X16 Y20.682
G1 F1680 E481.54656
G1 F1200 X16 Y99.316 E490.21784
G1 F1680 E487.21784
G1 F3600 X14.4 Y97.863
G1 F1680 E490.21784
G1 F1200 X14.4 Y22.136 E498.56856
G1 F1680 E495.56856
G1 F3600 X12.8 Y23.672
G1 F1680 E498.56856
G1 F1200 X12.8 Y96.329 E506.58073
G1 F1680 E503.58073
G1 F3600 X11.2 Y94.568
G1 F1680 E506.58073
G1 F1200 X11.2 Y25.432 E514.20464
G1 F1680 E511.20464
G1 F3600 X9.6 Y27.243
G1 F1680 E514.20464
G1 F1200 X9.6 Y92.757 E521.42913
G1 F1680 E518.42913
G1 F3600 X8 Y90.599
G1 F1680 E521.42913
G1 F1200 X8 Y29.393 E528.17856
G1 F1680 E525.17856
G1 F3600 X6.4 Y31.669
G1 F1680 E528.17856
G1 F1200 X6.4 Y88.338 E534.42767
G1 F1680 E531.42767
G1 F3600 X4.8 Y85.666
G1 F1680 E534.42767
G1 F1200 X4.8 Y34.333 E540.08837
G1 F1680 E537.08837
G1 F3600 X3.2 Y37.408
G1 F1680 E540.08837
G1 F1200 X3.2 Y82.591 E545.07087
G1 F1680 E542.07087
G1 F3600 X1.6 Y78.98
G1 F1680 E545.07087
G1 F1200 X1.6 Y41.021 E549.25676
G1 F1680 E546.25676
G1 F3600 X0.00 Y45.743
G1 F1680 E549.25676
G1 F1200 X0.00 Y74.244 E552.39968
G1 F1680 E549.39968
G1 F3600 X-1.6 Y66.287
G1 F1680 E552.39968
G1 F1200 X-1.6 Y53.711 E553.78649
G1 F1680 E550.78649
G1 F3600 X84.8 Y21.408
G1 F1680 E553.78649
G1 F1200 X84.8 Y98.59 E562.29765
G1 F1680 E559.29765
G1 F3600 X86.4 Y97.14
G1 F1680 E562.29765
G1 F1200 X86.4 Y22.859 E570.48892
G1 F1680 E567.48892
G1 F3600 X88 Y24.55
G1 F1680 E570.48892
G1 F1200 X88 Y95.455 E578.30789
G1 F1680 E575.30789
G1 F3600 X89.6 Y93.69
G1 F1680 E578.30789
G1 F1200 X89.6 Y26.312 E585.73793
G1 F1680 E582.73793
G1 F3600 X91.2 Y28.318
G1 F1680 E585.73793
G1 F1200 X91.2 Y91.678 E592.72489
G1 F1680 E589.72489
G1 F3600 X92.8 Y89.517
G1 F1680 E592.72489
G1 F1200 X92.8 Y30.474 E599.2358
G1 F1680 E596.2358
G1 F3600 X94.4 Y33.005
G1 F1680 E599.2358
G1 F1200 X94.4 Y87.004 E605.19048
G1 F1680 E602.19048
G1 F3600 X96 Y84.275
G1 F1680 E605.19048
G1 F1200 X96 Y35.722 E610.54462
G1 F1680 E607.54462
G1 F3600 X97.6 Y39.102
G1 F1680 E610.54462
G1 F1200 X97.6 Y80.898 E615.15363
G1 F1680 E612.15363
G1 F3600 X99.2 Y76.746
M104 T0 S205
G1 F1680 E615.15363
G1 F1200 X99.2 Y43.256 E618.8467
G1 F1680 E615.8467
G1 F3600 X100.8 Y48.941
G1 F1680 E618.8467
G1 F1200 X100.8 Y71.058 E621.28563
G1 F1680 E618.28563
G1 F3600 X86.795 Y23.155
;TIME_ELAPSED:299.655331
;LAYER:-4
G1 X86.795 Y23.155 Z0.619
;TYPE:SUPPORT
G1 F1680 E621.28563
G1 F1980 X86.865 Y23.225 E621.29301
G1 X90.02 Y26.698 E621.64277
G1 X90.434 Y27.2 E621.69127
G1 X92.928 Y30.561 E622.00325
G1 X79.445 Y17.078 E623.42459
G1 X79.088 Y16.813 E623.45773
G1 X78.877 Y16.668 E623.47682
G1 X76.09 Y14.996 E623.71908
G1 X95.011 Y33.917 E625.71369
G1 X95.716 Y35.094 E625.81596
G1 X96.067 Y35.74 E625.87077
G1 X96.52 Y36.699 E625.94982
G1 X73.3 Y13.479 E628.39762
G1 X70.886 Y12.338 E628.59666
G1 X97.66 Y39.112 E631.41911
G1 X97.997 Y39.827 E631.47803
G1 X98.146 Y40.167 E631.5057
G1 X98.539 Y41.263 E631.59249
G1 X68.737 Y11.462 E634.7341
G1 X66.753 Y10.75 E634.89122
G1 X99.25 Y43.247 E638.31698
G1 X99.755 Y44.655 E638.42848
G1 X99.814 Y44.835 E638.4426
G1 X99.848 Y44.95 E638.45154
G1 X99.904 Y45.174 E638.46875
G1 X64.821 Y10.091 E642.16712
G1 X63.122 Y9.665 E642.29769
G1 X100.332 Y46.875 E646.22028
G1 X100.76 Y48.576 E646.35103
G1 X61.424 Y9.239 E650.49779
G1 X60.432 Y8.99 E650.57403
G1 X60.147 Y8.925 E650.59582
G1 X59.921 Y8.886 E650.61292
G1 X59.777 Y8.865 E650.62376
G1 X101.136 Y50.225 E654.98379
G1 X101.358 Y51.719 E655.09638
G1 X58.283 Y8.644 E659.63724
G1 X56.789 Y8.423 E659.74982
G1 X101.579 Y53.213 E664.47148
G1 X101.792 Y54.652 E664.57991
G1 X101.798 Y54.705 E664.58389
G1 X55.295 Y8.201 E669.48618
G1 F3600 X55.291 Y8.201
G1 F1980 X55.094 Y8.177 E669.50098
G1 X54.821 Y8.159 E669.52137
G1 X53.937 Y8.116 E669.58734
G1 X101.885 Y56.065 E674.64196
G1 X101.95 Y57.402 E674.74174
G1 X52.6 Y8.052 E679.94411
G1 X51.263 Y7.988 E680.04388
G1 X102.015 Y58.74 E685.39404
G1 X102.065 Y59.759 E685.47009
G1 X102.07 Y59.995 E685.48769
G1 X102.069 Y60.067 E685.49305
G1 X49.93 Y7.928 E690.98943
G1 X49.779 Y7.933 E691.00069
G1 X48.714 Y7.985 E691.08017
G1 X102.013 Y61.284 E696.69883
G1 X101.953 Y62.496 E696.78929
G1 X47.502 Y8.045 E702.52939
G1 X46.288 Y8.104 E702.61999
G1 X101.893 Y63.709 E708.48174
G1 X101.832 Y64.921 E708.5722
G1 X45.075 Y8.164 E714.55539
G1 X44.706 Y8.201 E714.58303
G1 X43.951 Y8.313 E714.63993
G1 X101.686 Y66.048 E720.72622
G1 X101.522 Y67.157 E720.80978
G1 X42.842 Y8.477 E726.99569
G1 X41.734 Y8.641 E727.07919
G1 X101.358 Y68.265 E733.36461
G1 X101.194 Y69.374 E733.44818
G1 X40.625 Y8.805 E739.83322
G1 X40.075 Y8.886 E739.87466
G1 X39.85 Y8.925 E739.89168
G1 X39.564 Y8.99 E739.91355
G1 X39.543 Y8.996 E739.91518
G1 X101.003 Y70.456 E746.39415
G1 X100.747 Y71.473 E746.47232
G1 X38.526 Y9.251 E753.03157
G1 X37.507 Y9.506 E753.10987
G1 X100.491 Y72.49 E759.7495
G1 X100.236 Y73.507 E759.82765
G1 X36.49 Y9.761 E766.54761
G1 X35.472 Y10.016 E766.62584
G1 X99.98 Y74.524 E773.42612
G1 X99.848 Y75.048 E773.4664
G1 X99.755 Y75.342 E773.48939
G1 X99.694 Y75.511 E773.50278
G1 X34.489 Y10.306 E780.37654
G1 X33.552 Y10.641 E780.45072
G1 X99.359 Y76.448 E787.38794
G1 X99.023 Y77.385 E787.46214
G1 X32.615 Y10.977 E794.46272
G1 X31.678 Y11.313 E794.53692
G1 X98.687 Y78.322 E801.60086
G1 X98.35 Y79.258 E801.67501
G1 X30.741 Y11.649 E808.8022
G1 X30.14 Y11.864 E808.84978
G1 X29.881 Y11.976 E808.87081
G1 X29.823 Y12.004 E808.87561
G1 X97.996 Y80.177 E816.06225
G1 X97.587 Y81.041 E816.13351
G1 X28.958 Y12.412 E823.36822
G1 X28.094 Y12.82 E823.43945
G1 X97.179 Y81.905 E830.72223
G1 X96.771 Y82.77 E830.79352
G1 X27.229 Y13.229 E838.12442
G1 X26.365 Y13.637 E838.19565
G1 X96.362 Y83.634 E845.57457
G1 X96.071 Y84.249 E845.62529
G1 X95.942 Y84.487 E845.64547
G1 X25.512 Y14.057 E853.07004
G1 X25.082 Y14.29 E853.10649
G1 X24.702 Y14.519 E853.13956
G1 X95.481 Y85.298 E860.60092
G1 X95.003 Y86.093 E860.67007
G1 X23.906 Y14.997 E868.1649
G1 X23.111 Y15.475 E868.23405
G1 X94.525 Y86.888 E875.7623
G1 X94.048 Y87.684 E875.83147
G1 X22.316 Y15.952 E883.39329
G1 X21.521 Y16.43 E883.46244
G1 X93.57 Y88.478 E891.05763
G1 X93.309 Y88.912 E891.09538
G1 X93.203 Y89.062 E891.10907
G1 X93.066 Y89.248 E891.12629
G1 X20.75 Y16.932 E898.74967
G1 X20.019 Y17.474 E898.81751
G1 X92.524 Y89.979 E906.46082
G1 X91.982 Y90.709 E906.52859
G1 X19.289 Y18.016 E914.19172
G1 X18.558 Y18.558 E914.25956
G1 X91.44 Y91.44 E921.94261
G1 X90.898 Y92.171 E922.01044
G1 X17.827 Y19.1 E929.71342
G1 X17.297 Y19.492 E929.76256
G1 X17.104 Y19.649 E929.78111
G1 X90.349 Y92.894 E937.50243
G1 X90.02 Y93.301 E937.54144
G1 X89.765 Y93.583 E937.56978
G1 X16.416 Y20.234 E945.30206
G1 X15.748 Y20.839 E945.36924
G1 X89.159 Y94.25 E953.10806
G1 X88.554 Y94.918 E953.17524
G1 X15.081 Y21.445 E960.9206
G1 X14.413 Y22.05 E960.98778
G1 X87.949 Y95.585 E968.73972
G1 X87.343 Y96.253 E968.80695
G1 X13.746 Y22.655 E976.56543
G1 X13.351 Y23.012 E976.60512
G1 X13.193 Y23.163 E976.62141
G1 X13.092 Y23.274 E976.6326
G1 X86.727 Y96.909 E984.39503
G1 X86.059 Y97.514 E984.46221
G1 X12.485 Y23.94 E992.21821
G1 X11.879 Y24.607 E992.28539
G1 X85.392 Y98.12 E1000.03496
G1 X84.724 Y98.725 E1000.10214
G1 X11.273 Y25.274 E1007.84517
G1 X10.667 Y25.94 E1007.9123
G1 X84.057 Y99.33 E1015.6489
G1 X83.389 Y99.936 E1015.71613
G1 X10.061 Y26.607 E1023.44625
G1 X9.963 Y26.715 E1023.45712
G1 X9.503 Y27.28 E1023.51143
G1 X9.485 Y27.304 E1023.51367
G1 X82.691 Y100.51 E1031.23088
G1 X81.961 Y101.053 E1031.2987
