M73 P0
;MINX:0.0
;MAXX:100.0
;MINY:10.0
;MAXY:110.0
;MINZ:0.0
;MAXZ:46.3
;MachineType:ENTINA TINA2
;FilamentType:PLA
;Extruder0Temperature:200
;InfillDensity:10
;FLAVOR:Marlin
;TIME:10257
;FilamentUsed:13470.7
;Layer height: 0.35

;Generated with Cura_SteamEngine 3.1
M104 T0 S215
M82 ; absolute extrusion mode
;(**** start.gcode for tina2****)
M104 S150
G28 Z
G28 X Y; Home extruder
G1 X55 Y55 F1000
G1 Z10 F200
G29
G1 Z15 F100
M107 ; Turn off fan
G90 ; Absolute positioning
M82 ; Extruder in absolute mode
M109 S215.0
G92 E0 ; Reset extruder position
G1 X90 Y6 Z0.27 F2000
G1 X20 Y6 Z0.27 E15 F1000
G92 E0 ; Reset extruder position

;LAYER_COUNT:130
;LAYER:-5
M107
M203 Z5
G1 F3600 X81.689 Y21.853 Z0.349
G1 F1200 X84.93 Y24.794 E0.48261
G1 X85.305 Y25.176 E0.54164
G1 X88.217 Y28.393 E1.02014
G1 X88.514 Y28.759 E1.07212
G1 X91.074 Y32.208 E1.54578
G1 X91.35 Y32.617 E1.60019
G1 X93.598 Y36.365 E2.08214
G1 X93.819 Y36.773 E2.1333
G1 X95.714 Y40.771 E2.6212
G1 X95.882 Y41.172 E2.66914
G1 X97.405 Y45.425 E3.1673
G1 X97.544 Y45.899 E3.22177
G1 X98.604 Y50.142 E3.70404
G1 X98.672 Y50.48 E3.74206
G1 X99.319 Y54.814 E4.22529
G1 X99.379 Y55.408 E4.29112
G1 X99.594 Y59.835 E4.77988
G1 X99.59 Y60.306 E4.83182
G1 X99.38 Y64.591 E5.30491
G1 X99.338 Y65.032 E5.35376
G1 X98.695 Y69.387 E5.83921
G1 X98.582 Y69.957 E5.90329
G1 X97.503 Y74.248 E6.39121
G1 X97.404 Y74.574 E6.42878
G1 X95.931 Y78.7 E6.9119
G1 X95.747 Y79.154 E6.96592
G1 X93.863 Y83.141 E7.45219
G1 X93.603 Y83.625 E7.51278
G1 X91.357 Y87.371 E7.99443
G1 X91.074 Y87.791 E8.05027
G1 X88.453 Y91.319 E8.53493
G1 X88.144 Y91.692 E8.58835
G1 X85.206 Y94.93 E9.07049
G1 X84.861 Y95.271 E9.12398
G1 X81.58 Y98.239 E9.61186
G1 X81.235 Y98.52 E9.66093
G1 X77.716 Y101.127 E10.14387
G1 X77.338 Y101.378 E10.19391
G1 X73.548 Y103.646 E10.68096
G1 X73.132 Y103.867 E10.73291
G1 X69.142 Y105.751 E11.21948
G1 X68.714 Y105.926 E11.27047
G1 X64.58 Y107.403 E11.75457
G1 X64.134 Y107.536 E11.80589
G1 X59.857 Y108.604 E12.29202
G1 X59.519 Y108.672 E12.33004
G1 X55.147 Y109.324 E12.81748
G1 X54.672 Y109.373 E12.87014
G1 X50.306 Y109.59 E13.35219
G1 X49.845 Y109.594 E13.40303
G1 X45.408 Y109.379 E13.89289
G1 X44.959 Y109.337 E13.94262
G1 X40.613 Y108.695 E14.42707
G1 X40.043 Y108.582 E14.49115
G1 X35.788 Y107.514 E14.97492
G1 X35.347 Y107.38 E15.02575
G1 X31.185 Y105.887 E15.51334
G1 X30.752 Y105.703 E15.56523
G1 X26.788 Y103.826 E16.04888
G1 X26.37 Y103.6 E16.10128
G1 X22.624 Y101.355 E16.58287
G1 X22.208 Y101.074 E16.63823
G1 X18.674 Y98.448 E17.12375
G1 X18.303 Y98.139 E17.17699
G1 X15.063 Y95.198 E17.65952
G1 X14.695 Y94.823 E17.71746
G1 X11.777 Y91.599 E18.19698
G1 X11.486 Y91.24 E18.24794
G1 X8.926 Y87.791 E18.7216
G1 X8.643 Y87.371 E18.77744
G1 X6.397 Y83.625 E19.25909
G1 X6.171 Y83.207 E19.31149
G1 X4.286 Y79.228 E19.79702
G1 X4.118 Y78.827 E19.84496
G1 X2.595 Y74.574 E20.34312
G1 X2.497 Y74.248 E20.38066
G1 X1.396 Y69.857 E20.87986
G1 X1.326 Y69.51 E20.9189
G1 X0.676 Y65.146 E21.40544
G1 X0.621 Y64.591 E21.46694
G1 X0.406 Y60.165 E21.95559
G1 X0.41 Y59.694 E22.00753
G1 X0.62 Y55.408 E22.48073
G1 X0.662 Y54.969 E22.52937
G1 X1.305 Y50.612 E23.01503
G1 X1.418 Y50.042 E23.07911
G1 X2.497 Y45.751 E23.56703
G1 X2.596 Y45.425 E23.6046
G1 X4.069 Y41.299 E24.08771
G1 X4.253 Y40.845 E24.14173
G1 X6.131 Y36.87 E24.62653
G1 X6.351 Y36.456 E24.67823
G1 X8.619 Y32.667 E25.16519
G1 X8.926 Y32.208 E25.22609
G1 X11.547 Y28.68 E25.71075
G1 X11.856 Y28.307 E25.76416
G1 X14.794 Y25.069 E26.2463
G1 X15.139 Y24.728 E26.2998
G1 X18.42 Y21.76 E26.78767
G1 X18.765 Y21.479 E26.83674
G1 X22.284 Y18.872 E27.31968
G1 X22.662 Y18.621 E27.36972
G1 X26.452 Y16.353 E27.85678
G1 X26.868 Y16.132 E27.90872
G1 X30.858 Y14.248 E28.3953
G1 X31.286 Y14.073 E28.44629
G1 X35.42 Y12.596 E28.93038
G1 X35.866 Y12.463 E28.98171
G1 X40.143 Y11.395 E29.46783
G1 X40.481 Y11.327 E29.50585
G1 X44.866 Y10.673 E29.99475
G1 X45.324 Y10.626 E30.04552
G1 X49.694 Y10.41 E30.52801
G1 X50.154 Y10.406 E30.57873
G1 X54.589 Y10.62 E31.06837
G1 X55.053 Y10.663 E31.11975
G1 X59.387 Y11.304 E31.60288
G1 X59.957 Y11.417 E31.66696
G1 X64.212 Y12.485 E32.15073
G1 X64.653 Y12.619 E32.20156
G1 X68.815 Y14.112 E32.68915
G1 X69.248 Y14.296 E32.74103
G1 X73.212 Y16.173 E33.22469
G1 X73.63 Y16.399 E33.27709
G1 X77.372 Y18.642 E33.75819
G1 X77.792 Y18.925 E33.81403
G1 X81.326 Y21.551 E34.29955
G1 X81.689 Y21.853 E34.35163
G1 F1680 E31.35163
G1 F3600 X68.201 Y38.221
G1 F1680 E34.35163
G1 F1200 X67.808 Y37.899 E34.40765
G1 X65.983 Y36.544 E34.65831
G1 X65.556 Y36.258 E34.71498
G1 X63.615 Y35.096 E34.96445
G1 X63.171 Y34.859 E35.01995
G1 X61.099 Y33.876 E35.27284
G1 X60.62 Y33.678 E35.33
G1 X58.472 Y32.911 E35.58152
G1 X57.986 Y32.763 E35.63754
G1 X55.796 Y32.216 E35.88646
G1 X55.298 Y32.117 E35.94245
G1 X53.025 Y31.779 E36.19586
G1 X52.511 Y31.729 E36.25281
G1 X50.232 Y31.619 E36.50441
G1 X49.727 Y31.619 E36.5601
G1 X47.48 Y31.729 E36.80819
G1 X46.969 Y31.779 E36.8648
G1 X44.709 Y32.115 E37.11676
G1 X44.213 Y32.214 E37.17254
G1 X42.02 Y32.761 E37.42178
G1 X41.534 Y32.909 E37.4778
G1 X39.379 Y33.678 E37.73012
G1 X38.898 Y33.877 E37.78752
G1 X36.829 Y34.859 E38.04007
G1 X36.387 Y35.095 E38.09532
G1 X34.454 Y36.252 E38.34375
G1 X34.029 Y36.536 E38.40012
G1 X32.195 Y37.894 E38.65177
G1 X31.797 Y38.221 E38.70857
G1 X30.099 Y39.761 E38.96136
G1 X29.738 Y40.123 E39.01773
G1 X28.221 Y41.8 E39.2671
G1 X27.9 Y42.191 E39.32288
G1 X26.546 Y44.016 E39.57347
G1 X26.261 Y44.441 E39.6299
G1 X25.102 Y46.375 E39.87854
G1 X24.862 Y46.824 E39.93468
G1 X23.876 Y48.908 E40.18891
G1 X23.68 Y49.382 E40.24548
G1 X22.909 Y51.537 E40.49787
G1 X22.76 Y52.026 E40.55424
G1 X22.217 Y54.202 E40.80155
G1 X22.119 Y54.697 E40.8572
G1 X21.78 Y56.972 E41.11084
G1 X21.729 Y57.488 E41.16802
G1 X21.619 Y59.765 E41.41941
G1 X21.619 Y60.272 E41.47532
G1 X21.73 Y62.526 E41.72418
G1 X21.78 Y63.034 E41.78047
G1 X22.116 Y65.297 E42.03275
G1 X22.216 Y65.796 E42.08887
G1 X22.76 Y67.971 E42.33611
G1 X22.906 Y68.454 E42.39175
G1 X23.675 Y70.612 E42.64438
G1 X23.874 Y71.094 E42.70188
G1 X24.862 Y73.177 E42.95611
G1 X25.101 Y73.624 E43.01201
G1 X26.249 Y75.538 E43.25813
G1 X26.53 Y75.958 E43.31385
G1 X27.897 Y77.805 E43.56724
G1 X28.224 Y78.203 E43.62405
G1 X29.764 Y79.902 E43.87691
G1 X30.125 Y80.262 E43.93313
G1 X31.799 Y81.778 E44.18218
G1 X32.192 Y82.1 E44.23821
G1 X34.017 Y83.455 E44.48886
G1 X34.444 Y83.741 E44.54554
G1 X36.385 Y84.903 E44.795
G1 X36.829 Y85.14 E44.8505
G1 X38.901 Y86.123 E45.1034
G1 X39.38 Y86.321 E45.16055
G1 X41.528 Y87.088 E45.41207
G1 X42.014 Y87.236 E45.46809
G1 X44.204 Y87.783 E45.71701
G1 X44.702 Y87.882 E45.773
G1 X46.975 Y88.22 E46.02641
G1 X47.487 Y88.27 E46.08314
G1 X49.765 Y88.381 E46.33464
G1 X50.274 Y88.381 E46.39077
G1 X52.522 Y88.27 E46.63897
G1 X53.031 Y88.22 E46.69537
G1 X55.291 Y87.884 E46.94733
G1 X55.787 Y87.785 E47.0031
G1 X57.98 Y87.238 E47.25234
G1 X58.466 Y87.09 E47.30837
G1 X60.621 Y86.321 E47.56069
G1 X61.102 Y86.122 E47.61809
G1 X63.171 Y85.14 E47.87064
G1 X63.614 Y84.903 E47.92604
G1 X65.541 Y83.749 E48.17373
G1 X65.964 Y83.467 E48.22979
G1 X67.801 Y82.107 E48.48184
G1 X68.197 Y81.782 E48.53833
G1 X69.891 Y80.248 E48.79034
G1 X70.256 Y79.883 E48.84727
G1 X71.752 Y78.229 E49.0932
G1 X72.072 Y77.839 E49.14883
G1 X73.476 Y75.946 E49.40873
G1 X73.761 Y75.52 E49.46525
G1 X74.914 Y73.596 E49.71259
G1 X75.154 Y73.147 E49.76874
G1 X76.123 Y71.099 E50.01858
G1 X76.319 Y70.624 E50.07525
G1 X77.09 Y68.465 E50.32805
G1 X77.237 Y67.979 E50.38404
G1 X77.782 Y65.799 E50.63184
G1 X77.881 Y65.303 E50.68761
G1 X78.22 Y63.027 E50.94137
G1 X78.271 Y62.51 E50.99866
G1 X78.381 Y60.225 E51.25092
G1 X78.381 Y59.718 E51.30683
G1 X78.27 Y57.471 E51.55492
G1 X78.22 Y56.965 E51.61099
G1 X77.884 Y54.702 E51.86328
G1 X77.784 Y54.203 E51.9194
G1 X77.24 Y52.028 E52.16663
G1 X77.094 Y51.545 E52.22227
G1 X76.325 Y49.387 E52.4749
G1 X76.126 Y48.905 E52.53241
G1 X75.138 Y46.822 E52.78664
G1 X74.899 Y46.375 E52.84253
G1 X73.751 Y44.461 E53.08865
G1 X73.47 Y44.041 E53.14438
G1 X72.103 Y42.194 E53.39777
G1 X71.776 Y41.796 E53.45457
G1 X70.236 Y40.097 E53.70744
G1 X69.875 Y39.737 E53.76366
G1 X68.201 Y38.221 E54.0127
G1 F1680 E51.0127
G1 F3600 X68.8 Y38.763
G1 F1680 E54.0127
G1 F1200 X68.8 Y14.107 E56.73162
G1 F1680 E53.73162
G1 F3600 X67.2 Y13.533
G1 F1680 E56.73162
G1 F1200 X67.2 Y37.447 E59.36871
G1 F1680 E56.36871
G1 F3600 X65.6 Y36.287
G1 F1680 E59.36871
G1 F1200 X65.6 Y12.959 E61.94118
G1 F1680 E58.94118
G1 F3600 X64 Y12.432
G1 F1680 E61.94118
G1 F1200 X64 Y35.326 E64.4658
G1 F1680 E61.4658
G1 F3600 X62.4 Y34.493
G1 F1680 E64.4658
G1 F1200 X62.4 Y12.031 E66.94277
G1 F1680 E63.94277
G1 F3600 X60.8 Y11.629
G1 F1680 E66.94277
G1 F1200 X60.8 Y33.752 E69.38236
G1 F1680 E66.38236
G1 F3600 X59.2 Y33.17
G1 F1680 E69.38236
G1 F1200 X59.2 Y11.277 E71.79659
G1 F1680 E68.79659
G1 F3600 X57.6 Y11.04
G1 F1680 E71.79659
G1 F1200 X57.6 Y32.666 E74.18137
G1 F1680 E71.18137
G1 F3600 X56 Y32.266
G1 F1680 E74.18137
G1 F1200 X56 Y10.804 E76.54807
G1 F1680 E73.54807
G1 F3600 X54.4 Y10.611
G1 F1680 E76.54807
G1 F1200 X54.4 Y31.983 E78.90485
G1 F1680 E75.90485
G1 F3600 X52.8 Y31.757
G1 F1680 E78.90485
G1 F1200 X52.8 Y10.534 E81.24519
G1 F1680 E78.24519
G1 F3600 X51.2 Y10.457
G1 F1680 E81.24519
G1 F1200 X51.2 Y31.665 E83.58388
G1 F1680 E80.58388
G1 F3600 X49.6 Y31.626
G1 F1680 E83.58388
G1 F1200 X49.6 Y10.414 E85.92302
G1 F1680 E82.92302
G1 F3600 X48 Y10.493
G1 F1680 E85.92302
G1 F1200 X48 Y31.704 E88.26204
G1 F1680 E85.26204
G1 F3600 X46.4 Y31.864
G1 F1680 E88.26204
G1 F1200 X46.4 Y10.572 E90.60999
G1 F1680 E87.60999
G1 F3600 X44.8 Y10.682
G1 F1680 E90.60999
G1 F1200 X44.8 Y32.102 E92.97206
G1 F1680 E89.97206
G1 F3600 X43.2 Y32.467
G1 F1680 E92.97206
G1 F1200 X43.2 Y10.921 E95.34802
G1 F1680 E92.34802
G1 F3600 X41.6 Y11.16
G1 F1680 E95.34802
G1 F1200 X41.6 Y32.889 E97.74417
G1 F1680 E94.74417
G1 F3600 X40 Y33.457
G1 F1680 E97.74417
G1 F1200 X40 Y11.43 E100.17317
G1 F1680 E97.17317
G1 F3600 X38.4 Y11.83
G1 F1680 E100.17317
G1 F1200 X38.4 Y34.114 E102.63052
G1 F1680 E99.63052
G1 F3600 X36.8 Y34.875
G1 F1680 E102.63052
G1 F1200 X36.8 Y12.229 E105.12778
G1 F1680 E102.12778
G1 F3600 X35.2 Y12.674
G1 F1680 E105.12778
G1 F1200 X35.2 Y35.806 E107.67864
G1 F1680 E104.67864
G1 F3600 X33.6 Y36.854
G1 F1680 E107.67864
G1 F1200 X33.6 Y13.246 E110.28199
G1 F1680 E107.28199
G1 F3600 X32 Y13.817
G1 F1680 E110.28199
G1 F1200 X32 Y38.055 E112.95481
G1 F1680 E109.95481
G1 F3600 X30.4 Y39.489
G1 F1680 E112.95481
G1 F1200 X30.4 Y14.464 E115.71441
G1 F1680 E112.71441
G1 F3600 X28.8 Y15.219
G1 F1680 E115.71441
G1 F1200 X28.8 Y41.16 E118.57503
G1 F1680 E115.57503
G1 F3600 X27.2 Y43.135
G1 F1680 E118.57503
G1 F1200 X27.2 Y15.975 E121.57007
G1 F1680 E118.57007
G1 F3600 X25.6 Y16.862
G1 F1680 E121.57007
G1 F1200 X25.6 Y45.544 E124.73295
G1 F1680 E121.73295
G1 F3600 X24 Y48.646
G1 F1680 E124.73295
G1 F1200 X24 Y17.82 E128.13226
G1 F1680 E125.13226
G1 F3600 X22.4 Y18.794
G1 F1680 E128.13226
G1 F1200 X22.4 Y53.469 E131.95601
G1 F1680 E128.95601
G1 F3600 X22.4 Y66.532
G1 F1680 E131.95601
G1 F1200 X22.4 Y101.203 E135.77932
G1 F1680 E132.77932
G1 F3600 X24 Y102.179
G1 F1680 E135.77932
G1 F1200 X24 Y71.36 E139.17785
G1 F1680 E136.17785
G1 F3600 X25.6 Y74.456
G1 F1680 E139.17785
G1 F1200 X25.6 Y103.138 E142.34073
G1 F1680 E139.34073
G1 F3600 X27.2 Y104.021
G1 F1680 E142.34073
G1 F1200 X27.2 Y76.864 E145.33544
G1 F1680 E142.33544
G1 F3600 X28.8 Y78.839
G1 F1680 E145.33544
G1 F1200 X28.8 Y104.778 E148.19583
G1 F1680 E145.19583
G1 F3600 X30.4 Y105.536
G1 F1680 E148.19583
G1 F1200 X30.4 Y80.512 E150.95533
G1 F1680 E147.95533
G1 F3600 X32 Y81.943
G1 F1680 E150.95533
G1 F1200 X32 Y106.179 E153.62793
G1 F1680 E150.62793
G1 F3600 X33.6 Y106.753
G1 F1680 E153.62793
G1 F1200 X33.6 Y83.146 E156.23117
G1 F1680 E153.23117
G1 F3600 X35.2 Y84.194
G1 F1680 E156.23117
G1 F1200 X35.2 Y107.327 E158.78214
G1 F1680 E155.78214
G1 F3600 X36.8 Y107.768
G1 F1680 E158.78214
G1 F1200 X36.8 Y85.125 E161.27907
G1 F1680 E158.27907
G1 F3600 X38.4 Y85.886
G1 F1680 E161.27907
G1 F1200 X38.4 Y108.169 E163.7363
G1 F1680 E160.7363
G1 F3600 X40 Y108.571
G1 F1680 E163.7363
G1 F1200 X40 Y86.543 E166.16542
G1 F1680 E163.16542
G1 F3600 X41.6 Y87.11
G1 F1680 E166.16542
G1 F1200 X41.6 Y108.84 E168.56167
G1 F1680 E165.56167
G1 F3600 X43.2 Y109.077
G1 F1680 E168.56167
G1 F1200 X43.2 Y87.533 E170.93742
G1 F1680 E167.93742
G1 F3600 X44.8 Y87.897
G1 F1680 E170.93742
G1 F1200 X44.8 Y109.313 E173.29904
G1 F1680 E170.29904
G1 F3600 X46.4 Y109.427
G1 F1680 E173.29904
G1 F1200 X46.4 Y88.135 E175.647
G1 F1680 E172.647
G1 F3600 X48 Y88.295
G1 F1680 E175.647
G1 F1200 X48 Y109.504 E177.9858
G1 F1680 E174.9858
G1 F3600 X49.6 Y109.582
G1 F1680 E177.9858
G1 F1200 X49.6 Y88.373 E180.3246
G1 F1680 E177.3246
G1 F3600 X51.2 Y88.335
G1 F1680 E180.3246
G1 F1200 X51.2 Y109.546 E182.66362
G1 F1680 E179.66362
G1 F3600 X52.8 Y109.467
G1 F1680 E182.66362
G1 F1200 X52.8 Y88.242 E185.00419
G1 F1680 E182.00419
G1 F3600 X54.4 Y88.016
G1 F1680 E185.00419
G1 F1200 X54.4 Y109.387 E187.36085
G1 F1680 E184.36085
G1 F3600 X56 Y109.197
G1 F1680 E187.36085
G1 F1200 X56 Y87.731 E189.72799
G1 F1680 E186.72799
G1 F3600 X57.6 Y87.332
G1 F1680 E189.72799
G1 F1200 X57.6 Y108.959 E192.11289
G1 F1680 E189.11289
G1 F3600 X59.2 Y108.72
G1 F1680 E192.11289
G1 F1200 X59.2 Y86.828 E194.527
G1 F1680 E191.527
G1 F3600 X60.8 Y86.246
G1 F1680 E194.527
G1 F1200 X60.8 Y108.369 E196.9666
G1 F1680 E193.9666
G1 F3600 X62.4 Y107.969
G1 F1680 E196.9666
G1 F1200 X62.4 Y85.505 E199.44379
G1 F1680 E196.44379
G1 F3600 X64 Y84.671
G1 F1680 E199.44379
G1 F1200 X64 Y107.57 E201.96895
G1 F1680 E198.96895
G1 F3600 X65.6 Y107.039
G1 F1680 E201.96895
G1 F1200 X65.6 Y83.709 E204.54165
G1 F1680 E201.54165
G1 F3600 X67.2 Y82.551
G1 F1680 E204.54165
G1 F1200 X67.2 Y106.467 E207.17896
G1 F1680 E204.17896
G1 F3600 X68.8 Y105.891
G1 F1680 E207.17896
G1 F1200 X68.8 Y81.235 E209.89787
G1 F1680 E206.89787
G1 F3600 X70.4 Y79.723
G1 F1680 E209.89787
G1 F1200 X70.4 Y105.157 E212.70258
G1 F1680 E209.70258
G1 F3600 X72 Y104.402
G1 F1680 E212.70258
G1 F1200 X72 Y77.926 E215.6222
G1 F1680 E212.6222
G1 F3600 X73.6 Y75.76
G1 F1680 E215.6222
G1 F1200 X73.6 Y103.615 E218.69388
G1 F1680 E215.69388
G1 F3600 X75.2 Y102.658
G1 F1680 E218.69388
G1 F1200 X75.2 Y73.049 E221.95898
G1 F1680 E218.95898
G1 F3600 X76.8 Y69.277
G1 F1680 E221.95898
G1 F1200 X76.8 Y101.7 E225.53439
G1 F1680 E222.53439
G1 F3600 X78.4 Y100.621
G1 F1680 E225.53439
G1 F1200 X78.4 Y19.377 E234.49349
G1 F1680 E231.49349
G1 F3600 X76.8 Y18.3
G1 F1680 E234.49349
G1 F1200 X76.8 Y50.719 E238.06846
G1 F1680 E235.06846
G1 F3600 X75.2 Y46.952
G1 F1680 E238.06846
G1 F1200 X75.2 Y17.341 E241.33379
G1 F1680 E238.33379
G1 F3600 X73.6 Y16.383
G1 F1680 E241.33379
G1 F1200 X73.6 Y44.235 E244.40514
G1 F1680 E241.40514
G1 F3600 X72 Y42.068
G1 F1680 E244.40514
G1 F1200 X72 Y15.6 E247.32387
G1 F1680 E244.32387
G1 F3600 X70.4 Y14.842
G1 F1680 E247.32387
G1 F1200 X70.4 Y40.277 E250.12869
G1 F1680 E247.12869
G1 F3600 X86.4 Y26.386
G1 F1680 E250.12869
G1 F1200 X86.4 Y93.615 E257.5423
G1 F1680 E254.5423
G1 F3600 X84.8 Y95.327
G1 F1680 E257.5423
G1 F1200 X84.8 Y24.677 E265.33315
G1 F1680 E262.33315
G1 F3600 X83.2 Y23.225
G1 F1680 E265.33315
G1 F1200 X83.2 Y96.774 E273.44369
G1 F1680 E270.44369
G1 F3600 X81.6 Y98.221
G1 F1680 E273.44369
G1 F1200 X81.6 Y21.779 E281.87326
G1 F1680 E278.87326
G1 F3600 X80 Y20.566
G1 F1680 E281.87326
G1 F1200 X80 Y99.435 E290.57046
G1 F1680 E287.57046
G1 F3600 X88 Y91.851
G1 F1680 E290.57046
G1 F1200 X88 Y28.154 E297.59458
G1 F1680 E294.59458
G1 F3600 X89.6 Y30.223
G1 F1680 E297.59458
G1 F1200 X89.6 Y89.776 E304.16172
G1 F1680 E301.16172
G1 F3600 X91.2 Y87.605
G1 F1680 E304.16172
G1 F1200 X91.2 Y32.395 E310.24995
G1 F1680 E307.24995
G1 F3600 X92.8 Y35.035
G1 F1680 E310.24995
G1 F1200 X92.8 Y84.965 E315.75593
G1 F1680 E312.75593
G1 F3600 X94.4 Y82.005
G1 F1680 E315.75593
G1 F1200 X94.4 Y37.999 E320.60865
G1 F1680 E317.60865
G1 F3600 X96 Y41.502
G1 F1680 E320.60865
G1 F1200 X96 Y78.507 E324.68934
G1 F1680 E321.68934
G1 F3600 X97.6 Y73.863
G1 F1680 E324.68934
G1 F1200 X97.6 Y46.124 E327.74823
