M73 P0
;MINX:29.8
;MAXX:70.3
;MINY:39.8
;MAXY:80.2
;MINZ:0.0
;MAXZ:6.3
;MachineType:ENTINA TINA2
;FilamentType:PLA
;Extruder0Temperature:200
;InfillDensity:10
;FLAVOR:Marlin
;TIME:1341
;FilamentUsed:974.3
;Layer height: 0.2

;Generated with Cura_SteamEngine 3.1
M104 T0 S215
M82 ; absolute extrusion mode
;(**** start.gcode for tina2****)
M104 S150
G28 Z
G28 X Y; Home extruder
G1 X55 Y55 F1000
G1 Z10 F200
G29
G1 Z15 F100
M107 ; Turn off fan
G90 ; Absolute positioning
M82 ; Extruder in absolute mode
M109 S215.0
G92 E0 ; Reset extruder position
G1 X90 Y6 Z0.27 F2000
G1 X20 Y6 Z0.27 E15 F1000
G92 E0 ; Reset extruder position

;LAYER_COUNT:25
;LAYER:-6
M107
M203 Z5
G1 F3600 X62.097 Y45.416 Z0.349
G1 F1200 X62.6 Y45.865 E0.07435
G1 X62.607 Y45.858 E0.07544
G1 X63.063 Y46.29 E0.14471
G1 X63.198 Y46.409 E0.16456
G1 X63.536 Y46.741 E0.2168
G1 X64.114 Y47.357 E0.30995
G1 X64.598 Y47.918 E0.39166
G1 X64.783 Y48.147 E0.42412
G1 X65.362 Y48.91 E0.52974
G1 X65.357 Y48.915 E0.53052
G1 X65.866 Y49.639 E0.62812
G1 X65.969 Y49.799 E0.6491
G1 X66.391 Y50.496 E0.73895
G1 X66.506 Y50.698 E0.76458
G1 X66.883 Y51.396 E0.85206
G1 X67.068 Y51.782 E0.89927
G1 X67.064 Y51.785 E0.89982
G1 X67.281 Y52.255 E0.9569
G1 X67.288 Y52.253 E0.95771
G1 X67.633 Y53.061 E1.05459
G1 X67.743 Y53.352 E1.0889
G1 X68.036 Y54.195 E1.18731
G1 X68.292 Y55.065 E1.28732
G1 X68.536 Y56.067 E1.40104
G1 X68.648 Y56.653 E1.46683
G1 X68.724 Y57.113 E1.51825
G1 X68.85 Y58.079 E1.62567
G1 X68.913 Y58.837 E1.70955
G1 X68.931 Y59.196 E1.74919
G1 X68.945 Y60.087 E1.84745
G1 X68.93 Y60.821 E1.92841
G1 X68.917 Y61.107 E1.95998
G1 X68.866 Y61.766 E2.03287
G1 X68.733 Y62.852 E2.15352
G1 X68.695 Y63.098 E2.18097
G1 X68.525 Y63.974 E2.27937
G1 X68.291 Y64.942 E2.38919
G1 X68.037 Y65.799 E2.48776
G1 X67.954 Y66.055 E2.51744
G1 X67.597 Y67.025 E2.63142
G1 X67.298 Y67.698 E2.71263
G1 X67.305 Y67.702 E2.71352
G1 X67.03 Y68.304 E2.7865
G1 X66.835 Y68.697 E2.83488
G1 X66.472 Y69.364 E2.91862
G1 X66.34 Y69.592 E2.94767
G1 X65.789 Y70.475 E3.06245
G1 X65.32 Y71.15 E3.15308
G1 X65.315 Y71.145 E3.15386
G1 X64.764 Y71.872 E3.25446
G1 X64.554 Y72.129 E3.29106
G1 X63.991 Y72.778 E3.3858
G1 X63.375 Y73.421 E3.48399
G1 X63.147 Y73.641 E3.51893
G1 X62.717 Y74.029 E3.5828
G1 X62.722 Y74.037 E3.58384
G1 X62.65 Y74.105 E3.59476
G1 X62.564 Y74.172 E3.60678
G1 X62.063 Y74.612 E3.68031
G1 X61.774 Y74.845 E3.72125
G1 X61.002 Y75.425 E3.82773
G1 X60.47 Y75.793 E3.89906
G1 X60.194 Y75.971 E3.93528
G1 X59.533 Y76.365 E4.02014
G1 X59.44 Y76.428 E4.03252
G1 X58.876 Y76.727 E4.10292
G1 X58.882 Y76.736 E4.10411
G1 X58.523 Y76.92 E4.1486
G1 X57.813 Y77.261 E4.23545
G1 X57.55 Y77.378 E4.26719
G1 X56.861 Y77.663 E4.34942
G1 X56.423 Y77.824 E4.40088
G1 X56.419 Y77.817 E4.40177
G1 X55.89 Y78.009 E4.46382
G1 X55.003 Y78.276 E4.56597
G1 X54.17 Y78.483 E4.66062
G1 X53.901 Y78.542 E4.69099
G1 X52.911 Y78.723 E4.80197
G1 X51.864 Y78.852 E4.9183
G1 X51.095 Y78.916 E5.0034
G1 X50.9 Y78.926 E5.02493
G1 X49.85 Y78.946 E5.14074
G1 X49.103 Y78.928 E5.22314
G1 X48.566 Y78.889 E5.28251
G1 X47.894 Y78.804 E5.3572
G1 X47.894 Y78.814 E5.35831
G1 X47.183 Y78.738 E5.43716
G1 X46.365 Y78.594 E5.52875
G1 X45.958 Y78.513 E5.57451
G1 X45.129 Y78.31 E5.66863
G1 X44.702 Y78.188 E5.7176
G1 X44.703 Y78.181 E5.71838
G1 X44.179 Y78.022 E5.77877
G1 X44.177 Y78.029 E5.77957
G1 X43.27 Y77.709 E5.88563
G1 X42.996 Y77.605 E5.91795
G1 X42.326 Y77.323 E5.99811
G1 X41.573 Y76.971 E6.08977
G1 X41.067 Y76.708 E6.15266
G1 X41.071 Y76.701 E6.15354
G1 X40.553 Y76.423 E6.21837
G1 X39.62 Y75.852 E6.339
G1 X38.998 Y75.426 E6.42213
G1 X38.15 Y74.784 E6.53942
G1 X37.795 Y74.49 E6.59025
G1 X37.801 Y74.482 E6.59135
G1 X37.356 Y74.111 E6.65524
G1 X36.802 Y73.591 E6.73903
G1 X36.451 Y73.244 E6.79346
G1 X35.977 Y72.744 E6.86943
G1 X35.352 Y72.019 E6.97499
G1 X34.802 Y71.306 E7.07429
G1 X34.597 Y71.029 E7.11229
G1 X34.196 Y70.452 E7.18977
G1 X34.051 Y70.231 E7.21892
G1 X33.603 Y69.495 E7.31394
G1 X33.219 Y68.798 E7.40169
G1 X32.932 Y68.218 E7.47305
G1 X32.936 Y68.215 E7.4736
G1 X32.719 Y67.745 E7.53069
G1 X32.712 Y67.747 E7.53149
G1 X32.365 Y66.933 E7.62907
G1 X32.057 Y66.085 E7.72856
G1 X31.96 Y65.794 E7.76239
G1 X31.708 Y64.935 E7.8611
G1 X31.465 Y63.942 E7.97384
G1 X31.291 Y62.991 E8.08045
G1 X31.18 Y62.183 E8.17039
G1 X31.15 Y61.917 E8.1999
G1 X31.082 Y61.075 E8.29306
G1 X31.065 Y60.656 E8.3393
G1 X31.073 Y60.656 E8.34018
G1 X31.051 Y60.023 E8.41003
G1 X31.083 Y58.893 E8.53469
G1 X31.135 Y58.233 E8.60769
G1 X31.26 Y57.197 E8.72277
G1 X31.358 Y56.622 E8.78709
G1 X31.375 Y56.571 E8.79302
G1 X31.478 Y56.014 E8.85548
G1 X31.57 Y55.643 E8.89763
G1 X31.633 Y55.357 E8.92993
G1 X31.71 Y55.058 E8.96397
G1 X31.964 Y54.199 E9.06275
G1 X32.254 Y53.357 E9.16096
G1 X32.403 Y52.975 E9.20617
G1 X32.702 Y52.302 E9.28738
G1 X32.695 Y52.298 E9.28827
G1 X32.969 Y51.7 E9.36081
G1 X33.172 Y51.291 E9.41116
G1 X33.531 Y50.63 E9.49411
G1 X33.662 Y50.404 E9.52291
G1 X34.187 Y49.563 E9.63224
G1 X34.281 Y49.424 E9.65074
G1 X34.287 Y49.43 E9.65168
G1 X34.667 Y48.866 E9.72667
G1 X35.057 Y48.356 E9.79747
G1 X35.424 Y47.896 E9.86237
G1 X35.884 Y47.36 E9.94025
G1 X36.499 Y46.706 E10.03925
G1 X36.853 Y46.359 E10.09392
G1 X37.283 Y45.971 E10.15778
G1 X37.278 Y45.963 E10.15882
G1 X37.357 Y45.888 E10.17084
G1 X37.931 Y45.393 E10.25442
G1 X38.133 Y45.229 E10.28311
G1 X38.998 Y44.575 E10.40269
G1 X39.776 Y44.046 E10.50644
G1 X40.528 Y43.59 E10.60342
G1 X41.079 Y43.297 E10.67224
G1 X41.075 Y43.288 E10.67333
G1 X41.477 Y43.08 E10.72324
G1 X42.187 Y42.739 E10.81009
G1 X42.445 Y42.624 E10.84124
G1 X43.108 Y42.349 E10.92039
G1 X44.093 Y41.996 E11.03578
G1 X44.997 Y41.724 E11.13988
G1 X45.83 Y41.517 E11.23453
G1 X46.099 Y41.458 E11.2649
G1 X46.848 Y41.316 E11.34897
G1 X47.086 Y41.278 E11.37555
G1 X48.046 Y41.155 E11.48227
G1 X48.046 Y41.16 E11.48283
G1 X48.906 Y41.085 E11.57802
G1 X49.098 Y41.075 E11.59922
G1 X50.15 Y41.054 E11.71525
G1 X50.865 Y41.07 E11.79412
G1 X51.386 Y41.106 E11.85171
G1 X51.386 Y41.115 E11.8527
G1 X51.935 Y41.152 E11.91338
G1 X52.628 Y41.237 E11.99037
G1 X53.14 Y41.315 E12.04748
G1 X53.882 Y41.454 E12.13073
G1 X54.853 Y41.685 E12.2408
G1 X55.298 Y41.813 E12.29186
G1 X55.297 Y41.82 E12.29264
G1 X55.821 Y41.978 E12.35299
G1 X55.823 Y41.971 E12.35379
G1 X56.802 Y42.316 E12.46826
G1 X57.523 Y42.61 E12.55412
G1 X58.491 Y43.06 E12.67184
G1 X58.929 Y43.289 E12.72634
G1 X58.925 Y43.298 E12.72743
G1 X59.452 Y43.578 E12.79323
G1 X60.48 Y44.216 E12.92665
G1 X61.189 Y44.709 E13.02188
G1 X61.886 Y45.245 E13.11884
G1 X62.097 Y45.416 E13.14879
G1 F1680 E10.14879
G1 F3600 X53.806 Y55.707
G1 F1680 E13.14879
G1 F1200 X53.284 Y55.287 E13.22267
G1 X52.7 Y54.929 E13.29821
G1 X52.004 Y54.622 E13.3821
G1 X51.424 Y54.441 E13.4491
G1 X50.813 Y54.321 E13.51776
G1 X50.383 Y54.275 E13.56545
G1 X49.725 Y54.269 E13.63801
G1 X48.885 Y54.372 E13.73134
G1 X48.6 Y54.437 E13.76357
G1 X47.999 Y54.622 E13.83292
G1 X47.384 Y54.886 E13.90672
G1 X46.794 Y55.234 E13.98225
G1 X46.202 Y55.699 E14.06527
G1 X45.815 Y56.074 E14.12469
G1 X45.429 Y56.531 E14.19066
G1 X45.076 Y57.056 E14.26042
G1 X44.734 Y57.721 E14.34288
G1 X44.581 Y58.12 E14.39001
G1 X44.436 Y58.597 E14.44498
G1 X44.33 Y59.094 E14.50102
G1 X44.258 Y59.782 E14.57731
G1 X44.261 Y60.275 E14.63167
G1 X44.334 Y60.935 E14.7049
G1 X44.43 Y61.382 E14.75531
G1 X44.601 Y61.942 E14.81988
G1 X44.877 Y62.584 E14.89694
G1 X45.001 Y62.817 E14.92605
G1 X45.395 Y63.423 E15.00576
G1 X45.743 Y63.845 E15.06607
G1 X46.208 Y64.307 E15.13836
G1 X46.921 Y64.848 E15.23705
G1 X47.505 Y65.173 E15.31076
G1 X48.101 Y65.415 E15.38169
G1 X48.628 Y65.57 E15.44227
M73 P1
G1 X49.15 Y65.675 E15.50098
G1 X49.718 Y65.731 E15.56392
G1 X50.375 Y65.725 E15.63637
G1 X50.888 Y65.668 E15.69329
G1 X51.538 Y65.529 E15.76659
G1 X52.011 Y65.373 E15.82151
G1 X52.626 Y65.108 E15.89536
G1 X53.216 Y64.759 E15.97095
G1 X53.806 Y64.292 E16.05393
G1 X54.25 Y63.855 E16.12263
G1 X54.678 Y63.332 E16.19715
G1 X55.172 Y62.486 E16.30518
G1 X55.357 Y62.054 E16.35701
G1 X55.565 Y61.397 E16.433
G1 X55.688 Y60.759 E16.50465
G1 X55.742 Y60.086 E16.5791
G1 X55.68 Y59.179 E16.67936
G1 X55.545 Y58.522 E16.75332
G1 X55.43 Y58.146 E16.79668
G1 X55.204 Y57.581 E16.86378
G1 X54.848 Y56.921 E16.94648
G1 X54.28 Y56.178 E17.04961
G1 X53.89 Y55.784 E17.11074
G1 X53.806 Y55.707 E17.12331
G1 F1680 E14.12331
G1 F3600 X54.4 Y56.334
G1 F1680 E17.12331
G1 F1200 X54.4 Y41.578 E18.75051
G1 F1680 E15.75051
G1 F3600 X52.8 Y41.264
G1 F1680 E18.75051
G1 F1200 X52.8 Y54.99 E20.26413
G1 F1680 E17.26413
G1 F3600 X51.2 Y54.397
G1 F1680 E20.26413
G1 F1200 X51.2 Y41.094 E21.73111
G1 F1680 E18.73111
G1 F3600 X49.6 Y41.064
G1 F1680 E21.73111
G1 F1200 X49.6 Y54.285 E23.18904
G1 F1680 E20.18904
G1 F3600 X48 Y54.622
G1 F1680 E23.18904
G1 F1200 X48 Y41.16 E24.67355
G1 F1680 E21.67355
G1 F3600 X46.4 Y41.4
G1 F1680 E24.67355
G1 F1200 X46.4 Y55.544 E26.23326
G1 F1680 E23.23326
G1 F3600 X44.8 Y57.593
G1 F1680 E26.23326
G1 F1200 X44.8 Y41.783 E27.97669
G1 F1680 E24.97669
G1 F3600 X43.2 Y42.316
G1 F1680 E27.97669
G1 F1200 X43.2 Y77.682 E31.87664
G1 F1680 E28.87664
G1 F3600 X44.8 Y78.216
G1 F1680 E31.87664
G1 F1200 X44.8 Y62.405 E33.62018
G1 F1680 E30.62018
G1 F3600 X46.4 Y64.453
G1 F1680 E33.62018
G1 F1200 X46.4 Y78.6 E35.18023
G1 F1680 E32.18023
G1 F3600 X48 Y78.817
G1 F1680 E35.18023
G1 F1200 X48 Y65.374 E36.66264
G1 F1680 E33.66264
G1 F3600 X49.6 Y65.72
G1 F1680 E36.66264
G1 F1200 X49.6 Y78.939 E38.12036
G1 F1680 E35.12036
G1 F3600 X51.2 Y78.908
G1 F1680 E38.12036
G1 F1200 X51.2 Y65.601 E39.58777
G1 F1680 E36.58777
G1 F3600 X52.8 Y65.005
G1 F1680 E39.58777
G1 F1200 X52.8 Y78.737 E41.10205
G1 F1680 E38.10205
G1 F3600 X54.4 Y78.426
G1 F1680 E41.10205
G1 F1200 X54.4 Y63.671 E42.72915
G1 F1680 E39.72915
G1 F3600 X64 Y72.768
G1 F1680 E42.72915
G1 F1200 X64 Y47.236 E45.54466
G1 F1680 E42.54466
G1 F3600 X62.4 Y45.687
G1 F1680 E45.54466
G1 F1200 X62.4 Y74.317 E48.70181
G1 F1680 E45.70181
G1 F3600 X60.8 Y75.565
G1 F1680 E48.70181
G1 F1200 X60.8 Y44.439 E52.13419
G1 F1680 E49.13419
G1 F3600 X59.2 Y43.445
G1 F1680 E52.13419
G1 F1200 X59.2 Y76.556 E55.78548
G1 F1680 E52.78548
G1 F3600 X57.6 Y77.356
G1 F1680 E55.78548
G1 F1200 X57.6 Y42.646 E59.61308
G1 F1680 E56.61308
G1 F3600 X56 Y42.034
G1 F1680 E59.61308
G1 F1200 X56 Y77.97 E63.57589
G1 F1680 E60.57589
G1 F3600 X65.6 Y70.748
G1 F1680 E63.57589
G1 F1200 X65.6 Y49.261 E65.94535
G1 F1680 E62.94535
G1 F3600 X67.2 Y52.08
G1 F1680 E65.94535
G1 F1200 X67.2 Y67.932 E67.69341
G1 F1680 E64.69341
G1 F3600 X68.8 Y62.305
G1 F1680 E67.69341
G1 F1200 X68.8 Y57.696 E68.20166
G1 F1680 E65.20166
G1 F3600 X41.6 Y43.02
G1 F1680 E68.20166
G1 F1200 X41.6 Y76.983 E71.9469
G1 F1680 E68.9469
G1 F3600 X40 Y76.084
G1 F1680 E71.9469
G1 F1200 X40 Y43.91 E75.49485
G1 F1680 E72.49485
G1 F3600 X38.4 Y45.027
G1 F1680 E75.49485
G1 F1200 X38.4 Y74.973 E78.79712
G1 F1680 E75.79712
G1 F3600 X36.8 Y73.589
G1 F1680 E78.79712
G1 F1200 X36.8 Y46.41 E81.79425
G1 F1680 E78.79425
G1 F3600 X35.2 Y48.176
M104 T0 S200
G1 F1680 E81.79425
G1 F1200 X35.2 Y71.821 E84.40168
G1 F1680 E81.40168
G1 F3600 X33.6 Y69.489
G1 F1680 E84.40168
G1 F1200 X33.6 Y50.51 E86.49457
G1 F1680 E83.49457
G1 F3600 X32 Y54.094
G1 F1680 E86.49457
G1 F1200 X32 Y65.914 E87.79801
G1 F1680 E84.79801
G1 F3600 X62.129 Y45.376
;TIME_ELAPSED:49.781212
;LAYER:-5
G1 X62.129 Y45.376 Z0.619
;TYPE:SUPPORT
G1 F1680 E87.79801
G1 F1980 X61.917 Y45.205 E87.81831
G1 X61.218 Y44.667 E87.88406
G1 X61.205 Y44.658 E87.88524
G1 X65.322 Y48.776 E88.3193
G1 F3600 X65.269 Y48.701
G1 F1980 X64.821 Y48.115 E88.37428
G1 X64.635 Y47.885 E88.39633
G1 X64.15 Y47.323 E88.45167
G1 X63.475 Y46.609 E88.52491
G1 X63.218 Y46.359 E88.55164
G1 X63.097 Y46.252 E88.56368
G1 X62.755 Y45.923 E88.59905
G1 X62.598 Y45.795 E88.61415
G1 X62.129 Y45.376 E88.66103
G1 F1680 E85.66103
G1 F3600 X61.205 Y44.658
G1 F1680 E88.66103
G1 F1980 X60.534 Y44.192 E88.72193
G1 X59.478 Y43.534 E88.81467
G1 X58.996 Y43.268 E88.85571
G1 X58.431 Y42.975 E88.90315
G1 X58.088 Y42.815 E88.93137
G1 X67.178 Y51.905 E89.88961
G1 X67.308 Y52.191 E89.91303
G1 X67.361 Y52.289 E89.92133
G1 X67.597 Y52.841 E89.96608
G1 X67.79 Y53.335 E90.00562
G1 X68.032 Y54.032 E90.06062
G1 X55.971 Y41.97 E91.33211
G1 X55.787 Y41.913 E91.34647
G1 X55.355 Y41.777 E91.38023
G1 X54.747 Y41.604 E91.42735
G1 X54.206 Y41.478 E91.46876
G1 X68.517 Y55.789 E92.97739
G1 X68.601 Y56.142 E93.00444
G1 X68.719 Y56.759 E93.05126
G1 X68.773 Y57.101 E93.07707
G1 X68.807 Y57.352 E93.09595
G1 X52.643 Y41.188 E94.79993
G1 F3600 X52.637 Y41.186
G1 F1980 X51.943 Y41.1 E94.85205
G1 X51.436 Y41.06 E94.88996
G1 X51.227 Y41.045 E94.90558
G1 X68.954 Y58.772 E96.77432
G1 X68.976 Y59.07 E96.7966
G1 X68.986 Y59.384 E96.82001
G1 X68.992 Y59.927 E96.86049
G1 X68.99 Y60.081 E96.87197
G1 X49.917 Y41.007 E98.88266
G1 X49.095 Y41.024 E98.94394
G1 X48.762 Y41.044 E98.96881
G1 X48.687 Y41.05 E98.97442
G1 X68.949 Y61.312 E101.11039
G1 X68.889 Y62.018 E101.16321
G1 X68.83 Y62.466 E101.19689
G1 X47.531 Y41.167 E103.44218
G1 X47.359 Y41.188 E103.4551
G1 X46.77 Y41.278 E103.49951
G1 X46.433 Y41.342 E103.52508
G1 X68.655 Y63.564 E105.86768
G1 X68.57 Y63.998 E105.90064
G1 X68.423 Y64.605 E105.9472
G1 X45.392 Y41.573 E108.37512
G1 X45.141 Y41.633 E108.39436
G1 X44.785 Y41.732 E108.42191
G1 X44.396 Y41.85 E108.45221
G1 X68.147 Y65.601 E110.95598
G1 X68.083 Y65.818 E110.97285
G1 X67.829 Y66.556 E111.03103
G1 X43.446 Y42.173 E113.60143
G1 X43.098 Y42.297 E113.62896
G1 X42.533 Y42.533 E113.67461
G1 X67.459 Y67.459 E116.30225
G1 X67.364 Y67.672 E116.31963
G1 X67.074 Y68.329 E116.37317
G1 X67.068 Y68.341 E116.37417
G1 X41.662 Y42.935 E119.05241
G1 X41.338 Y43.091 E119.07921
G1 X41.011 Y43.274 E119.10715
G1 X40.826 Y43.372 E119.12275
G1 X52.231 Y54.777 E120.32504
G1 X51.985 Y54.669 E120.34507
G1 X51.895 Y54.636 E120.35221
G1 X51.359 Y54.476 E120.39391
G1 X50.744 Y54.362 E120.44053
G1 X50.522 Y54.34 E120.45716
G1 X40.02 Y43.838 E121.56426
G1 X39.75 Y44.001 E121.58777
G1 X39.25 Y44.341 E121.63284
G1 X49.28 Y54.371 E122.69018
G1 X48.895 Y54.421 E122.71912
G1 X48.613 Y54.485 E122.74067
G1 X48.236 Y54.6 E122.77005
G1 X38.513 Y44.877 E123.79503
G1 X38.101 Y45.187 E123.83346
G1 X37.898 Y45.353 E123.85301
G1 X37.801 Y45.437 E123.86258
G1 X47.335 Y54.972 E124.86768
G1 X46.822 Y55.275 E124.91209
G1 X46.566 Y55.476 E124.93636
G1 X37.13 Y46.04 E125.93108
G1 X36.809 Y46.329 E125.96327
G1 X36.574 Y46.557 E125.98768
G1 X36.476 Y46.659 E125.99822
G1 X45.889 Y56.072 E126.99052
G1 X45.852 Y56.109 E126.99442
G1 X45.469 Y56.562 E127.03864
G1 X45.324 Y56.779 E127.05809
G1 X35.858 Y47.313 E128.05598
G1 X35.385 Y47.862 E128.11
G1 X35.273 Y48.001 E128.1233
G1 X44.86 Y57.588 E129.13394
G1 X44.781 Y57.74 E129.14671
G1 X44.629 Y58.134 E129.17819
G1 X44.513 Y58.514 E129.20781
G1 X34.716 Y48.717 E130.24058
G1 X34.628 Y48.834 E130.2515
M73 P2
G1 X34.274 Y49.344 E130.29777
G1 X34.191 Y49.464 E130.30865
G1 X44.328 Y59.602 E131.37732
G1 X44.308 Y59.784 E131.39097
G1 X44.312 Y60.27 E131.4272
G1 X44.384 Y60.926 E131.47639
G1 F3600 X44.385 Y60.932
G1 F1980 X33.7 Y50.246 E132.60283
G1 X33.619 Y50.376 E132.61425
G1 X33.486 Y50.605 E132.63399
G1 X33.239 Y51.058 E132.67245
G1 X45.18 Y62.999 E133.93124
G1 X45.435 Y63.391 E133.9661
G1 X45.779 Y63.809 E134.00646
G1 X46.171 Y64.203 E134.04788
G1 X46.24 Y64.266 E134.05485
G1 X46.948 Y64.804 E134.12113
G1 F3600 X47.031 Y64.85
G1 F1980 X47.526 Y65.126 E134.16338
G1 X48.117 Y65.366 E134.21093
G1 X48.639 Y65.519 E134.25147
G1 X49.056 Y65.603 E134.28318
G1 X59.747 Y76.293 E135.41015
G1 X60.22 Y76.014 E135.45109
G1 X60.496 Y75.835 E135.47561
G1 X60.534 Y75.808 E135.47908
G1 X50.397 Y65.671 E136.5477
G1 X50.878 Y65.617 E136.58378
G1 X51.487 Y65.487 E136.6302
G1 X61.277 Y75.278 E137.66229
G1 X61.859 Y74.84 E137.71659
G1 X61.999 Y74.727 E137.73
G1 X52.414 Y65.142 E138.74043
G1 X52.601 Y65.062 E138.75559
G1 X53.187 Y64.715 E138.80635
G1 X53.228 Y64.684 E138.81019
G1 X62.685 Y74.14 E139.80707
G1 X62.783 Y74.037 E139.81767
G1 X63.191 Y73.669 E139.85862
G1 X63.34 Y73.522 E139.87422
G1 X53.923 Y64.106 E140.86689
G1 X54.16 Y63.875 E140.89156
G1 X54.525 Y63.434 E140.93423
G1 X63.967 Y72.876 E141.92959
