M73 P0
;MINX:38.5
;MAXX:61.5
;MINY:43.5
;MAXY:76.5
;MINZ:0.0
;MAXZ:25.0
;MachineType:ENTINA TINA2
;FilamentType:PLA
;Extruder0Temperature:205
;InfillDensity:20
;FLAVOR:Marlin
;TIME:591
;FilamentUsed:519.1
;Layer height: 0.35

;Generated with Cura_SteamEngine 3.1
M104 T0 S220
M82 ; absolute extrusion mode
;(**** start.gcode for tina2****)
M104 S150
G28 Z
G28 X Y; Home extruder
G1 X55 Y55 F1000
G1 Z10 F200
G29
G1 Z15 F100
M107 ; Turn off fan
G90 ; Absolute positioning
M82 ; Extruder in absolute mode
M109 S220.0
G92 E0 ; Reset extruder position
G1 X90 Y6 Z0.27 F2000
G1 X20 Y6 Z0.27 E15 F1000
G92 E0 ; Reset extruder position

;LAYER_COUNT:72
;LAYER:0
M106 S255
M203 Z5
G1 F3600 X61.081 Y43.706 Z0.299
;TYPE:SKIRT
G1 F1200 X61.372 Y44.003 E0.02168
G1 X61.743 Y44.438 E0.05148
G1 X62.049 Y44.922 E0.08134
G1 X62.286 Y45.443 E0.11118
G1 X62.447 Y45.992 E0.14101
G1 X62.537 Y46.649 E0.17558
G1 X62.592 Y47.658 E0.22826
G1 X62.598 Y47.887 E0.24021
G1 X62.583 Y57.997 E0.76729
G1 X62.542 Y58.568 E0.79714
G1 X62.422 Y59.128 E0.827
G1 X62.302 Y59.483 E0.84653
G1 X60.463 Y64.191 E1.11005
G1 X58.743 Y69.349 E1.39352
G1 X57.335 Y74.341 E1.66393
G1 X57.142 Y74.88 E1.69378
G1 X56.875 Y75.386 E1.72361
G1 X56.54 Y75.851 E1.75349
G1 X56.145 Y76.264 E1.78328
G1 X55.645 Y76.652 E1.81628
G1 X55.261 Y76.905 E1.84025
G1 X54.762 Y77.185 E1.87008
G1 X54.229 Y77.394 E1.89993
G1 X53.672 Y77.526 E1.92977
G1 X53.005 Y77.581 E1.96467
G1 X41.997 Y77.58 E2.53857
G1 X41.426 Y77.54 E2.56841
G1 X40.866 Y77.421 E2.59826
G1 X40.125 Y77.128 E2.6398
G1 X39.819 Y76.971 E2.65774
G1 X39.33 Y76.675 E2.68754
G1 X38.886 Y76.313 E2.7174
G1 X38.497 Y75.893 E2.74725
G1 X38.17 Y75.424 E2.77706
G1 X37.88 Y74.834 E2.81133
G1 X37.7 Y74.38 E2.83679
G1 X37.526 Y73.835 E2.86662
G1 X37.431 Y73.27 E2.89649
G1 X37.411 Y72.852 E2.91831
G1 X37.457 Y61.858 E3.49149
G1 X37.499 Y61.287 E3.52134
G1 X37.621 Y60.728 E3.55117
G1 X37.752 Y60.349 E3.57207
G1 X39.068 Y57.067 E3.75642
G1 X40.865 Y51.918 E4.04075
G1 X42.666 Y45.646 E4.38095
G1 X42.862 Y45.108 E4.41081
G1 X43.131 Y44.603 E4.44064
G1 X43.468 Y44.14 E4.47049
G1 X43.866 Y43.728 E4.50036
G1 X44.299 Y43.388 E4.52906
G1 X44.669 Y43.136 E4.5524
G1 X45.163 Y42.848 E4.58221
G1 X45.693 Y42.631 E4.61207
G1 X46.248 Y42.49 E4.64192
G1 X46.971 Y42.425 E4.67977
G1 X57.839 Y42.409 E5.24638
G1 X58.41 Y42.448 E5.27621
G1 X58.707 Y42.501 E5.29194
G1 X59.014 Y42.567 E5.30831
G1 X59.564 Y42.726 E5.33816
G1 X60.086 Y42.96 E5.36799
G1 X60.57 Y43.264 E5.39778
G1 X61.081 Y43.706 E5.43301
G1 F3600 X60.766 Y44.014
G1 F1200 X61.057 Y44.311 E5.45469
G1 X61.406 Y44.724 E5.48288
G1 X61.69 Y45.184 E5.51106
G1 X61.904 Y45.681 E5.53927
G1 X62.041 Y46.203 E5.56741
G1 X62.098 Y46.673 E5.59209
G1 X62.153 Y47.682 E5.64478
G1 X62.158 Y47.886 E5.65541
G1 X62.143 Y57.996 E6.1825
G1 X62.102 Y58.536 E6.21074
G1 X61.983 Y59.063 E6.2389
G1 X61.892 Y59.323 E6.25326
G1 X60.053 Y64.031 E6.51678
G1 X58.324 Y69.217 E6.80178
G1 X56.912 Y74.222 E7.0729
G1 X56.727 Y74.73 E7.10109
G1 X56.469 Y75.205 E7.12927
G1 X56.144 Y75.637 E7.15746
G1 X55.759 Y76.017 E7.18566
G1 X55.403 Y76.284 E7.20886
G1 X55.019 Y76.537 E7.23283
G1 X54.546 Y76.801 E7.26107
G1 X54.04 Y76.991 E7.28925
G1 X53.512 Y77.106 E7.31743
G1 X53.005 Y77.141 E7.34392
G1 X41.997 Y77.14 E7.91783
G1 X41.457 Y77.1 E7.94606
G1 X40.93 Y76.981 E7.97422
G1 X40.326 Y76.736 E8.00821
G1 X40.02 Y76.579 E8.02614
G1 X39.559 Y76.298 E8.05428
G1 X39.144 Y75.951 E8.08249
G1 X38.784 Y75.547 E8.1107
G1 X38.488 Y75.094 E8.13891
G1 X38.289 Y74.672 E8.16324
G1 X38.109 Y74.218 E8.1887
G1 X37.947 Y73.702 E8.21689
G1 X37.863 Y73.168 E8.24508
G1 X37.851 Y72.854 E8.26146
G1 X37.897 Y61.86 E8.83464
G1 X37.939 Y61.321 E8.86282
G1 X38.06 Y60.794 E8.89101
G1 X38.16 Y60.513 E8.90656
G1 X39.479 Y57.224 E9.09131
G1 X41.287 Y52.046 E9.37725
G1 X43.089 Y45.767 E9.71782
G1 X43.276 Y45.26 E9.746
G1 X43.536 Y44.786 E9.77418
G1 X43.863 Y44.355 E9.80239
G1 X44.25 Y43.977 E9.83059
G1 X44.547 Y43.752 E9.85002
G1 X44.917 Y43.5 E9.87336
G1 X45.385 Y43.229 E9.90155
G1 X45.888 Y43.031 E9.92973
G1 X46.415 Y42.908 E9.95795
G1 X46.972 Y42.865 E9.98707
G1 X57.84 Y42.849 E10.55368
G1 X58.614 Y42.931 E10.59426
G1 X58.921 Y42.997 E10.61063
G1 X59.44 Y43.149 E10.63883
G1 X59.931 Y43.376 E10.66703
G1 X60.383 Y43.673 E10.69522
G1 X60.766 Y44.014 E10.72196
G1 F3600 X60.452 Y44.321
G1 F1200 X60.743 Y44.618 E10.74364
G1 X61.068 Y45.008 E10.7701
G1 X61.328 Y45.443 E10.79653
G1 X61.517 Y45.914 E10.82298
G1 X61.629 Y46.408 E10.84939
G1 X61.658 Y46.697 E10.86454
G1 X61.713 Y47.706 E10.91722
G1 X61.718 Y47.886 E10.92661
G1 X61.703 Y57.996 E11.45369
G1 X61.662 Y58.501 E11.48011
G1 X61.482 Y59.163 E11.51588
G1 X59.643 Y63.871 E11.77939
G1 X57.896 Y69.11 E12.06731
G1 X56.488 Y74.102 E12.33773
G1 X56.312 Y74.578 E12.36418
G1 X56.064 Y75.02 E12.39061
G1 X55.75 Y75.418 E12.41704
G1 X55.377 Y75.761 E12.44346
G1 X55.161 Y75.917 E12.45735
G1 X54.777 Y76.17 E12.48132
G1 X54.332 Y76.415 E12.50781
G1 X53.855 Y76.587 E12.53424
G1 X53.357 Y76.682 E12.56067
G1 X53.005 Y76.701 E12.57905
G1 X41.997 Y76.7 E13.15296
G1 X41.491 Y76.66 E13.17942
G1 X40.998 Y76.541 E13.20586
G1 X40.527 Y76.345 E13.23246
G1 X40.221 Y76.188 E13.25039
G1 X39.789 Y75.922 E13.27684
G1 X39.405 Y75.591 E13.30327
G1 X39.077 Y75.204 E13.32972
G1 X38.814 Y74.77 E13.35617
G1 X38.698 Y74.51 E13.37102
G1 X38.518 Y74.056 E13.39648
G1 X38.368 Y73.571 E13.42295
G1 X38.291 Y72.856 E13.46044
G1 X38.337 Y61.862 E14.03362
G1 X38.379 Y61.356 E14.06009
G1 X38.568 Y60.676 E14.09688
G1 X39.9 Y57.354 E14.28348
G1 X41.705 Y52.184 E14.56898
G1 X43.512 Y45.889 E14.91042
G1 X43.69 Y45.414 E14.93687
G1 X43.94 Y44.973 E14.9633
G1 X44.257 Y44.576 E14.98978
G1 X44.794 Y44.116 E15.02665
G1 X45.164 Y43.864 E15.04999
G1 X45.605 Y43.612 E15.07647
G1 X46.079 Y43.433 E15.10288
G1 X46.576 Y43.33 E15.12934
G1 X46.972 Y43.305 E15.15003
G1 X57.84 Y43.289 E15.71664
G1 X58.522 Y43.361 E15.75239
G1 X58.829 Y43.427 E15.76876
G1 X59.315 Y43.572 E15.7952
M73 P1
G1 X59.772 Y43.792 E15.82165
G1 X60.189 Y44.081 E15.8481
G1 X60.452 Y44.321 E15.86666
G1 F1680 E12.86666
G1 F3600 X57.834 Y47.16
;TYPE:WALL-INNER
G1 F1680 E15.86666
G1 F1320 X57.84 Y48.179 E15.91979
G1 X57.833 Y57.838 E16.42336
G1 X47.164 Y57.836 E16.97959
G1 X47.164 Y47.162 E17.53608
G1 X57.834 Y47.16 E18.09237
G1 F3600 X57.882 Y46.8
;TYPE:WALL-OUTER
G1 F1320 X57.975 Y46.811 E18.09725
G1 X58.03 Y46.831 E18.1003
G1 X58.099 Y46.878 E18.10465
G1 X58.155 Y46.945 E18.10921
G1 X58.174 Y46.983 E18.11142
G1 X58.193 Y47.049 E18.115
G1 X58.2 Y48.179 E18.17392
G1 X58.193 Y57.956 E18.68364
G1 X58.166 Y58.035 E18.688
G1 X58.111 Y58.111 E18.69289
G1 X58.025 Y58.169 E18.69829
G1 X57.964 Y58.191 E18.70167
G1 X57.923 Y58.198 E18.70384
G1 X47.057 Y58.196 E19.27035
G1 X46.966 Y58.166 E19.27534
G1 X46.89 Y58.111 E19.28023
G1 X46.85 Y58.061 E19.28357
G1 X46.809 Y57.961 E19.2892
G1 X46.804 Y57.925 E19.2911
G1 X46.804 Y47.078 E19.85661
G1 X46.823 Y46.989 E19.86136
G1 X46.842 Y46.95 E19.86362
G1 X46.913 Y46.868 E19.86927
G1 X47.013 Y46.817 E19.87512
G1 X47.084 Y46.802 E19.87891
G1 X57.882 Y46.8 E20.44186
G1 F1680 E17.44186
G1 F3600 X57.406 Y47.59
;TYPE:SKIN
G1 F1680 E20.44186
G1 F1320 X57.403 Y57.408 E20.95373
G1 X47.594 Y57.406 E21.46512
G1 X47.594 Y47.592 E21.97678
G1 X57.406 Y47.59 E22.48833
G1 F3600 X57.164 Y47.83
G1 F1320 X56.853 Y48.142 E22.5173
G1 X57.233 Y48.522
G1 F3600 X57.205 Y49.116
G1 F1320 X55.879 Y47.79 E22.61507
G1 X55.851 Y47.762
G1 F3600 X55.257 Y47.79
G1 F1320 X57.205 Y49.738 E22.75869
G1 X57.233 Y49.766
G1 F3600 X57.204 Y50.36
G1 F1320 X54.635 Y47.79 E22.94814
G1 X54.607 Y47.762
G1 F3600 X54.013 Y47.791
G1 F1320 X57.204 Y50.982 E23.18342
G1 X57.232 Y51.01
G1 F3600 X57.204 Y51.604
G1 F1320 X53.391 Y47.791 E23.46455
G1 X53.363 Y47.763
G1 F3600 X52.769 Y47.791
G1 F1320 X57.204 Y52.226 E23.79155
G1 X57.232 Y52.254
G1 F3600 X57.204 Y52.848
G1 F1320 X52.147 Y47.791 E24.1644
G1 X52.119 Y47.763
G1 F3600 X51.524 Y47.791
G1 F1320 X57.204 Y53.47 E24.58315
G1 X57.232 Y53.498
G1 F3600 X57.204 Y54.092
G1 F1320 X50.903 Y47.791 E25.04773
G1 X50.875 Y47.763
G1 F3600 X50.28 Y47.791
G1 F1320 X57.204 Y54.715 E25.55824
G1 X57.232 Y54.743
G1 F3600 X57.203 Y55.336
G1 F1320 X49.658 Y47.791 E26.11453
G1 X49.63 Y47.763
G1 F3600 X49.036 Y47.791
G1 F1320 X57.203 Y55.959 E26.71672
G1 X57.231 Y55.987
G1 F3600 X57.203 Y56.581
G1 F1320 X48.414 Y47.791 E27.36478
G1 X48.386 Y47.763
G1 F3600 X47.793 Y47.793
G1 F1320 X57.203 Y57.203 E28.05858
G1 X57.231 Y57.231
G1 F3600 X56.584 Y57.206
G1 F1320 X47.793 Y48.415 E28.70674
G1 X47.765 Y48.387
G1 F3600 X47.793 Y49.037
G1 F1320 X55.961 Y57.206 E29.30901
G1 X55.989 Y57.234
G1 F3600 X55.339 Y57.206
G1 F1320 X47.793 Y49.66 E29.86538
G1 X47.765 Y49.632
G1 F3600 X47.793 Y50.282
G1 F1320 X54.717 Y57.206 E30.37589
G1 X54.745 Y57.234
G1 F3600 X54.095 Y57.206
G1 F1320 X47.793 Y50.904 E30.84054
G1 X47.765 Y50.876
G1 F3600 X47.793 Y51.526
G1 F1320 X53.472 Y57.206 E31.25929
G1 X53.5 Y57.234
G1 F3600 X52.85 Y57.206
G1 F1320 X47.793 Y52.149 E31.63215
G1 X47.765 Y52.121
G1 F3600 X47.793 Y52.771
G1 F1320 X52.227 Y57.205 E31.95907
G1 X52.255 Y57.233
G1 F3600 X51.605 Y57.205
G1 F1320 X47.793 Y53.393 E32.24013
G1 X47.765 Y53.365
G1 F3600 X47.793 Y54.015
G1 F1320 X50.983 Y57.205 E32.47533
G1 X51.011 Y57.233
G1 F3600 X50.36 Y57.205
G1 F1320 X47.793 Y54.638 E32.66459
G1 X47.765 Y54.61
G1 F3600 X47.793 Y55.26
G1 F1320 X49.738 Y57.205 E32.808
G1 X49.766 Y57.233
G1 F3600 X49.116 Y57.205
G1 F1320 X47.793 Y55.882 E32.90554
G1 X47.765 Y55.854
G1 F3600 X47.793 Y56.504
G1 F1320 X48.494 Y57.205 E32.95723
G1 X48.522 Y57.233
G1 F3600 X47.871 Y57.205
G1 F1320 X47.793 Y57.127 E32.96298
G1 F1680 E29.96298
G1 F3600 X52.833 Y62.16
;TYPE:WALL-INNER
G1 F1680 E32.96298
G1 F1320 X52.84 Y63.179 E33.01611
G1 X52.833 Y72.838 E33.51968
G1 X42.164 Y72.835 E34.07591
G1 X42.168 Y62.162 E34.63235
G1 X52.833 Y62.16 E35.18837
G1 F3600 X52.881 Y61.8
;TYPE:WALL-OUTER
G1 F1320 X52.97 Y61.811 E35.19305
G1 X53.038 Y61.836 E35.19683
G1 X53.092 Y61.872 E35.20021
G1 X53.144 Y61.928 E35.20419
G1 X53.183 Y62.006 E35.20874
G1 X53.192 Y62.04 E35.21057
G1 X53.2 Y63.179 E35.26996
G1 X53.193 Y72.956 E35.77969
G1 X53.153 Y73.057 E35.78535
G1 X53.086 Y73.132 E35.79059
G1 X53.026 Y73.169 E35.79427
G1 X52.98 Y73.185 E35.79681
G1 X52.905 Y73.198 E35.80077
G1 X42.056 Y73.195 E36.36639
G1 X41.966 Y73.166 E36.37132
G1 X41.89 Y73.111 E36.37621
G1 X41.85 Y73.061 E36.37955
G1 X41.809 Y72.961 E36.38518
G1 X41.804 Y72.925 E36.38708
G1 X41.808 Y62.043 E36.95441
G1 X41.848 Y61.943 E36.96003
G1 X41.913 Y61.868 E36.9652
G1 X42.013 Y61.817 E36.97106
G1 X42.084 Y61.802 E36.97484
G1 X52.881 Y61.8 E37.53774
G1 F1680 E34.53774
G1 F3600 X52.406 Y62.59
;TYPE:SKIN
G1 F1680 E37.53774
G1 F1320 X52.403 Y72.408 E38.04961
G1 X42.594 Y72.405 E38.561
G1 X42.598 Y62.592 E39.07261
G1 X52.406 Y62.59 E39.58395
G1 F1680 E36.58395
G1 F3600 X52.205 Y63.406
G1 F1680 E39.58395
G1 F1320 X51.589 Y62.79 E39.62937
G1 F3600 X50.967 Y62.79
G1 F1320 X52.205 Y64.028 E39.72065
G1 X52.233 Y64.056
G1 F3600 X52.205 Y64.65
G1 F1320 X50.345 Y62.79 E39.85778
G1 X50.317 Y62.762
G1 F3600 X49.723 Y62.79
G1 F1320 X52.204 Y65.272 E40.04075
G1 X52.232 Y65.3
G1 F3600 X52.204 Y65.894
G1 F1320 X49.1 Y62.79 E40.2696
G1 X49.072 Y62.762
G1 F3600 X48.478 Y62.79
G1 F1320 X52.204 Y66.516 E40.54432
G1 X52.232 Y66.544
G1 F3600 X52.204 Y67.139
G1 F1320 X47.856 Y62.79 E40.86494
G1 X47.828 Y62.762
G1 F3600 X47.234 Y62.791
G1 F1320 X52.204 Y67.76 E41.23134
G1 X52.232 Y67.788
G1 F3600 X52.204 Y68.382
G1 F1320 X46.612 Y62.791 E41.64361
G1 X46.584 Y62.763
G1 F3600 X45.99 Y62.791
G1 F1320 X52.204 Y69.005 E42.10177
G1 X52.232 Y69.033
G1 F3600 X52.204 Y69.627
G1 F1320 X45.367 Y62.791 E42.60583
G1 X45.339 Y62.763
M73 P2
G1 F3600 X44.745 Y62.791
G1 F1320 X52.203 Y70.248 E43.15567
G1 X52.231 Y70.276
G1 F3600 X52.203 Y70.871
G1 F1320 X44.123 Y62.791 E43.75141
G1 X44.095 Y62.763
G1 F3600 X43.501 Y62.791
G1 F1320 X52.203 Y71.493 E44.39301
G1 X52.231 Y71.521
G1 F3600 X52.203 Y72.115
G1 F1320 X42.878 Y62.791 E45.08051
G1 X42.85 Y62.763
G1 F3600 X42.797 Y63.332
G1 F1320 X51.671 Y72.206 E45.7348
G1 X51.699 Y72.234
G1 F3600 X51.049 Y72.206
G1 F1320 X42.797 Y63.954 E46.34322
G1 X42.769 Y63.926
G1 F3600 X42.796 Y64.575
G1 F1320 X50.427 Y72.206 E46.90586
G1 X50.455 Y72.234
G1 F3600 X49.804 Y72.205
M104 T0 S205
G1 F1320 X42.796 Y65.198 E47.42252
G1 X42.768 Y65.17
G1 F3600 X42.796 Y65.82
G1 F1320 X49.182 Y72.205 E47.89333
G1 X49.21 Y72.233
G1 F3600 X48.559 Y72.205
G1 F1320 X42.796 Y66.441 E48.31827
G1 X42.768 Y66.413
G1 F3600 X42.796 Y67.064
G1 F1320 X47.937 Y72.205 E48.69732
G1 X47.965 Y72.233
G1 F3600 X47.314 Y72.204
G1 F1320 X42.795 Y67.685 E49.03051
G1 X42.767 Y67.657
G1 F3600 X42.795 Y68.307
G1 F1320 X46.692 Y72.204 E49.31784
G1 X46.72 Y72.232
G1 F3600 X46.07 Y72.204
G1 F1320 X42.795 Y68.93 E49.55927
G1 X42.767 Y68.902
G1 F3600 X42.794 Y69.551
G1 F1320 X45.447 Y72.204 E49.75487
G1 X45.475 Y72.232
G1 F3600 X44.824 Y72.204
G1 F1320 X42.794 Y70.173 E49.90458
G1 X42.766 Y70.145
G1 F3600 X42.794 Y70.795
G1 F1320 X44.202 Y72.204 E50.00843
G1 X44.23 Y72.232
G1 F3600 X43.58 Y72.204
G1 F1320 X42.794 Y71.417 E50.06642
G1 X42.766 Y71.389
G1 F3600 X42.794 Y72.04
G1 F1320 X42.958 Y72.204 E50.07851
G1 F1680 E47.07851
G1 F3600 X57.896 Y47.104
;TIME_ELAPSED:49.417004
;LAYER:1
G1 F4350 X57.896 Y47.104 Z0.648
;TYPE:WALL-INNER
G1 F1680 E50.07851
G1 F1410 X57.893 Y57.897 E50.67531
G1 X47.108 Y57.896 E51.27167
G1 X47.105 Y47.106 E51.8683
G1 X47.129 Y47.1 E51.86967
G1 X57.896 Y47.104 E52.46503
G1 F4350 X58.216 Y47.072
;TYPE:WALL-OUTER
G1 F1260 X58.213 Y57.961 E53.06714
G1 X58.184 Y58.047 E53.07215
G1 X58.126 Y58.126 E53.07757
G1 X58.05 Y58.181 E53.08276
G1 X57.968 Y58.211 E53.08759
G1 X57.927 Y58.218 E53.08989
G1 X47.05 Y58.216 E53.69133
G1 X46.955 Y58.183 E53.69689
G1 X46.883 Y58.133 E53.70174
G1 X46.833 Y58.07 E53.70619
G1 X46.789 Y57.964 E53.71253
G1 X46.784 Y57.928 E53.71454
G1 X46.785 Y47.05 E54.31604
G1 X46.819 Y46.952 E54.32178
G1 X46.875 Y46.875 E54.32704
G1 X46.905 Y46.85 E54.3292
G1 X47.013 Y46.793 E54.33595
G1 X47.108 Y46.78 E54.34126
G1 X57.927 Y46.782 E54.93949
G1 X58.019 Y46.805 E54.94474
G1 X58.108 Y46.858 E54.95046
G1 X58.172 Y46.933 E54.95592
G1 X58.195 Y46.977 E54.95866
G1 X58.216 Y47.072 E54.96404
G1 F1680 E51.96404
G1 F4350 X57.506 Y47.494
;TYPE:SKIN
G1 F1680 E54.96404
G1 F1800 X57.503 Y57.507 E55.51771
G1 X47.498 Y57.506 E56.07094
G1 X47.495 Y47.49 E56.62477
G1 X57.506 Y47.494 E57.17833
G1 F1680 E54.17833
G1 F4350 X47.675 Y47.925
G1 F1680 E57.17833
G1 F1800 X47.93 Y47.67 E57.19827
G1 F4350 X48.496 Y47.67
G1 F1800 X47.675 Y48.491 E57.26247
G1 X47.647 Y48.519
G1 F4350 X47.675 Y49.056
G1 F1800 X49.061 Y47.67 E57.37085
G1 X49.089 Y47.642
G1 F4350 X49.626 Y47.671
G1 F1800 X47.675 Y49.621 E57.52338
G1 X47.647 Y49.649
G1 F4350 X47.675 Y50.187
G1 F1800 X50.192 Y47.671 E57.72017
G1 X50.22 Y47.643
G1 F4350 X50.758 Y47.671
G1 F1800 X47.675 Y50.753 E57.96122
G1 X47.647 Y50.781
G1 F4350 X47.675 Y51.318
G1 F1800 X51.323 Y47.671 E58.24645
G1 X51.351 Y47.643
G1 F4350 X51.888 Y47.671
G1 F1800 X47.676 Y51.883 E58.57582
G1 X47.648 Y51.911
G1 F4350 X47.676 Y52.449
G1 F1800 X52.454 Y47.671 E58.94946
G1 X52.482 Y47.643
G1 F4350 X53.019 Y47.672
G1 F1800 X47.676 Y53.015 E59.36727
G1 X47.648 Y53.043
G1 F4350 X47.677 Y53.58
G1 F1800 X53.585 Y47.672 E59.82927
G1 X53.613 Y47.644
G1 F4350 X54.15 Y47.673
G1 F1800 X47.677 Y54.145 E60.33541
G1 X47.649 Y54.173
G1 F4350 X47.677 Y54.711
G1 F1800 X54.715 Y47.673 E60.88578
G1 X54.743 Y47.645
G1 F4350 X55.281 Y47.673
G1 F1800 X47.677 Y55.277 E61.4804
G1 X47.649 Y55.305
G1 F4350 X47.678 Y55.842
G1 F1800 X55.846 Y47.673 E62.11917
G1 X55.874 Y47.645
G1 F4350 X56.412 Y47.673
G1 F1800 X47.678 Y56.408 E62.8022
G1 X47.65 Y56.436
G1 F4350 X47.678 Y56.973
G1 F1800 X56.977 Y47.673 E63.52941
G1 X57.005 Y47.645
G1 F4350 X57.324 Y47.893
G1 F1800 X47.891 Y57.325 E64.26702
G1 X47.863 Y57.353
G1 F4350 X48.457 Y57.325
G1 F1800 X57.324 Y48.458 E64.96041
G1 X57.352 Y48.43
G1 F4350 X57.324 Y49.024
G1 F1800 X49.023 Y57.325 E65.60954
G1 X48.995 Y57.353
G1 F4350 X49.588 Y57.325
G1 F1800 X57.324 Y49.59 E66.21445
G1 X57.352 Y49.562
