M73 P0
;MINX:38.5
;MAXX:61.5
;MINY:46.0
;MAXY:74.0
;MINZ:0.0
;MAXZ:16.3
;MachineType:ENTINA TINA2
;FilamentType:PLA
;Extruder0Temperature:205
;InfillDensity:75
;FLAVOR:Marlin
;TIME:385
;FilamentUsed:376.0
;Layer height: 0.35

;Generated with Cura_SteamEngine 3.1
M104 T0 S220
M82 ; absolute extrusion mode
;(**** start.gcode for tina2****)
M104 S150
G28 Z
G28 X Y; Home extruder
G1 X55 Y55 F1000
G1 Z10 F200
G29
G1 Z15 F100
M107 ; Turn off fan
G90 ; Absolute positioning
M82 ; Extruder in absolute mode
M109 S220.0
G92 E0 ; Reset extruder position
G1 X90 Y6 Z0.27 F2000
G1 X20 Y6 Z0.27 E15 F1000
G92 E0 ; Reset extruder position

;LAYER_COUNT:44
;LAYER:-5
M107
M203 Z5
G1 F3600 X58.176 Y48.544 Z0.349
G1 F1200 X58.387 Y48.737 E0.03153
G1 X58.72 Y49.067 E0.08323
G1 X58.949 Y49.316 E0.12054
G1 X59.261 Y49.692 E0.17442
G1 X59.481 Y49.984 E0.21473
G1 X59.752 Y50.384 E0.26801
G1 X59.929 Y50.676 E0.30567
G1 X60.218 Y51.214 E0.37301
G1 X60.32 Y51.43 E0.39935
G1 X60.549 Y51.983 E0.46536
G1 X60.642 Y52.24 E0.49549
G1 X60.765 Y52.641 E0.54175
G1 X60.868 Y53.033 E0.58644
G1 X60.962 Y53.487 E0.63757
G1 X61.022 Y53.872 E0.68054
G1 X61.07 Y54.333 E0.73165
G1 X61.092 Y54.733 E0.77582
G1 X61.094 Y55.19 E0.82622
G1 X61.078 Y55.547 E0.86563
G1 X61.034 Y56.033 E0.91944
G1 X60.981 Y56.4 E0.96033
G1 X60.898 Y56.833 E1.00895
G1 X60.776 Y57.32 E1.06431
G1 X60.655 Y57.716 E1.10997
G1 X60.518 Y58.092 E1.1541
G1 X60.329 Y58.544 E1.20813
G1 X60.161 Y58.896 E1.25114
G1 X59.872 Y59.416 E1.31674
G1 X59.701 Y59.691 E1.35245
G1 X59.454 Y60.052 E1.40069
G1 X59.267 Y60.301 E1.43503
G1 X58.94 Y60.693 E1.49132
G1 X58.72 Y60.933 E1.52722
G1 X58.392 Y61.258 E1.57814
G1 X58.022 Y61.586 E1.63267
G1 X57.533 Y62.046 E1.7067
G1 X57.099 Y62.573 E1.78198
G1 X56.735 Y63.151 E1.85731
G1 X56.446 Y63.77 E1.93264
G1 X56.238 Y64.42 E2.0079
G1 X56.115 Y65.085 E2.08247
G1 X56.033 Y66.039 E2.18806
G1 X55.981 Y66.4 E2.22828
G1 X55.898 Y66.833 E2.2769
G1 X55.813 Y67.186 E2.31694
G1 X55.655 Y67.713 E2.37761
G1 X55.518 Y68.092 E2.42205
G1 X55.327 Y68.549 E2.47667
G1 X55.16 Y68.897 E2.51924
G1 X54.939 Y69.302 E2.57011
G1 X54.698 Y69.694 E2.62086
G1 X54.448 Y70.06 E2.66973
G1 X54.267 Y70.301 E2.70297
G1 X53.948 Y70.685 E2.75802
G1 X53.72 Y70.933 E2.79517
G1 X53.392 Y71.258 E2.84609
G1 X53.176 Y71.456 E2.8784
G1 X52.808 Y71.761 E2.93111
G1 X52.524 Y71.975 E2.97032
G1 X52.109 Y72.257 E3.02565
G1 X51.824 Y72.429 E3.06236
G1 X51.286 Y72.718 E3.12971
G1 X51.07 Y72.82 E3.15605
G1 X50.517 Y73.049 E3.22205
G1 X50.26 Y73.142 E3.25219
G1 X49.859 Y73.265 E3.29844
G1 X49.467 Y73.368 E3.34314
G1 X49.006 Y73.463 E3.39504
G1 X48.618 Y73.523 E3.43834
G1 X48.16 Y73.57 E3.48911
G1 X47.767 Y73.592 E3.53251
G1 X47.31 Y73.594 E3.58291
G1 X46.953 Y73.578 E3.62232
G1 X46.457 Y73.532 E3.67725
G1 X46.1 Y73.481 E3.71701
G1 X45.659 Y73.396 E3.76654
G1 X45.331 Y73.317 E3.80374
G1 X44.74 Y73.142 E3.87171
G1 X44.483 Y73.049 E3.90185
G1 X43.93 Y72.819 E3.9679
G1 X43.612 Y72.666 E4.00681
G1 X43.176 Y72.429 E4.06154
G1 X42.891 Y72.257 E4.09824
G1 X42.476 Y71.975 E4.15357
G1 X42.192 Y71.761 E4.19279
G1 X41.824 Y71.456 E4.24549
G1 X41.608 Y71.258 E4.27781
G1 X41.28 Y70.933 E4.32872
G1 X40.987 Y70.61 E4.37681
G1 X40.676 Y70.227 E4.43122
G1 X40.45 Y69.918 E4.47344
G1 X40.207 Y69.55 E4.52207
G1 X40.005 Y69.208 E4.56587
G1 X39.783 Y68.786 E4.61845
G1 X39.625 Y68.446 E4.65979
G1 X39.447 Y68.008 E4.71193
G1 X39.326 Y67.66 E4.75256
G1 X39.183 Y67.169 E4.80895
G1 X39.102 Y66.833 E4.84706
G1 X39.019 Y66.4 E4.89568
G1 X38.967 Y66.039 E4.9359
G1 X38.922 Y65.547 E4.99038
G1 X38.906 Y65.199 E5.0288
G1 X38.908 Y64.733 E5.08019
G1 X38.932 Y64.31 E5.12691
G1 X38.977 Y63.882 E5.17437
G1 X39.036 Y63.498 E5.21721
G1 X39.132 Y63.034 E5.26946
G1 X39.232 Y62.651 E5.31311
G1 X39.358 Y62.24 E5.36051
G1 X39.451 Y61.983 E5.39065
G1 X39.681 Y61.43 E5.4567
G1 X39.834 Y61.112 E5.49561
G1 X40.066 Y60.684 E5.5493
G1 X40.247 Y60.386 E5.58775
G1 X40.447 Y60.086 E5.62751
G1 X40.676 Y59.773 E5.67027
G1 X40.98 Y59.398 E5.72351
G1 X41.239 Y59.11 E5.76622
G1 X41.559 Y58.788 E5.81628
G1 X41.817 Y58.551 E5.85491
G1 X41.978 Y58.414 E5.87823
G1 X42.467 Y57.954 E5.95226
G1 X42.901 Y57.427 E6.02754
G1 X43.265 Y56.849 E6.10287
G1 X43.554 Y56.23 E6.1782
G1 X43.762 Y55.58 E6.25346
M73 P1
G1 X43.885 Y54.915 E6.32804
G1 X43.967 Y53.961 E6.43362
G1 X44.019 Y53.6 E6.47384
G1 X44.102 Y53.167 E6.52246
G1 X44.183 Y52.831 E6.56058
G1 X44.358 Y52.24 E6.62855
G1 X44.451 Y51.983 E6.65868
G1 X44.681 Y51.43 E6.72473
G1 X44.834 Y51.112 E6.76364
G1 X45.066 Y50.684 E6.81733
G1 X45.248 Y50.384 E6.85602
G1 X45.519 Y49.984 E6.9093
G1 X45.739 Y49.692 E6.94962
G1 X46.044 Y49.324 E7.00233
G1 X46.28 Y49.067 E7.0408
G1 X46.608 Y48.742 E7.09172
G1 X46.824 Y48.544 E7.12403
G1 X47.192 Y48.239 E7.17674
G1 X47.484 Y48.019 E7.21706
G1 X47.884 Y47.748 E7.27034
G1 X48.176 Y47.571 E7.30799
G1 X48.714 Y47.282 E7.37534
G1 X48.93 Y47.18 E7.40168
G1 X49.483 Y46.951 E7.46768
G1 X49.74 Y46.858 E7.49782
G1 X50.141 Y46.735 E7.54407
G1 X50.533 Y46.632 E7.58877
G1 X50.994 Y46.537 E7.64067
G1 X51.382 Y46.477 E7.68397
G1 X51.84 Y46.43 E7.73474
G1 X52.233 Y46.408 E7.77814
G1 X52.69 Y46.406 E7.82854
G1 X53.047 Y46.422 E7.86795
G1 X53.543 Y46.468 E7.92288
G1 X53.9 Y46.519 E7.96264
G1 X54.341 Y46.604 E8.01217
G1 X54.669 Y46.683 E8.04937
G1 X55.26 Y46.858 E8.11734
G1 X55.517 Y46.951 E8.14748
G1 X56.07 Y47.181 E8.21353
G1 X56.388 Y47.334 E8.25244
G1 X56.824 Y47.571 E8.30717
G1 X57.116 Y47.748 E8.34482
G1 X57.516 Y48.019 E8.3981
G1 X57.808 Y48.239 E8.43842
G1 X58.176 Y48.544 E8.49112
G1 F3600 X57.6 Y48.083
G1 F1200 X57.6 Y61.983 E10.02393
G1 F1680 E7.02393
G1 F3600 X59.2 Y60.382
G1 F1680 E10.02393
G1 F1200 X59.2 Y49.619 E11.21081
G1 F1680 E8.21081
G1 F3600 X60.8 Y52.775
G1 F1680 E11.21081
G1 F1200 X60.8 Y57.225 E11.70153
G1 F1680 E8.70153
G1 F3600 X56 Y66.269
G1 F1680 E11.70153
G1 F1200 X56 Y47.152 E13.80964
G1 F1680 E10.80964
G1 F3600 X54.4 Y46.619
G1 F1680 E13.80964
G1 F1200 X54.4 Y70.124 E16.40163
G1 F1680 E13.40163
G1 F3600 X52.8 Y71.768
G1 F1680 E16.40163
G1 F1200 X52.8 Y46.411 E19.19784
G1 F1680 E16.19784
G1 F3600 X51.2 Y46.505
G1 F1680 E19.19784
G1 F1200 X51.2 Y72.759 E22.09298
G1 F1680 E19.09298
G1 F3600 X49.6 Y73.334
G1 F1680 E22.09298
G1 F1200 X49.6 Y46.908 E25.00708
G1 F1680 E22.00708
G1 F3600 X48 Y47.677
G1 F1680 E25.00708
G1 F1200 X48 Y73.579 E27.86339
G1 F1680 E24.86339
G1 F3600 X46.4 Y73.523
G1 F1680 E27.86339
G1 F1200 X46.4 Y48.948 E30.57338
G1 F1680 E27.57338
G1 F3600 X44.8 Y51.182
M104 T0 S205
G1 F1680 E30.57338
G1 F1200 X44.8 Y73.159 E32.99687
G1 F1680 E29.99687
G1 F3600 X43.2 Y72.442
G1 F1680 E32.99687
G1 F1200 X43.2 Y56.952 E34.70501
G1 F1680 E31.70501
G1 F3600 X41.6 Y58.75
G1 F1680 E34.70501
G1 F1200 X41.6 Y71.25 E36.08344
G1 F1680 E33.08344
G1 F3600 X40 Y69.198
G1 F1680 E36.08344
G1 F1200 X40 Y60.805 E37.00897
G1 F1680 E34.00897
G1 F3600 X58.141 Y48.448
;TIME_ELAPSED:21.491104
;LAYER:-4
G1 X58.141 Y48.448 Z0.619
;TYPE:SUPPORT
G1 F1680 E37.00897
G1 F1980 X57.832 Y48.191 E37.03893
G1 X57.552 Y47.982 E37.06497
G1 X57.08 Y47.666 E37.10731
G1 X56.74 Y47.464 E37.13679
G1 X56.308 Y47.237 E37.17317
G1 X56.09 Y47.134 E37.19114
G1 X56.01 Y47.101 E37.19759
G1 X60.398 Y51.489 E37.66016
G1 F3600 X60.364 Y51.408
G1 F1980 X60.261 Y51.19 E37.67814
G1 X60.034 Y50.758 E37.71451
G1 X59.833 Y50.418 E37.74396
G1 X59.516 Y49.946 E37.78634
G1 X59.358 Y49.735 E37.80599
G1 X58.986 Y49.281 E37.84974
G1 X58.754 Y49.03 E37.87522
G1 X58.421 Y48.699 E37.91021
G1 X58.141 Y48.448 E37.93825
G1 F1680 E34.93825
G1 F3600 X56.01 Y47.101
G1 F1680 E37.93825
G1 F1980 X55.533 Y46.902 E37.97677
G1 X55.276 Y46.811 E37.99709
G1 X54.872 Y46.686 E38.02862
G1 X54.487 Y46.584 E38.05831
G1 X54.152 Y46.515 E38.0838
G1 X60.981 Y53.344 E38.8037
G1 X61.031 Y53.592 E38.82256
G1 X61.082 Y53.945 E38.84914
G1 X61.129 Y54.45 E38.88695
G1 X61.142 Y54.72 E38.9071
G1 X61.143 Y54.779 E38.9115
G1 X52.721 Y46.357 E39.79933
G1 X52.69 Y46.355 E39.80164
G1 X52.229 Y46.357 E39.83601
G1 X51.949 Y46.369 E39.8569
G1 X51.503 Y46.412 E39.8903
G1 X61.086 Y55.995 E40.90051
G1 X61.072 Y56.125 E40.91026
G1 X61.013 Y56.511 E40.93937
G1 X60.916 Y56.979 E40.97499
G1 X60.893 Y57.074 E40.98228
G1 X50.425 Y46.606 E42.08579
G1 X50.316 Y46.633 E42.09416
G1 X49.722 Y46.81 E42.14037
G1 X49.465 Y46.901 E42.16069
G1 X49.452 Y46.907 E42.16176
G1 X60.589 Y58.043 E43.33574
M73 P2
G1 X60.515 Y58.235 E43.35108
G1 X60.335 Y58.652 E43.38493
G1 X60.2 Y58.927 E43.40777
G1 X48.572 Y47.299 E44.63357
G1 X48.258 Y47.465 E44.66004
G1 X47.917 Y47.666 E44.68955
G1 X47.767 Y47.767 E44.70303
G1 X59.732 Y59.732 E45.96435
G1 X59.49 Y60.088 E45.99644
G1 X59.305 Y60.332 E46.01926
G1 X59.194 Y60.467 E46.03229
G1 X47.033 Y48.305 E47.31433
G1 X46.781 Y48.512 E47.33864
G1 X46.524 Y48.75 E47.36475
G1 X46.364 Y48.909 E47.38156
G1 X58.588 Y61.133 E48.67019
G1 X58.421 Y61.299 E48.68774
G1 X58.054 Y61.624 E48.72428
G1 X57.926 Y61.744 E48.73736
G1 X45.761 Y49.58 E50.01971
G1 X45.691 Y49.665 E50.02792
G1 X45.483 Y49.945 E50.05392
G1 X45.23 Y50.321 E50.0877
G1 X57.308 Y62.399 E51.36094
G1 X57.14 Y62.602 E51.38058
G1 X56.791 Y63.155 E51.42933
G1 X44.767 Y51.131 E52.69687
G1 X44.737 Y51.19 E52.7018
G1 X44.633 Y51.408 E52.71981
G1 X44.403 Y51.965 E52.76473
G1 X44.382 Y52.019 E52.76905
G1 X56.41 Y64.047 E54.03701
G1 X56.287 Y64.432 E54.06714
G1 X56.169 Y65.078 E54.11609
G1 X44.088 Y52.997 E55.38964
G1 X44.084 Y53.011 E55.39072
G1 X43.986 Y53.486 E55.42688
G1 X43.926 Y53.873 E55.45607
G1 X43.903 Y54.085 E55.47197
G1 X56.056 Y66.238 E56.75311
G1 X56.013 Y66.511 E56.77371
G1 X55.916 Y66.978 E56.80926
G1 X55.86 Y67.206 E56.82676
G1 X55.834 Y67.289 E56.83325
G1 X43.774 Y55.229 E58.10458
G1 X43.711 Y55.565 E58.13007
G1 X43.506 Y56.21 E58.18051
G1 X43.499 Y56.227 E58.18189
G1 X55.513 Y68.241 E59.44837
G1 X55.332 Y68.66 E59.4824
G1 X55.179 Y68.971 E59.50823
G1 X55.105 Y69.106 E59.51971
G1 X43.066 Y57.067 E60.78883
G1 X42.859 Y57.395 E60.81774
G1 X42.526 Y57.799 E60.85677
G1 X54.622 Y69.896 E62.13195
G1 X54.493 Y70.082 E62.14883
G1 X54.298 Y70.341 E62.17299
G1 X54.07 Y70.616 E62.19962
G1 X41.881 Y58.428 E63.48451
G1 X41.788 Y58.506 E63.49355
G1 X41.524 Y58.75 E63.52035
G1 X41.227 Y59.046 E63.55161
G1 X53.45 Y71.269 E64.84013
G1 X53.421 Y71.298 E64.84318
G1 X53.141 Y71.55 E64.87126
G1 X52.832 Y71.807 E64.90122
G1 X52.765 Y71.856 E64.90741
G1 X40.641 Y59.733 E66.18544
G1 X40.483 Y59.945 E66.20515
G1 X40.164 Y60.42 E66.2478
G1 X40.123 Y60.488 E66.25372
G1 X52.01 Y72.375 E67.50682
G1 X51.848 Y72.473 E67.52093
G1 X51.412 Y72.71 E67.55793
G1 X51.181 Y72.819 E67.57697
G1 X39.677 Y61.314 E68.78974
G1 X39.634 Y61.408 E68.79745
G1 X39.438 Y61.869 E68.83479
G1 X39.313 Y62.223 E68.86277
G1 X50.277 Y73.187 E70.01857
G1 X49.682 Y73.366 E70.06489
G1 X49.488 Y73.415 E70.0798
G1 X49.274 Y73.457 E70.09606
G1 X39.039 Y63.222 E71.17501
G1 X38.966 Y63.599 E71.20364
G1 X38.915 Y63.954 E71.23037
G1 X38.88 Y64.336 E71.25896
G1 X48.162 Y73.618 E72.23745
G1 X48.05 Y73.628 E72.24583
G1 X47.77 Y73.641 E72.26673
G1 X47.308 Y73.644 E72.30117
G1 X46.894 Y73.623 E72.33207
G1 X38.875 Y65.603 E73.17746
G1 X38.915 Y66.044 E73.21047
G1 X38.966 Y66.399 E73.2372
G1 X39.083 Y66.987 E73.28189
G1 X39.116 Y67.117 E73.29189
G1 X45.377 Y73.379 E73.95196
G1 X45.126 Y73.313 E73.97131
G1 X44.72 Y73.187 E74.003
G1 X44.465 Y73.096 E74.02318
G1 X43.909 Y72.865 E74.06806
G1 X43.69 Y72.762 E74.0861
G1 X43.261 Y72.535 E74.12228
G1 X39.962 Y69.237 E74.47
G1 F3600 X39.964 Y69.24
G1 F1980 X40.165 Y69.58 E74.49944
G1 X40.401 Y69.937 E74.53134
G1 X40.639 Y70.264 E74.56149
G1 X41.007 Y70.709 E74.60453
G1 X41.244 Y70.968 E74.6307
G1 X41.577 Y71.298 E74.66565
G1 X41.857 Y71.55 E74.69373
G1 X42.166 Y71.807 E74.72369
G1 X42.54 Y72.083 E74.75834
G1 X42.919 Y72.333 E74.79218
G1 X43.261 Y72.535 E74.82179
G1 F1680 E71.82179
G1 F3600 X58.315 Y48.4
;TIME_ELAPSED:37.988725
;LAYER:-3
M106 S255
G1 X58.315 Y48.4 Z0.869
G1 F1680 E74.82179
G1 F2400 X46.684 Y48.4 E75.28117
G1 X46.471 Y48.592 E75.2925
G1 X46.263 Y48.8 E75.30411
G1 X58.734 Y48.8 E75.79667
G1 X58.903 Y48.97 E75.80614
G1 X59.111 Y49.2 E75.81839
G1 X45.887 Y49.2 E76.34069
G1 X45.58 Y49.568 E76.35962
G1 X45.556 Y49.6 E76.3612
G1 X59.442 Y49.6 E76.90965
G1 X59.478 Y49.645 E76.91192
G1 X59.715 Y49.97 E76.92781
G1 X59.735 Y50 E76.92923
G1 X45.267 Y50 E77.50067
G1 X45.035 Y50.344 E77.51706
G1 X45.002 Y50.4 E77.51962
G1 X59.996 Y50.4 E78.11183
G1 X60.168 Y50.692 E78.12522
G1 X60.226 Y50.8 E78.13006
G1 X44.772 Y50.8 E78.74044
G1 X44.659 Y51.011 E78.74989
G1 X44.569 Y51.2 E78.75816
G1 X60.429 Y51.2 E79.38457
G1 X60.554 Y51.464 E79.39611
G1 X60.61 Y51.6 E79.40192
G1 X44.392 Y51.6 E80.04247
G1 X44.259 Y51.919 E80.05612
G1 X44.231 Y52 E80.0595
G1 X60.768 Y52 E80.71266
G1 X60.862 Y52.272 E80.72402
G1 X60.9 Y52.4 E80.7293
M73 P3
G1 X44.099 Y52.4 E81.39288
G1 X43.989 Y52.777 E81.40839
G1 X43.984 Y52.8 E81.40932
G1 X61.015 Y52.8 E82.08198
G1 X61.091 Y53.118 E82.09489
G1 X61.107 Y53.2 E82.09819
G1 X43.891 Y53.2 E82.77816
G1 X43.819 Y53.574 E82.79321
G1 X43.816 Y53.6 E82.79424
G1 X61.183 Y53.6 E83.48017
G1 X61.23 Y53.931 E83.49338
G1 X61.237 Y54 E83.49612
G1 X43.763 Y54 E84.18628
G1 X43.728 Y54.4 E84.20214
G1 X61.274 Y54.4 E84.89514
G1 X61.277 Y54.442 E84.8968
G1 X61.293 Y54.8 E84.91096
G1 X43.693 Y54.8 E85.6061
G1 X43.685 Y54.887 E85.60955
G1 X43.628 Y55.2 E85.62211
G1 X61.291 Y55.2 E86.31974
G1 X61.291 Y55.276 E86.32274
G1 X61.272 Y55.6 E86.33556
G1 X43.544 Y55.6 E87.03575
G1 X43.417 Y56 E87.05233
G1 X61.237 Y56 E87.75615
G1 X61.232 Y56.057 E87.75841
G1 X61.182 Y56.4 E87.7721
G1 X43.253 Y56.4 E88.48023
G1 X43.088 Y56.752 E88.49559
G1 X43.058 Y56.8 E88.49782
G1 X61.106 Y56.8 E89.21065
G1 X61.092 Y56.876 E89.21371
G1 X61.014 Y57.2 E89.22687
G1 X42.806 Y57.2 E89.94602
G1 X42.737 Y57.308 E89.95108
G1 X42.497 Y57.6 E89.96601
G1 X60.896 Y57.6 E90.6927
G1 X60.843 Y57.78 E90.70012
G1 X60.763 Y58 E90.70936
G1 X42.124 Y58 E91.44554
G1 X41.845 Y58.262 E91.46065
G1 X41.689 Y58.4 E91.46888
G1 X60.603 Y58.4 E92.21591
G1 X60.47 Y58.717 E92.22949
G1 X60.429 Y58.8 E92.23315
G1 X41.263 Y58.8 E92.99014
G1 X41.142 Y58.92 E92.99687
G1 X40.896 Y59.188 E93.01123
G1 X40.887 Y59.2 E93.01183
G1 X60.221 Y59.2 E93.77545
G1 X60.121 Y59.384 E93.78372
G1 X59.99 Y59.6 E93.7937
G1 X40.556 Y59.6 E94.56127
G1 X40.358 Y59.863 E94.57427
G1 X40.266 Y60 E94.58079
G1 X59.731 Y60 E95.34959
G1 X59.684 Y60.071 E95.35295
G1 X59.494 Y60.332 E95.3657
G1 X59.438 Y60.4 E95.36918
G1 X40.003 Y60.4 E96.1368
G1 X39.896 Y60.576 E96.14493
G1 X39.777 Y60.8 E96.15495
G1 X59.108 Y60.8 E96.91845
G1 X58.861 Y61.074 E96.93302
G1 X58.734 Y61.2 E96.94009
G1 X39.567 Y61.2 E97.69712
G1 X39.495 Y61.35 E97.70369
G1 X39.391 Y61.6 E97.71438
G1 X58.307 Y61.6 E98.4615
G1 X58.153 Y61.736 E98.46961
G1 X57.872 Y62 E98.48484
G1 X39.232 Y62 E99.22105
G1 X39.169 Y62.171 E99.22825
G1 X39.099 Y62.4 E99.23771
G1 X57.499 Y62.4 E99.96444
G1 X57.261 Y62.69 E99.97926
G1 X57.191 Y62.8 E99.98441
G1 X38.986 Y62.8 E100.70344
G1 X38.937 Y62.984 E100.71096
G1 X38.893 Y63.2 E100.71967
G1 X56.939 Y63.2 E101.43242
G1 X56.91 Y63.246 E101.43457
G1 X56.744 Y63.6 E101.45001
G1 X38.817 Y63.6 E102.15806
G1 X38.778 Y63.851 E102.1681
G1 X38.763 Y64 E102.17401
G1 X56.58 Y64 E102.87772
G1 X56.453 Y64.4 E102.8943
G1 X38.727 Y64.4 E103.59441
G1 X38.706 Y64.8 E103.61023
G1 X56.37 Y64.8 E104.30789
G1 X56.313 Y65.111 E104.32038
G1 X56.305 Y65.2 E104.32391
G1 X38.706 Y65.2 E105.01901
G1 X38.707 Y65.276 E105.02201
G1 X38.725 Y65.6 E105.03483
G1 X56.27 Y65.6 E105.72779
G1 X56.235 Y66 E105.74365
G1 X38.762 Y66 E106.43377
G1 X38.778 Y66.147 E106.43961
G1 X38.817 Y66.4 E106.44972
G1 X56.182 Y66.4 E107.13558
G1 X56.179 Y66.424 E107.13653
G1 X56.106 Y66.8 E107.15166
G1 X38.892 Y66.8 E107.83155
G1 X38.937 Y67.014 E107.84019
G1 X38.985 Y67.2 E107.84778
G1 X56.014 Y67.2 E108.52036
G1 X56.005 Y67.238 E108.5219
G1 X55.895 Y67.6 E108.53685
G1 X39.099 Y67.6 E109.20023
G1 X39.171 Y67.83 E109.20975
G1 X39.231 Y68 E109.21687
G1 X55.762 Y68 E109.86978
G1 X55.703 Y68.165 E109.8767
G1 X55.603 Y68.4 E109.88679
G1 X39.389 Y68.4 E110.52718
G1 X39.444 Y68.534 E110.53291
G1 X39.569 Y68.8 E110.54451
G1 X55.428 Y68.8 E111.17089
G1 X55.309 Y69.043 E111.18157
