M73 P0
;MINX:36.5
;MAXX:63.5
;MINY:41.5
;MAXY:78.5
;MINZ:0.0
;MAXZ:26.3
;MachineType:ENTINA TINA2
;FilamentType:PLA
;Extruder0Temperature:205
;InfillDensity:20
;FLAVOR:Marlin
;TIME:746
;FilamentUsed:797.2
;Layer height: 0.35

;Generated with Cura_SteamEngine 3.1
M104 T0 S220
M82 ; absolute extrusion mode
;(**** start.gcode for tina2****)
M104 S150
G28 Z
G28 X Y; Home extruder
G1 X55 Y55 F1000
G1 Z10 F200
G29
G1 Z15 F100
M107 ; Turn off fan
G90 ; Absolute positioning
M82 ; Extruder in absolute mode
M109 S220.0
G92 E0 ; Reset extruder position
G1 X90 Y6 Z0.27 F2000
G1 X20 Y6 Z0.27 E15 F1000
G92 E0 ; Reset extruder position

;LAYER_COUNT:72
;LAYER:-5
M107
M203 Z5
G1 F3600 X61.403 Y43.261 Z0.349
G1 F1200 X61.54 Y43.389 E0.02068
G1 X61.648 Y43.505 E0.03815
G1 X62.098 Y44.04 E0.11524
G1 X62.183 Y44.167 E0.1321
G1 X62.53 Y44.745 E0.20644
G1 X62.593 Y44.885 E0.22337
G1 X62.838 Y45.509 E0.29729
G1 X62.925 Y45.789 E0.32963
G1 X63.003 Y46.148 E0.37014
G1 X63.051 Y46.471 E0.40615
G1 X63.086 Y46.901 E0.45372
G1 X63.093 Y47.07 E0.47237
G1 X63.1 Y48.183 E0.59511
G1 X63.089 Y58.047 E1.68286
G1 X63.064 Y58.439 E1.72617
G1 X63.031 Y58.709 E1.75617
G1 X62.949 Y59.133 E1.80379
G1 X62.748 Y59.759 E1.87629
G1 X62.656 Y59.984 E1.9031
G1 X62.351 Y60.581 E1.97702
G1 X61.927 Y61.177 E2.05768
G1 X61.785 Y61.348 E2.08219
G1 X61.288 Y61.841 E2.15939
G1 X60.916 Y62.124 E2.21093
G1 X60.132 Y62.667 E2.3161
G1 X59.657 Y63.09 E2.38624
G1 X59.209 Y63.604 E2.46143
G1 X58.829 Y64.172 E2.53679
G1 X58.523 Y64.783 E2.61214
G1 X58.297 Y65.428 E2.68751
G1 X58.154 Y66.097 E2.76295
G1 X58.097 Y66.87 E2.84842
G1 X58.089 Y73.048 E3.52969
G1 X58.064 Y73.439 E3.5729
G1 X58.031 Y73.709 E3.6029
G1 X57.948 Y74.136 E3.65086
G1 X57.898 Y74.301 E3.66988
G1 X57.69 Y74.894 E3.73917
G1 X57.619 Y75.071 E3.7602
G1 X57.392 Y75.506 E3.81431
G1 X57.244 Y75.745 E3.84531
G1 X57.023 Y76.058 E3.88756
G1 X56.959 Y76.141 E3.89912
G1 X56.835 Y76.281 E3.91975
G1 X56.277 Y76.848 E4.00747
G1 X55.935 Y77.11 E4.05498
G1 X55.653 Y77.3 E4.09248
G1 X55.415 Y77.443 E4.12309
G1 X55.142 Y77.584 E4.15698
G1 X54.905 Y77.693 E4.18574
G1 X54.713 Y77.769 E4.20851
G1 X54.556 Y77.821 E4.22675
G1 X54.177 Y77.929 E4.27021
G1 X53.793 Y78.011 E4.31351
G1 X53.47 Y78.058 E4.3495
G1 X52.841 Y78.098 E4.41901
G1 X42.041 Y78.096 E5.60997
G1 X41.784 Y78.087 E5.63832
G1 X41.576 Y78.064 E5.6614
G1 X40.884 Y77.951 E5.73872
G1 X40.215 Y77.737 E5.81618
G1 X39.995 Y77.647 E5.84239
G1 X39.434 Y77.359 E5.91193
G1 X38.799 Y76.908 E5.99782
G1 X38.638 Y76.773 E6.02099
G1 X38.341 Y76.483 E6.06676
G1 X38.189 Y76.32 E6.09134
G1 X38.045 Y76.149 E6.11599
G1 X37.745 Y75.726 E6.17318
G1 X37.575 Y75.441 E6.20977
G1 X37.369 Y75.033 E6.26017
G1 X37.292 Y74.862 E6.28085
G1 X37.123 Y74.375 E6.3377
G1 X37.051 Y74.11 E6.36798
G1 X36.955 Y73.626 E6.42239
G1 X36.91 Y73.019 E6.48951
G1 X36.904 Y72.858 E6.50728
G1 X36.912 Y61.954 E7.70971
G1 X36.936 Y61.566 E7.75257
G1 X36.971 Y61.28 E7.78435
G1 X37.045 Y60.892 E7.82791
G1 X37.197 Y60.389 E7.88585
G1 X37.322 Y60.06 E7.92466
G1 X37.379 Y59.932 E7.94011
G1 X37.612 Y59.488 E7.99541
G1 X37.767 Y59.238 E8.02784
G1 X38.026 Y58.876 E8.07693
G1 X38.376 Y58.482 E8.13504
G1 X38.572 Y58.286 E8.16561
G1 X38.756 Y58.123 E8.19272
G1 X39.17 Y57.814 E8.24968
G1 X39.463 Y57.623 E8.28825
G1 X40 Y57.222 E8.36216
G1 X40.491 Y56.748 E8.43742
G1 X40.919 Y56.217 E8.51263
G1 X41.276 Y55.635 E8.58792
G1 X41.557 Y55.012 E8.66328
G1 X41.757 Y54.359 E8.73859
G1 X41.873 Y53.688 E8.81368
G1 X41.904 Y53.117 E8.87674
G1 X41.904 Y47.175 E9.53199
G1 X41.911 Y46.977 E9.55384
G1 X41.964 Y46.324 E9.62609
G1 X42.113 Y45.655 E9.70167
G1 X42.181 Y45.442 E9.72632
G1 X42.477 Y44.726 E9.81176
G1 X42.72 Y44.31 E9.86489
G1 X42.844 Y44.12 E9.88991
G1 X43 Y43.908 E9.91893
G1 X43.353 Y43.506 E9.97793
G1 X43.543 Y43.313 E10.00779
G1 X43.741 Y43.135 E10.03715
G1 X44.183 Y42.805 E10.09798
G1 X44.368 Y42.685 E10.1223
G1 X44.687 Y42.503 E10.1628
G1 X45.168 Y42.283 E10.22112
G1 X45.465 Y42.175 E10.25597
G1 X46.074 Y42.008 E10.32561
G1 X46.592 Y41.932 E10.38334
G1 X46.833 Y41.911 E10.41002
G1 X47.121 Y41.902 E10.44179
G1 X57.946 Y41.904 E11.63551
G1 X58.487 Y41.937 E11.69528
G1 X59.022 Y42.029 E11.75514
G1 X59.297 Y42.098 E11.78641
G1 X59.691 Y42.221 E11.83192
G1 X60.17 Y42.43 E11.88955
G1 X60.422 Y42.561 E11.92087
G1 X60.803 Y42.792 E11.97
G1 X61.236 Y43.12 E12.02991
G1 X61.403 Y43.261 E12.05401
G1 F3600 X60.8 Y42.791
G1 F1200 X60.8 Y62.205 E14.19487
G1 F1680 E11.19487
G1 F3600 X59.2 Y63.618
G1 F1680 E14.19487
G1 F1200 X59.2 Y42.074 E16.57061
G1 F1680 E13.57061
G1 F3600 X57.6 Y41.904
G1 F1680 E16.57061
G1 F1200 X57.6 Y75.108 E20.23215
G1 F1680 E17.23215
G1 F3600 X56 Y77.061
G1 F1680 E20.23215
G1 F1200 X56 Y41.904 E24.10905
G1 F1680 E21.10905
G1 F3600 X54.4 Y41.904
G1 F1680 E24.10905
G1 F1200 X54.4 Y77.866 E28.07472
G1 F1680 E25.07472
G1 F3600 X52.8 Y78.097
G1 F1680 E28.07472
G1 F1200 X52.8 Y41.904 E32.06587
G1 F1680 E29.06587
G1 F3600 X51.2 Y41.903
G1 F1680 E32.06587
G1 F1200 X51.2 Y78.097 E36.05712
G1 F1680 E33.05712
G1 F3600 X49.6 Y78.097
G1 F1680 E36.05712
G1 F1200 X49.6 Y41.903 E40.04838
G1 F1680 E37.04838
G1 F3600 X48 Y41.903
G1 F1680 E40.04838
G1 F1200 X48 Y78.097 E44.03964
G1 F1680 E41.03964
G1 F3600 X46.4 Y78.096
G1 F1680 E44.03964
G1 F1200 X46.4 Y41.96 E48.0245
G1 F1680 E45.0245
G1 F3600 X44.8 Y42.451
G1 F1680 E48.0245
G1 F1200 X44.8 Y78.096 E51.95521
G1 F1680 E48.95521
G1 F3600 X43.2 Y78.096
G1 F1680 E51.95521
G1 F1200 X43.2 Y43.68 E55.7504
G1 F1680 E52.7504
G1 F3600 X41.6 Y54.871
G1 F1680 E55.7504
G1 F1200 X41.6 Y78.066 E58.30821
G1 F1680 E55.30821
G1 F3600 X40 Y77.649
M104 T0 S205
G1 F1680 E58.30821
G1 F1200 X40 Y57.222 E60.56077
G1 F1680 E57.56077
G1 F3600 X38.4 Y58.458
G1 F1680 E60.56077
G1 F1200 X38.4 Y76.54 E62.55475
G1 F1680 E59.55475
G1 F3600 X62.4 Y60.486
G1 F1680 E62.55475
M73 P1
G1 F1200 X62.4 Y44.529 E64.31439
G1 F1680 E61.31439
G1 F3600 X61.435 Y43.221
;TIME_ELAPSED:34.334140
;LAYER:-4
G1 X61.435 Y43.221 Z0.619
;TYPE:SUPPORT
G1 F1680 E64.31439
G1 F1980 X61.576 Y43.355 E64.32889
G1 X61.695 Y43.482 E64.34186
G1 X62.066 Y43.917 E64.38448
G1 X62.217 Y44.126 E64.4037
G1 X62.568 Y44.708 E64.45436
G1 F3600 X62.602 Y44.783
G1 F1980 X60.215 Y42.396 E64.70599
G1 X60.447 Y42.516 E64.72546
G1 X60.821 Y42.743 E64.75808
G1 X61.28 Y43.091 E64.80101
G1 X61.435 Y43.221 E64.81609
G1 F1680 E61.81609
G1 F3600 X62.602 Y44.783
G1 F1680 E64.81609
G1 F1980 X62.638 Y44.864 E64.8227
G1 X62.885 Y45.493 E64.87307
G1 X62.948 Y45.681 E64.88785
G1 X63.052 Y46.142 E64.92308
G1 X63.101 Y46.46 E64.94706
G1 X63.109 Y46.563 E64.95476
G1 X58.431 Y41.884 E65.44796
G1 X57.821 Y41.849 E65.49351
G1 X57.123 Y41.85 E65.54554
G1 X63.148 Y47.875 E66.18068
G1 X63.15 Y48.183 E66.20364
G1 X63.149 Y49.148 E66.27557
G1 X55.851 Y41.85 E67.04491
G1 X54.579 Y41.851 E67.13972
G1 X63.148 Y50.42 E68.04305
G1 X63.146 Y51.691 E68.13779
G1 X53.306 Y41.851 E69.1751
G1 X52.034 Y41.852 E69.26992
G1 X63.145 Y52.963 E70.44121
G1 X63.143 Y54.234 E70.53596
G1 X50.762 Y41.852 E71.84119
G1 X49.49 Y41.853 E71.936
G1 X63.142 Y55.505 E73.37517
G1 X63.141 Y56.777 E73.46998
G1 X48.218 Y41.854 E75.04313
G1 X46.985 Y41.854 E75.13504
G1 X46.948 Y41.857 E75.13781
G1 X63.14 Y58.049 E76.84473
G1 X63.114 Y58.445 E76.87431
G1 X63.082 Y58.705 E76.89384
G1 X62.999 Y59.14 E76.92685
G1 X62.99 Y59.172 E76.92933
G1 X45.835 Y42.016 E78.73782
G1 X45.449 Y42.127 E78.76776
G1 X45.14 Y42.238 E78.79224
G1 X44.896 Y42.35 E78.81225
G1 X62.65 Y60.104 E80.68383
G1 X62.39 Y60.611 E80.72631
G1 X62.308 Y60.735 E80.73739
G1 X62.182 Y60.909 E80.7534
G1 X44.086 Y42.813 E82.66104
G1 X43.708 Y43.094 E82.69615
G1 X43.506 Y43.277 E82.71647
G1 X43.392 Y43.392 E82.72854
G1 X61.601 Y61.601 E84.64809
G1 X61.318 Y61.881 E84.67777
G1 X60.948 Y62.163 E84.71244
G1 X60.913 Y62.186 E84.71556
G1 X42.807 Y44.08 E86.62426
G1 F3600 X42.806 Y44.082
G1 F1980 X42.677 Y44.281 E86.64194
G1 X42.429 Y44.707 E86.67868
G1 X42.35 Y44.896 E86.69395
G1 X60.162 Y62.707 E88.5716
G1 X59.693 Y63.125 E88.61843
G1 X59.513 Y63.332 E88.63887
G1 X42.019 Y45.837 E90.4831
G1 X41.915 Y46.302 E90.51862
G1 X41.86 Y46.951 E90.56717
G1 X58.967 Y64.058 E92.37055
G1 X58.873 Y64.197 E92.38306
G1 X58.569 Y64.802 E92.43353
G1 X58.535 Y64.899 E92.44119
G1 X41.852 Y48.216 E94.19988
G1 X41.852 Y49.489 E94.29477
G1 X58.251 Y65.888 E96.02351
G1 X58.204 Y66.103 E96.03992
G1 X58.148 Y66.871 E96.09732
G1 X58.148 Y67.057 E96.11118
G1 X41.852 Y50.762 E97.82902
G1 X41.852 Y52.035 E97.92391
G1 X58.146 Y68.329 E99.64159
G1 X58.145 Y69.6 E99.73633
G1 X41.842 Y53.297 E101.45495
G1 X41.821 Y53.681 E101.48362
G1 X41.707 Y54.346 E101.53391
G1 X41.686 Y54.413 E101.53915
G1 X58.143 Y70.871 E103.27406
G1 X58.141 Y72.142 E103.3688
G1 X41.348 Y55.348 E105.13913
G1 X41.23 Y55.61 E105.16055
G1 X40.89 Y56.164 E105.20901
G1 X58.118 Y73.392 E107.02514
G1 X58.114 Y73.446 E107.02918
G1 X58.082 Y73.705 E107.04863
G1 X57.996 Y74.148 E107.08227
G1 X57.952 Y74.299 E107.09399
G1 X57.9 Y74.447 E107.10569
G1 X40.307 Y56.854 E108.9603
G1 X39.965 Y57.182 E108.99562
G1 X39.621 Y57.44 E109.02768
G1 X57.53 Y75.35 E110.91566
G1 X57.437 Y75.528 E110.93063
G1 X57.292 Y75.762 E110.95115
G1 X57.033 Y76.125 E110.98439
G1 X38.876 Y57.968 E112.89845
G1 X38.709 Y58.093 E112.914
G1 X38.541 Y58.244 E112.93084
G1 X38.34 Y58.445 E112.95203
G1 X38.217 Y58.582 E112.96576
G1 X56.415 Y76.779 E114.88409
G1 X56.308 Y76.887 E114.89543
G1 X55.93 Y77.175 E114.93085
G1 X55.694 Y77.332 E114.95198
G1 X37.665 Y59.302 E116.85261
G1 X37.564 Y59.469 E116.86716
G1 X37.326 Y59.923 E116.90537
G1 X37.236 Y60.147 E116.92336
G1 X54.855 Y77.766 E118.78071
G1 X54.701 Y77.827 E118.79306
G1 X54.244 Y77.964 E118.82862
G1 X53.863 Y78.046 E118.85768
G1 X36.947 Y61.13 E120.64092
G1 X36.917 Y61.294 E120.65335
G1 X36.886 Y61.538 E120.67168
G1 X36.86 Y61.951 E120.70253
G1 X36.86 Y62.315 E120.72966
G1 X52.691 Y78.147 E122.39858
G1 X51.418 Y78.147 E122.49348
G1 X36.859 Y63.587 E124.0283
G1 X36.858 Y64.86 E124.1232
G1 X50.145 Y78.147 E125.52388
G1 X48.873 Y78.147 E125.6187
G1 X36.857 Y66.131 E126.8854
G1 X36.856 Y67.403 E126.98021
G1 X47.6 Y78.147 E128.11282
G1 X46.326 Y78.146 E128.20779
G1 X36.855 Y68.675 E129.2062
G1 X36.854 Y69.947 E129.30102
G1 X45.054 Y78.146 E130.16539
G1 X43.781 Y78.146 E130.26028
G1 X36.853 Y71.219 E130.99056
G1 X36.852 Y72.491 E131.08538
G1 X42.508 Y78.146 E131.68157
G1 X42.038 Y78.146 E131.7166
G1 X41.753 Y78.133 E131.73787
G1 X41.579 Y78.115 E131.75091
G1 X41.135 Y78.046 E131.7844
G1 X36.949 Y73.86 E132.22568
G1 X36.997 Y74.106 E132.24436
G1 X37.08 Y74.411 E132.26793
G1 X37.254 Y74.905 E132.30697
G1 X37.536 Y75.475 E132.35437
G1 X37.701 Y75.752 E132.3784
G1 X37.992 Y76.163 E132.41594
G1 X38.083 Y76.267 E132.42624
G1 X38.741 Y76.925 E132.49561
G1 X38.612 Y76.817 E132.50815
G1 X38.294 Y76.508 E132.5412
G1 F1680 E129.5412
G1 F3600 X61.63 Y43.2
;TIME_ELAPSED:63.444388
;LAYER:-3
M106 S255
G1 X61.63 Y43.2 Z0.869
G1 F1680 E132.5412
G1 F2400 X43.372 Y43.2 E133.26233
G1 X43.392 Y43.179 E133.26347
G1 X43.616 Y42.977 E133.27539
G1 X43.853 Y42.8 E133.28707
G1 X61.144 Y42.8 E133.97
G1 X60.903 Y42.618 E133.98193
G1 X60.544 Y42.4 E133.99852
G1 X44.461 Y42.4 E134.63374
G1 X44.585 Y42.329 E134.63938
G1 X44.766 Y42.241 E134.64733
G1 X45.089 Y42.098 E134.66128
G1 X45.359 Y42 E134.67263
G1 X45.413 Y41.98 E134.6749
G1 X45.857 Y41.854 E134.69313
G1 X46.042 Y41.809 E134.70065
G1 X46.568 Y41.732 E134.72165
G1 X46.825 Y41.71 E134.73183
G1 X47.115 Y41.701 E134.74329
G1 X57.947 Y41.703 E135.17112
G1 X58.523 Y41.739 E135.19391
G1 X59.059 Y41.832 E135.2154
G1 X59.35 Y41.904 E135.22724
G1 F3600 X59.654 Y42
G1 F2400 X45.359 Y42 E135.79184
G1 F1680 E132.79184
G1 F3600 X42.999 Y43.6
G1 F1680 E135.79184
G1 F2400 X61.99 Y43.6 E136.54192
G1 X61.799 Y43.374 E136.5536
G1 X61.693 Y43.26 E136.55975
G1 X61.63 Y43.2 E136.56319
G1 F1680 E133.56319
G1 F3600 X62.313 Y44
G1 F1680 E136.56319
G1 F2400 X62.344 Y44.048 E136.56545
G1 X62.557 Y44.4 E136.5817
G1 X42.435 Y44.4 E137.37644
G1 X42.294 Y44.641 E137.38747
G1 X42.227 Y44.789 E137.39389
G1 X42.223 Y44.8 E137.39435
G1 X62.773 Y44.8 E138.206
G1 X62.93 Y45.2 E138.22297
G1 X42.062 Y45.2 E139.04718
G1 X41.994 Y45.366 E139.05427
M73 P2
G1 X41.948 Y45.496 E139.05972
G1 X41.924 Y45.6 E139.06393
G1 X63.078 Y45.6 E139.89944
G1 X63.093 Y45.645 E139.90131
G1 X63.175 Y46 E139.9157
G1 X41.829 Y46 E140.75879
G1 X41.79 Y46.162 E140.76537
G1 X41.755 Y46.4 E140.77487
G1 X63.243 Y46.4 E141.62357
G1 X63.25 Y46.453 E141.62568
G1 X63.278 Y46.8 E141.63943
G1 X41.723 Y46.8 E142.49078
G1 X41.711 Y46.954 E142.49688
G1 X41.703 Y47.167 E142.5053
G1 X41.703 Y47.2 E142.5066
G1 X63.293 Y47.2 E143.35933
G1 X63.296 Y47.6 E143.37513
G1 X41.703 Y47.6 E144.22798
G1 X41.703 Y48 E144.24377
G1 X63.298 Y48 E145.0967
G1 X63.299 Y48.182 E145.10389
G1 X63.298 Y48.4 E145.1125
G1 X41.703 Y48.4 E145.96542
G1 X41.703 Y48.8 E145.98122
G1 X63.298 Y48.8 E146.83415
G1 X63.297 Y49.2 E146.84994
G1 X41.703 Y49.2 E147.70283
G1 X41.703 Y49.6 E147.71863
G1 X63.297 Y49.6 E148.57151
G1 X63.296 Y50 E148.58731
G1 X41.703 Y50 E149.44016
G1 X41.703 Y50.4 E149.45596
G1 X63.296 Y50.4 E150.3088
G1 X63.296 Y50.8 E150.3246
G1 X41.703 Y50.8 E151.17745
G1 X41.703 Y51.2 E151.19325
G1 X63.295 Y51.2 E152.04605
G1 X63.295 Y51.6 E152.06185
G1 X41.703 Y51.6 E152.91466
G1 X41.703 Y52 E152.93046
G1 X63.294 Y52 E153.78322
G1 X63.294 Y52.4 E153.79902
G1 X41.703 Y52.4 E154.65179
G1 X41.703 Y52.8 E154.66759
G1 X63.293 Y52.8 E155.52032
G1 X63.293 Y53.2 E155.53611
G1 X41.699 Y53.2 E156.389
G1 X41.677 Y53.6 E156.40482
G1 X63.292 Y53.6 E157.25854
G1 X63.292 Y54 E157.27434
G1 X41.616 Y54 E158.13046
G1 X41.561 Y54.312 E158.14297
G1 X41.535 Y54.4 E158.1466
G1 X63.292 Y54.4 E159.00592
G1 X63.291 Y54.8 E159.02172
G1 X41.413 Y54.8 E159.88582
G1 X41.369 Y54.941 E159.89165
G1 X41.252 Y55.2 E159.90288
G1 X63.291 Y55.2 E160.77334
G1 X63.29 Y55.6 E160.78914
G1 X41.062 Y55.6 E161.66707
G1 X40.816 Y56 E161.68561
G1 X63.29 Y56 E162.57326
G1 X63.289 Y56.4 E162.58905
G1 X40.513 Y56.4 E163.48862
G1 X40.342 Y56.612 E163.49938
G1 X40.148 Y56.8 E163.51005
G1 X63.289 Y56.8 E164.42404
G1 X63.288 Y57.2 E164.43984
G1 X39.694 Y57.2 E165.37171
G1 X39.347 Y57.458 E165.38879
G1 X39.13 Y57.6 E165.39904
G1 X63.288 Y57.6 E166.35319
G1 X63.288 Y58 E166.36899
G1 X38.592 Y58 E167.34439
G1 X38.568 Y58.019 E167.3456
G1 X38.427 Y58.145 E167.35307
G1 X38.24 Y58.332 E167.36351
G1 X38.18 Y58.4 E167.3671
G1 X63.265 Y58.4 E168.35786
G1 X63.262 Y58.454 E168.36
G1 X63.226 Y58.747 E168.37166
G1 X63.215 Y58.8 E168.3738
G1 X37.834 Y58.8 E169.37626
G1 X37.598 Y59.129 E169.39225
G1 X37.555 Y59.2 E169.39553
G1 X63.136 Y59.2 E170.40588
G1 X63.007 Y59.6 E170.42248
G1 X37.327 Y59.6 E171.43675
G1 X37.191 Y59.858 E171.44827
G1 X37.135 Y60 E171.4543
G1 X62.866 Y60 E172.47058
G1 X62.663 Y60.4 E172.4883
G1 X36.984 Y60.4 E173.50253
G1 X36.862 Y60.8 E173.51904
G1 X62.442 Y60.8 E174.52936
G1 X62.432 Y60.816 E174.53011
G1 X62.154 Y61.2 E174.54883
G1 X36.783 Y61.2 E175.55089
G1 X36.77 Y61.267 E175.55359
G1 X36.737 Y61.54 E175.56445
G1 X36.734 Y61.6 E175.56682
G1 X61.815 Y61.6 E176.55743
G1 X61.494 Y61.921 E176.57536
G1 X61.412 Y61.996 E176.57975
G1 F3600 X61.406 Y62
G1 F2400 X36.711 Y62 E177.55512
G1 X36.711 Y62.4 E177.57091
G1 X60.864 Y62.4 E178.52487
G1 X60.289 Y62.792 E178.55236
G1 X60.28 Y62.8 E178.55283
G1 X36.711 Y62.8 E179.48372
G1 X36.711 Y63.2 E179.49952
G1 X59.832 Y63.2 E180.41272
G1 X59.799 Y63.23 E180.41448
G1 X59.476 Y63.6 E180.43388
G1 X36.71 Y63.6 E181.33305
G1 X36.71 Y64 E181.34885
G1 X59.182 Y64 E182.23642
G1 X59.001 Y64.272 E182.24932
G1 X58.936 Y64.4 E182.25499
G1 X36.71 Y64.4 E183.13284
G1 X36.709 Y64.8 E183.14864
G1 X58.736 Y64.8 E184.01862
G1 X58.706 Y64.86 E184.02127
G1 X58.587 Y65.2 E184.0355
G1 X36.709 Y65.2 E184.8996
G1 X36.709 Y65.6 E184.9154
G1 X58.463 Y65.6 E185.77461
G1 X58.378 Y66 E185.79076
G1 X36.709 Y66 E186.64661
G1 X36.708 Y66.4 E186.6624
G1 X58.331 Y66.4 E187.51644
G1 X58.301 Y66.8 E187.53228
G1 X36.708 Y66.8 E188.38512
G1 X36.708 Y67.2 E188.40092
G1 X58.295 Y67.2 E189.25353
G1 X58.295 Y67.6 E189.26933
G1 X36.707 Y67.6 E190.12198
G1 X36.707 Y68 E190.13778
G1 X58.294 Y68 E190.99039
G1 X58.294 Y68.4 E191.00619
