M73 P0
;MINX:4.5
;MAXX:95.5
;MINY:31.0
;MAXY:89.0
;MINZ:0.0
;MAXZ:1.0
;MachineType:ENTINA TINA2
;FilamentType:PLA
;Extruder0Temperature:205
;InfillDensity:20
;FLAVOR:Marlin
;TIME:1418
;FilamentUsed:1024.3
;Layer height: 0.2

;Generated with Cura_SteamEngine 3.1
M104 T0 S220
M82 ; absolute extrusion mode
;(**** start.gcode for tina2****)
M104 S150
G28 Z
G28 X Y; Home extruder
G1 X55 Y55 F1000
G1 Z10 F200
G29
G1 Z15 F100
M107 ; Turn off fan
G90 ; Absolute positioning
M82 ; Extruder in absolute mode
M109 S220.0
G92 E0 ; Reset extruder position
G1 X90 Y6 Z0.27 F2000
G1 X20 Y6 Z0.27 E15 F1000
G92 E0 ; Reset extruder position

;LAYER_COUNT:5
;LAYER:0
M106 S255
M203 Z5
G1 F3600 X92.997 Y45.829 Z0.299
;TYPE:SKIRT
G1 F1200 X93.489 Y45.952 E0.02644
G1 X93.956 Y46.15 E0.05289
G1 X94.385 Y46.42 E0.07931
G1 X94.767 Y46.753 E0.10573
G1 X95.093 Y47.142 E0.13219
G1 X95.352 Y47.578 E0.15863
G1 X95.541 Y48.049 E0.18509
G1 X95.653 Y48.543 E0.2115
G1 X95.686 Y49.001 E0.23544
G1 X95.711 Y70.986 E1.38163
G1 X95.672 Y71.492 E1.40809
G1 X95.553 Y71.985 E1.43453
G1 X95.359 Y72.454 E1.46099
G1 X95.094 Y72.886 E1.48742
G1 X94.764 Y73.271 E1.51385
G1 X94.378 Y73.599 E1.54026
G1 X93.944 Y73.863 E1.56675
G1 X93.475 Y74.056 E1.59319
G1 X92.808 Y74.194 E1.6287
G1 X89.707 Y74.501 E1.79116
G1 X84.27 Y75.281 E2.07752
G1 X78.894 Y76.366 E2.36345
G1 X76.277 Y77.01 E2.50396
G1 X73.619 Y77.744 E2.64772
G1 X68.409 Y79.427 E2.93317
G1 X63.285 Y81.407 E3.21956
G1 X58.299 Y83.666 E3.50494
G1 X53.454 Y86.199 E3.78997
G1 X49.142 Y88.758 E4.05139
G1 X48.687 Y88.982 E4.07783
G1 X48.202 Y89.131 E4.10428
G1 X47.499 Y89.209 E4.14116
G1 X7.509 Y89.211 E6.22605
G1 X7.004 Y89.171 E6.25246
G1 X6.511 Y89.052 E6.2789
G1 X6.042 Y88.858 E6.30536
G1 X5.61 Y88.592 E6.33181
G1 X5.226 Y88.261 E6.35824
G1 X4.897 Y87.875 E6.38468
G1 X4.634 Y87.441 E6.41114
G1 X4.442 Y86.972 E6.43756
G1 X4.326 Y86.478 E6.46401
G1 X4.289 Y85.991 E6.48948
G1 X4.291 Y48.998 E8.41812
G1 X4.331 Y48.492 E8.44458
G1 X4.516 Y47.814 E8.48122
G1 X6.244 Y43.443 E8.72626
G1 X7.991 Y38.261 E9.01137
G1 X9.407 Y33.149 E9.28792
G1 X9.58 Y32.673 E9.31432
G1 X9.826 Y32.229 E9.34079
G1 X10.139 Y31.83 E9.36723
G1 X10.511 Y31.485 E9.39368
G1 X10.932 Y31.202 E9.42013
G1 X11.392 Y30.989 E9.44655
G1 X11.88 Y30.851 E9.47299
G1 X12.51 Y30.789 E9.506
G1 X52.496 Y30.79 E11.59068
G1 X53.002 Y30.83 E11.61714
G1 X53.495 Y30.949 E11.64358
G1 X54.174 Y31.262 E11.68256
G1 X58.408 Y33.848 E11.94122
G1 X63.246 Y36.459 E12.22784
G1 X68.198 Y38.781 E12.51298
G1 X70.67 Y39.817 E12.65272
G1 X75.854 Y41.73 E12.94081
G1 X81.097 Y43.335 E13.22667
G1 X86.451 Y44.649 E13.51409
G1 X89.067 Y45.172 E13.65317
G1 X92.997 Y45.829 E13.86091
G1 F1680 E10.86091
G1 F3600 X91.84 Y49.66
;TYPE:WALL-INNER
G1 F1680 E13.86091
G1 F1320 X91.84 Y58.34 E14.31344
G1 X53.16 Y58.34 E16.33003
G1 X53.16 Y49.66 E16.78257
G1 X91.84 Y49.66 E18.79916
G1 F1680 E15.79916
G1 F3600 X88.163 Y52.098
G1 F1680 E18.79916
G1 F1320 X86.283 Y52.098 E18.89717
G1 X86.28 Y54.567 E19.0259
G1 X86.183 Y54.565 E19.03095
G1 X86.105 Y54.548 E19.03512
G1 X86.087 Y54.497 E19.03794
G1 X86.064 Y54.338 E19.04631
G1 X86.059 Y54.211 E19.05294
G1 X86.059 Y52.098 E19.1631
G1 X84.184 Y52.098 E19.26085
G1 X84.184 Y52.309 E19.27185
G1 X83.695 Y52.146 E19.29873
G1 X83.48 Y52.102 E19.31017
G1 X83.271 Y52.069 E19.3212
G1 X83.05 Y52.05 E19.33276
G1 X82.808 Y52.045 E19.34538
G1 X82.532 Y52.058 E19.35979
G1 X82.256 Y52.1 E19.37434
G1 X81.99 Y52.174 E19.38874
G1 X81.734 Y52.278 E19.40315
G1 X81.496 Y52.416 E19.41749
G1 X81.279 Y52.585 E19.43183
G1 X81.087 Y52.788 E19.4464
G1 X80.973 Y52.951 E19.45677
G1 X80.911 Y52.841 E19.46335
G1 X80.749 Y52.632 E19.47713
G1 X80.557 Y52.449 E19.49096
G1 X80.34 Y52.299 E19.50472
G1 X80.1 Y52.18 E19.51868
G1 X79.849 Y52.103 E19.53237
G1 X79.595 Y52.058 E19.54582
G1 X79.328 Y52.043 E19.55976
G1 X79.03 Y52.064 E19.57534
G1 X79.031 Y50.838 E19.63925
G1 X77.155 Y50.838 E19.73706
G1 X77.155 Y52.785 E19.83857
G1 X76.998 Y52.608 E19.8509
G1 X76.783 Y52.43 E19.86545
G1 X76.549 Y52.288 E19.87972
G1 X76.295 Y52.177 E19.89418
G1 X76.023 Y52.1 E19.90891
G1 X75.746 Y52.058 E19.92352
G1 X75.457 Y52.045 E19.9386
G1 X75.186 Y52.058 E19.95275
G1 X74.918 Y52.102 E19.96691
G1 X74.654 Y52.179 E19.98124
G1 X74.405 Y52.289 E19.99544
G1 X74.173 Y52.43 E20.00959
G1 X73.963 Y52.606 E20.02388
G1 X73.777 Y52.811 E20.03831
G1 X73.623 Y53.046 E20.05295
G1 X73.502 Y53.301 E20.06767
G1 X73.415 Y53.577 E20.08276
G1 X73.365 Y53.867 E20.0981
G1 X73.35 Y54.164 E20.1136
G1 X73.363 Y54.457 E20.12889
G1 X73.409 Y54.741 E20.14389
G1 X73.489 Y55.018 E20.15893
G1 X73.61 Y55.276 E20.17378
G1 X73.76 Y55.507 E20.18814
G1 X73.941 Y55.711 E20.20236
G1 X74.151 Y55.889 E20.21671
G1 X74.393 Y56.037 E20.2315
G1 X74.648 Y56.144 E20.24592
G1 X74.911 Y56.221 E20.26021
G1 X75.193 Y56.266 E20.27509
G1 X75.484 Y56.279 E20.29028
G1 X75.756 Y56.265 E20.30448
G1 X76.027 Y56.22 E20.3188
G1 X76.285 Y56.142 E20.33285
G1 X76.535 Y56.035 E20.34703
G1 X76.769 Y55.889 E20.36141
G1 X76.978 Y55.715 E20.37559
G1 X77.155 Y55.521 E20.38928
G1 X77.155 Y56.23 E20.42624
G1 X78.77 Y56.23 E20.51044
G1 X78.777 Y56.204 E20.51185
G1 X78.989 Y56.253 E20.52319
G1 X79.163 Y56.273 E20.53232
G1 X79.338 Y56.279 E20.54145
G1 X79.596 Y56.266 E20.55492
G1 X79.854 Y56.219 E20.56859
G1 X80.1 Y56.14 E20.58206
G1 X80.335 Y56.028 E20.59563
G1 X80.557 Y55.876 E20.60966
G1 X80.746 Y55.693 E20.62338
G1 X80.908 Y55.49 E20.63692
G1 X80.974 Y55.375 E20.64383
G1 X81.036 Y55.476 E20.65001
G1 X81.209 Y55.684 E20.66411
G1 X81.41 Y55.868 E20.67832
G1 X81.64 Y56.019 E20.69266
G1 X81.884 Y56.133 E20.70671
G1 X82.142 Y56.216 E20.72084
G1 X82.414 Y56.265 E20.73524
G1 X82.689 Y56.279 E20.7496
G1 X82.96 Y56.266 E20.76375
G1 X83.223 Y56.22 E20.77766
G1 X83.472 Y56.143 E20.79125
G1 X83.701 Y56.039 E20.80437
G1 X83.918 Y55.903 E20.81772
G1 X84.107 Y55.739 E20.83076
G1 X84.184 Y55.653 E20.83678
G1 X84.184 Y56.23 E20.86686
G1 X85.83 Y56.23 E20.95268
G1 X85.833 Y56.213 E20.95358
G1 X86.097 Y56.264 E20.9676
G1 X86.38 Y56.281 E20.98238
G1 X86.836 Y56.245 E21.00622
G1 X87.269 Y56.119 E21.02974
G1 X87.66 Y55.876 E21.05374
G1 X87.959 Y55.508 E21.07846
G1 X88.12 Y55.065 E21.10303
G1 X88.163 Y54.626 E21.12603
G1 X88.163 Y52.098 E21.25783
G1 F1680 E18.25783
G1 F3600 X72.575 Y52.282
G1 F1680 E21.25783
G1 F1320 X71.909 Y52.103 E21.29378
G1 X71.649 Y52.061 E21.30751
G1 X71.364 Y52.043 E21.3224
G1 X71.035 Y52.069 E21.33961
G1 X70.851 Y52.107 E21.3494
G1 X70.666 Y52.165 E21.35951
G1 X70.476 Y52.261 E21.37061
G1 X70.307 Y52.384 E21.3815
G1 X70.154 Y52.537 E21.39278
G1 X70.028 Y52.718 E21.40428
G1 X69.928 Y52.923 E21.41617
G1 X69.866 Y53.146 E21.42824
G1 X69.833 Y53.364 E21.43974
G1 X69.824 Y53.578 E21.4509
G1 X69.824 Y54.491 E21.4985
G1 X68.648 Y54.491 E21.55981
G1 X68.648 Y52.098 E21.68457
G1 X66.768 Y52.098 E21.78259
G1 X66.765 Y54.567 E21.91131
G1 X66.669 Y54.565 E21.91632
G1 X66.596 Y54.55 E21.9202
G1 X66.573 Y54.497 E21.92321
G1 X66.55 Y54.338 E21.93159
G1 X66.545 Y54.211 E21.93822
G1 X66.545 Y52.098 E22.04838
G1 X64.669 Y52.098 E22.14618
G1 X64.669 Y52.785 E22.182
G1 X64.512 Y52.607 E22.19437
G1 X64.297 Y52.43 E22.20889
G1 X64.063 Y52.288 E22.22316
G1 X63.809 Y52.177 E22.23761
G1 X63.537 Y52.1 E22.25235
G1 X63.26 Y52.058 E22.26696
G1 X62.971 Y52.045 E22.28204
G1 X62.748 Y52.056 E22.29368
G1 X62.489 Y52.091 E22.30731
G1 X62.221 Y52.161 E22.32175
G1 X61.969 Y52.265 E22.33596
G1 X61.734 Y52.4 E22.35009
G1 X61.517 Y52.57 E22.36446
G1 X61.295 Y52.805 E22.38132
G1 X61.137 Y53.046 E22.39634
G1 X61.058 Y53.212 E22.40593
G1 X60.895 Y52.983 E22.42058
G1 X60.652 Y52.737 E22.43861
G1 X60.371 Y52.529 E22.45683
G1 X60.058 Y52.364 E22.47528
G1 X59.722 Y52.241 E22.49394
G1 X59.367 Y52.159 E22.51293
G1 X59.001 Y52.113 E22.53216
G1 X58.63 Y52.098 E22.55152
G1 X56.837 Y52.098 E22.645
G1 X56.837 Y57.163 E22.90906
G1 X58.754 Y57.163 E23.00901
G1 X59.103 Y57.147 E23.02722
G1 X59.453 Y57.098 E23.04565
G1 X59.787 Y57.013 E23.06362
G1 X60.103 Y56.892 E23.08126
G1 X60.397 Y56.734 E23.09866
G1 X60.668 Y56.533 E23.11625
G1 X60.905 Y56.29 E23.13394
G1 X61.1 Y56.017 E23.15144
G1 X61.253 Y55.715 E23.16909
G1 X61.311 Y55.548 E23.1783
G1 X61.455 Y55.711 E23.18964
G1 X61.665 Y55.889 E23.20399
G1 X61.907 Y56.037 E23.21878
G1 X62.162 Y56.144 E23.2332
G1 X62.425 Y56.221 E23.24749
G1 X62.707 Y56.266 E23.26238
G1 X62.998 Y56.279 E23.27756
G1 X63.27 Y56.265 E23.29176
G1 X63.541 Y56.22 E23.30608
G1 X63.799 Y56.142 E23.32014
G1 X64.049 Y56.035 E23.33431
G1 X64.283 Y55.889 E23.34869
G1 X64.492 Y55.715 E23.36287
G1 X64.669 Y55.52 E23.3766
M73 P1
G1 X64.669 Y56.23 E23.41362
G1 X66.316 Y56.23 E23.49948
G1 X66.319 Y56.213 E23.50038
G1 X66.583 Y56.264 E23.5144
G1 X66.866 Y56.281 E23.52918
G1 X67.321 Y56.245 E23.55298
G1 X67.755 Y56.119 E23.57654
G1 X68.146 Y55.876 E23.60054
G1 X68.307 Y55.677 E23.61389
G1 X68.174 Y57.163 E23.69167
G1 X70.222 Y57.163 E23.79844
G1 X70.17 Y56.617 E23.82704
G1 X70.272 Y56.872 E23.84136
G1 X71.7 Y56.872 E23.9158
G1 X71.7 Y56.23 E23.94928
G1 X72.548 Y56.23 E23.99349
G1 X72.548 Y54.574 E24.07982
G1 X71.7 Y54.574 E24.12403
G1 X71.7 Y53.774 E24.16574
G1 X72.575 Y53.966 E24.21244
G1 X72.575 Y52.282 E24.30024
G1 F1680 E21.30024
G1 F3600 X72.215 Y53.517
;TYPE:WALL-OUTER
G1 F1680 E24.30024
G1 F1320 X72.215 Y52.558 E24.35024
G1 X71.833 Y52.455 E24.37086
G1 X71.609 Y52.419 E24.38269
G1 X71.367 Y52.404 E24.39533
G1 X71.086 Y52.426 E24.41003
G1 X70.942 Y52.456 E24.4177
G1 X70.801 Y52.5 E24.4254
G1 X70.664 Y52.569 E24.4334
G1 X70.542 Y52.658 E24.44127
G1 X70.431 Y52.769 E24.44945
G1 X70.339 Y52.901 E24.45784
G1 X70.266 Y53.051 E24.46654
G1 X70.219 Y53.221 E24.47573
G1 X70.192 Y53.399 E24.48512
G1 X70.184 Y53.586 E24.49488
G1 X70.184 Y54.934 E24.56516
G1 X69.71 Y54.934 E24.58987
G1 X69.71 Y55.57 E24.62303
G1 X69.642 Y54.851 E24.66068
G1 X68.743 Y54.851 E24.70755
G1 X68.568 Y56.803 E24.80972
G1 X69.826 Y56.803 E24.87531
G1 X69.716 Y55.64 E24.93622
G1 X70.253 Y55.854 E24.96635
G1 X70.516 Y56.512 E25.0033
G1 X71.34 Y56.512 E25.04626
G1 X71.34 Y55.87 E25.07973
G1 X72.188 Y55.87 E25.12394
G1 X72.188 Y54.934 E25.17274
G1 X71.34 Y54.934 E25.21695
G1 X71.34 Y53.592 E25.28691
G1 X71.347 Y53.49 E25.29224
G1 X71.373 Y53.406 E25.29683
G1 X71.389 Y53.4 E25.29772
G1 X71.487 Y53.392 E25.30284
G1 X71.785 Y53.421 E25.31845
G1 X72.215 Y53.517 E25.34142
G1 F1680 E22.34142
G1 F3600 X74.063 Y53.032
G1 F1680 E25.34142
G1 F1320 X73.938 Y53.223 E25.35332
G1 X73.838 Y53.433 E25.36545
G1 X73.766 Y53.662 E25.37797
G1 X73.723 Y53.907 E25.39093
G1 X73.71 Y54.165 E25.4044
G1 X73.722 Y54.42 E25.41771
G1 X73.761 Y54.662 E25.43049
G1 X73.827 Y54.891 E25.44292
G1 X73.925 Y55.101 E25.455
G1 X74.047 Y55.288 E25.46664
G1 X74.193 Y55.453 E25.47813
G1 X74.363 Y55.597 E25.48974
G1 X74.557 Y55.716 E25.50161
G1 X74.768 Y55.804 E25.51352
G1 X74.99 Y55.869 E25.52558
G1 X75.23 Y55.907 E25.53825
G1 X75.483 Y55.919 E25.55146
G1 X75.717 Y55.907 E25.56367
G1 X75.945 Y55.869 E25.57572
G1 X76.162 Y55.803 E25.58755
G1 X76.368 Y55.715 E25.59923
G1 X76.558 Y55.597 E25.61089
G1 X76.728 Y55.455 E25.62244
G1 X76.877 Y55.291 E25.63399
G1 X77.001 Y55.104 E25.64569
G1 X77.101 Y54.898 E25.65763
G1 X77.176 Y54.671 E25.67009
G1 X77.222 Y54.424 E25.68319
G1 X77.235 Y54.167 E25.6966
G1 X77.223 Y53.909 E25.71007
G1 X77.182 Y53.664 E25.72302
G1 X77.112 Y53.436 E25.73546
G1 X77.017 Y53.227 E25.74742
G1 X76.896 Y53.036 E25.75921
G1 X76.747 Y52.867 E25.77096
G1 X76.574 Y52.724 E25.78266
G1 X76.383 Y52.608 E25.79431
G1 X76.174 Y52.517 E25.80619
G1 X75.947 Y52.453 E25.81849
G1 X75.71 Y52.417 E25.83099
G1 X75.458 Y52.405 E25.84414
G1 X75.224 Y52.417 E25.85636
G1 X74.998 Y52.454 E25.8683
G1 X74.778 Y52.518 E25.88024
G1 X74.572 Y52.609 E25.89198
G1 X74.383 Y52.724 E25.90352
G1 X74.213 Y52.866 E25.91507
G1 X74.063 Y53.032 E25.92673
G1 F1680 E22.92673
G1 F3600 X77.515 Y51.198
G1 F1680 E25.92673
G1 F1320 X77.515 Y55.87 E26.17031
G1 X78.496 Y55.87 E26.22145
G1 X78.537 Y55.721 E26.22951
G1 X78.605 Y55.762 E26.23365
G1 X78.819 Y55.844 E26.2456
G1 X79.051 Y55.898 E26.25801
G1 X79.19 Y55.914 E26.26531
G1 X79.335 Y55.919 E26.27287
G1 X79.554 Y55.908 E26.2843
G1 X79.766 Y55.869 E26.29554
G1 X79.967 Y55.805 E26.30654
G1 X80.155 Y55.715 E26.31741
G1 X80.329 Y55.596 E26.3284
G1 X80.479 Y55.451 E26.33927
G1 X80.609 Y55.287 E26.35018
G1 X80.717 Y55.099 E26.36149
G1 X80.8 Y54.892 E26.37312
G1 X80.861 Y54.668 E26.38522
G1 X80.898 Y54.425 E26.39803
G1 X80.91 Y54.166 E26.41155
G1 X80.898 Y53.905 E26.42517
G1 X80.861 Y53.661 E26.43804
G1 X80.8 Y53.436 E26.45019
G1 X80.717 Y53.23 E26.46177
G1 X80.61 Y53.041 E26.4731
G1 X80.481 Y52.874 E26.4841
G1 X80.329 Y52.729 E26.49505
G1 X80.157 Y52.61 E26.50595
G1 X79.967 Y52.516 E26.517
G1 X79.764 Y52.454 E26.52807
G1 X79.553 Y52.416 E26.53925
G1 X79.33 Y52.404 E26.55089
G1 X79.063 Y52.422 E26.56484
G1 X78.824 Y52.473 E26.57758
G1 X78.67 Y52.532 E26.58618
G1 X78.671 Y51.198 E26.65573
G1 X77.515 Y51.198 E26.716
G1 F1680 E23.716
G1 F3600 X81.061 Y53.64
G1 F1680 E26.716
G1 F1320 X81.018 Y53.883 E26.72886
G1 X81.005 Y54.139 E26.74223
G1 X81.017 Y54.394 E26.75554
G1 X81.056 Y54.636 E26.76832
G1 X81.121 Y54.864 E26.78068
G1 X81.213 Y55.075 E26.79268
G1 X81.33 Y55.266 E26.80436
G1 X81.47 Y55.435 E26.8158
G1 X81.632 Y55.583 E26.82724
G1 X81.816 Y55.704 E26.83872
G1 X82.016 Y55.797 E26.85022
G1 X82.23 Y55.866 E26.86194
G1 X82.456 Y55.907 E26.87391
G1 X82.69 Y55.919 E26.88613
G1 X82.92 Y55.908 E26.89814
G1 X83.138 Y55.869 E26.90968
G1 X83.344 Y55.806 E26.92091
G1 X83.53 Y55.721 E26.93157
G1 X83.703 Y55.613 E26.94221
G1 X83.854 Y55.482 E26.95263
G1 X83.986 Y55.334 E26.96297
G1 X84.098 Y55.166 E26.97349
G1 X84.185 Y54.981 E26.98415
G1 X84.247 Y54.78 E26.99512
G1 X84.284 Y54.572 E27.00613
G1 X84.295 Y54.363 E27.01704
G1 X84.295 Y53.764 E27.04827
G1 X82.23 Y53.764 E27.15593
G1 X82.264 Y53.664 E27.16144
G1 X82.341 Y53.558 E27.16827
G1 X82.446 Y53.483 E27.175
G1 X82.6 Y53.431 E27.18347
G1 X82.83 Y53.41 E27.19551
G1 X83.009 Y53.416 E27.20485
G1 X83.151 Y53.43 E27.21229
G1 X83.446 Y53.488 E27.22796
G1 X84.142 Y53.723 E27.26626
G1 X84.142 Y52.674 E27.32095
G1 X83.602 Y52.494 E27.35063
G1 X83.416 Y52.456 E27.36053
G1 X83.228 Y52.427 E27.37044
G1 X83.03 Y52.41 E27.3808
G1 X82.813 Y52.405 E27.39212
G1 X82.568 Y52.417 E27.40491
G1 X82.331 Y52.453 E27.41741
G1 X82.106 Y52.515 E27.42957
G1 X81.893 Y52.602 E27.44157
G1 X81.698 Y52.715 E27.45332
G1 X81.522 Y52.852 E27.46495
G1 X81.367 Y53.016 E27.47671
G1 X81.237 Y53.202 E27.48854
G1 X81.134 Y53.412 E27.50074
G1 X81.061 Y53.64 E27.51322
G1 F1680 E24.51322
G1 F3600 X84.544 Y52.458
G1 F1680 E27.51322
G1 F1320 X84.544 Y55.87 E27.6911
G1 X85.538 Y55.87 E27.74293
G1 X85.569 Y55.722 E27.75081
G1 X85.704 Y55.792 E27.75874
G1 X85.917 Y55.863 E27.77044
G1 X86.142 Y55.906 E27.78239
G1 X86.377 Y55.92 E27.79466
G1 X86.771 Y55.889 E27.81526
G1 X87.121 Y55.787 E27.83427
G1 X87.419 Y55.602 E27.85256
G1 X87.641 Y55.328 E27.87094
G1 X87.766 Y54.985 E27.88998
G1 X87.803 Y54.608 E27.90973
G1 X87.803 Y52.458 E28.02182
G1 X86.643 Y52.458 E28.08229
G1 X86.643 Y54.551 E28.19141
G1 X86.629 Y54.71 E28.19973
G1 X86.6 Y54.799 E28.20461
G1 X86.562 Y54.852 E28.20801
G1 X86.516 Y54.887 E28.21103
G1 X86.426 Y54.916 E28.21596
G1 X86.274 Y54.929 E28.22391
G1 X86.151 Y54.924 E28.23033
G1 X86.047 Y54.907 E28.23582
G1 X85.969 Y54.883 E28.24008
G1 X85.912 Y54.855 E28.24339
G1 X85.864 Y54.82 E28.24649
G1 X85.826 Y54.78 E28.24936
G1 X85.791 Y54.727 E28.25267
G1 X85.761 Y54.662 E28.25641
G1 X85.736 Y54.58 E28.26088
G1 X85.715 Y54.466 E28.26692
G1 X85.704 Y54.356 E28.27268
G1 X85.699 Y54.211 E28.28025
G1 X85.699 Y52.458 E28.37164
G1 X84.544 Y52.458 E28.43186
G1 F1680 E25.43186
G1 F3600 X92.2 Y49.3
G1 F1680 E28.43186
G1 F1320 X92.2 Y58.7 E28.92193
G1 X52.8 Y58.7 E30.97606
G1 X52.8 Y49.3 E31.46613
G1 X92.2 Y49.3 E33.52026
G1 F1680 E30.52026
G1 F3600 X68.288 Y52.458
G1 F1680 E33.52026
G1 F1320 X67.128 Y52.458 E33.58073
G1 X67.128 Y54.551 E33.68985
G1 X67.114 Y54.71 E33.69817
G1 X67.085 Y54.799 E33.70305
G1 X67.047 Y54.853 E33.7065
G1 X67.002 Y54.887 E33.70944
G1 X66.912 Y54.916 E33.71437
G1 X66.76 Y54.929 E33.72232
G1 X66.637 Y54.924 E33.72874
G1 X66.533 Y54.907 E33.73423
