M73 P0
;MINX:5.0
;MAXX:95.0
;MINY:15.0
;MAXY:105.0
;MINZ:0.0
;MAXZ:61.3
;MachineType:ENTINA TINA2
;FilamentType:PLA
;Extruder0Temperature:200
;InfillDensity:10
;FLAVOR:Marlin
;TIME:14540
;FilamentUsed:19576.6
;Layer height: 0.35

;Generated with Cura_SteamEngine 3.1
M104 T0 S215
M82 ; absolute extrusion mode
;(**** start.gcode for tina2****)
M104 S150
G28 Z
G28 X Y; Home extruder
G1 X55 Y55 F1000
G1 Z10 F200
G29
G1 Z15 F100
M107 ; Turn off fan
G90 ; Absolute positioning
M82 ; Extruder in absolute mode
M109 S215.0
G92 E0 ; Reset extruder position
G1 X90 Y6 Z0.27 F2000
G1 X20 Y6 Z0.27 E15 F1000
G92 E0 ; Reset extruder position

;LAYER_COUNT:173
;LAYER:-5
M107
M203 Z5
G1 F3600 X88.915 Y19.076 Z0.349
G1 F1200 X89.073 Y19.168 E0.02016
G1 X89.199 Y19.255 E0.03705
G1 X89.693 Y19.629 E0.10537
G1 X89.841 Y19.751 E0.12652
G1 X90.333 Y20.26 E0.20459
G1 X90.431 Y20.371 E0.22092
G1 X90.531 Y20.504 E0.23927
G1 X90.863 Y20.983 E0.30354
G1 X90.951 Y21.12 E0.32149
G1 X91.283 Y21.799 E0.40484
G1 X91.34 Y21.932 E0.42079
G1 X91.395 Y22.092 E0.43945
G1 X91.597 Y22.785 E0.51905
G1 X91.622 Y22.917 E0.53387
G1 X91.706 Y23.484 E0.59707
G1 X91.726 Y23.872 E0.63992
G1 X91.725 Y95.987 E8.59233
G1 X91.716 Y96.201 E8.61595
G1 X91.657 Y96.851 E8.68792
G1 X91.633 Y97.032 E8.70805
G1 X91.468 Y97.686 E8.78243
G1 X91.412 Y97.873 E8.80396
G1 X91.104 Y98.59 E8.89001
G1 X91.041 Y98.716 E8.90554
G1 X90.941 Y98.887 E8.92739
G1 X90.653 Y99.33 E8.98566
G1 X90.544 Y99.485 E9.00655
G1 X90.083 Y100.01 E9.0836
G1 X89.976 Y100.121 E9.1006
G1 X89.828 Y100.252 E9.12239
G1 X89.398 Y100.605 E9.18374
G1 X89.257 Y100.711 E9.2032
G1 X89.114 Y100.802 E9.22189
G1 X88.502 Y101.152 E9.29963
G1 X88.342 Y101.222 E9.31889
G1 X87.801 Y101.433 E9.38293
G1 X87.642 Y101.487 E9.40144
G1 X87.486 Y101.527 E9.4192
G1 X86.946 Y101.644 E9.48013
G1 X86.768 Y101.676 E9.50008
G1 X86.599 Y101.693 E9.51881
G1 X86.149 Y101.723 E9.56854
G1 X85.957 Y101.73 E9.58973
G1 X13.912 Y101.727 E17.53441
G1 X13.429 Y101.699 E17.58777
G1 X13.278 Y101.678 E17.60458
G1 X12.544 Y101.539 E17.68696
G1 X11.829 Y101.295 E17.77027
G1 X11.659 Y101.227 E17.79046
G1 X11.083 Y100.924 E17.86223
G1 X10.927 Y100.833 E17.88215
G1 X10.307 Y100.372 E17.96734
G1 X10.159 Y100.25 E17.98849
G1 X9.657 Y99.73 E18.0682
G1 X9.569 Y99.63 E18.08289
G1 X9.469 Y99.497 E18.10124
G1 X9.137 Y99.018 E18.1655
G1 X9.049 Y98.881 E18.18346
G1 X8.717 Y98.202 E18.26681
G1 X8.66 Y98.069 E18.28276
G1 X8.6 Y97.894 E18.30317
G1 X8.403 Y97.216 E18.38102
G1 X8.376 Y97.073 E18.39707
G1 X8.294 Y96.512 E18.45959
G1 X8.274 Y96.114 E18.50354
G1 X8.27 Y24.034 E26.45208
G1 X8.3 Y23.442 E26.51745
G1 X8.452 Y22.578 E26.61419
G1 X8.507 Y22.395 E26.63526
G1 X8.713 Y21.808 E26.70386
G1 X8.778 Y21.647 E26.72301
G1 X9.1 Y21.043 E26.79849
G1 X9.168 Y20.927 E26.81332
G1 X9.261 Y20.792 E26.83139
G1 X9.727 Y20.186 E26.91569
G1 X10.254 Y19.671 E26.99695
G1 X10.354 Y19.582 E27.01171
G1 X10.491 Y19.479 E27.03061
G1 X10.983 Y19.138 E27.09663
G1 X11.136 Y19.04 E27.11666
G1 X11.277 Y18.965 E27.13427
G1 X11.793 Y18.72 E27.19726
G1 X11.977 Y18.642 E27.2193
G1 X12.447 Y18.488 E27.27384
G1 X12.623 Y18.442 E27.2939
G1 X13.064 Y18.353 E27.34351
G1 X13.226 Y18.326 E27.36162
G1 X13.405 Y18.308 E27.38146
G1 X13.851 Y18.278 E27.43075
G1 X14.043 Y18.271 E27.45194
G1 X86.088 Y18.274 E35.39663
G1 X86.571 Y18.302 E35.44998
G1 X86.722 Y18.323 E35.46679
G1 X87.456 Y18.462 E35.54917
G1 X88.171 Y18.706 E35.63248
G1 X88.341 Y18.774 E35.65267
G1 X88.915 Y19.076 E35.7242
G1 F1680 E32.7242
G1 F3600 X89.6 Y19.559
G1 F1680 E35.7242
G1 F1200 X89.6 Y100.44 E44.64327
G1 F1680 E41.64327
G1 F3600 X88 Y101.356
G1 F1680 E44.64327
G1 F1200 X88 Y18.648 E53.76381
G1 F1680 E50.76381
G1 F3600 X86.4 Y18.293
G1 F1680 E53.76381
G1 F1200 X86.4 Y101.707 E62.9622
G1 F1680 E59.9622
G1 F3600 X84.8 Y101.729
G1 F1680 E62.9622
G1 F1200 X84.8 Y18.274 E72.16512
G1 F1680 E69.16512
G1 F3600 X83.2 Y18.274
G1 F1680 E72.16512
G1 F1200 X83.2 Y101.729 E81.36803
G1 F1680 E78.36803
G1 F3600 X81.6 Y101.729
G1 F1680 E81.36803
G1 F1200 X81.6 Y18.274 E90.57095
G1 F1680 E87.57095
G1 F3600 X80 Y18.274
G1 F1680 E90.57095
G1 F1200 X80 Y101.729 E99.77386
G1 F1680 E96.77386
G1 F3600 X78.4 Y101.729
G1 F1680 E99.77386
G1 F1200 X78.4 Y18.274 E108.97678
G1 F1680 E105.97678
G1 F3600 X76.8 Y18.274
G1 F1680 E108.97678
G1 F1200 X76.8 Y101.729 E118.17969
G1 F1680 E115.17969
G1 F3600 X75.2 Y101.729
G1 F1680 E118.17969
G1 F1200 X75.2 Y18.274 E127.38261
G1 F1680 E124.38261
G1 F3600 X73.6 Y18.274
G1 F1680 E127.38261
G1 F1200 X73.6 Y101.729 E136.58552
G1 F1680 E133.58552
G1 F3600 X72 Y101.729
G1 F1680 E136.58552
G1 F1200 X72 Y18.274 E145.78843
G1 F1680 E142.78843
G1 F3600 X70.4 Y18.274
G1 F1680 E145.78843
G1 F1200 X70.4 Y101.729 E154.99135
G1 F1680 E151.99135
G1 F3600 X68.8 Y101.729
G1 F1680 E154.99135
G1 F1200 X68.8 Y18.274 E164.19426
G1 F1680 E161.19426
G1 F3600 X67.2 Y18.274
G1 F1680 E164.19426
G1 F1200 X67.2 Y101.729 E173.39718
G1 F1680 E170.39718
G1 F3600 X65.6 Y101.729
G1 F1680 E173.39718
G1 F1200 X65.6 Y18.274 E182.60009
G1 F1680 E179.60009
G1 F3600 X64 Y18.274
G1 F1680 E182.60009
G1 F1200 X64 Y101.729 E191.80301
G1 F1680 E188.80301
G1 F3600 X62.4 Y101.729
G1 F1680 E191.80301
G1 F1200 X62.4 Y18.274 E201.00592
G1 F1680 E198.00592
G1 F3600 X60.8 Y18.273
G1 F1680 E201.00592
G1 F1200 X60.8 Y101.728 E210.20884
G1 F1680 E207.20884
G1 F3600 X59.2 Y101.728
G1 F1680 E210.20884
G1 F1200 X59.2 Y18.273 E219.41175
G1 F1680 E216.41175
G1 F3600 X57.6 Y18.273
G1 F1680 E219.41175
G1 F1200 X57.6 Y101.728 E228.61467
G1 F1680 E225.61467
G1 F3600 X56 Y101.728
G1 F1680 E228.61467
G1 F1200 X56 Y18.273 E237.81758
G1 F1680 E234.81758
G1 F3600 X54.4 Y18.273
G1 F1680 E237.81758
G1 F1200 X54.4 Y101.728 E247.0205
G1 F1680 E244.0205
G1 F3600 X52.8 Y101.728
G1 F1680 E247.0205
G1 F1200 X52.8 Y18.273 E256.22341
G1 F1680 E253.22341
G1 F3600 X51.2 Y18.273
G1 F1680 E256.22341
G1 F1200 X51.2 Y101.728 E265.42633
G1 F1680 E262.42633
G1 F3600 X49.6 Y101.728
G1 F1680 E265.42633
G1 F1200 X49.6 Y18.273 E274.62924
G1 F1680 E271.62924
G1 F3600 X48 Y18.273
G1 F1680 E274.62924
G1 F1200 X48 Y101.728 E283.83216
G1 F1680 E280.83216
G1 F3600 X46.4 Y101.728
G1 F1680 E283.83216
G1 F1200 X46.4 Y18.273 E293.03507
G1 F1680 E290.03507
G1 F3600 X44.8 Y18.273
G1 F1680 E293.03507
G1 F1200 X44.8 Y101.728 E302.23799
G1 F1680 E299.23799
G1 F3600 X43.2 Y101.728
G1 F1680 E302.23799
G1 F1200 X43.2 Y18.273 E311.4409
G1 F1680 E308.4409
G1 F3600 X41.6 Y18.273
G1 F1680 E311.4409
G1 F1200 X41.6 Y101.728 E320.64382
G1 F1680 E317.64382
G1 F3600 X40 Y101.728
G1 F1680 E320.64382
G1 F1200 X40 Y18.273 E329.84673
G1 F1680 E326.84673
G1 F3600 X38.4 Y18.273
G1 F1680 E329.84673
G1 F1200 X38.4 Y101.728 E339.04965
G1 F1680 E336.04965
G1 F3600 X36.8 Y101.727
G1 F1680 E339.04965
G1 F1200 X36.8 Y18.272 E348.25256
G1 F1680 E345.25256
G1 F3600 X35.2 Y18.272
G1 F1680 E348.25256
G1 F1200 X35.2 Y101.727 E357.45548
G1 F1680 E354.45548
G1 F3600 X33.6 Y101.727
G1 F1680 E357.45548
G1 F1200 X33.6 Y18.272 E366.65839
G1 F1680 E363.65839
G1 F3600 X32 Y18.272
G1 F1680 E366.65839
G1 F1200 X32 Y101.727 E375.86131
G1 F1680 E372.86131
G1 F3600 X30.4 Y101.727
G1 F1680 E375.86131
G1 F1200 X30.4 Y18.272 E385.06422
G1 F1680 E382.06422
G1 F3600 X28.8 Y18.272
G1 F1680 E385.06422
G1 F1200 X28.8 Y101.727 E394.26713
G1 F1680 E391.26713
G1 F3600 X27.2 Y101.727
G1 F1680 E394.26713
G1 F1200 X27.2 Y18.272 E403.47005
G1 F1680 E400.47005
G1 F3600 X25.6 Y18.272
G1 F1680 E403.47005
G1 F1200 X25.6 Y101.727 E412.67296
G1 F1680 E409.67296
G1 F3600 X24 Y101.727
G1 F1680 E412.67296
G1 F1200 X24 Y18.272 E421.87588
G1 F1680 E418.87588
G1 F3600 X22.4 Y18.272
G1 F1680 E421.87588
G1 F1200 X22.4 Y101.727 E431.07879
G1 F1680 E428.07879
G1 F3600 X20.8 Y101.727
G1 F1680 E431.07879
G1 F1200 X20.8 Y18.272 E440.28171
G1 F1680 E437.28171
G1 F3600 X19.2 Y18.272
G1 F1680 E440.28171
G1 F1200 X19.2 Y101.727 E449.48462
G1 F1680 E446.48462
G1 F3600 X17.6 Y101.727
G1 F1680 E449.48462
G1 F1200 X17.6 Y18.272 E458.68754
G1 F1680 E455.68754
G1 F3600 X16 Y18.272
G1 F1680 E458.68754
G1 F1200 X16 Y101.727 E467.89045
G1 F1680 E464.89045
G1 F3600 X14.4 Y101.727
G1 F1680 E467.89045
G1 F1200 X14.4 Y18.272 E477.09337
G1 F1680 E474.09337
G1 F3600 X12.8 Y18.406
G1 F1680 E477.09337
G1 F1200 X12.8 Y101.587 E486.26607
G1 F1680 E483.26607
G1 F3600 X11.2 Y100.985
G1 F1680 E486.26607
G1 F1200 X11.2 Y19.005 E495.30633
G1 F1680 E492.30633
G1 F3600 X9.6 Y20.351
G1 F1680 E495.30633
G1 F1200 X9.6 Y99.665 E504.0526
G1 F1680 E501.0526
G1 F3600 X91.2 Y98.367
M104 T0 S200
G1 F1680 E504.0526
G1 F1200 X91.2 Y21.63 E512.51469
G1 F1680 E509.51469
G1 F3600 X89.096 Y19.122
;TIME_ELAPSED:246.242955
;LAYER:-4
G1 X89.096 Y19.122 Z0.619
;TYPE:SUPPORT
G1 F1680 E512.51469
G1 F1980 X88.489 Y18.789 E512.5663
G1 X88.352 Y18.724 E512.5776
G1 X88.181 Y18.654 E512.59138
G1 X87.462 Y18.41 E512.64798
G1 X87.3 Y18.374 E512.66035
G1 X87.063 Y18.332 E512.67829
G1 X91.677 Y22.946 E513.16468
G1 X91.757 Y23.495 E513.20604
G1 X91.776 Y23.869 E513.23395
G1 X91.776 Y24.318 E513.26742
G1 X85.68 Y18.222 E513.91005
G1 X84.408 Y18.222 E514.00487
G1 X91.776 Y25.59 E514.78158
G1 X91.776 Y26.863 E514.87648
G1 X83.135 Y18.222 E515.78739
G1 X81.862 Y18.222 E515.88228
G1 X91.776 Y28.136 E516.92739
G1 X91.776 Y29.409 E517.02228
G1 X80.589 Y18.222 E518.20159
G1 X79.316 Y18.222 E518.29648
G1 X91.776 Y30.682 E519.60999
G1 X91.776 Y31.954 E519.70481
G1 X78.044 Y18.222 E521.1524
G1 X76.771 Y18.222 E521.24729
G1 X91.776 Y33.227 E522.82909
G1 X91.776 Y34.5 E522.92398
G1 X75.498 Y18.222 E524.63997
G1 X74.225 Y18.222 E524.73486
G1 X91.776 Y35.773 E526.58504
G1 X91.776 Y37.046 E526.67994
G1 X72.952 Y18.222 E528.66432
G1 X71.679 Y18.222 E528.75921
G1 X91.776 Y38.318 E530.87774
G1 X91.776 Y39.591 E530.97263
G1 X70.406 Y18.222 E533.22535
G1 X69.133 Y18.222 E533.32024
G1 X91.776 Y40.864 E535.70716
G1 X91.776 Y42.137 E535.80205
G1 X67.861 Y18.222 E538.32312
G1 X66.588 Y18.222 E538.41801
G1 X91.776 Y43.409 E541.07322
G1 X91.776 Y44.682 E541.16811
G1 X65.315 Y18.222 E543.95752
G1 X64.042 Y18.222 E544.05241
G1 X91.776 Y45.955 E546.97601
G1 X91.776 Y47.228 E547.0709
G1 X62.769 Y18.222 E550.1287
G1 X61.496 Y18.221 E550.22359
G1 X91.776 Y48.501 E553.41564
G1 X91.776 Y49.773 E553.51046
G1 X60.223 Y18.221 E556.83665
G1 X58.95 Y18.221 E556.93154
G1 X91.776 Y51.046 E560.39193
G1 X91.776 Y52.319 E560.48682
G1 X57.677 Y18.221 E564.08141
G1 X56.405 Y18.221 E564.17622
G1 X91.776 Y53.592 E567.90495
G1 X91.776 Y54.865 E567.99984
G1 X55.132 Y18.221 E571.86277
G1 X53.859 Y18.221 E571.95766
G1 X91.776 Y56.137 E575.95473
G1 X91.776 Y57.41 E576.04962
G1 X52.586 Y18.221 E580.18089
G1 X51.314 Y18.221 E580.27571
G1 X91.776 Y58.683 E584.54112
G1 X91.776 Y59.956 E584.63601
G1 X50.04 Y18.22 E589.03572
G1 X48.767 Y18.22 E589.13062
G1 X91.776 Y61.229 E593.66453
G1 X91.776 Y62.501 E593.75934
G1 X47.494 Y18.22 E598.4274
G1 X46.222 Y18.22 E598.52221
G1 X91.776 Y63.774 E603.32441
G1 X91.776 Y65.047 E603.4193
G1 X44.949 Y18.22 E608.3557
G1 X43.676 Y18.22 E608.45059
G1 X91.776 Y66.32 E613.52118
G1 X91.776 Y67.593 E613.61607
G1 X42.403 Y18.22 E618.82086
G1 X41.13 Y18.22 E618.91575
G1 X91.776 Y68.865 E624.25468
G1 X91.776 Y70.138 E624.34958
G1 X39.858 Y18.22 E629.82265
G1 X38.585 Y18.22 E629.91754
G1 X91.776 Y71.411 E635.52482
G1 X91.776 Y72.684 E635.61971
G1 X37.311 Y18.22 E641.36123
G1 X36.039 Y18.22 E641.45605
G1 X91.776 Y73.957 E647.33171
G1 X91.776 Y75.229 E647.42653
G1 X34.766 Y18.22 E653.43634
G1 X33.493 Y18.22 E653.53123
G1 X91.776 Y76.502 E659.67524
G1 X91.776 Y77.775 E659.77013
G1 X32.22 Y18.22 E666.04834
G1 X30.947 Y18.22 E666.14323
G1 X91.776 Y79.048 E672.55563
G1 X91.776 Y80.32 E672.65045
G1 X29.675 Y18.22 E679.19694
G1 X28.402 Y18.22 E679.29183
G1 X91.776 Y81.593 E685.97252
G1 X91.776 Y82.866 E686.06741
G1 X27.129 Y18.22 E692.8823
G1 X25.856 Y18.219 E692.97719
G1 X91.776 Y84.139 E699.92632
G1 X91.776 Y85.412 E700.02121
G1 X24.583 Y18.219 E707.10455
G1 X23.31 Y18.219 E707.19944
G1 X91.776 Y86.684 E714.41691
G1 X91.776 Y87.957 E714.51181
G1 X22.037 Y18.219 E721.86348
G1 X20.764 Y18.219 E721.95837
G1 X91.776 Y89.23 E729.44424
G1 X91.776 Y90.503 E729.53913
G1 X19.492 Y18.219 E737.15914
G1 X18.219 Y18.219 E737.25404
G1 X91.776 Y91.776 E745.00825
G1 X91.776 Y93.048 E745.10306
G1 X16.946 Y18.219 E752.99142
G1 X15.673 Y18.219 E753.08631
G1 X91.776 Y94.321 E761.10886
G1 X91.776 Y95.594 E761.20375
G1 X14.4 Y18.219 E769.3605
G1 X14.041 Y18.218 E769.38726
G1 X13.849 Y18.226 E769.40158
G1 X13.396 Y18.256 E769.43542
G1 X13.21 Y18.275 E769.44936
G1 X13.188 Y18.28 E769.45104
G1 X91.711 Y96.802 E777.72871
G1 X91.705 Y96.871 E777.73387
G1 X91.681 Y97.048 E777.74718
G1 X91.512 Y97.712 E777.79826
G1 X91.474 Y97.838 E777.80807
G1 X12.162 Y18.526 E786.16896
G1 X11.95 Y18.596 E786.1856
G1 X11.772 Y18.672 E786.20002
G1 X11.274 Y18.91 E786.24117
G1 X91.092 Y98.729 E794.65545
G1 X91.082 Y98.747 E794.65699
G1 X90.985 Y98.912 E794.67125
G1 X90.694 Y99.359 E794.71101
G1 X90.593 Y99.502 E794.72406
G1 X10.5 Y19.41 E803.16723
G1 X10.461 Y19.436 E803.17072
G1 X10.32 Y19.543 E803.18392
G1 X10.22 Y19.632 E803.1939
G1 X9.83 Y20.013 E803.23454
G1 X89.991 Y100.173 E811.68487
G1 X89.861 Y100.288 E811.69781
G1 X89.439 Y100.636 E811.73858
G1 X89.292 Y100.747 E811.75232
G1 X9.256 Y20.711 E820.18953
G1 X9.219 Y20.759 E820.19404
G1 X9.133 Y20.884 E820.20535
G1 X9.048 Y21.028 E820.21782
G1 X8.788 Y21.516 E820.25904
G1 X88.485 Y101.213 E828.66051
G1 X88.367 Y101.266 E828.67015
G1 X87.812 Y101.482 E828.71455
G1 X87.667 Y101.532 E828.72598
G1 X87.558 Y101.559 E828.73435
G1 X8.438 Y22.439 E837.075
G1 X8.403 Y22.56 E837.08439
G1 X8.268 Y23.29 E837.13973
G1 X8.247 Y23.446 E837.15146
G1 X8.243 Y23.516 E837.15669
G1 X86.474 Y101.748 E845.40367
G1 X86.151 Y101.773 E845.42782
G1 X85.959 Y101.78 E845.44214
G1 X85.233 Y101.779 E845.49626
G1 X8.221 Y24.767 E853.61469
G1 X8.221 Y26.04 E853.70958
G1 X83.96 Y101.779 E861.69381
G1 X82.687 Y101.779 E861.7887
G1 X8.221 Y27.313 E869.63874
G1 X8.221 Y28.586 E869.73363
G1 X81.414 Y101.779 E877.44947
G1 X80.142 Y101.779 E877.54428
G1 X8.221 Y29.858 E885.12603
G1 X8.221 Y31.131 E885.22092
G1 X78.869 Y101.779 E892.66847
G1 X77.596 Y101.779 E892.76336
G1 X8.221 Y32.404 E900.07672
G1 X8.221 Y33.677 E900.17161
G1 X76.323 Y101.779 E907.35076
G1 X75.05 Y101.779 E907.44566
G1 X8.221 Y34.95 E914.49062
G1 X8.221 Y36.222 E914.58543
G1 X73.778 Y101.779 E921.4963
G1 X72.505 Y101.779 E921.59119
G1 X8.221 Y37.495 E928.36787
G1 X8.221 Y38.768 E928.46276
G1 X71.232 Y101.779 E935.10523
G1 X69.959 Y101.779 E935.20012
G1 X8.221 Y40.041 E941.7084
G1 X8.221 Y41.314 E941.80329
G1 X68.686 Y101.779 E948.17737
G1 X67.413 Y101.778 E948.27227
G1 X8.221 Y42.586 E954.51215
G1 X8.221 Y43.859 E954.60704
G1 X66.14 Y101.778 E960.71273
G1 X64.867 Y101.778 E960.80762
G1 X8.221 Y45.132 E966.77911
G1 X8.221 Y46.405 E966.874
G1 X63.595 Y101.778 E972.71135
G1 X62.322 Y101.778 E972.80624
G1 X8.221 Y47.678 E978.50939
G1 X8.22 Y48.95 E978.60421
G1 X61.049 Y101.778 E984.17327
G1 X59.776 Y101.778 E984.26816
G1 X8.22 Y50.222 E989.70308
G1 X8.22 Y51.495 E989.79797
G1 X58.503 Y101.778 E995.09869
G1 X57.231 Y101.778 E995.1935
G1 X8.22 Y52.768 E1000.36008
G1 X8.22 Y54.041 E1000.45497
G1 X55.958 Y101.778 E1005.48735
G1 X54.685 Y101.778 E1005.58224
G1 X8.22 Y55.314 E1010.48042
G1 X8.22 Y56.586 E1010.57524
G1 X53.412 Y101.778 E1015.33927
G1 X52.139 Y101.778 E1015.43417
G1 X8.22 Y57.859 E1020.06401
G1 X8.22 Y59.132 E1020.1589
G1 X50.867 Y101.778 E1024.65459
G1 X49.593 Y101.778 E1024.74956
G1 X8.22 Y60.405 E1029.11101
G1 X8.22 Y61.678 E1029.2059
G1 X48.32 Y101.778 E1033.43315
G1 X47.048 Y101.778 E1033.52796
G1 X8.22 Y62.95 E1037.62112
G1 X8.22 Y64.223 E1037.71601
G1 X45.775 Y101.778 E1041.67498
G1 X44.502 Y101.778 E1041.76987
G1 X8.22 Y65.496 E1045.59463
G1 X8.22 Y66.769 E1045.68952
G1 X43.229 Y101.778 E1049.38009
G1 X41.956 Y101.778 E1049.47498
G1 X8.22 Y68.042 E1053.03136
G1 X8.22 Y69.314 E1053.12617
G1 X40.684 Y101.778 E1056.54845
G1 X39.411 Y101.778 E1056.64335
G1 X8.22 Y70.587 E1059.93143
G1 X8.22 Y71.86 E1060.02632
G1 X38.138 Y101.778 E1063.18021
G1 X36.865 Y101.778 E1063.2751
G1 X8.22 Y73.132 E1066.29484
G1 X8.22 Y74.405 E1066.38973
