M73 P0
;MINX:47.1
;MAXX:74.0
;MINY:46.0
;MAXY:75.3
;MINZ:0.0
;MAXZ:7.7
;MachineType:ENTINA TINA2
;FilamentType:PLA
;Extruder0Temperature:200
;InfillDensity:10
;FLAVOR:Marlin
;TIME:847
;FilamentUsed:624.8
;Layer height: 0.2

;Generated with Cura_SteamEngine 3.1
M104 T0 S215
M82 ; absolute extrusion mode
;(**** start.gcode for tina2****)
M104 S150
G28 Z
G28 X Y; Home extruder
G1 X55 Y55 F1000
G1 Z10 F200
G29
G1 Z15 F100
M107 ; Turn off fan
G90 ; Absolute positioning
M82 ; Extruder in absolute mode
M109 S215.0
G92 E0 ; Reset extruder position
G1 X90 Y6 Z0.27 F2000
G1 X20 Y6 Z0.27 E15 F1000
G92 E0 ; Reset extruder position

;LAYER_COUNT:32
;LAYER:-6
M107
M203 Z5
G1 F3600 X67.571 Y49.241 Z0.349
G1 F1200 X67.864 Y49.446 E0.03943
G1 X68.416 Y49.871 E0.11626
G1 X69.022 Y50.403 E0.20518
G1 X69.398 Y50.77 E0.26312
G1 X69.824 Y51.231 E0.33234
G1 X70.338 Y51.846 E0.42072
G1 X70.577 Y52.166 E0.46477
G1 X70.851 Y52.557 E0.51742
G1 X71.123 Y52.984 E0.57325
G1 X71.283 Y53.252 E0.60767
G1 X71.48 Y53.613 E0.65302
G1 X71.741 Y54.132 E0.71708
G1 X71.87 Y54.403 E0.75018
G1 X72.02 Y54.758 E0.79267
G1 X72.173 Y55.154 E0.83949
G1 X72.33 Y55.614 E0.89309
G1 X72.551 Y56.363 E0.9792
G1 X72.657 Y56.812 E1.03008
G1 X72.742 Y57.251 E1.07939
G1 X72.796 Y57.572 E1.11528
G1 X72.857 Y58.061 E1.16962
G1 X72.917 Y58.757 E1.24666
G1 X72.932 Y59.172 E1.29245
G1 X72.931 Y59.697 E1.35035
G1 X72.914 Y60.138 E1.39901
G1 X72.87 Y60.701 E1.46129
G1 X72.793 Y61.293 E1.52712
G1 X72.668 Y61.986 E1.60477
G1 X72.511 Y62.633 E1.67819
G1 X72.308 Y63.312 E1.75634
G1 X72.236 Y63.522 E1.78082
G1 X71.976 Y64.203 E1.86121
G1 X71.779 Y64.638 E1.91386
G1 X71.452 Y65.284 E1.99371
G1 X71.264 Y65.632 E2.03733
G1 X71.06 Y65.973 E2.08114
G1 X70.735 Y66.465 E2.14617
G1 X70.338 Y67.004 E2.21999
G1 X70.11 Y67.291 E2.26041
G1 X69.597 Y67.874 E2.34604
G1 X69.342 Y68.14 E2.38668
G1 X68.797 Y68.648 E2.46884
G1 X68.344 Y69.036 E2.53461
G1 X68.085 Y69.243 E2.57117
G1 X67.542 Y69.633 E2.64489
G1 X67.37 Y69.746 E2.66759
G1 X66.679 Y70.174 E2.75722
G1 X66.462 Y70.293 E2.78451
G1 X65.898 Y70.655 E2.85841
G1 X65.376 Y71.089 E2.93327
G1 X64.847 Y71.637 E3.01727
G1 X64.521 Y71.939 E3.06627
G1 X64.148 Y72.224 E3.11804
G1 X63.964 Y72.351 E3.14269
G1 X63.542 Y72.603 E3.19689
G1 X63.124 Y72.8 E3.24785
G1 X62.736 Y72.956 E3.29396
G1 X62.379 Y73.068 E3.33522
G1 X62.231 Y73.108 E3.35213
G1 X61.895 Y73.179 E3.39
G1 X61.72 Y73.209 E3.40958
G1 X61.211 Y73.265 E3.46605
G1 X60.819 Y73.28 E3.50931
G1 X60.458 Y73.268 E3.54914
G1 X60.115 Y73.236 E3.58713
G1 X59.671 Y73.163 E3.63675
G1 X59.41 Y73.105 E3.66623
G1 X58.892 Y72.947 E3.72595
G1 X58.383 Y72.741 E3.7865
G1 X58.028 Y72.561 E3.83039
G1 X57.859 Y72.463 E3.85194
G1 X57.593 Y72.294 E3.88669
G1 X57.204 Y72.003 E3.94026
G1 X57.089 Y71.906 E3.95685
G1 X56.716 Y71.564 E4.01265
G1 X56.201 Y71.134 E4.08664
G1 X55.63 Y70.77 E4.16131
G1 X55.327 Y70.615 E4.19884
G1 X54.94 Y70.429 E4.24619
G1 X54.603 Y70.248 E4.28837
G1 X54.046 Y69.922 E4.35954
G1 X53.499 Y69.562 E4.43176
G1 X52.86 Y69.083 E4.51982
G1 X52.577 Y68.85 E4.56024
G1 X52.181 Y68.497 E4.61874
G1 X51.875 Y68.206 E4.66531
G1 X51.577 Y67.9 E4.71241
G1 X51.285 Y67.579 E4.76026
G1 X50.785 Y66.974 E4.84681
G1 X50.458 Y66.531 E4.90753
G1 X50.292 Y66.288 E4.93999
G1 X49.936 Y65.717 E5.01419
G1 X49.574 Y65.063 E5.09662
G1 X49.377 Y64.661 E5.14598
G1 X49.212 Y64.294 E5.19036
G1 X48.994 Y63.744 E5.2556
G1 X48.828 Y63.273 E5.31067
G1 X48.748 Y63.021 E5.33982
G1 X48.596 Y62.468 E5.40307
G1 X48.501 Y62.073 E5.44787
G1 X48.389 Y61.499 E5.51236
G1 X48.315 Y61.022 E5.56559
G1 X48.285 Y60.765 E5.59412
G1 X48.225 Y59.953 E5.68391
G1 X48.212 Y59.501 E5.73377
G1 X48.215 Y59.198 E5.76719
G1 X48.254 Y58.437 E5.85122
G1 X48.331 Y57.71 E5.93183
G1 X48.433 Y57.104 E5.9996
G1 X48.611 Y56.308 E6.08955
G1 X48.854 Y55.498 E6.1828
G1 X49.036 Y54.994 E6.24189
G1 X49.167 Y54.691 E6.27829
G1 X49.236 Y54.508 E6.29986
G1 X49.479 Y53.98 E6.36396
G1 X49.661 Y53.627 E6.40775
G1 X49.906 Y53.187 E6.46329
G1 X50.225 Y52.666 E6.53065
G1 X50.495 Y52.273 E6.58323
G1 X50.952 Y51.666 E6.66702
G1 X51.186 Y51.386 E6.70726
G1 X51.473 Y51.062 E6.75499
G1 X51.955 Y50.566 E6.83126
G1 X52.43 Y50.131 E6.90228
G1 X52.785 Y49.829 E6.95368
G1 X53.071 Y49.608 E6.99354
G1 X53.546 Y49.259 E7.05854
G1 X53.97 Y48.976 E7.11475
G1 X54.494 Y48.664 E7.182
G1 X54.869 Y48.462 E7.22897
G1 X55.154 Y48.319 E7.26413
G1 X55.764 Y48.041 E7.33806
G1 X56.141 Y47.89 E7.38284
G1 X56.589 Y47.727 E7.43541
G1 X57.095 Y47.568 E7.4939
G1 X57.571 Y47.439 E7.54828
G1 X58.02 Y47.333 E7.59916
G1 X58.686 Y47.21 E7.67384
G1 X59.38 Y47.125 E7.75094
G1 X59.968 Y47.081 E7.81597
G1 X60.383 Y47.067 E7.86176
G1 X60.854 Y47.068 E7.9137
G1 X61.151 Y47.078 E7.94647
G1 X61.966 Y47.144 E8.03663
G1 X62.218 Y47.173 E8.06461
G1 X62.753 Y47.259 E8.12436
G1 X63.219 Y47.353 E8.17678
G1 X63.651 Y47.458 E8.22581
G1 X64.186 Y47.605 E8.28699
G1 X64.701 Y47.775 E8.3468
G1 X65.314 Y48.011 E8.41923
G1 X65.803 Y48.228 E8.47823
G1 X66.446 Y48.549 E8.55748
G1 X67.056 Y48.904 E8.63531
G1 X67.571 Y49.241 E8.70318
G1 F3600 X67.2 Y48.999
G1 F1200 X67.2 Y69.852 E11.00272
G1 F1680 E8.00272
G1 F3600 X65.6 Y70.903
G1 F1680 E11.00272
G1 F1200 X65.6 Y48.138 E13.51311
G1 F1680 E10.51311
G1 F3600 X64 Y47.554
G1 F1680 E13.51311
G1 F1200 X64 Y72.327 E16.24492
G1 F1680 E13.24492
G1 F3600 X62.4 Y73.062
G1 F1680 E16.24492
G1 F1200 X62.4 Y47.203 E19.0965
G1 F1680 E16.0965
G1 F3600 X60.8 Y47.068
G1 F1680 E19.0965
G1 F1200 X60.8 Y73.279 E21.98689
G1 F1680 E18.98689
G1 F3600 X59.2 Y73.04
G1 F1680 E21.98689
G1 F1200 X59.2 Y47.147 E24.84221
G1 F1680 E21.84221
G1 F3600 X57.6 Y47.432
G1 F1680 E24.84221
G1 F1200 X57.6 Y72.298 E27.58429
G1 F1680 E24.58429
G1 F3600 X56 Y71.005
G1 F1680 E27.58429
G1 F1200 X56 Y47.946 E30.12709
G1 F1680 E27.12709
G1 F3600 X54.4 Y48.719
G1 F1680 E30.12709
G1 F1200 X54.4 Y70.129 E32.48806
G1 F1680 E29.48806
G1 F3600 X52.8 Y69.033
G1 F1680 E32.48806
G1 F1200 X52.8 Y49.817 E34.60708
G1 F1680 E31.60708
G1 F3600 X51.2 Y51.37
G1 F1680 E34.60708
G1 F1200 X51.2 Y67.476 E36.38316
G1 F1680 E33.38316
G1 F3600 X49.6 Y65.109
G1 F1680 E36.38316
G1 F1200 X49.6 Y53.745 E37.63631
M104 T0 S200
G1 F1680 E34.63631
G1 F3600 X68.8 Y50.209
G1 F1680 E37.63631
G1 F1200 X68.8 Y68.646 E39.66943
G1 F1680 E36.66943
G1 F3600 X70.4 Y66.92
G1 F1680 E39.66943
G1 F1200 X70.4 Y51.93 E41.32244
G1 F1680 E38.32244
G1 F3600 X72 Y54.711
G1 F1680 E41.32244
G1 F1200 X72 Y64.141 E42.36232
G1 F1680 E39.36232
G1 F3600 X67.601 Y49.199
;TIME_ELAPSED:24.285277
;LAYER:-5
G1 X67.601 Y49.199 Z0.619
;TYPE:SUPPORT
G1 F1680 E42.36232
G1 F1980 X67.892 Y49.404 E42.38886
G1 X68.459 Y49.841 E42.44222
G1 X69.06 Y50.37 E42.5019
G1 X69.437 Y50.738 E42.54117
G1 X69.959 Y51.306 E42.59867
G1 X70.369 Y51.804 E42.64676
G1 X70.584 Y52.091 E42.67349
G1 X70.889 Y52.523 E42.71291
G1 X71.165 Y52.957 E42.75125
G1 X71.33 Y53.232 E42.77515
G1 F3600 X71.645 Y53.826
G1 F1980 X66.179 Y48.36 E43.35136
G1 X66.479 Y48.51 E43.37637
G1 X66.72 Y48.645 E43.39696
G1 X67.073 Y48.855 E43.42758
G1 X67.601 Y49.199 E43.47455
G1 F1680 E40.47455
G1 F3600 X64.065 Y47.519
G1 F1680 E43.47455
G1 F1980 X63.65 Y47.405 E43.50663
G1 X63.227 Y47.303 E43.53906
G1 X62.752 Y47.207 E43.57519
G1 X62.429 Y47.155 E43.59957
G1 X72.844 Y57.571 E44.69755
G1 X72.899 Y57.979 E44.72824
G1 X72.967 Y58.754 E44.78623
G1 X72.975 Y58.974 E44.80264
G1 X61.024 Y47.023 E46.06249
G1 X60.854 Y47.017 E46.07517
G1 X60.381 Y47.015 E46.11043
G1 X59.964 Y47.029 E46.14153
G1 X59.772 Y47.044 E46.15589
G1 X72.957 Y60.229 E47.54582
G1 X72.933 Y60.554 E47.57011
G1 X72.874 Y61.085 E47.60993
G1 X72.827 Y61.372 E47.63161
G1 X58.624 Y47.169 E49.12886
G1 X58.008 Y47.282 E49.17554
G1 X57.638 Y47.368 E49.20386
G1 X57.569 Y47.386 E49.20918
G1 X72.612 Y62.43 E50.79503
G1 X72.582 Y62.557 E50.80475
G1 X72.339 Y63.377 E50.86851
G1 X72.326 Y63.416 E50.87157
G1 X56.584 Y47.675 E52.531
G1 F3600 X56.579 Y47.675
G1 F1980 X56.115 Y47.844 E52.56781
G1 X55.755 Y47.988 E52.59672
G1 X55.666 Y48.029 E52.60402
G1 X71.972 Y64.336 E54.32301
G1 X71.782 Y64.751 E54.35704
G1 X71.553 Y65.189 E54.39388
G1 X54.802 Y48.438 E56.15973
G1 X54.134 Y48.812 E56.2168
G1 X53.993 Y48.902 E56.22927
G1 X71.098 Y66.007 E58.03244
G1 X70.776 Y66.494 E58.07596
G1 X70.579 Y66.761 E58.10069
G1 X53.238 Y49.42 E59.92874
G1 X53.04 Y49.566 E59.94708
G1 X52.752 Y49.788 E59.97418
G1 X52.527 Y49.981 E59.99628
G1 X70.018 Y67.472 E61.84014
G1 X69.718 Y67.813 E61.87399
G1 X69.413 Y68.14 E61.90733
G1 X51.861 Y50.588 E63.75762
G1 X51.434 Y51.027 E63.80327
G1 X51.243 Y51.243 E63.82476
G1 X68.752 Y68.752 E65.67052
G1 X68.376 Y69.075 E65.70747
G1 X68.053 Y69.326 E65.73796
G1 X50.674 Y51.947 E67.57002
G1 X50.455 Y52.24 E67.59728
G1 X50.183 Y52.637 E67.63316
G1 X50.148 Y52.693 E67.63808
G1 X67.303 Y69.848 E69.44652
G1 X67.287 Y69.86 E69.44801
G1 X66.706 Y70.216 E69.4988
G1 X66.506 Y70.325 E69.51578
G1 X49.675 Y53.494 E71.29007
G1 X49.616 Y53.601 E71.29917
G1 X49.429 Y53.963 E71.32955
G1 X49.253 Y54.344 E71.36083
G1 X65.751 Y70.842 E73.10001
G1 X65.41 Y71.125 E73.13304
G1 X65.092 Y71.456 E73.16726
G1 X48.888 Y55.252 E74.87545
G1 X48.849 Y55.361 E74.88408
G1 X48.66 Y55.95 E74.93019
G1 X48.583 Y56.219 E74.95104
G1 X64.432 Y72.069 E76.62186
G1 X64.177 Y72.264 E76.64579
G1 X63.989 Y72.394 E76.66283
G1 X63.672 Y72.582 E76.6903
G1 X48.354 Y57.263 E78.30514
G1 X48.286 Y57.661 E78.33524
G1 X48.207 Y58.389 E78.38982
G1 X62.803 Y72.985 E79.9285
G1 X62.776 Y72.996 E79.93067
G1 X62.414 Y73.109 E79.95894
G1 X62.194 Y73.168 E79.97592
G1 X61.83 Y73.242 E80.00361
G1 X61.792 Y73.247 E80.00647
G1 X48.163 Y59.619 E81.44315
G1 X48.173 Y59.954 E81.46813
G1 X48.204 Y60.431 E81.50377
G1 X48.26 Y60.988 E81.54549
G1 X60.593 Y73.321 E82.84561
G1 X60.386 Y73.312 E82.86106
G1 X60.057 Y73.28 E82.8857
G1 X59.759 Y73.231 E82.90821
G1 X59.434 Y73.162 E82.93297
G1 X59.048 Y73.049 E82.96295
G1 X48.573 Y62.574 E84.0672
G1 X48.701 Y63.039 E84.10316
G1 X48.779 Y63.288 E84.12261
G1 X48.94 Y63.747 E84.15886
G1 X49.165 Y64.314 E84.20433
G1 X49.266 Y64.539 E84.22272
G1 X55.478 Y70.751 E84.87757
G1 X54.913 Y70.471 E84.92458
G1 X54.482 Y70.238 E84.9611
G1 X53.892 Y69.883 E85.01243
G1 X53.47 Y69.603 E85.05018
G1 X52.661 Y68.986 E85.12602
G1 X52.098 Y68.491 E85.1819
G1 X51.76 Y68.161 E85.21711
G1 X51.538 Y67.933 E85.24083
G1 X51.246 Y67.612 E85.27318
G1 X50.751 Y67.013 E85.3311
G1 X50.512 Y66.692 E85.36093
G1 X50.249 Y66.316 E85.39514
G1 X50.08 Y66.049 E85.41869
G1 X49.811 Y65.602 E85.45758
G1 X49.527 Y65.084 E85.50162
G1 X49.33 Y64.683 E85.53492
G1 F1680 E82.53492
G1 F3600 X64.065 Y47.519
G1 F1680 E85.53492
G1 F1980 X72.481 Y55.934 E86.42206
G1 X72.474 Y55.913 E86.42371
G1 X72.349 Y55.51 E86.45516
G1 X72.249 Y55.215 E86.47838
G1 X72.127 Y54.894 E86.50398
G1 X71.915 Y54.38 E86.54543
G1 X71.688 Y53.907 E86.58453
G1 X71.645 Y53.826 E86.59137
G1 F1680 E83.59137
G1 F3600 X67.569 Y48.995
;TIME_ELAPSED:43.602057
;LAYER:-4
M106 S255
G1 X67.569 Y48.995 Z0.869
G1 F1680 E86.59137
G1 F2400 X67.861 Y49.2 E86.60546
G1 X53.287 Y49.2 E87.18108
G1 X52.951 Y49.445 E87.19751
G1 X52.753 Y49.6 E87.20744
G1 X68.393 Y49.6 E87.82516
G1 X68.546 Y49.718 E87.83279
G1 X68.867 Y50 E87.84967
G1 X52.275 Y50 E88.50499
G1 X51.839 Y50.4 E88.52836
G1 X69.309 Y50.4 E89.21837
G1 X69.38 Y50.468 E89.22225
G1 X69.701 Y50.8 E89.24049
G1 X51.444 Y50.8 E89.96157
G1 X51.326 Y50.925 E89.96836
G1 X51.083 Y51.2 E89.98286
G1 X70.064 Y51.2 E90.73254
G1 X70.394 Y51.6 E90.75302
G1 X50.75 Y51.6 E91.52889
G1 X50.449 Y52 E91.54866
G1 X70.703 Y52 E92.34862
G1 X70.729 Y52.035 E92.35034
G1 X70.986 Y52.4 E92.36797
G1 X50.164 Y52.4 E93.19037
M73 P1
G1 X50.057 Y52.556 E93.19784
G1 X49.907 Y52.8 E93.20915
G1 X71.243 Y52.8 E94.05185
G1 X71.292 Y52.877 E94.05545
G1 X71.456 Y53.152 E94.0681
G1 X71.482 Y53.2 E94.07025
G1 X49.668 Y53.2 E94.93183
G1 X49.502 Y53.496 E94.94523
G1 X49.449 Y53.6 E94.94984
G1 X71.698 Y53.6 E95.8286
G1 X71.774 Y53.743 E95.83499
G1 X71.898 Y54 E95.84626
G1 X49.248 Y54 E96.74086
G1 X49.064 Y54.4 E96.75825
G1 X72.085 Y54.4 E97.6675
G1 X72.198 Y54.667 E97.67895
G1 X72.25 Y54.8 E97.68459
G1 X48.901 Y54.8 E98.60679
G1 X48.852 Y54.913 E98.61165
G1 X48.749 Y55.2 E98.6237
G1 X72.4 Y55.2 E99.55783
G1 X72.519 Y55.549 E99.57239
G1 X72.534 Y55.6 E99.57449
G1 X48.614 Y55.6 E100.51924
G1 X48.494 Y56 E100.53574
G1 X72.652 Y56 E101.48989
G1 X72.745 Y56.32 E101.50305
G1 X72.765 Y56.4 E101.50631
G1 X48.383 Y56.4 E102.46931
G1 X48.32 Y56.669 E102.48022
G1 X48.293 Y56.8 E102.48551
G1 X72.858 Y56.8 E103.45574
G1 X72.933 Y57.2 E103.47181
G1 X48.213 Y57.2 E104.44816
G1 X48.146 Y57.6 E104.46418
G1 X72.999 Y57.6 E105.44578
G1 X73.047 Y57.958 E105.46005
G1 X73.051 Y58 E105.46172
G1 X48.098 Y58 E106.44727
G1 X48.062 Y58.337 E106.46066
G1 X48.058 Y58.4 E106.46315
G1 X73.086 Y58.4 E107.45167
G1 X73.116 Y58.747 E107.46542
G1 X73.118 Y58.8 E107.46752
G1 X48.03 Y58.8 E108.4584
G1 X48.02 Y59.2 E108.47421
G1 X73.13 Y59.2 E109.46596
G1 X73.13 Y59.6 E109.48176
G1 X48.014 Y59.6 E110.47375
G1 X48.029 Y60 E110.48956
G1 X73.116 Y60 E111.48041
G1 X73.107 Y60.209 E111.48867
G1 X73.093 Y60.4 E111.49623
G1 X48.055 Y60.4 E112.48515
G1 X48.08 Y60.73 E112.49822
G1 X48.088 Y60.8 E112.501
G1 X73.055 Y60.8 E113.48711
G1 X73.022 Y61.1 E113.49903
G1 X73.005 Y61.2 E113.50303
G1 X48.139 Y61.2 E114.48515
G1 X48.2 Y61.589 E114.5007
G1 X48.202 Y61.6 E114.50114
G1 X72.94 Y61.6 E115.47821
G1 X72.921 Y61.723 E115.48312
G1 X72.863 Y62 E115.4943
G1 X48.281 Y62 E116.4652
G1 X48.306 Y62.121 E116.47008
G1 X48.373 Y62.4 E116.48141
G1 X72.773 Y62.4 E117.44513
G1 X72.702 Y62.688 E117.45684
G1 X72.668 Y62.8 E117.46146
G1 X48.476 Y62.8 E118.41696
G1 X48.555 Y63.078 E118.42838
G1 X48.594 Y63.2 E118.43344
G1 X72.547 Y63.2 E119.37949
G1 X72.48 Y63.426 E119.3888
G1 X72.415 Y63.6 E119.39614
G1 X48.73 Y63.6 E120.33161
G1 X48.805 Y63.81 E120.34042
G1 X48.879 Y64 E120.34847
G1 X72.267 Y64 E121.27221
G1 X72.201 Y64.178 E121.27971
G1 X72.106 Y64.4 E121.28925
G1 X49.038 Y64.4 E122.20035
G1 X49.201 Y64.757 E122.21585
G1 X49.222 Y64.8 E122.21774
G1 X71.917 Y64.8 E123.11411
G1 X71.753 Y65.142 E123.1291
G1 X71.722 Y65.2 E123.13169
G1 X49.424 Y65.2 E124.01238
G1 X49.491 Y65.333 E124.01827
G1 X49.64 Y65.6 E124.03034
G1 X71.51 Y65.6 E124.89413
G1 X71.274 Y66 E124.91247
G1 X49.876 Y66 E125.75762
G1 X50.126 Y66.4 E125.77625
G1 X71.016 Y66.4 E126.60133
G1 X70.898 Y66.579 E126.60979
G1 X70.737 Y66.8 E126.62059
G1 X50.409 Y66.8 E127.42348
G1 X50.71 Y67.2 E127.44325
G1 X70.433 Y67.2 E128.22224
G1 X70.309 Y67.362 E128.23029
G1 X70.101 Y67.6 E128.24278
G1 X51.04 Y67.6 E128.99562
G1 X51.135 Y67.712 E129.00142
G1 X51.397 Y68 E129.0168
G1 X69.747 Y68 E129.74156
G1 X69.503 Y68.26 E129.75564
G1 X69.358 Y68.4 E129.7636
G1 X51.79 Y68.4 E130.45747
G1 X51.851 Y68.461 E130.46088
G1 X52.043 Y68.642 E130.4713
G1 X52.221 Y68.8 E130.4807
G1 X68.912 Y68.8 E131.13994
G1 X68.526 Y69.143 E131.16033
G1 X68.454 Y69.2 E131.16396
G1 X52.687 Y69.2 E131.7867
G1 X52.706 Y69.215 E131.78766
G1 X53.217 Y69.6 E131.81292
G1 X67.928 Y69.6 E132.39396
G1 X67.648 Y69.8 E132.40755
G1 X67.344 Y70 E132.42192
G1 X53.801 Y70 E132.95682
G1 X53.942 Y70.092 E132.96347
G1 X54.473 Y70.4 E132.98771
G1 X66.679 Y70.4 E133.46981
G1 X66.564 Y70.464 E133.47501
G1 X66.039 Y70.8 E133.49962
G1 X55.24 Y70.8 E133.92615
G1 X55.529 Y70.943 E133.93888
G1 X55.932 Y71.2 E133.95776
G1 X65.552 Y71.2 E134.33771
G1 X65.512 Y71.234 E134.33979
G1 X65.163 Y71.6 E134.35976
G1 X56.446 Y71.6 E134.70405
G1 X56.582 Y71.713 E134.71104
G1 X56.896 Y72 E134.72784
G1 X64.751 Y72 E135.03808
G1 X64.652 Y72.089 E135.04334
G1 X64.265 Y72.384 E135.06256
G1 X64.241 Y72.4 E135.0637
G1 X57.405 Y72.4 E135.3337
G1 X57.52 Y72.486 E135.33937
G1 X57.867 Y72.699 E135.35545
G1 X58.062 Y72.8 E135.36412
G1 X63.592 Y72.8 E135.58254
G1 X63.143 Y73.009 E135.6021
G1 X62.795 Y73.146 E135.61687
G1 X62.623 Y73.2 E135.62399
G1 X59.045 Y73.2 E135.76531
G1 F3600 X59.403 Y73.308
G1 F2400 X59.636 Y73.36 E135.77474
G1 X60.032 Y73.428 E135.79061
G1 X60.44 Y73.466 E135.80679
G1 X60.819 Y73.479 E135.82177
G1 X61.301 Y73.458 E135.84083
G1 X61.737 Y73.408 E135.85816
G1 X62.223 Y73.314 E135.87771
G1 X62.436 Y73.259 E135.8864
G1 X62.623 Y73.2 E135.89414
G1 F1680 E132.89414
