M73 P0
;MINX:34.9
;MAXX:65.1
;MINY:20.0
;MAXY:100.0
;MINZ:0.0
;MAXZ:41.3
;MachineType:ENTINA TINA2
;FilamentType:PLA
;Extruder0Temperature:200
;InfillDensity:10
;FLAVOR:Marlin
;TIME:4832
;FilamentUsed:5864.5
;Layer height: 0.35

;Generated with Cura_SteamEngine 3.1
M104 T0 S215
M82 ; absolute extrusion mode
;(**** start.gcode for tina2****)
M104 S150
G28 Z
G28 X Y; Home extruder
G1 X55 Y55 F1000
G1 Z10 F200
G29
G1 Z15 F100
M107 ; Turn off fan
G90 ; Absolute positioning
M82 ; Extruder in absolute mode
M109 S215.0
G92 E0 ; Reset extruder position
G1 X90 Y6 Z0.27 F2000
G1 X20 Y6 Z0.27 E15 F1000
G92 E0 ; Reset extruder position

;LAYER_COUNT:115
;LAYER:-5
M107
M203 Z5
G1 F3600 X63.955 Y22.439 Z0.349
G1 F1200 X64.117 Y22.698 E0.03369
G1 X64.245 Y22.937 E0.06359
G1 X64.372 Y23.212 E0.09699
G1 X64.474 Y23.473 E0.12789
G1 X64.569 Y23.776 E0.16291
G1 X64.623 Y23.997 E0.18799
G1 X64.683 Y24.353 E0.2278
G1 X64.733 Y24.907 E0.28914
G1 X64.743 Y25.129 E0.31365
G1 X64.739 Y95.05 E8.02412
G1 X64.715 Y95.427 E8.06577
G1 X64.678 Y95.725 E8.09889
G1 X64.623 Y96.009 E8.13079
G1 X64.547 Y96.3 E8.16395
G1 X64.463 Y96.558 E8.19388
G1 X64.352 Y96.837 E8.22699
G1 X64.23 Y97.095 E8.25846
G1 X64.087 Y97.353 E8.29099
G1 X63.935 Y97.592 E8.32222
G1 X63.762 Y97.827 E8.3544
G1 X63.581 Y98.044 E8.38556
G1 X63.367 Y98.27 E8.41988
G1 X63.162 Y98.46 E8.45071
G1 X62.932 Y98.648 E8.48346
G1 X62.704 Y98.812 E8.51443
G1 X62.445 Y98.974 E8.54812
G1 X62.206 Y99.102 E8.57802
G1 X61.931 Y99.229 E8.61142
G1 X61.67 Y99.331 E8.64232
G1 X61.367 Y99.426 E8.67734
G1 X61.146 Y99.48 E8.70243
G1 X60.79 Y99.54 E8.74224
G1 X60.236 Y99.59 E8.80358
G1 X60.014 Y99.6 E8.82809
G1 X58.219 Y99.6 E9.02603
G1 X57.716 Y99.572 E9.08158
G1 X57.418 Y99.535 E9.11469
G1 X57.134 Y99.48 E9.14659
G1 X56.843 Y99.404 E9.17976
G1 X56.583 Y99.319 E9.20992
G1 X56.306 Y99.209 E9.24279
G1 X56.047 Y99.086 E9.27441
G1 X55.79 Y98.944 E9.30679
G1 X55.551 Y98.792 E9.33802
G1 X55.304 Y98.61 E9.37186
G1 X55.103 Y98.441 E9.40081
G1 X54.87 Y98.221 E9.43615
G1 X54.683 Y98.019 E9.46651
G1 X54.491 Y97.784 E9.49997
G1 X54.385 Y97.635 E9.52013
G1 X53.961 Y97.115 E9.59412
G1 X53.466 Y96.645 E9.66939
G1 X52.915 Y96.242 E9.74467
G1 X52.319 Y95.91 E9.81991
G1 X51.685 Y95.656 E9.89522
G1 X51.024 Y95.484 E9.97054
G1 X50.346 Y95.398 E10.0459
G1 X49.664 Y95.398 E10.12111
G1 X48.986 Y95.483 E10.19646
G1 X48.324 Y95.654 E10.27186
G1 X47.69 Y95.907 E10.34713
G1 X47.093 Y96.237 E10.42236
G1 X46.542 Y96.64 E10.49764
G1 X46.047 Y97.109 E10.57283
G1 X45.657 Y97.581 E10.64035
G1 X45.476 Y97.827 E10.67403
G1 X45.303 Y98.035 E10.70386
G1 X45.081 Y98.27 E10.73951
G1 X44.876 Y98.46 E10.77033
G1 X44.646 Y98.648 E10.80309
G1 X44.418 Y98.812 E10.83406
G1 X44.159 Y98.974 E10.86775
G1 X43.92 Y99.102 E10.89765
G1 X43.645 Y99.229 E10.93105
G1 X43.384 Y99.331 E10.96195
G1 X43.081 Y99.426 E10.99697
G1 X42.86 Y99.48 E11.02206
G1 X42.504 Y99.54 E11.06187
G1 X41.95 Y99.59 E11.12321
G1 X41.728 Y99.6 E11.14771
G1 X39.807 Y99.596 E11.35955
G1 X39.43 Y99.572 E11.40121
G1 X39.132 Y99.535 E11.43432
G1 X38.848 Y99.48 E11.46622
G1 X38.557 Y99.404 E11.49939
G1 X38.297 Y99.319 E11.52955
G1 X38.02 Y99.209 E11.56242
G1 X37.761 Y99.086 E11.59404
G1 X37.504 Y98.944 E11.62641
G1 X37.265 Y98.792 E11.65765
G1 X37.018 Y98.61 E11.69148
G1 X36.817 Y98.441 E11.72044
G1 X36.584 Y98.221 E11.75578
G1 X36.397 Y98.019 E11.78613
G1 X36.205 Y97.784 E11.8196
G1 X36.045 Y97.561 E11.84986
G1 X35.883 Y97.302 E11.88355
G1 X35.755 Y97.063 E11.91345
G1 X35.628 Y96.788 E11.94685
G1 X35.526 Y96.527 E11.97775
G1 X35.431 Y96.224 E12.01277
G1 X35.375 Y95.995 E12.03877
G1 X35.317 Y95.647 E12.07767
G1 X35.267 Y95.093 E12.13901
G1 X35.257 Y94.871 E12.16352
G1 X35.261 Y37.95 E18.44042
G1 X35.285 Y37.573 E18.48208
G1 X35.322 Y37.275 E18.51519
G1 X35.377 Y36.991 E18.54709
G1 X35.453 Y36.7 E18.58026
G1 X35.537 Y36.442 E18.61018
G1 X35.648 Y36.163 E18.64329
G1 X35.77 Y35.905 E18.67476
G1 X35.916 Y35.642 E18.70793
G1 X36.366 Y34.939 E18.79998
G1 X36.355 Y34.932 E18.80142
G1 X36.377 Y34.897 E18.80597
G1 X36.662 Y34.276 E18.88132
G1 X36.866 Y33.624 E18.95666
G1 X36.986 Y32.953 E19.03183
G1 X37.022 Y32.27 E19.10725
G1 X36.97 Y31.589 E19.18256
G1 X36.833 Y30.921 E19.25776
G1 X36.612 Y30.275 E19.33305
G1 X36.313 Y29.664 E19.40806
G1 X35.883 Y28.98 E19.49716
G1 X35.755 Y28.742 E19.52696
G1 X35.628 Y28.467 E19.56036
G1 X35.526 Y28.206 E19.59126
G1 X35.431 Y27.903 E19.62628
G1 X35.377 Y27.682 E19.65136
G1 X35.317 Y27.326 E19.69118
G1 X35.267 Y26.772 E19.75252
G1 X35.257 Y26.55 E19.77702
G1 X35.261 Y24.95 E19.95346
G1 X35.285 Y24.573 E19.99512
G1 X35.322 Y24.275 E20.02823
G1 X35.377 Y23.991 E20.06013
G1 X35.453 Y23.7 E20.0933
G1 X35.537 Y23.442 E20.12322
G1 X35.648 Y23.163 E20.15633
G1 X35.77 Y22.905 E20.1878
G1 X35.916 Y22.642 E20.22097
G1 X36.065 Y22.408 E20.25156
G1 X36.247 Y22.161 E20.2854
G1 X36.416 Y21.96 E20.31436
G1 X36.636 Y21.727 E20.34969
G1 X36.838 Y21.54 E20.38005
G1 X37.068 Y21.352 E20.41281
G1 X37.296 Y21.188 E20.44378
G1 X37.555 Y21.026 E20.47746
G1 X37.794 Y20.898 E20.50736
G1 X38.069 Y20.771 E20.54077
G1 X38.33 Y20.669 E20.57167
G1 X38.633 Y20.574 E20.60668
G1 X38.854 Y20.52 E20.63177
G1 X39.21 Y20.46 E20.67158
G1 X39.764 Y20.41 E20.73292
G1 X39.986 Y20.4 E20.75743
G1 X60.193 Y20.404 E22.98573
G1 X60.57 Y20.428 E23.02739
G1 X60.868 Y20.465 E23.06051
G1 X61.152 Y20.52 E23.09241
G1 X61.443 Y20.596 E23.12557
G1 X61.701 Y20.68 E23.15549
G1 X61.98 Y20.791 E23.1886
G1 X62.238 Y20.913 E23.22008
G1 X62.496 Y21.056 E23.2526
G1 X62.735 Y21.208 E23.28384
G1 X62.982 Y21.39 E23.31767
G1 X63.183 Y21.559 E23.34663
G1 X63.416 Y21.779 E23.38197
G1 X63.603 Y21.981 E23.41232
G1 X63.791 Y22.211 E23.44508
G1 X63.955 Y22.439 E23.47605
G1 F3600 X64 Y22.511
G1 F1200 X64 Y97.49 E31.74428
G1 F1680 E28.74428
G1 F3600 X62.4 Y98.999
G1 F1680 E31.74428
G1 F1200 X62.4 Y21.003 E40.34521
G1 F1680 E37.34521
G1 F3600 X60.8 Y20.457
G1 F1680 E40.34521
G1 F1200 X60.8 Y99.539 E49.0659
G1 F1680 E46.0659
G1 F3600 X59.2 Y99.6
G1 F1680 E49.0659
G1 F1200 X59.2 Y20.404 E57.79916
G1 F1680 E54.79916
G1 F3600 X57.6 Y20.404
G1 F1680 E57.79916
G1 F1200 X57.6 Y99.557 E66.52767
G1 F1680 E63.52767
G1 F3600 X56 Y99.06
G1 F1680 E66.52767
G1 F1200 X56 Y20.404 E75.20138
G1 F1680 E72.20138
G1 F3600 X54.4 Y20.403
G1 F1680 E75.20138
G1 F1200 X54.4 Y97.656 E83.72038
G1 F1680 E80.72038
G1 F3600 X52.8 Y96.177
G1 F1680 E83.72038
G1 F1200 X52.8 Y20.403 E92.07628
G1 F1680 E89.07628
G1 F3600 X51.2 Y20.403
G1 F1680 E92.07628
G1 F1200 X51.2 Y95.529 E100.36072
G1 F1680 E97.36072
G1 F3600 X49.6 Y95.407
G1 F1680 E100.36072
G1 F1200 X49.6 Y20.402 E108.63182
G1 F1680 E105.63182
G1 F3600 X48 Y20.402
G1 F1680 E108.63182
G1 F1200 X48 Y95.784 E116.9445
G1 F1680 E113.9445
G1 F3600 X46.4 Y96.775
G1 F1680 E116.9445
G1 F1200 X46.4 Y20.402 E125.36645
G1 F1680 E122.36645
G1 F3600 X44.8 Y20.401
G1 F1680 E125.36645
G1 F1200 X44.8 Y98.523 E133.98127
G1 F1680 E130.98127
G1 F3600 X43.2 Y99.389
G1 F1680 E133.98127
G1 F1200 X43.2 Y20.401 E142.69159
G1 F1680 E139.69159
G1 F3600 X41.6 Y20.401
G1 F1680 E142.69159
G1 F1200 X41.6 Y99.599 E151.42507
G1 F1680 E148.42507
G1 F3600 X40 Y99.596
G1 F1680 E151.42507
G1 F1200 X40 Y20.401 E160.15822
G1 F1680 E157.15822
G1 F3600 X38.4 Y20.647
G1 F1680 E160.15822
G1 F1200 X38.4 Y99.352 E168.83733
G1 F1680 E165.83733
G1 F3600 X36.8 Y98.424
M104 T0 S200
G1 F1680 E168.83733
G1 F1200 X36.8 Y33.834 E175.95993
G1 F1680 E172.95993
G1 F3600 X36.8 Y30.824
G1 F1680 E175.95993
G1 F1200 X36.8 Y21.575 E176.97985
G1 F1680 E173.97985
G1 F3600 X63.994 Y22.408
;TIME_ELAPSED:85.740411
;LAYER:-4
G1 X63.994 Y22.408 Z0.619
;TYPE:SUPPORT
G1 F1680 E176.97985
G1 F1980 X64.161 Y22.675 E177.00333
G1 X64.285 Y22.905 E177.02281
G1 X64.423 Y23.205 E177.04742
G1 X64.519 Y23.449 E177.06697
G1 X64.614 Y23.751 E177.09057
G1 F3600 X64.657 Y23.928
G1 F1980 X61.212 Y20.483 E177.45373
G1 X61.455 Y20.546 E177.47244
G1 X61.735 Y20.638 E177.49441
G1 X61.992 Y20.74 E177.51502
G1 X62.268 Y20.871 E177.5378
G1 X62.519 Y21.01 E177.55918
G1 X62.754 Y21.159 E177.57992
G1 X63.019 Y21.355 E177.60449
G1 X63.217 Y21.522 E177.6238
G1 X63.45 Y21.742 E177.64769
G1 X63.643 Y21.95 E177.66884
G1 X63.829 Y22.176 E177.69066
G1 X63.994 Y22.408 E177.71188
G1 F1680 E174.71188
G1 F3600 X64.657 Y23.928
G1 F1680 E177.71188
G1 F1980 X64.672 Y23.99 E177.71663
G1 X64.732 Y24.342 E177.74325
G1 X64.783 Y24.905 E177.78539
G1 X64.792 Y25.127 E177.80195
G1 X64.792 Y25.336 E177.81753
G1 X59.809 Y20.353 E178.34283
G1 X58.537 Y20.353 E178.43764
G1 X64.792 Y26.609 E179.09709
G1 X64.792 Y27.881 E179.1919
G1 X57.263 Y20.352 E179.98559
G1 X55.99 Y20.352 E180.08048
G1 X64.792 Y29.154 E181.00837
G1 X64.792 Y30.427 E181.10326
G1 X54.718 Y20.352 E182.16529
G1 X53.444 Y20.351 E182.26026
G1 X64.792 Y31.7 E183.45659
G1 X64.792 Y32.973 E183.55148
G1 X52.171 Y20.351 E184.88201
G1 X50.898 Y20.351 E184.9769
G1 X64.792 Y34.245 E186.44158
G1 X64.792 Y35.518 E186.53647
G1 X49.625 Y20.351 E188.13534
G1 X48.351 Y20.35 E188.2303
G1 X64.792 Y36.791 E189.96348
G1 X64.792 Y38.064 E190.05837
G1 X47.079 Y20.35 E191.92569
G1 X45.806 Y20.35 E192.02058
G1 X64.792 Y39.337 E194.02209
G1 X64.792 Y40.609 E194.11691
G1 X44.532 Y20.349 E196.25267
G1 X43.26 Y20.349 E196.34749
G1 X64.792 Y41.882 E198.61739
G1 X64.792 Y43.154 E198.71221
G1 X41.986 Y20.349 E201.11631
G1 X40.713 Y20.349 E201.21121
G1 X64.792 Y44.427 E203.74951
G1 X64.792 Y45.7 E203.8444
G1 X39.477 Y20.385 E206.51305
G1 X39.197 Y20.409 E206.53399
G1 X38.846 Y20.47 E206.56055
G1 X38.608 Y20.528 E206.57881
G1 X38.41 Y20.59 E206.59428
G1 X64.792 Y46.973 E209.37546
G1 X64.792 Y48.245 E209.47028
G1 X37.529 Y20.983 E212.34423
G1 X37.264 Y21.148 E212.3675
G1 X37.033 Y21.312 E212.38861
G1 X36.807 Y21.498 E212.41043
G1 X36.789 Y21.515 E212.41228
G1 X64.792 Y49.518 E215.36429
G1 X64.792 Y50.791 E215.45918
G1 X36.174 Y22.173 E218.47602
G1 X36.016 Y22.387 E218.49585
G1 X35.87 Y22.617 E218.51616
G1 X35.727 Y22.874 E218.53808
G1 X35.686 Y22.959 E218.54512
G1 X64.792 Y52.064 E221.61335
G1 X64.792 Y53.337 E221.70824
G1 X35.348 Y23.893 E224.81216
G1 X35.327 Y23.975 E224.81847
G1 X35.269 Y24.277 E224.8414
G1 X35.233 Y24.564 E224.86296
G1 X35.209 Y24.948 E224.89164
G1 X35.208 Y25.026 E224.89745
G1 X64.792 Y54.609 E228.01608
G1 X64.792 Y55.882 E228.11097
G1 X35.205 Y26.295 E231.22996
G1 X35.205 Y26.551 E231.24904
G1 X35.214 Y26.759 E231.26456
G1 X35.266 Y27.336 E231.30775
G1 X35.326 Y27.689 E231.33444
G1 X64.792 Y57.155 E234.44068
G1 X64.792 Y58.428 E234.53557
G1 X36.474 Y30.11 E237.52079
G1 X36.564 Y30.293 E237.53599
G1 X36.782 Y30.934 E237.58646
G1 X36.918 Y31.596 E237.63683
G1 X36.937 Y31.845 E237.65545
G1 X64.792 Y59.701 E240.59191
G1 X64.791 Y60.973 E240.68673
G1 X36.908 Y33.09 E243.62609
G1 X36.816 Y33.611 E243.66553
G1 X36.658 Y34.112 E243.70469
G1 X64.791 Y62.245 E246.6704
G1 X64.791 Y63.518 E246.76529
G1 X36.267 Y34.994 E249.77223
G1 X35.859 Y35.636 E249.82893
G1 X35.779 Y35.779 E249.84114
G1 X64.791 Y64.791 E252.89952
G1 X64.791 Y66.064 E252.99441
G1 X35.406 Y36.679 E256.09211
G1 F3600 X35.404 Y36.686
G1 F1980 X35.327 Y36.98 E256.11477
G1 X35.269 Y37.276 E256.13725
G1 X35.233 Y37.564 E256.15889
G1 X35.22 Y37.766 E256.17398
G1 X64.791 Y67.337 E259.29128
G1 X64.791 Y68.609 E259.3861
G1 X35.208 Y39.027 E262.50462
G1 X35.208 Y40.3 E262.59951
G1 X64.791 Y69.882 E265.71803
G1 X64.791 Y71.155 E265.81292
G1 X35.208 Y41.572 E268.93149
G1 X35.208 Y42.845 E269.02638
G1 X64.791 Y72.428 E272.14496
G1 X64.791 Y73.701 E272.23985
G1 X35.208 Y44.118 E275.35842
G1 X35.208 Y45.391 E275.45331
G1 X64.791 Y74.973 E278.57183
G1 X64.791 Y76.246 E278.66672
G1 X35.208 Y46.664 E281.78524
G1 X35.208 Y47.936 E281.88006
G1 X64.791 Y77.519 E284.99863
G1 X64.79 Y78.791 E285.09345
G1 X35.208 Y49.209 E288.21191
G1 X35.208 Y50.481 E288.30673
G1 X64.79 Y80.064 E291.42525
G1 X64.79 Y81.337 E291.52014
G1 X35.208 Y51.754 E294.63866
G1 X35.208 Y53.027 E294.73355
G1 X64.79 Y82.609 E297.85202
G1 X64.79 Y83.882 E297.94691
G1 X35.208 Y54.3 E301.06538
G1 X35.208 Y55.572 E301.16019
G1 X64.79 Y85.155 E304.27871
G1 X64.79 Y86.428 E304.3736
G1 X35.208 Y56.845 E307.49212
G1 X35.208 Y58.118 E307.58702
G1 X64.79 Y87.701 E310.70553
G1 X64.79 Y88.973 E310.80035
G1 X35.208 Y59.391 E313.91882
G1 X35.208 Y60.664 E314.01371
G1 X64.79 Y90.246 E317.13218
G1 X64.79 Y91.519 E317.22707
G1 X35.207 Y61.936 E320.34564
G1 X35.207 Y63.208 E320.44046
G1 X64.79 Y92.792 E323.55908
G1 X64.79 Y94.065 E323.65397
G1 X35.207 Y64.481 E326.7726
G1 X35.207 Y65.754 E326.86749
G1 X64.773 Y95.32 E329.98427
G1 X64.766 Y95.434 E329.99278
G1 X64.729 Y95.722 E330.01443
G1 X64.673 Y96.018 E330.03688
G1 X64.595 Y96.312 E330.05956
G1 X64.57 Y96.39 E330.06566
G1 X35.207 Y67.027 E333.16104
G1 X35.207 Y68.3 E333.25593
G1 X64.186 Y97.278 E336.31078
G1 X64.132 Y97.376 E336.31912
G1 X63.982 Y97.611 E336.3399
G1 X63.8 Y97.859 E336.36283
G1 X63.662 Y98.027 E336.37904
G1 X35.207 Y69.572 E339.3787
G1 X35.207 Y70.845 E339.47359
G1 X63.01 Y98.648 E342.40452
G1 X62.965 Y98.685 E342.40886
G1 X62.735 Y98.851 E342.43001
G1 X62.466 Y99.018 E342.45361
G1 X62.238 Y99.142 E342.47295
G1 F3600 X62.233 Y99.144
G1 F1980 X35.206 Y72.117 E345.32208
G1 X35.206 Y73.39 E345.41697
G1 X61.307 Y99.491 E348.16848
G1 X61.153 Y99.529 E348.1803
G1 X60.801 Y99.588 E348.20691
G1 X60.229 Y99.639 E348.24971
G1 X60.185 Y99.641 E348.253
G1 X35.206 Y74.663 E350.88617
G1 X35.206 Y75.936 E350.98106
G1 X58.918 Y99.647 E353.48068
G1 X58.09 Y99.646 E353.5424
G1 X57.707 Y99.622 E353.571
G1 X57.607 Y99.609 E353.57852
G1 X35.206 Y77.208 E355.93998
G1 X35.206 Y78.481 E356.03487
G1 X53.342 Y96.617 E357.94673
G1 X52.888 Y96.284 E357.9887
G1 X52.296 Y95.955 E358.03918
G1 X51.668 Y95.704 E358.08959
G1 X51.013 Y95.534 E358.14004
G1 X50.982 Y95.53 E358.14237
G1 X35.206 Y79.754 E359.80544
G1 X35.206 Y81.027 E359.90033
G1 X49.631 Y95.452 E361.42098
G1 X48.994 Y95.533 E361.46884
G1 X48.553 Y95.646 E361.50278
G1 X35.206 Y82.3 E362.90974
G1 X35.206 Y83.572 E363.00455
G1 X47.63 Y95.996 E364.31426
G1 X47.12 Y96.278 E364.3577
G1 X46.842 Y96.481 E364.38336
G1 X35.206 Y84.845 E365.61
G1 X35.206 Y86.117 E365.70482
G1 X46.159 Y97.071 E366.85951
G1 X46.084 Y97.143 E366.86726
G1 X45.696 Y97.611 E366.91258
G1 X45.582 Y97.767 E366.92698
G1 X35.206 Y87.39 E368.02085
G1 X35.206 Y88.663 E368.11574
G1 X44.976 Y98.434 E369.14572
G1 X44.906 Y98.5 E369.15289
G1 X44.679 Y98.685 E369.17472
G1 X44.449 Y98.851 E369.19587
G1 X44.246 Y98.976 E369.21364
G1 X35.206 Y89.936 E370.16661
G1 X35.206 Y91.208 E370.26143
G1 X43.381 Y99.384 E371.12327
G1 X43.105 Y99.471 E371.14484
G1 X42.866 Y99.528 E371.16316
G1 X42.514 Y99.589 E371.18979
G1 X42.329 Y99.605 E371.20363
G1 X35.206 Y92.481 E371.95457
G1 X35.206 Y93.754 E372.04946
G1 X41.1 Y99.649 E372.67085
G1 X39.824 Y99.646 E372.76596
G1 X35.213 Y95.034 E373.2521
G1 X35.215 Y95.078 E373.25538
G1 X35.266 Y95.656 E373.29863
G1 X35.326 Y96.007 E373.32518
G1 X35.385 Y96.247 E373.3436
G1 X35.478 Y96.548 E373.36708
G1 X35.493 Y96.587 E373.3702
G1 X38.267 Y99.361 E373.66263
G1 X38.006 Y99.257 E373.68357
G1 X37.73 Y99.127 E373.70631
G1 X37.48 Y98.988 E373.72763
G1 X37.242 Y98.837 E373.74864
G1 X36.98 Y98.644 E373.7729
G1 X36.782 Y98.477 E373.79221
G1 X36.548 Y98.256 E373.8162
G1 X36.355 Y98.048 E373.83735
G1 X36.169 Y97.822 E373.85917
G1 X36.005 Y97.591 E373.88029
G1 X35.837 Y97.323 E373.90387
G1 X35.713 Y97.091 E373.92347
G1 X35.574 Y96.794 E373.94792
G1 F1680 E370.94792
G1 F3600 X53.433 Y96.684
G1 F1680 E373.94792
G1 F1980 X53.922 Y97.149 E373.99822
G1 X54.136 Y97.411 E374.02343
G1 X55.621 Y98.896 E374.17998
G1 X55.528 Y98.837 E374.18819
G1 X55.266 Y98.644 E374.21245
G1 X55.068 Y98.477 E374.23175
G1 X54.835 Y98.257 E374.25564
G1 X54.641 Y98.048 E374.2769
G1 X54.458 Y97.825 E374.2984
G1 X54.343 Y97.665 E374.31309
G1 F1680 E371.31309
G1 F3600 X64.166 Y22.4
;TIME_ELAPSED:168.549417
;LAYER:-3
M106 S255
G1 X64.166 Y22.4 Z0.869
G1 F1680 E374.31309
G1 F2400 X64.293 Y22.605 E374.32261
G1 X64.398 Y22.8 E374.33136
G1 X35.599 Y22.8 E375.46882
G1 X35.456 Y23.1 E375.48194
G1 X35.417 Y23.2 E375.48618
G1 X64.583 Y23.2 E376.63814
G1 X64.661 Y23.403 E376.64672
G1 X64.723 Y23.6 E376.65488
G1 X35.274 Y23.6 E377.81801
