M73 P0
;MINX:20.0
;MAXX:80.0
;MINY:20.0
;MAXY:100.0
;MINZ:0.0
;MAXZ:36.3
;MachineType:ENTINA TINA2
;FilamentType:PLA
;Extruder0Temperature:200
;InfillDensity:10
;FLAVOR:Marlin
;TIME:5452
;FilamentUsed:7704.6
;Layer height: 0.35

;Generated with Cura_SteamEngine 3.1
M104 T0 S215
M82 ; absolute extrusion mode
;(**** start.gcode for tina2****)
M104 S150
G28 Z
G28 X Y; Home extruder
G1 X55 Y55 F1000
G1 Z10 F200
G29
G1 Z15 F100
M107 ; Turn off fan
G90 ; Absolute positioning
M82 ; Extruder in absolute mode
M109 S215.0
G92 E0 ; Reset extruder position
G1 X90 Y6 Z0.27 F2000
G1 X20 Y6 Z0.27 E15 F1000
G92 E0 ; Reset extruder position

;LAYER_COUNT:101
;LAYER:-5
M107
M203 Z5
G1 F3600 X78.111 Y21.894 Z0.349
G1 F1200 X78.47 Y22.296 E0.05943
G1 X78.637 Y22.511 E0.08945
G1 X78.793 Y22.742 E0.12019
G1 X78.951 Y23.01 E0.1545
G1 X79.083 Y23.269 E0.18656
G1 X79.186 Y23.508 E0.21526
G1 X79.291 Y23.8 E0.24947
G1 X79.372 Y24.082 E0.28183
G1 X79.428 Y24.336 E0.31051
G1 X79.477 Y24.666 E0.3473
G1 X79.513 Y25.127 E0.39829
G1 X79.52 Y25.312 E0.41871
G1 X79.516 Y94.841 E8.08595
G1 X79.492 Y95.218 E8.1276
G1 X79.455 Y95.516 E8.16072
G1 X79.4 Y95.8 E8.19262
G1 X79.324 Y96.091 E8.22578
G1 X79.24 Y96.349 E8.2557
G1 X79.129 Y96.628 E8.28882
G1 X79.007 Y96.886 E8.32029
G1 X78.863 Y97.145 E8.35297
G1 X78.724 Y97.364 E8.38157
G1 X78.526 Y97.63 E8.41814
G1 X78.106 Y98.111 E8.48855
G1 X77.706 Y98.468 E8.54768
G1 X77.489 Y98.637 E8.57801
G1 X77.258 Y98.793 E8.60874
G1 X76.99 Y98.951 E8.64305
G1 X76.733 Y99.081 E8.67481
G1 X76.464 Y99.196 E8.70707
G1 X76.207 Y99.289 E8.73721
G1 X75.915 Y99.373 E8.77072
G1 X75.654 Y99.429 E8.80015
G1 X75.334 Y99.477 E8.83584
G1 X74.866 Y99.513 E8.8876
G1 X74.674 Y99.52 E8.90878
G1 X25.159 Y99.516 E14.369
G1 X24.782 Y99.492 E14.41066
G1 X24.484 Y99.455 E14.44377
G1 X24.2 Y99.4 E14.47567
G1 X23.909 Y99.324 E14.50884
G1 X23.649 Y99.239 E14.539
G1 X23.372 Y99.129 E14.57187
G1 X23.111 Y99.005 E14.60373
G1 X22.856 Y98.864 E14.63586
G1 X22.636 Y98.724 E14.66462
G1 X22.37 Y98.526 E14.70119
G1 X21.887 Y98.104 E14.77191
G1 X21.53 Y97.704 E14.83104
G1 X21.363 Y97.489 E14.86106
G1 X21.204 Y97.253 E14.89244
G1 X21.049 Y96.99 E14.9261
G1 X20.919 Y96.733 E14.95786
G1 X20.803 Y96.463 E14.99027
G1 X20.711 Y96.207 E15.02027
G1 X20.627 Y95.915 E15.05377
G1 X20.571 Y95.654 E15.08321
G1 X20.523 Y95.334 E15.11889
G1 X20.486 Y94.856 E15.17176
G1 X20.48 Y94.688 E15.1903
G1 X20.484 Y25.159 E22.85754
G1 X20.508 Y24.782 E22.89919
G1 X20.545 Y24.484 E22.93231
G1 X20.6 Y24.2 E22.96421
G1 X20.676 Y23.909 E22.99737
G1 X20.76 Y23.651 E23.02729
G1 X20.871 Y23.372 E23.06041
G1 X20.993 Y23.114 E23.09188
G1 X21.132 Y22.864 E23.12342
G1 X21.284 Y22.626 E23.15456
G1 X21.474 Y22.37 E23.18972
G1 X21.894 Y21.889 E23.26013
G1 X22.296 Y21.53 E23.31957
G1 X22.511 Y21.363 E23.34959
G1 X22.742 Y21.207 E23.38033
G1 X23.01 Y21.049 E23.41463
G1 X23.267 Y20.919 E23.44639
G1 X23.537 Y20.803 E23.4788
G1 X23.793 Y20.711 E23.5088
G1 X24.085 Y20.627 E23.5423
G1 X24.346 Y20.571 E23.57174
G1 X24.666 Y20.523 E23.60742
G1 X25.134 Y20.487 E23.65918
G1 X25.326 Y20.48 E23.68037
G1 X74.841 Y20.484 E29.14058
G1 X75.218 Y20.508 E29.18224
G1 X75.516 Y20.545 E29.21536
G1 X75.8 Y20.6 E29.24726
G1 X76.091 Y20.676 E29.28042
G1 X76.349 Y20.76 E29.31034
G1 X76.628 Y20.871 E29.34345
G1 X76.886 Y20.993 E29.37493
G1 X77.145 Y21.137 E29.4076
G1 X77.364 Y21.276 E29.43621
G1 X77.63 Y21.474 E29.47278
G1 X78.111 Y21.894 E29.54319
G1 F3600 X78.4 Y22.218
G1 F1200 X78.4 Y97.775 E37.87516
G1 F1680 E34.87516
G1 F3600 X76.8 Y99.048
G1 F1680 E37.87516
G1 F1200 X76.8 Y20.953 E46.48701
G1 F1680 E43.48701
G1 F3600 X75.2 Y20.507
G1 F1680 E46.48701
G1 F1200 X75.2 Y99.488 E55.19656
G1 F1680 E52.19656
G1 F3600 X73.6 Y99.519
G1 F1680 E55.19656
G1 F1200 X73.6 Y20.484 E63.91206
G1 F1680 E60.91206
G1 F3600 X72 Y20.484
G1 F1680 E63.91206
G1 F1200 X72 Y99.519 E72.62757
G1 F1680 E69.62757
G1 F3600 X70.4 Y99.519
G1 F1680 E72.62757
G1 F1200 X70.4 Y20.484 E81.34307
G1 F1680 E78.34307
G1 F3600 X68.8 Y20.484
G1 F1680 E81.34307
G1 F1200 X68.8 Y99.519 E90.05857
G1 F1680 E87.05857
G1 F3600 X67.2 Y99.519
G1 F1680 E90.05857
G1 F1200 X67.2 Y20.484 E98.77408
G1 F1680 E95.77408
G1 F3600 X65.6 Y20.484
G1 F1680 E98.77408
G1 F1200 X65.6 Y99.519 E107.48958
G1 F1680 E104.48958
G1 F3600 X64 Y99.519
G1 F1680 E107.48958
G1 F1200 X64 Y20.484 E116.20509
G1 F1680 E113.20509
G1 F3600 X62.4 Y20.483
G1 F1680 E116.20509
G1 F1200 X62.4 Y99.519 E124.9207
G1 F1680 E121.9207
G1 F3600 X60.8 Y99.518
G1 F1680 E124.9207
G1 F1200 X60.8 Y20.483 E133.6362
G1 F1680 E130.6362
G1 F3600 X59.2 Y20.483
G1 F1680 E133.6362
G1 F1200 X59.2 Y99.518 E142.35171
G1 F1680 E139.35171
G1 F3600 X57.6 Y99.518
G1 F1680 E142.35171
G1 F1200 X57.6 Y20.483 E151.06721
G1 F1680 E148.06721
G1 F3600 X56 Y20.483
G1 F1680 E151.06721
G1 F1200 X56 Y99.518 E159.78271
G1 F1680 E156.78271
G1 F3600 X54.4 Y99.518
G1 F1680 E159.78271
G1 F1200 X54.4 Y20.483 E168.49822
G1 F1680 E165.49822
G1 F3600 X52.8 Y20.483
G1 F1680 E168.49822
G1 F1200 X52.8 Y99.518 E177.21372
G1 F1680 E174.21372
G1 F3600 X51.2 Y99.518
G1 F1680 E177.21372
G1 F1200 X51.2 Y20.483 E185.92923
G1 F1680 E182.92923
G1 F3600 X49.6 Y20.482
G1 F1680 E185.92923
G1 F1200 X49.6 Y99.517 E194.64473
G1 F1680 E191.64473
G1 F3600 X48 Y99.517
G1 F1680 E194.64473
G1 F1200 X48 Y20.482 E203.36023
G1 F1680 E200.36023
G1 F3600 X46.4 Y20.482
G1 F1680 E203.36023
G1 F1200 X46.4 Y99.517 E212.07574
G1 F1680 E209.07574
G1 F3600 X44.8 Y99.517
G1 F1680 E212.07574
G1 F1200 X44.8 Y20.482 E220.79124
G1 F1680 E217.79124
G1 F3600 X43.2 Y20.482
G1 F1680 E220.79124
G1 F1200 X43.2 Y99.517 E229.50675
G1 F1680 E226.50675
G1 F3600 X41.6 Y99.517
G1 F1680 E229.50675
G1 F1200 X41.6 Y20.482 E238.22225
G1 F1680 E235.22225
G1 F3600 X40 Y20.482
G1 F1680 E238.22225
G1 F1200 X40 Y99.517 E246.93775
G1 F1680 E243.93775
G1 F3600 X38.4 Y99.517
G1 F1680 E246.93775
G1 F1200 X38.4 Y20.482 E255.65326
G1 F1680 E252.65326
G1 F3600 X36.8 Y20.481
G1 F1680 E255.65326
G1 F1200 X36.8 Y99.516 E264.36876
G1 F1680 E261.36876
G1 F3600 X35.2 Y99.516
G1 F1680 E264.36876
G1 F1200 X35.2 Y20.481 E273.08426
G1 F1680 E270.08426
G1 F3600 X33.6 Y20.481
G1 F1680 E273.08426
G1 F1200 X33.6 Y99.516 E281.79977
G1 F1680 E278.79977
G1 F3600 X32 Y99.516
G1 F1680 E281.79977
G1 F1200 X32 Y20.481 E290.51527
G1 F1680 E287.51527
G1 F3600 X30.4 Y20.481
G1 F1680 E290.51527
G1 F1200 X30.4 Y99.516 E299.23078
G1 F1680 E296.23078
G1 F3600 X28.8 Y99.516
G1 F1680 E299.23078
G1 F1200 X28.8 Y20.481 E307.94628
G1 F1680 E304.94628
G1 F3600 X27.2 Y20.481
G1 F1680 E307.94628
G1 F1200 X27.2 Y99.516 E316.66178
G1 F1680 E313.66178
G1 F3600 X25.6 Y99.516
G1 F1680 E316.66178
G1 F1200 X25.6 Y20.481 E325.37729
G1 F1680 E322.37729
G1 F3600 X24 Y20.651
G1 F1680 E325.37729
G1 F1200 X24 Y99.347 E334.05541
G1 F1680 E331.05541
G1 F3600 X22.4 Y98.548
G1 F1680 E334.05541
G1 F1200 X22.4 Y21.449 E342.55742
G1 F1680 E339.55742
G1 F3600 X20.8 Y23.55
M104 T0 S200
G1 F1680 E342.55742
G1 F1200 X20.8 Y96.454 E350.59684
G1 F1680 E347.59684
G1 F3600 X78.148 Y21.86
;TIME_ELAPSED:169.541328
;LAYER:-4
G1 X78.148 Y21.86 Z0.619
;TYPE:SUPPORT
G1 F1680 E350.59684
G1 F1980 X77.665 Y21.435 E350.64479
G1 X77.393 Y21.233 E350.67005
G1 X77.167 Y21.09 E350.68998
G1 X77.002 Y20.999 E350.70403
G1 X79.003 Y23 E350.91497
G1 X79.131 Y23.253 E350.93611
G1 X79.233 Y23.49 E350.95534
G1 X79.344 Y23.801 E350.97995
G1 X79.418 Y24.057 E350.99982
G1 X79.478 Y24.33 E351.02065
G1 X79.527 Y24.656 E351.04523
G1 X79.539 Y24.809 E351.05667
G1 X75.185 Y20.455 E351.51565
G1 X74.842 Y20.433 E351.54127
G1 X73.89 Y20.433 E351.61224
G1 X79.57 Y26.112 E352.21096
G1 X79.57 Y27.385 E352.30585
G1 X72.617 Y20.433 E353.03877
G1 X71.344 Y20.433 E353.13366
G1 X79.57 Y28.658 E354.00077
G1 X79.57 Y29.931 E354.09566
G1 X70.072 Y20.433 E355.09692
G1 X68.799 Y20.433 E355.19181
G1 X79.57 Y31.203 E356.32721
G1 X79.57 Y32.476 E356.4221
G1 X67.526 Y20.433 E357.6917
G1 X66.253 Y20.432 E357.78659
G1 X79.57 Y33.749 E359.19044
G1 X79.57 Y35.022 E359.28533
G1 X64.98 Y20.432 E360.82338
G1 X63.707 Y20.432 E360.91827
G1 X79.57 Y36.295 E362.59051
G1 X79.57 Y37.567 E362.68533
G1 X62.434 Y20.432 E364.49171
G1 X61.161 Y20.432 E364.5866
G1 X79.57 Y38.84 E366.52719
G1 X79.57 Y40.113 E366.62208
G1 X59.889 Y20.432 E368.6968
G1 X58.616 Y20.432 E368.79169
G1 X79.57 Y41.386 E371.00062
G1 X79.57 Y42.659 E371.09551
G1 X57.342 Y20.431 E373.43873
G1 X56.07 Y20.431 E373.53355
G1 X79.569 Y43.931 E376.01081
G1 X79.569 Y45.203 E376.10563
G1 X54.797 Y20.431 E378.71704
G1 X53.524 Y20.431 E378.81193
G1 X79.569 Y46.476 E381.55753
G1 X79.569 Y47.749 E381.65242
G1 X52.251 Y20.431 E384.53223
G1 X50.978 Y20.431 E384.62712
G1 X79.569 Y49.022 E387.64111
G1 X79.569 Y50.295 E387.73601
G1 X49.705 Y20.431 E390.8842
G1 X48.432 Y20.431 E390.97909
G1 X79.569 Y51.567 E394.26143
G1 X79.569 Y52.84 E394.35632
G1 X47.159 Y20.431 E397.77286
G1 X45.886 Y20.431 E397.86775
G1 X79.569 Y54.113 E401.41848
G1 X79.569 Y55.386 E401.51337
G1 X44.614 Y20.431 E405.19825
G1 X43.341 Y20.431 E405.29314
G1 X79.569 Y56.659 E409.11221
G1 X79.569 Y57.931 E409.20703
G1 X42.068 Y20.431 E413.16024
G1 X40.795 Y20.43 E413.25514
G1 X79.569 Y59.204 E417.3426
G1 X79.568 Y60.476 E417.43742
G1 X39.522 Y20.43 E421.65898
G1 X38.249 Y20.43 E421.75387
G1 X79.568 Y61.749 E426.10962
G1 X79.568 Y63.022 E426.20451
G1 X36.976 Y20.43 E430.69446
G1 X35.703 Y20.43 E430.78936
G1 X79.568 Y64.295 E435.4135
G1 X79.568 Y65.567 E435.50832
G1 X34.431 Y20.43 E440.26656
G1 X33.157 Y20.429 E440.36153
G1 X79.568 Y66.84 E445.25407
G1 X79.568 Y68.113 E445.34896
G1 X31.884 Y20.429 E450.3757
G1 X30.612 Y20.429 E450.47051
G1 X79.568 Y69.386 E455.6314
G1 X79.568 Y70.659 E455.72629
G1 X29.339 Y20.429 E461.02137
G1 X28.066 Y20.429 E461.11626
G1 X79.568 Y71.931 E466.54548
G1 X79.568 Y73.204 E466.64037
G1 X26.793 Y20.429 E472.20379
G1 X25.52 Y20.429 E472.29868
G1 X79.568 Y74.477 E477.9963
G1 X79.568 Y75.75 E478.09119
G1 X24.339 Y20.52 E483.91336
G1 X24.06 Y20.579 E483.93461
G1 X23.791 Y20.657 E483.95549
G1 X23.516 Y20.755 E483.97725
G1 X23.365 Y20.82 E483.98951
G1 X79.568 Y77.023 E489.9143
G1 X79.567 Y78.295 E490.00912
G1 X22.548 Y21.276 E496.01993
G1 X22.487 Y21.316 E496.02537
G1 X22.244 Y21.505 E496.04831
G1 X21.867 Y21.843 E496.08606
G1 X21.855 Y21.855 E496.08732
G1 X79.567 Y79.567 E502.17119
G1 X79.567 Y80.84 E502.26608
G1 X21.276 Y22.548 E508.41104
G1 X21.242 Y22.594 E508.4153
G1 X21.083 Y22.843 E508.43732
G1 X20.952 Y23.082 E508.45764
G1 X20.823 Y23.352 E508.47994
G1 X20.818 Y23.364 E508.48091
G1 X79.567 Y82.113 E514.6741
G1 X79.567 Y83.386 E514.76899
G1 X20.52 Y24.338 E520.99364
G1 X20.492 Y24.484 E521.00472
G1 X20.457 Y24.773 E521.02642
G1 X20.432 Y25.156 E521.05503
G1 X20.431 Y25.523 E521.08239
M73 P1
G1 X79.567 Y84.659 E527.31637
G1 X79.567 Y85.931 E527.41119
G1 X20.431 Y26.795 E533.64517
G1 X20.431 Y28.068 E533.74006
G1 X79.567 Y87.204 E539.97404
G1 X79.567 Y88.477 E540.06893
G1 X20.431 Y29.341 E546.30291
G1 X20.431 Y30.614 E546.39781
G1 X79.567 Y89.75 E552.63179
G1 X79.567 Y91.023 E552.72668
G1 X20.431 Y31.886 E558.96071
G1 X20.431 Y33.159 E559.0556
G1 X79.567 Y92.295 E565.28959
G1 X79.567 Y93.568 E565.38448
G1 X20.431 Y34.432 E571.61846
G1 X20.431 Y35.705 E571.71335
G1 X79.567 Y94.841 E577.94733
G1 X79.543 Y95.225 E577.97601
G1 X79.507 Y95.513 E577.99765
G1 X79.449 Y95.809 E578.02013
G1 X79.411 Y95.957 E578.03152
G1 X20.431 Y36.978 E584.249
G1 X20.431 Y38.25 E584.34382
G1 X79.064 Y96.883 E590.52478
G1 X79.048 Y96.916 E590.52751
G1 X78.908 Y97.167 E590.54893
G1 X78.766 Y97.392 E590.56877
G1 X78.568 Y97.659 E590.59355
G1 X20.431 Y39.523 E596.72216
G1 X20.431 Y40.795 E596.81698
G1 X77.951 Y98.316 E602.88066
G1 X77.753 Y98.494 E602.9005
G1 X77.513 Y98.681 E602.92318
G1 X77.283 Y98.836 E602.94386
G1 X77.23 Y98.867 E602.94843
G1 X20.431 Y42.068 E608.93606
G1 X20.431 Y43.341 E609.03095
G1 X76.372 Y99.282 E614.92812
G1 X76.208 Y99.342 E614.94114
G1 X75.939 Y99.419 E614.96199
G1 X75.656 Y99.48 E614.98357
G1 X75.345 Y99.527 E615.00702
G1 F3600 X75.344 Y99.527
G1 F1980 X20.431 Y44.614 E620.79582
G1 X20.431 Y45.886 E620.89064
G1 X74.113 Y99.569 E626.54972
G1 X72.841 Y99.569 E626.64454
G1 X20.431 Y47.159 E632.16948
G1 X20.431 Y48.432 E632.26437
G1 X71.568 Y99.569 E637.65512
G1 X70.295 Y99.569 E637.75001
G1 X20.431 Y49.705 E643.00656
G1 X20.431 Y50.978 E643.10145
G1 X69.022 Y99.569 E648.2238
G1 X67.75 Y99.569 E648.31862
G1 X20.431 Y52.25 E653.30688
G1 X20.43 Y53.523 E653.40177
G1 X66.477 Y99.569 E658.25589
G1 X65.203 Y99.569 E658.35085
G1 X20.43 Y54.795 E663.07077
G1 X20.43 Y56.068 E663.16566
G1 X63.93 Y99.569 E667.75139
G1 X62.658 Y99.569 E667.8462
G1 X20.43 Y57.341 E672.29778
G1 X20.43 Y58.614 E672.39268
G1 X61.385 Y99.569 E676.71006
G1 X60.112 Y99.569 E676.80495
G1 X20.43 Y59.886 E680.98819
G1 X20.43 Y61.159 E681.08308
G1 X58.839 Y99.569 E685.13212
G1 X57.566 Y99.568 E685.22701
G1 X20.43 Y62.432 E689.1418
G1 X20.43 Y63.705 E689.23669
G1 X56.293 Y99.568 E693.01729
G1 X55.02 Y99.568 E693.11218
G1 X20.43 Y64.978 E696.75858
G1 X20.43 Y66.25 E696.8534
G1 X53.747 Y99.568 E700.36565
G1 X52.475 Y99.568 E700.46047
G1 X20.429 Y67.523 E703.83863
G1 X20.429 Y68.795 E703.93345
G1 X51.202 Y99.568 E707.17747
G1 X49.929 Y99.568 E707.27236
G1 X20.429 Y70.068 E710.38218
G1 X20.429 Y71.341 E710.47707
G1 X48.656 Y99.567 E713.45264
G1 X47.383 Y99.567 E713.54754
G1 X20.429 Y72.614 E716.38891
G1 X20.429 Y73.887 E716.4838
G1 X46.11 Y99.567 E719.19098
G1 X44.837 Y99.567 E719.28587
G1 X20.429 Y75.159 E721.85891
G1 X20.429 Y76.432 E721.9538
G1 X43.564 Y99.567 E724.39264
G1 X42.292 Y99.567 E724.48746
G1 X20.429 Y77.705 E726.79215
G1 X20.429 Y78.978 E726.88704
G1 X41.018 Y99.566 E729.05744
G1 X39.745 Y99.566 E729.15233
G1 X20.429 Y80.25 E731.18858
G1 X20.429 Y81.523 E731.28347
G1 X38.472 Y99.566 E733.18552
G1 X37.2 Y99.566 E733.28034
G1 X20.429 Y82.795 E735.0483
G1 X20.429 Y84.068 E735.14319
G1 X35.927 Y99.566 E736.77695
G1 X34.654 Y99.566 E736.87184
G1 X20.429 Y85.341 E738.37141
G1 X20.429 Y86.614 E738.4663
G1 X33.381 Y99.566 E739.83167
G1 X32.108 Y99.566 E739.92656
G1 X20.429 Y87.887 E741.15774
G1 X20.429 Y89.159 E741.25255
G1 X30.835 Y99.566 E742.34958
G1 X29.562 Y99.566 E742.44447
G1 X20.429 Y90.432 E743.40731
G1 X20.429 Y91.705 E743.5022
G1 X28.289 Y99.566 E744.33083
G1 X27.017 Y99.566 E744.42565
G1 X20.429 Y92.978 E745.12014
G1 X20.429 Y94.25 E745.21496
G1 X25.744 Y99.566 E745.77531
G1 X25.157 Y99.566 E745.81906
G1 X24.774 Y99.542 E745.84767
G1 X24.483 Y99.506 E745.86952
G1 X24.393 Y99.488 E745.87637
G1 X20.511 Y95.605 E746.28565
G1 F3600 X20.518 Y95.655
G1 F1980 X20.58 Y95.938 E746.30725
G1 X20.657 Y96.207 E746.3281
G1 X20.755 Y96.482 E746.34987
G1 X20.873 Y96.759 E746.37231
G1 X20.998 Y97.005 E746.39288
G1 X21.16 Y97.278 E746.41654
G1 X21.316 Y97.511 E746.43744
G1 X21.504 Y97.753 E746.46028
G1 X21.851 Y98.139 E746.49897
G1 X22.333 Y98.562 E746.54678
G1 X22.605 Y98.765 E746.57208
G1 X22.831 Y98.907 E746.59197
G1 X23.08 Y99.046 E746.61323
G1 X23.359 Y99.178 E746.63624
G1 X23.616 Y99.281 E746.65688
G1 X23.895 Y99.372 E746.67875
G1 X24.19 Y99.448 E746.70146
G1 X24.393 Y99.488 E746.71688
G1 F1680 E743.71688
G1 F3600 X79 Y22.994
G1 F1680 E746.71688
G1 F1980 X78.836 Y22.715 E746.74101
G1 X78.681 Y22.488 E746.7615
G1 X78.494 Y22.245 E746.78435
G1 X78.148 Y21.86 E746.82294
G1 F3600 X78.257 Y21.756
;TIME_ELAPSED:333.010829
;LAYER:-3
M106 S255
G1 X78.257 Y21.756 Z0.869
G1 F2400 X78.475 Y22 E746.83586
G1 X21.529 Y22 E749.08502
G1 X21.325 Y22.233 E749.09725
G1 X21.201 Y22.4 E749.10547
G1 X78.803 Y22.4 E751.38054
G1 X78.971 Y22.65 E751.39244
G1 X79.06 Y22.8 E751.39933
G1 X20.937 Y22.8 E753.69498
G1 X20.823 Y23.005 E753.70424
G1 X20.731 Y23.2 E753.71276
G1 X79.27 Y23.2 E756.02484
G1 X79.378 Y23.451 E756.03563
G1 X79.432 Y23.6 E756.04189
G1 X20.566 Y23.6 E758.36688
G1 X20.48 Y23.861 E758.37774
G1 X20.444 Y24 E758.38341
G1 X79.557 Y24 E760.71816
G1 X79.564 Y24.025 E760.71919
G1 X79.623 Y24.293 E760.73002
G1 X79.639 Y24.4 E760.7343
G1 X20.356 Y24.4 E763.07576
G1 X20.345 Y24.457 E763.07806
G1 X20.309 Y24.754 E763.08987
G1 X20.307 Y24.8 E763.09169
G1 X79.688 Y24.8 E765.43703
G1 X79.712 Y25.119 E765.44966
G1 X79.715 Y25.2 E765.45286
