M73 P0
;MINX:7.0
;MAXX:93.0
;MINY:41.9
;MAXY:78.1
;MINZ:0.0
;MAXZ:10.0
;MachineType:ENTINA TINA2
;FilamentType:PLA
;Extruder0Temperature:200
;InfillDensity:10
;FLAVOR:Marlin
;TIME:1511
;FilamentUsed:1670.4
;Layer height: 0.35

;Generated with Cura_SteamEngine 3.1
M104 T0 S215
M82 ; absolute extrusion mode
;(**** start.gcode for tina2****)
M104 S150
G28 Z
G28 X Y; Home extruder
G1 X55 Y55 F1000
G1 Z10 F200
G29
G1 Z15 F100
M107 ; Turn off fan
G90 ; Absolute positioning
M82 ; Extruder in absolute mode
M109 S215.0
G92 E0 ; Reset extruder position
G1 X90 Y6 Z0.27 F2000
G1 X20 Y6 Z0.27 E15 F1000
G92 E0 ; Reset extruder position

;LAYER_COUNT:29
;LAYER:0
M106 S255
M203 Z5
G1 F3600 X87.451 Y41.635 Z0.299
;TYPE:SKIRT
G1 F1200 X88.232 Y41.909 E0.04315
G1 X88.984 Y42.258 E0.08637
G1 X89.698 Y42.677 E0.12953
G1 X90.368 Y43.164 E0.17272
G1 X90.989 Y43.713 E0.21593
G1 X91.553 Y44.319 E0.25909
G1 X92.057 Y44.976 E0.30226
G1 X92.494 Y45.68 E0.34546
G1 X92.862 Y46.422 E0.38864
G1 X93.157 Y47.196 E0.43183
G1 X93.375 Y47.995 E0.475
G1 X93.516 Y48.811 E0.51818
G1 X93.58 Y49.857 E0.57281
G1 X93.58 Y51.857 E0.67708
G1 X93.54 Y52.684 E0.72025
G1 X93.42 Y53.504 E0.76346
G1 X93.222 Y54.308 E0.80663
G1 X92.948 Y55.089 E0.84978
G1 X92.599 Y55.841 E0.893
G1 X92.18 Y56.555 E0.93616
G1 X91.693 Y57.225 E0.97934
G1 X91.144 Y57.846 E1.02256
G1 X90.538 Y58.41 E1.06572
G1 X89.881 Y58.914 E1.10889
G1 X89.177 Y59.351 E1.15209
G1 X88.435 Y59.719 E1.19527
G1 X87.687 Y60.004 E1.237
G1 X88.232 Y60.195 E1.26711
G1 X88.984 Y60.544 E1.31033
G1 X89.698 Y60.963 E1.35349
G1 X90.368 Y61.45 E1.39667
G1 X90.989 Y61.999 E1.43989
G1 X91.553 Y62.605 E1.48305
G1 X92.057 Y63.262 E1.52622
G1 X92.494 Y63.966 E1.56942
G1 X92.862 Y64.708 E1.6126
G1 X93.157 Y65.482 E1.65578
G1 X93.375 Y66.281 E1.69896
G1 X93.516 Y67.097 E1.74213
G1 X93.58 Y68.143 E1.79677
G1 X93.58 Y70.143 E1.90104
G1 X93.54 Y70.97 E1.94421
G1 X93.42 Y71.79 E1.98741
G1 X93.222 Y72.594 E2.03058
G1 X92.948 Y73.375 E2.07373
G1 X92.599 Y74.127 E2.11695
G1 X92.18 Y74.841 E2.16012
G1 X91.693 Y75.511 E2.2033
G1 X91.144 Y76.132 E2.24651
G1 X90.538 Y76.696 E2.28967
G1 X89.881 Y77.2 E2.33284
G1 X89.177 Y77.637 E2.37604
G1 X88.435 Y78.005 E2.41922
G1 X87.661 Y78.3 E2.46241
G1 X86.862 Y78.518 E2.50559
G1 X86.046 Y78.659 E2.54876
G1 X85 Y78.723 E2.60339
G1 X28 Y78.723 E5.5751
G1 X27.173 Y78.683 E5.61827
G1 X26.353 Y78.563 E5.66148
G1 X25.549 Y78.365 E5.70465
G1 X24.768 Y78.091 E5.7478
G1 X24.016 Y77.742 E5.79102
G1 X23.302 Y77.323 E5.83418
G1 X22.839 Y76.986 E5.86404
G1 X22.56 Y77.2 E5.88237
G1 X21.856 Y77.637 E5.92557
G1 X21.114 Y78.005 E5.96875
G1 X20.34 Y78.3 E6.01193
G1 X19.541 Y78.518 E6.05511
G1 X18.725 Y78.659 E6.09828
G1 X17.679 Y78.723 E6.15292
G1 X15 Y78.723 E6.29259
G1 X14.173 Y78.683 E6.33576
G1 X13.353 Y78.563 E6.37896
G1 X12.549 Y78.365 E6.42213
G1 X11.768 Y78.091 E6.46528
G1 X11.016 Y77.742 E6.5085
G1 X10.302 Y77.323 E6.55166
G1 X9.632 Y76.836 E6.59485
G1 X9.011 Y76.287 E6.63806
G1 X8.447 Y75.681 E6.68122
G1 X7.943 Y75.024 E6.72439
G1 X7.506 Y74.32 E6.76759
G1 X7.138 Y73.578 E6.81077
G1 X6.843 Y72.804 E6.85396
G1 X6.625 Y72.005 E6.89714
G1 X6.484 Y71.189 E6.94031
G1 X6.42 Y70.143 E6.99494
G1 X6.42 Y49.857 E8.05256
G1 X6.46 Y49.03 E8.09573
G1 X6.58 Y48.21 E8.13893
G1 X6.778 Y47.406 E8.1821
G1 X7.052 Y46.625 E8.22525
G1 X7.401 Y45.873 E8.26847
G1 X7.82 Y45.159 E8.31164
G1 X8.307 Y44.489 E8.35482
G1 X8.856 Y43.868 E8.39803
G1 X9.462 Y43.304 E8.44119
G1 X10.119 Y42.8 E8.48436
G1 X10.823 Y42.363 E8.52756
G1 X11.565 Y41.995 E8.57074
G1 X12.339 Y41.7 E8.61393
G1 X13.138 Y41.482 E8.65711
G1 X13.954 Y41.341 E8.70028
G1 X15 Y41.277 E8.75491
G1 X85 Y41.277 E12.40438
G1 X85.827 Y41.317 E12.44755
G1 X86.647 Y41.437 E12.49076
G1 X87.451 Y41.635 E12.53392
G1 F3600 X87.386 Y42.074
G1 F1200 X88.144 Y42.349 E12.57596
G1 X88.872 Y42.697 E12.61803
G1 X89.562 Y43.115 E12.66009
G1 X90.207 Y43.6 E12.70216
G1 X90.8 Y44.146 E12.74419
G1 X91.337 Y44.748 E12.78625
M73 P1
G1 X91.812 Y45.401 E12.82835
G1 X92.219 Y46.097 E12.87038
G1 X92.556 Y46.83 E12.91244
G1 X92.819 Y47.593 E12.95452
G1 X93.004 Y48.378 E12.99656
G1 X93.112 Y49.177 E13.0386
G1 X93.14 Y49.857 E13.07408
G1 X93.14 Y51.857 E13.17835
G1 X93.1 Y52.663 E13.22042
G1 X92.98 Y53.461 E13.2625
G1 X92.783 Y54.243 E13.30454
G1 X92.508 Y55.001 E13.34658
G1 X92.16 Y55.729 E13.38865
G1 X91.742 Y56.419 E13.43071
G1 X91.257 Y57.064 E13.47278
G1 X90.711 Y57.657 E13.5148
G1 X90.109 Y58.194 E13.55686
G1 X89.456 Y58.669 E13.59896
G1 X88.76 Y59.076 E13.641
G1 X88.027 Y59.413 E13.68306
G1 X87.264 Y59.676 E13.72513
G1 X86.479 Y59.861 E13.76718
G1 X85.68 Y59.969 E13.80921
G1 X85 Y59.997 E13.8447
G1 X42.14 Y59.997 E16.07921
G1 X42.14 Y60.003 E16.07953
G1 X85 Y60.003 E18.31404
G1 X85.806 Y60.043 E18.35612
G1 X86.604 Y60.163 E18.39819
G1 X87.386 Y60.36 E18.44023
G1 X88.144 Y60.635 E18.48227
G1 X88.872 Y60.983 E18.52434
G1 X89.562 Y61.401 E18.5664
G1 X90.207 Y61.886 E18.60847
G1 X90.8 Y62.432 E18.6505
G1 X91.337 Y63.034 E18.69255
G1 X91.812 Y63.687 E18.73465
G1 X92.219 Y64.383 E18.77669
G1 X92.556 Y65.116 E18.81875
G1 X92.819 Y65.879 E18.86082
G1 X93.004 Y66.664 E18.90287
G1 X93.112 Y67.463 E18.94491
G1 X93.14 Y68.143 E18.98039
G1 X93.14 Y70.143 E19.08466
G1 X93.1 Y70.949 E19.12673
G1 X92.98 Y71.747 E19.1688
G1 X92.783 Y72.529 E19.21085
G1 X92.508 Y73.287 E19.25289
G1 X92.16 Y74.015 E19.29495
G1 X91.742 Y74.705 E19.33701
G1 X91.257 Y75.35 E19.37909
G1 X90.711 Y75.943 E19.42111
G1 X90.109 Y76.48 E19.46317
G1 X89.456 Y76.955 E19.50527
G1 X88.76 Y77.362 E19.5473
G1 X88.027 Y77.699 E19.58936
G1 X87.264 Y77.962 E19.63144
G1 X86.479 Y78.147 E19.67349
G1 X85.68 Y78.255 E19.71552
G1 X85 Y78.283 E19.751
G1 X28 Y78.283 E22.72271
G1 X27.194 Y78.243 E22.76479
G1 X26.396 Y78.123 E22.80686
G1 X25.614 Y77.926 E22.8489
G1 X24.856 Y77.651 E22.89094
G1 X24.128 Y77.303 E22.93301
G1 X23.438 Y76.885 E22.97507
G1 X22.839 Y76.435 E23.01413
G1 X22.788 Y76.48 E23.01767
G1 X22.135 Y76.955 E23.05977
G1 X21.439 Y77.362 E23.10181
G1 X20.706 Y77.699 E23.14387
G1 X19.943 Y77.962 E23.18594
G1 X19.158 Y78.147 E23.22799
G1 X18.359 Y78.255 E23.27003
G1 X17.679 Y78.283 E23.30551
G1 X15 Y78.283 E23.44518
G1 X14.194 Y78.243 E23.48725
G1 X13.396 Y78.123 E23.52932
G1 X12.614 Y77.926 E23.57137
G1 X11.856 Y77.651 E23.6134
G1 X11.128 Y77.303 E23.65547
G1 X10.438 Y76.885 E23.69753
G1 X9.793 Y76.4 E23.73961
G1 X9.2 Y75.854 E23.78163
G1 X8.663 Y75.252 E23.82369
G1 X8.188 Y74.599 E23.86579
G1 X7.781 Y73.903 E23.90782
G1 X7.444 Y73.17 E23.94988
G1 X7.181 Y72.407 E23.99196
G1 X6.996 Y71.622 E24.03401
G1 X6.888 Y70.823 E24.07604
G1 X6.86 Y70.143 E24.11152
G1 X6.86 Y49.857 E25.16914
G1 X6.9 Y49.051 E25.21121
G1 X7.02 Y48.253 E25.25328
G1 X7.217 Y47.471 E25.29533
G1 X7.492 Y46.713 E25.33737
G1 X7.84 Y45.985 E25.37943
G1 X8.258 Y45.295 E25.42149
G1 X8.743 Y44.65 E25.46357
G1 X9.289 Y44.057 E25.50559
G1 X9.891 Y43.52 E25.54765
G1 X10.544 Y43.045 E25.58975
G1 X11.24 Y42.638 E25.63178
G1 X11.973 Y42.301 E25.67384
G1 X12.736 Y42.038 E25.71592
G1 X13.521 Y41.853 E25.75797
G1 X14.32 Y41.745 E25.8
G1 X15 Y41.717 E25.83548
G1 X85 Y41.717 E29.48495
G1 X85.806 Y41.757 E29.52702
G1 X86.604 Y41.877 E29.5691
G1 X87.386 Y42.074 E29.61114
G1 F3600 X87.318 Y42.514
G1 F1200 X88.053 Y42.788 E29.65203
G1 X88.757 Y43.136 E29.69298
G1 X89.421 Y43.553 E29.73386
G1 X90.04 Y44.036 E29.77479
G1 X90.606 Y44.579 E29.81568
G1 X91.114 Y45.177 E29.85659
G1 X91.559 Y45.823 E29.89749
G1 X91.935 Y46.512 E29.93841
G1 X92.24 Y47.235 E29.97932
G1 X92.469 Y47.985 E30.0202
G1 X92.621 Y48.755 E30.06112
G1 X92.7 Y49.857 E30.11872
G1 X92.7 Y51.857 E30.22299
G1 X92.66 Y52.641 E30.26392
G1 X92.541 Y53.416 E30.3048
G1 X92.343 Y54.175 E30.34569
G1 X92.069 Y54.91 E30.38659
G1 X91.721 Y55.614 E30.42753
G1 X91.304 Y56.278 E30.46841
G1 X90.821 Y56.897 E30.50934
G1 X90.278 Y57.463 E30.55024
G1 X89.68 Y57.971 E30.59114
G1 X89.034 Y58.416 E30.63204
G1 X88.345 Y58.792 E30.67296
G1 X87.622 Y59.097 E30.71387
G1 X86.872 Y59.326 E30.75476
G1 X86.102 Y59.478 E30.79567
G1 X85 Y59.557 E30.85327
G1 X41.7 Y59.557 E33.11073
G1 X41.7 Y60.443 E33.15692
G1 X85 Y60.443 E35.41438
G1 X85.784 Y60.483 E35.45531
M73 P2
G1 X86.559 Y60.602 E35.49619
G1 X87.318 Y60.8 E35.53708
G1 X88.053 Y61.074 E35.57798
G1 X88.757 Y61.422 E35.61892
G1 X89.421 Y61.839 E35.6598
G1 X90.04 Y62.322 E35.70073
G1 X90.606 Y62.865 E35.74162
G1 X91.114 Y63.463 E35.78253
G1 X91.559 Y64.109 E35.82343
G1 X91.935 Y64.798 E35.86435
G1 X92.24 Y65.521 E35.90526
G1 X92.469 Y66.271 E35.94614
G1 X92.621 Y67.041 E35.98706
G1 X92.7 Y68.143 E36.04466
G1 X92.7 Y70.143 E36.14893
G1 X92.66 Y70.927 E36.18986
G1 X92.541 Y71.702 E36.23074
G1 X92.343 Y72.461 E36.27163
G1 X92.069 Y73.196 E36.31253
G1 X91.721 Y73.9 E36.35347
G1 X91.304 Y74.564 E36.39435
G1 X90.821 Y75.183 E36.43528
G1 X90.278 Y75.749 E36.47618
G1 X89.68 Y76.257 E36.51708
G1 X89.034 Y76.702 E36.55798
G1 X88.345 Y77.078 E36.5989
G1 X87.622 Y77.383 E36.63981
G1 X86.872 Y77.612 E36.6807
G1 X86.102 Y77.764 E36.72162
G1 X85 Y77.843 E36.77922
G1 X28 Y77.843 E39.75093
G1 X27.216 Y77.803 E39.79185
G1 X26.441 Y77.684 E39.83273
G1 X25.682 Y77.486 E39.87363
G1 X24.947 Y77.212 E39.91452
G1 X24.243 Y76.864 E39.95546
G1 X23.579 Y76.447 E39.99634
G1 X22.96 Y75.964 E40.03728
G1 X22.84 Y75.849 E40.04594
G1 X22.359 Y76.257 E40.07883
G1 X21.713 Y76.702 E40.11972
G1 X21.024 Y77.078 E40.16064
G1 X20.301 Y77.383 E40.20155
G1 X19.551 Y77.612 E40.24244
G1 X18.781 Y77.764 E40.28336
G1 X17.679 Y77.843 E40.34096
G1 X15 Y77.843 E40.48063
G1 X14.216 Y77.803 E40.52156
G1 X13.441 Y77.684 E40.56243
G1 X12.682 Y77.486 E40.60333
G1 X11.947 Y77.212 E40.64422
G1 X11.243 Y76.864 E40.68517
G1 X10.579 Y76.447 E40.72605
G1 X9.96 Y75.964 E40.76698
G1 X9.394 Y75.421 E40.80787
G1 X8.886 Y74.823 E40.84878
G1 X8.441 Y74.177 E40.88968
G1 X8.065 Y73.488 E40.9306
G1 X7.76 Y72.765 E40.97151
G1 X7.531 Y72.015 E41.01239
G1 X7.379 Y71.245 E41.05331
G1 X7.3 Y70.143 E41.11091
G1 X7.3 Y49.857 E42.16853
G1 X7.34 Y49.073 E42.20945
G1 X7.459 Y48.298 E42.25033
G1 X7.657 Y47.539 E42.29123
G1 X7.931 Y46.804 E42.33212
G1 X8.279 Y46.1 E42.37307
G1 X8.696 Y45.436 E42.41394
G1 X9.179 Y44.817 E42.45488
G1 X9.722 Y44.251 E42.49577
G1 X10.32 Y43.743 E42.53668
G1 X10.966 Y43.298 E42.57757
G1 X11.655 Y42.922 E42.6185
G1 X12.378 Y42.617 E42.65941
G1 X13.128 Y42.388 E42.70029
G1 X13.898 Y42.236 E42.74121
G1 X15 Y42.157 E42.79881
G1 X85 Y42.157 E46.44828
G1 X85.784 Y42.197 E46.48921
G1 X86.559 Y42.316 E46.53008
G1 X87.318 Y42.514 E46.57098
G1 F3600 X87.249 Y42.954
G1 F1200 X87.96 Y43.228 E46.6107
G1 X88.638 Y43.574 E46.65039
G1 X89.277 Y43.99 E46.69014
G1 X89.868 Y44.471 E46.72987
G1 X90.406 Y45.011 E46.76961
G1 X90.884 Y45.604 E46.80932
G1 X91.297 Y46.244 E46.84903
G1 X91.641 Y46.923 E46.88871
G1 X91.912 Y47.636 E46.92848
G1 X92.107 Y48.372 E46.96817
G1 X92.223 Y49.125 E47.0079
G1 X92.26 Y49.857 E47.04611
G1 X92.26 Y51.857 E47.15038
G1 X92.22 Y52.618 E47.19011
G1 X92.101 Y53.37 E47.2298
G1 X91.903 Y54.106 E47.26954
G1 X91.629 Y54.817 E47.30926
G1 X91.283 Y55.495 E47.34895
G1 X90.867 Y56.134 E47.3887
G1 X90.386 Y56.725 E47.42843
G1 X89.846 Y57.263 E47.46817
G1 X89.253 Y57.741 E47.50788
G1 X88.613 Y58.154 E47.54759
G1 X87.934 Y58.498 E47.58727
G1 X87.221 Y58.769 E47.62704
G1 X86.485 Y58.964 E47.66673
G1 X85.732 Y59.08 E47.70645
G1 X85 Y59.117 E47.74467
G1 X41.26 Y59.117 E50.02506
G1 X41.26 Y60.883 E50.11713
G1 X85 Y60.883 E52.39753
G1 X85.761 Y60.923 E52.43726
G1 X86.513 Y61.042 E52.47695
G1 X87.249 Y61.24 E52.51669
G1 X87.96 Y61.514 E52.55641
G1 X88.638 Y61.86 E52.5961
G1 X89.277 Y62.276 E52.63585
G1 X89.868 Y62.757 E52.67558
G1 X90.406 Y63.297 E52.71532
G1 X90.884 Y63.89 E52.75503
G1 X91.297 Y64.53 E52.79474
G1 X91.641 Y65.209 E52.83442
G1 X91.912 Y65.922 E52.87419
G1 X92.107 Y66.658 E52.91389
G1 X92.223 Y67.411 E52.95361
G1 X92.26 Y68.143 E52.99182
G1 X92.26 Y70.143 E53.09609
G1 X92.22 Y70.904 E53.13582
G1 X92.101 Y71.656 E53.17551
G1 X91.903 Y72.392 E53.21525
G1 X91.629 Y73.103 E53.25497
G1 X91.283 Y73.781 E53.29466
G1 X90.867 Y74.42 E53.33441
G1 X90.386 Y75.011 E53.37414
G1 X89.846 Y75.549 E53.41388
G1 X89.253 Y76.027 E53.45359
G1 X88.613 Y76.44 E53.4933
G1 X87.934 Y76.784 E53.53298
G1 X87.221 Y77.055 E53.57275
G1 X86.485 Y77.25 E53.61244
G1 X85.732 Y77.366 E53.65216
G1 X85 Y77.403 E53.69038
G1 X28 Y77.403 E56.66209
G1 X27.239 Y77.363 E56.70182
M73 P3
G1 X26.487 Y77.244 E56.74151
G1 X25.751 Y77.046 E56.78125
G1 X25.04 Y76.772 E56.82097
G1 X24.362 Y76.426 E56.86066
G1 X23.723 Y76.01 E56.90041
G1 X23.132 Y75.529 E56.94013
G1 X22.84 Y75.236 E56.9617
G1 X22.525 Y75.549 E56.98485
G1 X21.932 Y76.027 E57.02456
G1 X21.292 Y76.44 E57.06427
G1 X20.613 Y76.784 E57.10396
G1 X19.9 Y77.055 E57.14372
G1 X19.164 Y77.25 E57.18342
G1 X18.411 Y77.366 E57.22314
G1 X17.679 Y77.403 E57.26135
G1 X15 Y77.403 E57.40102
G1 X14.239 Y77.363 E57.44075
G1 X13.487 Y77.244 E57.48045
G1 X12.751 Y77.046 E57.52018
G1 X12.04 Y76.772 E57.55991
G1 X11.362 Y76.426 E57.59959
G1 X10.723 Y76.01 E57.63934
G1 X10.132 Y75.529 E57.67907
G1 X9.594 Y74.989 E57.71881
G1 X9.116 Y74.396 E57.75852
G1 X8.703 Y73.756 E57.79823
G1 X8.359 Y73.077 E57.83791
G1 X8.088 Y72.364 E57.87768
G1 X7.893 Y71.628 E57.91738
G1 X7.777 Y70.875 E57.9571
G1 X7.74 Y70.143 E57.99531
G1 X7.74 Y49.857 E59.05293
G1 X7.78 Y49.096 E59.09266
G1 X7.899 Y48.344 E59.13235
G1 X8.097 Y47.608 E59.17208
G1 X8.371 Y46.897 E59.21181
G1 X8.717 Y46.219 E59.25149
G1 X9.133 Y45.58 E59.29125
G1 X9.614 Y44.989 E59.33097
G1 X10.154 Y44.451 E59.37071
G1 X10.747 Y43.973 E59.41042
G1 X11.387 Y43.56 E59.45014
G1 X12.066 Y43.216 E59.48982
G1 X12.779 Y42.945 E59.52959
G1 X13.515 Y42.75 E59.56928
G1 X14.268 Y42.634 E59.609
G1 X15 Y42.597 E59.64721
G1 X85 Y42.597 E63.29668
G1 X85.761 Y42.637 E63.33641
G1 X86.513 Y42.756 E63.37611
G1 X87.249 Y42.954 E63.41584
G1 F3600 X87.177 Y43.394
G1 F1200 X87.863 Y43.667 E63.45433
G1 X88.516 Y44.013 E63.49286
G1 X89.127 Y44.427 E63.53134
G1 X89.69 Y44.905 E63.56985
G1 X90.198 Y45.441 E63.60835
G1 X90.644 Y46.029 E63.64682
G1 X91.025 Y46.662 E63.68534
G1 X91.335 Y47.332 E63.72383
G1 X91.571 Y48.032 E63.76234
G1 X91.73 Y48.753 E63.80084
G1 X91.81 Y49.487 E63.83933
G1 X91.82 Y49.857 E63.85863
G1 X91.82 Y51.857 E63.9629
G1 X91.78 Y52.594 E64.00138
G1 X91.661 Y53.323 E64.03989
G1 X91.463 Y54.034 E64.07837
G1 X91.19 Y54.72 E64.11686
G1 X90.844 Y55.373 E64.15539
G1 X90.43 Y55.984 E64.19386
G1 X89.952 Y56.547 E64.23237
G1 X89.416 Y57.055 E64.27087
G1 X88.828 Y57.501 E64.30935
G1 X88.195 Y57.882 E64.34786
G1 X87.525 Y58.192 E64.38635
G1 X86.825 Y58.428 E64.42487
G1 X86.104 Y58.587 E64.46336
G1 X85.37 Y58.667 E64.50185
G1 X85 Y58.677 E64.52115
G1 X40.82 Y58.677 E66.82449
G1 X40.82 Y61.323 E66.96244
G1 X85 Y61.323 E69.26577
G1 X85.737 Y61.363 E69.30425
G1 X86.466 Y61.482 E69.34276
G1 X87.177 Y61.68 E69.38124
G1 X87.863 Y61.953 E69.41973
G1 X88.516 Y62.299 E69.45826
G1 X89.127 Y62.713 E69.49674
G1 X89.69 Y63.191 E69.53524
G1 X90.198 Y63.727 E69.57374
G1 X90.644 Y64.315 E69.61222
G1 X91.025 Y64.948 E69.65074
G1 X91.335 Y65.618 E69.68923
G1 X91.571 Y66.318 E69.72774
G1 X91.73 Y67.039 E69.76623
G1 X91.81 Y67.773 E69.80473
G1 X91.82 Y68.143 E69.82402
G1 X91.82 Y70.143 E69.9283
G1 X91.78 Y70.88 E69.96678
G1 X91.661 Y71.609 E70.00528
G1 X91.463 Y72.32 E70.04376
G1 X91.19 Y73.006 E70.08226
G1 X90.844 Y73.659 E70.12078
G1 X90.43 Y74.27 E70.15926
G1 X89.952 Y74.833 E70.19777
G1 X89.416 Y75.341 E70.23627
G1 X88.828 Y75.787 E70.27474
G1 X88.195 Y76.168 E70.31326
G1 X87.525 Y76.478 E70.35175
G1 X86.825 Y76.714 E70.39026
G1 X86.104 Y76.873 E70.42876
G1 X85.37 Y76.953 E70.46725
G1 X85 Y76.963 E70.48655
G1 X28 Y76.963 E73.45826
G1 X27.263 Y76.923 E73.49674
G1 X26.534 Y76.804 E73.53525
G1 X25.823 Y76.606 E73.57373
G1 X25.137 Y76.333 E73.61222
G1 X24.484 Y75.987 E73.65075
G1 X23.873 Y75.573 E73.68923
G1 X23.31 Y75.095 E73.72773
G1 X22.835 Y74.593 E73.76376
G1 X22.631 Y74.833 E73.78018
G1 X22.095 Y75.341 E73.81868
G1 X21.507 Y75.787 E73.85716
G1 X20.874 Y76.168 E73.89568
G1 X20.204 Y76.478 E73.93417
G1 X19.504 Y76.714 E73.97268
G1 X18.783 Y76.873 E74.01117
G1 X18.049 Y76.953 E74.04967
G1 X17.679 Y76.963 E74.06896
G1 X15 Y76.963 E74.20863
