M73 P0
;MINX:13.0
;MAXX:89.0
;MINY:8.0
;MAXY:114.0
;MINZ:0.0
;MAXZ:35.0
;MachineType:ENTINA TINA2
;FilamentType:PLA
;Extruder0Temperature:200
;InfillDensity:10
;FLAVOR:Marlin
;TIME:8852
;FilamentUsed:12013.7
;Layer height: 0.35

;Generated with Cura_SteamEngine 3.1
M104 T0 S215
M82 ; absolute extrusion mode
;(**** start.gcode for tina2****)
M104 S150
G28 Z
G28 X Y; Home extruder
G1 X55 Y55 F1000
G1 Z10 F200
G29
G1 Z15 F100
M107 ; Turn off fan
G90 ; Absolute positioning
M82 ; Extruder in absolute mode
M109 S215.0
G92 E0 ; Reset extruder position
G1 X90 Y6 Z0.27 F2000
G1 X20 Y6 Z0.27 E15 F1000
G92 E0 ; Reset extruder position

;LAYER_COUNT:101
;LAYER:0
M106 S255
M203 Z5
G1 F3600 X88.603 Y9.125 Z0.299
;TYPE:SKIRT
G1 F1200 X88.866 Y9.559 E0.02646
G1 X89.058 Y10.028 E0.05288
G1 X89.174 Y10.522 E0.07933
G1 X89.211 Y11.009 E0.1048
G1 X89.211 Y110.991 E5.31738
G1 X89.171 Y111.497 E5.34385
G1 X89.052 Y111.99 E5.37029
G1 X88.857 Y112.458 E5.39672
G1 X88.592 Y112.89 E5.42314
G1 X88.261 Y113.275 E5.44961
G1 X87.875 Y113.603 E5.47602
G1 X87.441 Y113.866 E5.50248
G1 X86.972 Y114.058 E5.5289
G1 X86.478 Y114.174 E5.55536
G1 X85.991 Y114.211 E5.58082
G1 X16.009 Y114.211 E9.22935
G1 X15.503 Y114.171 E9.25581
G1 X15.01 Y114.052 E9.28225
G1 X14.542 Y113.857 E9.30868
G1 X14.11 Y113.592 E9.33511
G1 X13.725 Y113.261 E9.36158
G1 X13.397 Y112.875 E9.38799
G1 X13.134 Y112.441 E9.41444
G1 X12.942 Y111.972 E9.44086
G1 X12.826 Y111.478 E9.46732
G1 X12.789 Y110.991 E9.49278
G1 X12.789 Y11.008 E14.70542
G1 X12.829 Y10.502 E14.73188
G1 X12.948 Y10.009 E14.75833
G1 X13.143 Y9.541 E14.78476
G1 X13.408 Y9.109 E14.81118
G1 X13.739 Y8.724 E14.83765
G1 X14.125 Y8.396 E14.86406
G1 X14.559 Y8.133 E14.89052
G1 X15.028 Y7.941 E14.91694
G1 X15.522 Y7.825 E14.94339
G1 X16.009 Y7.788 E14.96886
G1 X85.991 Y7.789 E18.61739
G1 X86.497 Y7.829 E18.64385
G1 X86.99 Y7.948 E18.67029
G1 X87.458 Y8.143 E18.69672
G1 X87.89 Y8.408 E18.72314
G1 X88.275 Y8.739 E18.74961
G1 X88.603 Y9.125 E18.77602
G1 F1680 E15.77602
G1 F3600 X85.34 Y11.659
;TYPE:WALL-INNER
G1 F1680 E18.77602
G1 F1320 X85.34 Y110.34 E23.92078
G1 X16.66 Y110.34 E27.50143
G1 X16.66 Y11.659 E32.64619
G1 X85.34 Y11.659 E36.22684
G1 F3600 X85.7 Y11.299
;TYPE:WALL-OUTER
G1 F1320 X85.7 Y110.7 E41.40914
G1 X16.3 Y110.7 E45.02733
G1 X16.3 Y11.299 E50.20962
G1 X85.7 Y11.299 E53.82781
G1 F1680 E50.82781
G1 F3600 X84.91 Y12.089
;TYPE:SKIN
G1 F1680 E53.82781
G1 F1320 X84.91 Y109.91 E58.92773
G1 X17.09 Y109.91 E62.46355
G1 X17.09 Y12.089 E67.56347
G1 X84.91 Y12.089 E71.09928
G1 F3600 X84.709 Y12.528
G1 F1320 X84.47 Y12.288 E71.11694
G1 F3600 X83.848 Y12.288
G1 F1320 X84.709 Y13.15 E71.18046
G1 X84.737 Y13.178
G1 F3600 X84.709 Y13.773
G1 F1320 X83.225 Y12.288 E71.28991
G1 X83.197 Y12.26
G1 F3600 X82.603 Y12.288
G1 F1320 X84.709 Y14.395 E71.44523
G1 X84.737 Y14.423
G1 F3600 X84.709 Y15.017
G1 F1320 X81.981 Y12.288 E71.6464
G1 X81.953 Y12.26
G1 F3600 X81.358 Y12.288
G1 F1320 X84.709 Y15.639 E71.89347
G1 X84.737 Y15.667
G1 F3600 X84.709 Y16.262
G1 F1320 X80.736 Y12.288 E72.18644
G1 X80.708 Y12.26
G1 F3600 X80.114 Y12.288
G1 F1320 X84.709 Y16.884 E72.52527
G1 X84.737 Y16.912
G1 F3600 X84.709 Y17.506
G1 F1320 X79.492 Y12.288 E72.90996
G1 X79.464 Y12.26
G1 F3600 X78.869 Y12.288
G1 F1320 X84.709 Y18.128 E73.34054
G1 X84.737 Y18.156
G1 F3600 X84.709 Y18.751
G1 F1320 X78.247 Y12.288 E73.81702
G1 X78.219 Y12.26
G1 F3600 X77.625 Y12.288
G1 F1320 X84.709 Y19.373 E74.33937
G1 X84.737 Y19.401
G1 F3600 X84.709 Y19.995
G1 F1320 X77.003 Y12.288 E74.90757
G1 X76.975 Y12.26
G1 F3600 X76.38 Y12.288
G1 F1320 X84.709 Y20.617 E75.52167
G1 X84.737 Y20.645
G1 F3600 X84.709 Y21.24
G1 F1320 X75.758 Y12.288 E76.18167
G1 X75.73 Y12.26
G1 F3600 X75.136 Y12.288
G1 F1320 X84.709 Y21.862 E76.88753
G1 X84.737 Y21.89
G1 F3600 X84.709 Y22.484
G1 F1320 X74.514 Y12.288 E77.63924
G1 X74.486 Y12.26
G1 F3600 X73.891 Y12.288
G1 F1320 X84.709 Y23.106 E78.43686
G1 X84.737 Y23.134
G1 F3600 X84.709 Y23.729
G1 F1320 X73.269 Y12.288 E79.28037
G1 X73.241 Y12.26
G1 F3600 X72.647 Y12.288
G1 F1320 X84.709 Y24.351 E80.16974
G1 X84.737 Y24.379
G1 F3600 X84.709 Y24.973
G1 F1320 X72.025 Y12.288 E81.10498
G1 X71.997 Y12.26
G1 F3600 X71.402 Y12.288
G1 F1320 X84.709 Y25.595 E82.08611
G1 X84.737 Y25.623
G1 F3600 X84.709 Y26.218
G1 F1320 X70.78 Y12.288 E83.11314
G1 X70.752 Y12.26
G1 F3600 X70.158 Y12.288
G1 F1320 X84.709 Y26.84 E84.18602
G1 X84.737 Y26.868
G1 F3600 X84.709 Y27.462
G1 F1320 X69.536 Y12.288 E85.30477
G1 X69.508 Y12.26
G1 F3600 X68.913 Y12.288
G1 F1320 X84.709 Y28.084 E86.46942
G1 X84.737 Y28.112
G1 F3600 X84.709 Y28.707
G1 F1320 X68.291 Y12.288 E87.67996
G1 X68.263 Y12.26
G1 F3600 X67.669 Y12.288
G1 F1320 X84.709 Y29.329 E88.93636
G1 X84.737 Y29.357
G1 F3600 X84.709 Y29.951
G1 F1320 X67.047 Y12.288 E90.23863
G1 X67.019 Y12.26
G1 F3600 X66.424 Y12.288
G1 F1320 X84.709 Y30.573 E91.58679
G1 X84.737 Y30.601
G1 F3600 X84.709 Y31.196
G1 F1320 X65.802 Y12.288 E92.98084
G1 X65.774 Y12.26
G1 F3600 X65.18 Y12.288
G1 F1320 X84.709 Y31.818 E94.42076
G1 X84.737 Y31.846
G1 F3600 X84.709 Y32.44
G1 F1320 X64.558 Y12.288 E95.90654
G1 X64.53 Y12.26
G1 F3600 X63.935 Y12.288
G1 F1320 X84.709 Y33.062 E97.43821
G1 X84.737 Y33.09
G1 F3600 X84.709 Y33.685
G1 F1320 X63.313 Y12.288 E99.01579
G1 X63.285 Y12.26
G1 F3600 X62.691 Y12.288
G1 F1320 X84.709 Y34.307 E100.63922
G1 X84.737 Y34.335
G1 F3600 X84.709 Y34.929
G1 F1320 X62.069 Y12.288 E102.30851
G1 X62.041 Y12.26
G1 F3600 X61.446 Y12.288
G1 F1320 X84.709 Y35.551 E104.0237
G1 X84.737 Y35.579
G1 F3600 X84.709 Y36.174
G1 F1320 X60.824 Y12.288 E105.78479
G1 X60.796 Y12.26
G1 F3600 X60.202 Y12.288
G1 F1320 X84.709 Y36.796 E107.59174
G1 X84.737 Y36.824
G1 F3600 X84.709 Y37.418
G1 F1320 X59.58 Y12.288 E109.44455
G1 X59.552 Y12.26
G1 F3600 X58.957 Y12.288
G1 F1320 X84.709 Y38.04 E111.34325
G1 X84.737 Y38.068
G1 F3600 X84.709 Y38.663
G1 F1320 X58.335 Y12.288 E113.28785
G1 X58.307 Y12.26
G1 F3600 X57.713 Y12.288
G1 F1320 X84.709 Y39.285 E115.27832
G1 X84.737 Y39.313
G1 F3600 X84.709 Y39.907
G1 F1320 X57.091 Y12.288 E117.31464
G1 X57.063 Y12.26
G1 F3600 X56.468 Y12.288
G1 F1320 X84.709 Y40.529 E119.39686
G1 X84.737 Y40.557
G1 F3600 X84.709 Y41.152
G1 F1320 X55.846 Y12.288 E121.52498
G1 X55.818 Y12.26
G1 F3600 X55.224 Y12.288
G1 F1320 X84.709 Y41.774 E123.69895
G1 X84.737 Y41.802
G1 F3600 X84.709 Y42.396
G1 F1320 X54.602 Y12.288 E125.91879
G1 X54.574 Y12.26
G1 F3600 X53.979 Y12.288
G1 F1320 X84.709 Y43.018 E128.18453
G1 X84.737 Y43.046
G1 F3600 X84.709 Y43.641
G1 F1320 X53.357 Y12.288 E130.49616
G1 X53.329 Y12.26
G1 F3600 X52.735 Y12.288
G1 F1320 X84.709 Y44.263 E132.85365
G1 X84.737 Y44.291
G1 F3600 X84.709 Y44.885
G1 F1320 X52.113 Y12.288 E135.257
G1 X52.085 Y12.26
G1 F3600 X51.49 Y12.288
G1 F1320 X84.709 Y45.507 E137.70625
G1 X84.737 Y45.535
G1 F3600 X84.709 Y46.13
G1 F1320 X50.868 Y12.288 E140.2014
G1 X50.84 Y12.26
G1 F3600 X50.246 Y12.288
G1 F1320 X84.709 Y46.752 E142.74241
G1 X84.737 Y46.78
G1 F3600 X84.709 Y47.374
G1 F1320 X49.624 Y12.288 E145.32928
G1 X49.596 Y12.26
G1 F3600 X49.001 Y12.288
G1 F1320 X84.709 Y47.996 E147.96204
G1 X84.737 Y48.024
G1 F3600 X84.709 Y48.619
G1 F1320 X48.379 Y12.288 E150.6407
G1 X48.351 Y12.26
G1 F3600 X47.757 Y12.288
G1 F1320 X84.709 Y49.241 E153.36522
G1 X84.737 Y49.269
G1 F3600 X84.709 Y49.863
G1 F1320 X47.135 Y12.288 E156.13561
G1 X47.107 Y12.26
G1 F3600 X46.512 Y12.288
G1 F1320 X84.709 Y50.486 E158.95192
G1 X84.737 Y50.514
G1 F3600 X84.709 Y51.108
G1 F1320 X45.89 Y12.288 E161.8141
G1 X45.862 Y12.26
G1 F3600 X45.268 Y12.288
G1 F1320 X84.709 Y51.73 E164.72214
G1 X84.737 Y51.758
G1 F3600 X84.709 Y52.352
G1 F1320 X44.646 Y12.288 E167.67604
G1 X44.618 Y12.26
G1 F3600 X44.023 Y12.288
G1 F1320 X84.709 Y52.975 E170.67587
G1 X84.737 Y53.003
G1 F3600 X84.709 Y53.597
G1 F1320 X43.401 Y12.288 E173.72156
G1 X43.373 Y12.26
G1 F3600 X42.779 Y12.288
G1 F1320 X84.709 Y54.219 E176.81311
G1 X84.737 Y54.247
G1 F3600 X84.709 Y54.841
G1 F1320 X42.156 Y12.288 E179.95056
G1 X42.128 Y12.26
G1 F3600 X41.534 Y12.288
G1 F1320 X84.709 Y55.464 E183.13391
G1 X84.737 Y55.492
G1 F3600 X84.709 Y56.086
G1 F1320 X40.912 Y12.288 E186.36312
G1 X40.884 Y12.26
G1 F3600 X40.29 Y12.288
G1 F1320 X84.709 Y56.708 E189.63818
G1 X84.737 Y56.736
G1 F3600 X84.709 Y57.33
G1 F1320 X39.667 Y12.288 E192.95915
G1 X39.639 Y12.26
G1 F3600 X39.045 Y12.288
G1 F1320 X84.709 Y57.953 E196.32601
G1 X84.737 Y57.981
G1 F3600 X84.709 Y58.575
G1 F1320 X38.423 Y12.288 E199.73873
G1 X38.395 Y12.26
G1 F3600 X37.801 Y12.288
G1 F1320 X84.709 Y59.197 E203.19731
G1 X84.737 Y59.225
G1 F3600 X84.709 Y59.819
G1 F1320 X37.178 Y12.288 E206.70179
G1 X37.15 Y12.26
G1 F3600 X36.556 Y12.288
G1 F1320 X84.709 Y60.442 E210.25217
G1 X84.737 Y60.47
G1 F3600 X84.709 Y61.064
G1 F1320 X35.934 Y12.288 E213.84841
G1 X35.906 Y12.26
G1 F3600 X35.312 Y12.288
G1 F1320 X84.709 Y61.686 E217.4905
G1 X84.737 Y61.714
G1 F3600 X84.709 Y62.308
G1 F1320 X34.689 Y12.288 E221.1785
G1 X34.661 Y12.26
G1 F3600 X34.067 Y12.288
G1 F1320 X84.709 Y62.931 E224.91239
G1 X84.737 Y62.959
G1 F3600 X84.709 Y63.553
G1 F1320 X33.445 Y12.288 E228.69214
G1 X33.417 Y12.26
G1 F3600 X32.823 Y12.288
G1 F1320 X84.709 Y64.175 E232.51775
G1 X84.737 Y64.203
G1 F3600 X84.709 Y64.797
G1 F1320 X32.2 Y12.288 E236.38926
G1 X32.172 Y12.26
G1 F3600 X31.578 Y12.288
G1 F1320 X84.709 Y65.42 E240.30667
G1 X84.737 Y65.448
G1 F3600 X84.709 Y66.042
G1 F1320 X30.956 Y12.288 E244.26993
G1 X30.928 Y12.26
G1 F3600 X30.334 Y12.288
G1 F1320 X84.709 Y66.664 E248.27906
G1 X84.737 Y66.692
G1 F3600 X84.709 Y67.286
G1 F1320 X29.711 Y12.288 E252.33409
G1 X29.683 Y12.26
G1 F3600 X29.089 Y12.288
G1 F1320 X84.709 Y67.909 E256.43501
G1 X84.737 Y67.937
G1 F3600 X84.709 Y68.531
G1 F1320 X28.467 Y12.288 E260.58179
G1 X28.439 Y12.26
G1 F3600 X27.845 Y12.288
G1 F1320 X84.709 Y69.153 E264.77443
G1 X84.737 Y69.181
G1 F3600 X84.709 Y69.775
G1 F1320 X27.222 Y12.288 E269.01297
G1 X27.194 Y12.26
G1 F3600 X26.6 Y12.288
G1 F1320 X84.709 Y70.398 E273.29741
G1 X84.737 Y70.426
G1 F3600 X84.709 Y71.02
G1 F1320 X25.978 Y12.288 E277.6277
G1 X25.95 Y12.26
G1 F3600 X25.356 Y12.288
G1 F1320 X84.709 Y71.642 E282.00386
G1 X84.737 Y71.67
G1 F3600 X84.709 Y72.264
G1 F1320 X24.733 Y12.288 E286.42591
G1 X24.705 Y12.26
G1 F3600 X24.111 Y12.288
G1 F1320 X84.709 Y72.887 E290.89387
G1 X84.737 Y72.915
G1 F3600 X84.709 Y73.509
G1 F1320 X23.489 Y12.288 E295.40768
G1 X23.461 Y12.26
G1 F3600 X22.867 Y12.288
G1 F1320 X84.709 Y74.131 E299.96735
G1 X84.737 Y74.159
G1 F3600 X84.709 Y74.753
G1 F1320 X22.244 Y12.288 E304.57292
G1 X22.216 Y12.26
G1 F3600 X21.622 Y12.288
G1 F1320 X84.709 Y75.376 E309.22438
G1 X84.737 Y75.404
G1 F3600 X84.709 Y75.998
G1 F1320 X21 Y12.288 E313.92171
G1 X20.972 Y12.26
G1 F3600 X20.378 Y12.288
G1 F1320 X84.709 Y76.62 E318.6649
G1 X84.737 Y76.648
G1 F3600 X84.709 Y77.242
G1 F1320 X19.755 Y12.288 E323.45398
G1 X19.727 Y12.26
G1 F3600 X19.133 Y12.288
G1 F1320 X84.709 Y77.865 E328.28896
G1 X84.737 Y77.893
G1 F3600 X84.709 Y78.487
G1 F1320 X18.511 Y12.288 E333.1698
G1 X18.483 Y12.26
G1 F3600 X17.889 Y12.288
G1 F1320 X84.709 Y79.109 E338.09651
G1 X84.737 Y79.137
G1 F3600 X84.709 Y79.731
G1 F1320 X17.289 Y12.311 E343.06741
G1 X17.261 Y12.283
G1 F3600 X17.289 Y12.933
G1 F1320 X84.709 Y80.354 E348.03835
G1 X84.737 Y80.382
G1 F3600 X84.709 Y80.976
G1 F1320 X17.289 Y13.555 E353.00929
G1 X17.261 Y13.527
G1 F3600 X17.289 Y14.178
G1 F1320 X84.709 Y81.598 E357.98019
G1 X84.737 Y81.626
G1 F3600 X84.709 Y82.22
G1 F1320 X17.289 Y14.8 E362.9511
G1 X17.261 Y14.772
G1 F3600 X17.289 Y15.422
G1 F1320 X84.709 Y82.843 E367.92204
G1 X84.737 Y82.871
G1 F3600 X84.709 Y83.465
G1 F1320 X17.289 Y16.044 E372.89298
G1 X17.261 Y16.016
G1 F3600 X17.289 Y16.667
G1 F1320 X84.709 Y84.087 E377.86388
G1 X84.737 Y84.115
G1 F3600 X84.709 Y84.709
G1 F1320 X17.289 Y17.289 E382.83478
G1 X17.261 Y17.261
G1 F3600 X17.289 Y17.911
G1 F1320 X84.709 Y85.332 E387.80572
G1 X84.737 Y85.36
G1 F3600 X84.709 Y85.954
G1 F1320 X17.289 Y18.533 E392.77666
G1 X17.261 Y18.505
G1 F3600 X17.289 Y19.156
G1 F1320 X84.709 Y86.576 E397.74757
G1 X84.737 Y86.604
G1 F3600 X84.709 Y87.198
G1 F1320 X17.289 Y19.778 E402.71847
G1 X17.261 Y19.75
G1 F3600 X17.289 Y20.4
G1 F1320 X84.709 Y87.821 E407.68941
G1 X84.737 Y87.849
G1 F3600 X84.709 Y88.443
G1 F1320 X17.289 Y21.022 E412.66035
G1 X17.261 Y20.994
G1 F3600 X17.289 Y21.645
G1 F1320 X84.709 Y89.065 E417.63125
G1 X84.737 Y89.093
G1 F3600 X84.709 Y89.688
G1 F1320 X17.289 Y22.267 E422.60219
G1 X17.261 Y22.239
G1 F3600 X17.289 Y22.889
G1 F1320 X84.709 Y90.31 E427.57313
G1 X84.737 Y90.338
G1 F3600 X84.709 Y90.932
G1 F1320 X17.289 Y23.512 E432.54404
G1 X17.261 Y23.484
G1 F3600 X17.289 Y24.134
G1 F1320 X84.709 Y91.554 E437.51494
G1 X84.737 Y91.582
G1 F3600 X84.709 Y92.177
G1 F1320 X17.289 Y24.756 E442.48588
G1 X17.261 Y24.728
G1 F3600 X17.289 Y25.378
G1 F1320 X84.709 Y92.799 E447.45682
G1 X84.737 Y92.827
G1 F3600 X84.709 Y93.421
G1 F1320 X17.289 Y26.001 E452.42772
G1 X17.261 Y25.973
G1 F3600 X17.289 Y26.623
G1 F1320 X84.709 Y94.043 E457.39862
G1 X84.737 Y94.071
G1 F3600 X84.709 Y94.666
G1 F1320 X17.289 Y27.245 E462.36956
G1 X17.261 Y27.217
G1 F3600 X17.289 Y27.867
G1 F1320 X84.709 Y95.288 E467.3405
G1 X84.737 Y95.316
G1 F3600 X84.709 Y95.91
G1 F1320 X17.289 Y28.49 E472.31141
G1 X17.261 Y28.462
G1 F3600 X17.289 Y29.112
G1 F1320 X84.709 Y96.532 E477.28231
G1 X84.737 Y96.56
G1 F3600 X84.709 Y97.155
G1 F1320 X17.289 Y29.734 E482.25325
G1 X17.261 Y29.706
G1 F3600 X17.289 Y30.356
G1 F1320 X84.709 Y97.777 E487.22419
G1 X84.737 Y97.805
G1 F3600 X84.709 Y98.399
G1 F1320 X17.289 Y30.979 E492.19509
G1 X17.261 Y30.951
G1 F3600 X17.289 Y31.601
G1 F1320 X84.709 Y99.021 E497.166
G1 X84.737 Y99.049
G1 F3600 X84.709 Y99.644
G1 F1320 X17.289 Y32.223 E502.13694
G1 X17.261 Y32.195
G1 F3600 X17.289 Y32.845
G1 F1320 X84.709 Y100.266 E507.10788
G1 X84.737 Y100.294
G1 F3600 X84.709 Y100.888
G1 F1320 X17.289 Y33.468 E512.07878
G1 X17.261 Y33.44
G1 F3600 X17.289 Y34.09
G1 F1320 X84.709 Y101.51 E517.04968
G1 X84.737 Y101.538
G1 F3600 X84.709 Y102.133
G1 F1320 X17.289 Y34.712 E522.02062
G1 X17.261 Y34.684
G1 F3600 X17.289 Y35.334
G1 F1320 X84.709 Y102.755 E526.99156
G1 X84.737 Y102.783
G1 F3600 X84.709 Y103.377
G1 F1320 X17.289 Y35.957 E531.96247
G1 X17.261 Y35.929
G1 F3600 X17.289 Y36.579
G1 F1320 X84.709 Y103.999 E536.93337
G1 X84.737 Y104.027
G1 F3600 X84.709 Y104.622
G1 F1320 X17.289 Y37.201 E541.90431
G1 X17.261 Y37.173
G1 F3600 X17.289 Y37.823
G1 F1320 X84.709 Y105.244 E546.87525
G1 X84.737 Y105.272
G1 F3600 X84.709 Y105.866
G1 F1320 X17.289 Y38.446 E551.84615
G1 X17.261 Y38.418
G1 F3600 X17.289 Y39.068
G1 F1320 X84.709 Y106.488 E556.81706
G1 X84.737 Y106.516
G1 F3600 X84.709 Y107.111
G1 F1320 X17.289 Y39.69 E561.788
G1 X17.261 Y39.662
G1 F3600 X17.289 Y40.312
G1 F1320 X84.709 Y107.733 E566.75894
G1 X84.737 Y107.761
G1 F3600 X84.709 Y108.355
G1 F1320 X17.289 Y40.935 E571.72984
G1 X17.261 Y40.907
G1 F3600 X17.289 Y41.557
G1 F1320 X84.709 Y108.977 E576.70074
G1 X84.737 Y109.005
G1 F3600 X84.709 Y109.6
G1 F1320 X17.289 Y42.179 E581.67168
G1 X17.261 Y42.151
G1 F3600 X17.289 Y42.801
G1 F1320 X84.196 Y109.709 E586.6048
G1 X84.224 Y109.737
G1 F3600 X83.574 Y109.709
G1 F1320 X17.289 Y43.424 E591.49202
G1 X17.261 Y43.396
G1 F3600 X17.289 Y44.046
G1 F1320 X82.952 Y109.709 E596.33338
G1 X82.98 Y109.737
G1 F3600 X82.329 Y109.709
G1 F1320 X17.289 Y44.668 E601.12884
G1 X17.261 Y44.64
G1 F3600 X17.289 Y45.29
G1 F1320 X81.707 Y109.709 E605.87844
G1 X81.735 Y109.737
G1 F3600 X81.085 Y109.709
G1 F1320 X17.289 Y45.913 E610.58215
G1 X17.261 Y45.885
G1 F3600 X17.289 Y46.535
G1 F1320 X80.463 Y109.709 E615.23999
G1 X80.491 Y109.737
G1 F3600 X79.84 Y109.709
G1 F1320 X17.289 Y47.157 E619.85194
G1 X17.261 Y47.129
G1 F3600 X17.289 Y47.779
G1 F1320 X79.218 Y109.709 E624.41802
G1 X79.246 Y109.737
G1 F3600 X78.596 Y109.709
G1 F1320 X17.289 Y48.402 E628.93821
G1 X17.261 Y48.374
G1 F3600 X17.289 Y49.024
G1 F1320 X77.974 Y109.709 E633.41254
G1 X78.002 Y109.737
G1 F3600 X77.351 Y109.709
G1 F1320 X17.289 Y49.646 E637.84097
G1 X17.261 Y49.618
G1 F3600 X17.289 Y50.268
G1 F1320 X76.729 Y109.709 E642.22354
G1 X76.757 Y109.737
G1 F3600 X76.107 Y109.709
