M73 P0
;MINX:29.0
;MAXX:71.0
;MINY:47.0
;MAXY:73.0
;MINZ:0.0
;MAXZ:20.0
;MachineType:ENTINA TINA2
;FilamentType:PLA
;Extruder0Temperature:200
;InfillDensity:25
;FLAVOR:Marlin
;TIME:1042
;FilamentUsed:1191.2
;Layer height: 0.35

;Generated with Cura_SteamEngine 3.1
M104 T0 S215
M82 ; absolute extrusion mode
;(**** start.gcode for tina2****)
M104 S150
G28 Z
G28 X Y; Home extruder
G1 X55 Y55 F1000
G1 Z10 F200
G29
G1 Z15 F100
M107 ; Turn off fan
G90 ; Absolute positioning
M82 ; Extruder in absolute mode
M109 S215.0
G92 E0 ; Reset extruder position
G1 X90 Y6 Z0.27 F2000
G1 X20 Y6 Z0.27 E15 F1000
G92 E0 ; Reset extruder position

;LAYER_COUNT:58
;LAYER:0
M106 S255
M203 Z5
G1 F3600 X70.032 Y46.972 Z0.299
;TYPE:SKIRT
G1 F1200 X70.457 Y47.306 E0.02818
G1 X70.829 Y47.699 E0.05639
G1 X71.138 Y48.142 E0.08455
G1 X71.379 Y48.626 E0.11274
G1 X71.546 Y49.14 E0.14092
G1 X71.636 Y49.674 E0.16915
G1 X71.651 Y50.01 E0.18669
G1 X71.651 Y69.991 E1.2284
G1 X71.611 Y70.53 E1.25658
G1 X71.492 Y71.058 E1.2848
G1 X71.297 Y71.562 E1.31297
G1 X71.029 Y72.032 E1.34118
G1 X70.695 Y72.457 E1.36936
G1 X70.302 Y72.829 E1.39757
G1 X69.859 Y73.138 E1.42573
G1 X69.375 Y73.379 E1.45392
G1 X68.861 Y73.546 E1.4821
G1 X68.327 Y73.636 E1.51033
G1 X67.991 Y73.651 E1.52786
M73 P1
G1 X32.009 Y73.651 E3.40379
G1 X31.47 Y73.611 E3.43197
G1 X30.942 Y73.492 E3.46019
G1 X30.438 Y73.297 E3.48837
G1 X29.968 Y73.029 E3.51657
G1 X29.543 Y72.695 E3.54475
G1 X29.171 Y72.302 E3.57297
G1 X28.862 Y71.859 E3.60113
G1 X28.621 Y71.375 E3.62931
G1 X28.454 Y70.861 E3.65749
G1 X28.364 Y70.327 E3.68572
G1 X28.349 Y69.991 E3.70326
G1 X28.35 Y50.009 E4.74502
G1 X28.39 Y49.47 E4.7732
G1 X28.509 Y48.942 E4.80142
G1 X28.704 Y48.438 E4.8296
G1 X28.972 Y47.968 E4.8578
G1 X29.306 Y47.543 E4.88598
G1 X29.699 Y47.171 E4.9142
G1 X30.142 Y46.862 E4.94236
G1 X30.626 Y46.621 E4.97054
G1 X31.141 Y46.454 E4.99877
G1 X31.674 Y46.364 E5.02695
G1 X32.01 Y46.349 E5.04449
G1 X67.991 Y46.35 E6.92037
G1 X68.53 Y46.39 E6.94854
G1 X69.058 Y46.509 E6.97676
G1 X69.562 Y46.704 E7.00494
G1 X70.032 Y46.972 E7.03314
G1 F3600 X69.89 Y47.409
G1 F1200 X70.275 Y47.74 E7.05961
G1 X70.603 Y48.127 E7.08606
G1 X70.866 Y48.56 E7.11247
G1 X71.058 Y49.029 E7.1389
G1 X71.174 Y49.523 E7.16535
G1 X71.211 Y50.01 E7.19081
G1 X71.211 Y69.991 E8.23253
G1 X71.171 Y70.497 E8.25899
G1 X71.052 Y70.99 E8.28543
G1 X70.857 Y71.458 E8.31186
G1 X70.592 Y71.89 E8.33829
G1 X70.261 Y72.275 E8.36476
G1 X69.875 Y72.603 E8.39117
G1 X69.441 Y72.866 E8.41762
G1 X68.972 Y73.058 E8.44404
G1 X68.478 Y73.174 E8.4705
G1 X67.991 Y73.211 E8.49596
G1 X32.009 Y73.211 E10.37189
G1 X31.503 Y73.171 E10.39836
M73 P2
G1 X31.01 Y73.052 E10.4248
G1 X30.542 Y72.857 E10.45123
G1 X30.11 Y72.592 E10.47765
G1 X29.725 Y72.261 E10.50412
G1 X29.397 Y71.875 E10.53053
G1 X29.134 Y71.441 E10.55699
G1 X28.942 Y70.972 E10.58341
G1 X28.826 Y70.478 E10.60986
G1 X28.789 Y69.991 E10.63533
G1 X28.79 Y50.009 E11.67709
G1 X28.83 Y49.503 E11.70356
G1 X28.949 Y49.01 E11.73
G1 X29.144 Y48.542 E11.75643
G1 X29.409 Y48.11 E11.78285
G1 X29.74 Y47.725 E11.80932
G1 X30.127 Y47.397 E11.83577
G1 X30.56 Y47.134 E11.86218
G1 X31.029 Y46.942 E11.8886
G1 X31.523 Y46.826 E11.91506
G1 X32.01 Y46.789 E11.94052
G1 X67.991 Y46.79 E13.8164
G1 X68.497 Y46.83 E13.84286
G1 X68.99 Y46.949 E13.86931
G1 X69.458 Y47.144 E13.89574
G1 X69.89 Y47.409 E13.92216
G1 F1680 E10.92216
G1 F3600 X67.34 Y50.66
;TYPE:WALL-INNER
G1 F1680 E13.92216
G1 F1320 X67.34 Y69.34 E14.89605
G1 X52.66 Y69.34 E15.66139
G1 X52.66 Y50.66 E16.63528
G1 X67.34 Y50.66 E17.40062
G1 F3600 X67.7 Y50.3
;TYPE:WALL-OUTER
G1 F1320 X67.7 Y69.7 E18.41205
G1 X52.3 Y69.7 E19.21493
G1 X52.3 Y50.3 E20.22636
G1 X67.7 Y50.3 E21.02924
G1 F1680 E18.02924
G1 F3600 X66.91 Y51.09
;TYPE:SKIN
G1 F1680 E21.02924
G1 F1320 X66.91 Y68.91 E21.95829
G1 X53.09 Y68.91 E22.6788
G1 X53.09 Y51.09 E23.60785
G1 X66.91 Y51.09 E24.32836
G1 F3600 X66.709 Y51.775
G1 F1320 X66.224 Y51.289 E24.36415
M73 P3
G1 F3600 X65.601 Y51.289
G1 F1320 X66.709 Y52.398 E24.44588
G1 X66.737 Y52.426
G1 F3600 X66.709 Y53.02
G1 F1320 X64.979 Y51.289 E24.57347
G1 X64.951 Y51.261
G1 F3600 X64.357 Y51.289
G1 F1320 X66.709 Y53.642 E24.74693
G1 X66.737 Y53.67
G1 F3600 X66.709 Y54.264
G1 F1320 X63.735 Y51.289 E24.96624
G1 X63.707 Y51.261
G1 F3600 X63.112 Y51.289
G1 F1320 X66.709 Y54.887 E25.23148
G1 X66.737 Y54.915
G1 F3600 X66.709 Y55.509
G1 F1320 X62.49 Y51.289 E25.54259
G1 X62.462 Y51.261
G1 F3600 X61.868 Y51.289
G1 F1320 X66.709 Y56.131 E25.89955
G1 X66.737 Y56.159
G1 F3600 X66.709 Y56.753
G1 F1320 X61.246 Y51.289 E26.30238
G1 X61.218 Y51.261
G1 F3600 X60.623 Y51.289
G1 F1320 X66.709 Y57.376 E26.75114
G1 X66.737 Y57.404
G1 F3600 X66.709 Y57.998
G1 F1320 X60.001 Y51.289 E27.24576
G1 X59.973 Y51.261
G1 F3600 X59.379 Y51.289
G1 F1320 X66.709 Y58.62 E27.78624
G1 X66.737 Y58.648
G1 F3600 X66.709 Y59.242
G1 F1320 X58.757 Y51.289 E28.37258
G1 X58.729 Y51.261
G1 F3600 X58.134 Y51.289
G1 F1320 X66.709 Y59.865 E29.00486
G1 X66.737 Y59.893
G1 F3600 X66.709 Y60.487
G1 F1320 X57.512 Y51.289 E29.68299
G1 X57.484 Y51.261
G1 F3600 X56.89 Y51.289
G1 F1320 X66.709 Y61.109 E30.40699
G1 X66.737 Y61.137
G1 F3600 X66.709 Y61.731
G1 F1320 X56.268 Y51.289 E31.17684
G1 X56.24 Y51.261
G1 F3600 X55.645 Y51.289
M73 P4
G1 F1320 X66.709 Y62.354 E31.99263
G1 X66.737 Y62.382
G1 F3600 X66.709 Y62.976
G1 F1320 X55.023 Y51.289 E32.85428
G1 X54.995 Y51.261
G1 F3600 X54.401 Y51.289
G1 F1320 X66.709 Y63.598 E33.76179
G1 X66.737 Y63.626
G1 F3600 X66.709 Y64.22
G1 F1320 X53.779 Y51.289 E34.71516
G1 X53.751 Y51.261
G1 F3600 X53.289 Y51.422
G1 F1320 X66.709 Y64.843 E35.70466
G1 X66.737 Y64.871
G1 F3600 X66.709 Y65.465
G1 F1320 X53.289 Y52.045 E36.69412
G1 X53.261 Y52.017
G1 F3600 X53.289 Y52.667
G1 F1320 X66.709 Y66.087 E37.68359
G1 X66.737 Y66.115
G1 F3600 X66.709 Y66.709
G1 F1320 X53.289 Y53.289 E38.67305
G1 X53.261 Y53.261
G1 F3600 X53.289 Y53.911
G1 F1320 X66.709 Y67.332 E39.66255
G1 X66.737 Y67.36
G1 F3600 X66.709 Y67.954
G1 F1320 X53.289 Y54.534 E40.65201
G1 X53.261 Y54.506
G1 F3600 X53.289 Y55.156
G1 F1320 X66.709 Y68.576 E41.64147
G1 X66.737 Y68.604
G1 F3600 X66.22 Y68.709
G1 F1320 X53.289 Y55.778 E42.59488
G1 X53.261 Y55.75
G1 F3600 X53.289 Y56.4
G1 F1320 X65.598 Y68.709 E43.50243
G1 X65.626 Y68.737
G1 F3600 X64.976 Y68.709
G1 F1320 X53.289 Y57.023 E44.36408
G1 X53.261 Y56.995
G1 F3600 X53.289 Y57.645
G1 F1320 X64.353 Y68.709 E45.17983
G1 X64.381 Y68.737
G1 F3600 X63.731 Y68.709
G1 F1320 X53.289 Y58.267 E45.94972
G1 X53.261 Y58.239
G1 F3600 X53.289 Y58.889
G1 F1320 X63.109 Y68.709 E46.67376
M73 P5
G1 X63.137 Y68.737
G1 F3600 X62.487 Y68.709
G1 F1320 X53.289 Y59.512 E47.35189
G1 X53.261 Y59.484
G1 F3600 X53.289 Y60.134
G1 F1320 X61.864 Y68.709 E47.98413
G1 X61.892 Y68.737
G1 F3600 X61.242 Y68.709
G1 F1320 X53.289 Y60.756 E48.57051
G1 X53.261 Y60.728
G1 F3600 X53.289 Y61.378
G1 F1320 X60.62 Y68.709 E49.11102
G1 X60.648 Y68.737
G1 F3600 X59.998 Y68.709
G1 F1320 X53.289 Y62.001 E49.60564
G1 X53.261 Y61.973
G1 F3600 X53.289 Y62.623
G1 F1320 X59.375 Y68.709 E50.05437
G1 X59.403 Y68.737
G1 F3600 X58.753 Y68.709
G1 F1320 X53.289 Y63.245 E50.45723
G1 X53.261 Y63.217
G1 F3600 X53.289 Y63.868
G1 F1320 X58.131 Y68.709 E50.8142
G1 X58.159 Y68.737
G1 F3600 X57.508 Y68.709
G1 F1320 X53.289 Y64.49 E51.12526
G1 X53.261 Y64.462
G1 F3600 X53.289 Y65.112
G1 F1320 X56.886 Y68.709 E51.39047
G1 X56.914 Y68.737
G1 F3600 X56.264 Y68.709
G1 F1320 X53.289 Y65.734 E51.60982
G1 X53.261 Y65.706
G1 F3600 X53.289 Y66.357
G1 F1320 X55.642 Y68.709 E51.78327
G1 X55.67 Y68.737
G1 F3600 X55.019 Y68.709
G1 F1320 X53.289 Y66.979 E51.91082
G1 X53.261 Y66.951
G1 F3600 X53.289 Y67.601
G1 F1320 X54.397 Y68.709 E51.99252
G1 X54.425 Y68.737
G1 F3600 X53.775 Y68.709
G1 F1320 X53.289 Y68.223 E52.02835
G1 F1680 E49.02835
G1 F3600 X47.34 Y69.34
;TYPE:WALL-INNER
G1 F1680 E52.02835
M73 P6
G1 F1320 X32.66 Y69.34 E52.7937
G1 X32.66 Y50.66 E53.76758
G1 X47.34 Y50.66 E54.53293
G1 X47.34 Y69.34 E55.50682
G1 F3600 X47.7 Y69.7
;TYPE:WALL-OUTER
G1 F1320 X32.3 Y69.7 E56.3097
G1 X32.3 Y50.3 E57.32112
G1 X47.7 Y50.3 E58.12401
G1 X47.7 Y69.7 E59.13543
G1 F1680 E56.13543
G1 F3600 X46.91 Y68.91
;TYPE:SKIN
G1 F1680 E59.13543
G1 F1320 X33.09 Y68.91 E59.85594
G1 X33.09 Y51.09 E60.78499
G1 X46.91 Y51.09 E61.5055
G1 X46.91 Y68.91 E62.43455
G1 F1680 E59.43455
G1 F3600 X33.862 Y68.708
G1 F1680 E62.43455
G1 F1320 X33.289 Y68.136 E62.47676
G1 F3600 X33.289 Y67.513
G1 F1320 X34.484 Y68.708 E62.56487
G1 X34.512 Y68.736
G1 F3600 X35.107 Y68.708
G1 F1320 X33.289 Y66.891 E62.69887
G1 X33.261 Y66.863
G1 F3600 X33.289 Y66.269
G1 F1320 X35.729 Y68.708 E62.87874
G1 X35.757 Y68.736
G1 F3600 X36.351 Y68.708
G1 F1320 X33.289 Y65.647 E63.10446
G1 X33.261 Y65.619
G1 F3600 X33.289 Y65.024
G1 F1320 X36.973 Y68.708 E63.37609
G1 X37.001 Y68.736
G1 F3600 X37.596 Y68.708
G1 F1320 X33.289 Y64.402 E63.69361
G1 X33.261 Y64.374
G1 F3600 X33.289 Y63.78
G1 F1320 X38.218 Y68.708 E64.05699
G1 X38.246 Y68.736
G1 F3600 X38.84 Y68.708
G1 F1320 X33.289 Y63.158 E64.46623
G1 X33.261 Y63.13
G1 F3600 X33.289 Y62.535
G1 F1320 X39.462 Y68.708 E64.92137
G1 X39.49 Y68.736
M73 P7
G1 F3600 X40.085 Y68.708
G1 F1320 X33.289 Y61.913 E65.4224
G1 X33.261 Y61.885
G1 F3600 X33.289 Y61.291
G1 F1320 X40.707 Y68.708 E65.9693
G1 X40.735 Y68.736
G1 F3600 X41.329 Y68.708
G1 F1320 X33.289 Y60.669 E66.56205
G1 X33.261 Y60.641
G1 F3600 X33.289 Y60.046
G1 F1320 X41.951 Y68.708 E67.2007
G1 X41.979 Y68.736
G1 F3600 X42.574 Y68.708
G1 F1320 X33.289 Y59.424 E67.88525
G1 X33.261 Y59.396
G1 F3600 X33.289 Y58.802
G1 F1320 X43.196 Y68.708 E68.61566
G1 X43.224 Y68.736
G1 F3600 X43.818 Y68.708
G1 F1320 X33.289 Y58.18 E69.39193
G1 X33.261 Y58.152
G1 F3600 X33.289 Y57.557
G1 F1320 X44.44 Y68.708 E70.2141
G1 X44.468 Y68.736
G1 F3600 X45.063 Y68.708
G1 F1320 X33.289 Y56.935 E71.08217
G1 X33.261 Y56.907
G1 F3600 X33.289 Y56.313
G1 F1320 X45.685 Y68.708 E71.99609
G1 X45.713 Y68.736
G1 F3600 X46.307 Y68.708
G1 F1320 X33.289 Y55.691 E72.95588
G1 X33.261 Y55.663
G1 F3600 X33.289 Y55.068
G1 F1320 X46.71 Y68.488 E73.94538
G1 X46.738 Y68.516
G1 F3600 X46.71 Y67.866
G1 F1320 X33.289 Y54.446 E74.93487
G1 X33.261 Y54.418
G1 F3600 X33.289 Y53.824
G1 F1320 X46.71 Y67.244 E75.92437
G1 X46.738 Y67.272
G1 F3600 X46.71 Y66.622
G1 F1320 X33.289 Y53.202 E76.91387
G1 X33.261 Y53.174
G1 F3600 X33.289 Y52.579
G1 F1320 X46.71 Y65.999 E77.90337
G1 X46.738 Y66.027
G1 F3600 X46.71 Y65.377
M73 P8
G1 F1320 X33.289 Y51.957 E78.89287
G1 X33.261 Y51.929
G1 F3600 X33.289 Y51.335
G1 F1320 X46.71 Y64.755 E79.88237
G1 X46.738 Y64.783
G1 F3600 X46.71 Y64.133
G1 F1320 X33.866 Y51.289 E80.82936
G1 X33.838 Y51.261
G1 F3600 X34.488 Y51.289
G1 F1320 X46.71 Y63.51 E81.73046
G1 X46.738 Y63.538
G1 F3600 X46.71 Y62.888
G1 F1320 X35.11 Y51.289 E82.58569
G1 X35.082 Y51.261
G1 F3600 X35.732 Y51.289
G1 F1320 X46.71 Y62.266 E83.39507
G1 X46.738 Y62.294
G1 F3600 X46.71 Y61.644
G1 F1320 X36.355 Y51.289 E84.15855
G1 X36.327 Y51.261
G1 F3600 X36.977 Y51.289
G1 F1320 X46.71 Y61.021 E84.87613
G1 X46.738 Y61.049
G1 F3600 X46.71 Y60.399
G1 F1320 X37.599 Y51.289 E85.54785
G1 X37.571 Y51.261
G1 F3600 X38.221 Y51.289
G1 F1320 X46.71 Y59.777 E86.17371
G1 X46.738 Y59.805
G1 F3600 X46.71 Y59.155
G1 F1320 X38.844 Y51.289 E86.75367
G1 X38.816 Y51.261
G1 F3600 X39.466 Y51.289
M104 T0 S200
G1 F1320 X46.71 Y58.532 E87.28774
G1 X46.738 Y58.56
G1 F3600 X46.71 Y57.91
G1 F1320 X40.088 Y51.289 E87.77594
G1 X40.06 Y51.261
G1 F3600 X40.71 Y51.289
G1 F1320 X46.71 Y57.288 E88.21829
G1 X46.738 Y57.316
G1 F3600 X46.71 Y56.666
G1 F1320 X41.333 Y51.289 E88.61474
G1 X41.305 Y51.261
G1 F3600 X41.955 Y51.289
G1 F1320 X46.71 Y56.043 E88.96529
G1 X46.738 Y56.071
G1 F3600 X46.71 Y55.421
M73 P9
G1 F1320 X42.577 Y51.289 E89.26998
G1 X42.549 Y51.261
G1 F3600 X43.199 Y51.289
G1 F1320 X46.71 Y54.799 E89.52881
G1 X46.738 Y54.827
G1 F3600 X46.71 Y54.177
G1 F1320 X43.822 Y51.289 E89.74174
G1 X43.794 Y51.261
G1 F3600 X44.444 Y51.289
G1 F1320 X46.71 Y53.554 E89.90878
G1 X46.738 Y53.582
G1 F3600 X46.71 Y52.932
G1 F1320 X45.066 Y51.289 E90.02996
G1 X45.038 Y51.261
G1 F3600 X45.688 Y51.289
G1 F1320 X46.71 Y52.31 E90.10527
G1 X46.738 Y52.338
G1 F3600 X46.71 Y51.688
G1 F1320 X46.311 Y51.289 E90.13469
G1 F1680 E87.13469
G1 F3600 X67.4 Y50.6
;TIME_ELAPSED:85.221725
;LAYER:1
G1 F3750 X67.4 Y50.6 Z0.648
;TYPE:WALL-INNER
G1 F1680 E90.13469
G1 F1410 X67.4 Y69.4 E91.17424
G1 X52.6 Y69.4 E91.9926
G1 X52.6 Y50.6 E93.03215
G1 X67.4 Y50.6 E93.85051
G1 F3750 X67.72 Y50.28
;TYPE:WALL-OUTER
G1 F1260 X67.72 Y69.72 E94.92545
G1 X52.28 Y69.72 E95.7792
G1 X52.28 Y50.28 E96.85414
G1 X67.72 Y50.28 E97.70789
G1 F1680 E94.70789
G1 F3750 X67.01 Y50.99
;TYPE:SKIN
G1 F1680 E97.70789
G1 F1560 X67.01 Y69.01 E98.70431
G1 X52.99 Y69.01 E99.47954
G1 X52.99 Y50.99 E100.47596
G1 X67.01 Y50.99 E101.25119
G1 F1680 E98.25119
G1 F3750 X53.17 Y51.481
G1 F1680 E101.25119
G1 F1560 X53.482 Y51.169 E101.27559
G1 F3750 X54.047 Y51.169
M73 P10
G1 F1560 X53.17 Y52.047 E101.34421
G1 X53.142 Y52.075
G1 F3750 X53.17 Y52.612
G1 F1560 X54.613 Y51.169 E101.45705
G1 X54.641 Y51.141
G1 F3750 X55.179 Y51.169
G1 F1560 X53.17 Y53.178 E101.61415
G1 X53.142 Y53.206
G1 F3750 X53.17 Y53.744
G1 F1560 X55.744 Y51.169 E101.81547
G1 X55.772 Y51.141
G1 F3750 X56.31 Y51.169
G1 F1560 X53.17 Y54.31 E102.06106
G1 X53.142 Y54.338
G1 F3750 X53.17 Y54.875
G1 F1560 X56.876 Y51.169 E102.35086
G1 X56.904 Y51.141
G1 F3750 X57.441 Y51.169
G1 F1560 X53.17 Y55.441 E102.68489
G1 X53.142 Y55.469
G1 F3750 X53.17 Y56.007
G1 F1560 X58.007 Y51.169 E103.06318
G1 X58.035 Y51.141
G1 F3750 X58.573 Y51.169
G1 F1560 X53.17 Y56.572 E103.48569
G1 X53.142 Y56.6
G1 F3750 X53.17 Y57.138
G1 F1560 X59.138 Y51.169 E103.95242
G1 X59.166 Y51.141
G1 F3750 X59.704 Y51.169
G1 F1560 X53.17 Y57.704 E104.46341
G1 X53.142 Y57.732
G1 F3750 X53.17 Y58.269
G1 F1560 X60.27 Y51.169 E105.01862
G1 X60.298 Y51.141
G1 F3750 X60.835 Y51.169
G1 F1560 X53.17 Y58.835 E105.61805
G1 X53.142 Y58.863
G1 F3750 X53.17 Y59.401
G1 F1560 X61.401 Y51.169 E106.26175
G1 X61.429 Y51.141
G1 F3750 X61.967 Y51.169
G1 F1560 X53.17 Y59.966 E106.94966
G1 X53.142 Y59.994
G1 F3750 X53.17 Y60.532
G1 F1560 X62.532 Y51.169 E107.6818
G1 X62.56 Y51.141
G1 F3750 X63.098 Y51.169
G1 F1560 X53.17 Y61.098 E108.4582
M73 P11
G1 X53.142 Y61.126
G1 F3750 X53.17 Y61.663
G1 F1560 X63.664 Y51.169 E109.27882
G1 X63.692 Y51.141
G1 F3750 X64.23 Y51.169
G1 F1560 X53.17 Y62.229 E110.1437
G1 X53.142 Y62.257
G1 F3750 X53.17 Y62.795
G1 F1560 X64.795 Y51.169 E111.0528
G1 X64.823 Y51.141
G1 F3750 X65.361 Y51.169
G1 F1560 X53.17 Y63.361 E112.00616
G1 X53.142 Y63.389
G1 F3750 X53.17 Y63.926
G1 F1560 X65.927 Y51.169 E113.00374
G1 X65.955 Y51.141
G1 F3750 X66.492 Y51.169
G1 F1560 X53.17 Y64.492 E114.04555
G1 X53.142 Y64.52
G1 F3750 X53.17 Y65.058
G1 F1560 X66.829 Y51.398 E115.11371
G1 X66.857 Y51.37
G1 F3750 X66.829 Y51.964
G1 F1560 X53.17 Y65.623 E116.18183
G1 X53.142 Y65.651
G1 F3750 X53.17 Y66.189
G1 F1560 X66.829 Y52.53 E117.24994
G1 X66.857 Y52.502
G1 F3750 X66.829 Y53.095
G1 F1560 X53.17 Y66.755 E118.3181
G1 X53.142 Y66.783
G1 F3750 X53.17 Y67.32
G1 F1560 X66.829 Y53.661 E119.38622
G1 X66.857 Y53.633
G1 F3750 X66.829 Y54.227
G1 F1560 X53.17 Y67.886 E120.45434
G1 X53.142 Y67.914
G1 F3750 X53.17 Y68.452
G1 F1560 X66.829 Y54.792 E121.5225
G1 X66.857 Y54.764
G1 F3750 X66.829 Y55.358
G1 F1560 X53.358 Y68.829 E122.57592
G1 X53.33 Y68.857
G1 F3750 X53.923 Y68.829
G1 F1560 X66.829 Y55.924 E123.58511
G1 X66.857 Y55.896
G1 F3750 X66.829 Y56.49
G1 F1560 X54.489 Y68.829 E124.55005
G1 X54.461 Y68.857
M73 P12
G1 F3750 X55.055 Y68.829
G1 F1560 X66.829 Y57.055 E125.47076
G1 X66.857 Y57.027
G1 F3750 X66.829 Y57.621
G1 F1560 X55.621 Y68.829 E126.34721
G1 X55.593 Y68.857
G1 F3750 X56.186 Y68.829
G1 F1560 X66.829 Y58.187 E127.17945
G1 X66.857 Y58.159
G1 F3750 X66.829 Y58.752
G1 F1560 X56.752 Y68.829 E127.96746
G1 X56.724 Y68.857
G1 F3750 X57.318 Y68.829
G1 F1560 X66.829 Y59.318 E128.71121
G1 X66.857 Y59.29
G1 F3750 X66.829 Y59.884
G1 F1560 X57.883 Y68.829 E129.41073
G1 X57.855 Y68.857
G1 F3750 X58.449 Y68.829
G1 F1560 X66.829 Y60.449 E130.06604
G1 X66.857 Y60.421
G1 F3750 X66.829 Y61.015
G1 F1560 X59.015 Y68.829 E130.67709
