M73 P0
;MINX:27.5
;MAXX:72.5
;MINY:20.0
;MAXY:100.0
;MINZ:0.0
;MAXZ:11.3
;MachineType:ENTINA TINA2
;FilamentType:PLA
;Extruder0Temperature:200
;InfillDensity:10
;FLAVOR:Marlin
;TIME:1937
;FilamentUsed:2502.0
;Layer height: 0.35

;Generated with Cura_SteamEngine 3.1
M104 T0 S215
M82 ; absolute extrusion mode
;(**** start.gcode for tina2****)
M104 S150
G28 Z
G28 X Y; Home extruder
G1 X55 Y55 F1000
G1 Z10 F200
G29
G1 Z15 F100
M107 ; Turn off fan
G90 ; Absolute positioning
M82 ; Extruder in absolute mode
M109 S215.0
G92 E0 ; Reset extruder position
G1 X90 Y6 Z0.27 F2000
G1 X20 Y6 Z0.27 E15 F1000
G92 E0 ; Reset extruder position

;LAYER_COUNT:29
;LAYER:-5
M107
M203 Z5
G1 F3600 X71.148 Y22.211 Z0.349
G1 F1200 X71.312 Y22.439 E0.03097
G1 X71.474 Y22.698 E0.06466
G1 X71.602 Y22.937 E0.09456
G1 X71.729 Y23.212 E0.12796
G1 X71.831 Y23.473 E0.15886
G1 X71.926 Y23.776 E0.19388
G1 X71.98 Y23.997 E0.21896
G1 X72.04 Y24.353 E0.25878
G1 X72.09 Y24.907 E0.32012
G1 X72.1 Y25.129 E0.34462
G1 X72.096 Y95.05 E8.05509
G1 X72.072 Y95.427 E8.09675
G1 X72.035 Y95.725 E8.12986
G1 X71.98 Y96.009 E8.16176
G1 X71.904 Y96.3 E8.19493
G1 X71.82 Y96.558 E8.22485
G1 X71.709 Y96.837 E8.25796
G1 X71.587 Y97.095 E8.28943
G1 X71.444 Y97.353 E8.32196
G1 X71.292 Y97.592 E8.35319
G1 X71.119 Y97.827 E8.38537
G1 X70.938 Y98.044 E8.41653
G1 X70.724 Y98.27 E8.45085
G1 X70.519 Y98.46 E8.48168
G1 X70.289 Y98.648 E8.51443
G1 X70.061 Y98.812 E8.54541
G1 X69.802 Y98.974 E8.57909
G1 X69.563 Y99.102 E8.60899
G1 X69.288 Y99.229 E8.64239
G1 X69.027 Y99.331 E8.6733
G1 X68.724 Y99.426 E8.70831
G1 X68.503 Y99.48 E8.7334
G1 X68.147 Y99.54 E8.77321
G1 X67.593 Y99.59 E8.83455
G1 X67.371 Y99.6 E8.85906
G1 X64.576 Y99.6 E9.16727
G1 X64.073 Y99.572 E9.22283
G1 X63.775 Y99.535 E9.25594
G1 X63.491 Y99.48 E9.28784
G1 X63.2 Y99.404 E9.32101
G1 X62.94 Y99.319 E9.35117
G1 X62.663 Y99.209 E9.38404
G1 X62.404 Y99.086 E9.41565
G1 X62.147 Y98.944 E9.44803
G1 X61.908 Y98.792 E9.47927
G1 X61.661 Y98.61 E9.5131
G1 X61.46 Y98.441 E9.54206
G1 X61.227 Y98.221 E9.5774
G1 X61.04 Y98.019 E9.60775
G1 X60.848 Y97.784 E9.64122
G1 X60.688 Y97.561 E9.67148
G1 X60.526 Y97.302 E9.70517
G1 X60.398 Y97.063 E9.73507
G1 X60.271 Y96.788 E9.76847
G1 X60.169 Y96.527 E9.79937
G1 X60.074 Y96.224 E9.83439
G1 X60.018 Y95.995 E9.86038
G1 X59.96 Y95.647 E9.89929
G1 X59.91 Y95.093 E9.96063
G1 X59.9 Y94.871 E9.98513
G1 X59.9 Y53.987 E14.49358
G1 X59.858 Y53.319 E14.56738
G1 X59.729 Y52.648 E14.64273
G1 X59.516 Y51.999 E14.71806
G1 X59.224 Y51.382 E14.79333
G1 X58.856 Y50.807 E14.86861
G1 X58.418 Y50.283 E14.94392
G1 X57.918 Y49.819 E15.01914
G1 X57.362 Y49.42 E15.09461
G1 X56.762 Y49.096 E15.16981
G1 X56.126 Y48.85 E15.245
G1 X55.457 Y48.684 E15.32101
G1 X54.518 Y48.6 E15.42497
G1 X45.487 Y48.6 E16.42086
G1 X44.819 Y48.642 E16.49467
G1 X44.148 Y48.771 E16.57002
G1 X43.499 Y48.984 E16.64534
G1 X42.882 Y49.276 E16.72061
G1 X42.307 Y49.644 E16.7959
G1 X41.783 Y50.082 E16.87121
G1 X41.319 Y50.582 E16.94643
G1 X40.92 Y51.138 E17.02189
G1 X40.596 Y51.738 E17.09709
G1 X40.35 Y52.374 E17.17229
G1 X40.184 Y53.043 E17.2483
G1 X40.1 Y53.982 E17.35226
G1 X40.096 Y95.05 E21.88099
G1 X40.072 Y95.427 E21.92265
G1 X40.035 Y95.725 E21.95576
G1 X39.98 Y96.009 E21.98766
G1 X39.904 Y96.3 E22.02083
G1 X39.82 Y96.558 E22.05075
G1 X39.709 Y96.837 E22.08386
G1 X39.587 Y97.095 E22.11533
G1 X39.444 Y97.353 E22.14786
G1 X39.292 Y97.592 E22.17909
G1 X39.119 Y97.827 E22.21127
G1 X38.938 Y98.044 E22.24243
G1 X38.724 Y98.27 E22.27676
G1 X38.519 Y98.46 E22.30758
G1 X38.289 Y98.648 E22.34034
G1 X38.061 Y98.812 E22.37131
G1 X37.802 Y98.974 E22.40499
G1 X37.563 Y99.102 E22.43489
G1 X37.288 Y99.229 E22.46829
G1 X37.027 Y99.331 E22.4992
G1 X36.724 Y99.426 E22.53421
G1 X36.503 Y99.48 E22.5593
G1 X36.147 Y99.54 E22.59911
G1 X35.593 Y99.59 E22.66045
G1 X35.371 Y99.6 E22.68496
G1 X32.45 Y99.596 E23.00707
G1 X32.073 Y99.572 E23.04873
G1 X31.775 Y99.535 E23.08184
G1 X31.491 Y99.48 E23.11374
G1 X31.2 Y99.404 E23.14691
G1 X30.94 Y99.319 E23.17707
G1 X30.663 Y99.209 E23.20994
M73 P1
G1 X30.404 Y99.086 E23.24155
G1 X30.147 Y98.944 E23.27393
G1 X29.908 Y98.792 E23.30517
G1 X29.661 Y98.61 E23.339
G1 X29.46 Y98.441 E23.36796
G1 X29.227 Y98.221 E23.4033
G1 X29.04 Y98.019 E23.43365
G1 X28.848 Y97.784 E23.46712
G1 X28.688 Y97.561 E23.49738
G1 X28.526 Y97.302 E23.53107
G1 X28.398 Y97.063 E23.56097
G1 X28.271 Y96.788 E23.59437
G1 X28.169 Y96.527 E23.62527
G1 X28.074 Y96.224 E23.66029
G1 X28.018 Y95.995 E23.68628
G1 X27.96 Y95.647 E23.72519
G1 X27.91 Y95.093 E23.78653
G1 X27.9 Y94.871 E23.81103
G1 X27.904 Y39.95 E29.86739
G1 X27.928 Y39.573 E29.90905
G1 X27.965 Y39.275 E29.94216
G1 X28.02 Y38.991 E29.97406
G1 X28.096 Y38.7 E30.00723
G1 X28.18 Y38.442 E30.03715
G1 X28.291 Y38.163 E30.07026
G1 X28.413 Y37.905 E30.10173
G1 X28.559 Y37.642 E30.1349
G1 X28.708 Y37.408 E30.16549
G1 X28.888 Y37.164 E30.19893
G1 X29.064 Y36.954 E30.22915
G1 X29.46 Y36.413 E30.30308
G1 X29.792 Y35.816 E30.37841
G1 X30.045 Y35.182 E30.45368
G1 X30.217 Y34.521 E30.529
G1 X30.303 Y33.843 E30.60437
G1 X30.303 Y33.161 E30.67957
G1 X30.218 Y32.484 E30.75481
G1 X30.047 Y31.823 E30.8301
G1 X29.794 Y31.187 E30.90558
G1 X29.463 Y30.591 E30.98076
G1 X29.1 Y30.09 E31.04899
G1 X28.861 Y29.799 E31.09051
G1 X28.688 Y29.558 E31.12323
G1 X28.526 Y29.299 E31.15692
G1 X28.398 Y29.06 E31.18681
G1 X28.271 Y28.785 E31.22022
G1 X28.169 Y28.524 E31.25112
G1 X28.074 Y28.221 E31.28613
G1 X28.02 Y28 E31.31122
G1 X27.96 Y27.644 E31.35103
G1 X27.91 Y27.09 E31.41237
G1 X27.9 Y26.868 E31.43688
G1 X27.904 Y24.95 E31.64838
G1 X27.928 Y24.573 E31.69004
G1 X27.965 Y24.275 E31.72316
G1 X28.02 Y23.991 E31.75506
G1 X28.096 Y23.7 E31.78822
G1 X28.18 Y23.442 E31.81814
G1 X28.291 Y23.163 E31.85125
G1 X28.413 Y22.905 E31.88273
G1 X28.559 Y22.642 E31.9159
G1 X28.708 Y22.408 E31.94649
G1 X28.89 Y22.161 E31.98032
G1 X29.059 Y21.96 E32.00928
G1 X29.279 Y21.727 E32.04462
G1 X29.481 Y21.54 E32.07497
G1 X29.711 Y21.352 E32.10773
G1 X29.939 Y21.188 E32.1387
G1 X30.198 Y21.026 E32.17239
G1 X30.437 Y20.898 E32.20229
G1 X30.712 Y20.771 E32.23569
G1 X30.973 Y20.669 E32.26659
G1 X31.276 Y20.574 E32.30161
G1 X31.497 Y20.52 E32.32669
G1 X31.853 Y20.46 E32.36651
G1 X32.407 Y20.41 E32.42785
G1 X32.629 Y20.4 E32.45235
G1 X67.55 Y20.404 E36.30323
G1 X67.927 Y20.428 E36.34489
G1 X68.225 Y20.465 E36.378
G1 X68.509 Y20.52 E36.4099
G1 X68.8 Y20.596 E36.44307
G1 X69.058 Y20.68 E36.47299
G1 X69.337 Y20.791 E36.5061
G1 X69.595 Y20.913 E36.53757
G1 X69.853 Y21.056 E36.5701
G1 X70.092 Y21.208 E36.60133
G1 X70.339 Y21.39 E36.63517
G1 X70.54 Y21.559 E36.66412
G1 X70.773 Y21.779 E36.69946
G1 X70.96 Y21.981 E36.72982
G1 X71.148 Y22.211 E36.76258
G1 F1680 E33.76258
G1 F3600 X70.4 Y21.442
G1 F1680 E36.76258
G1 F1200 X70.4 Y98.558 E45.26646
G1 F1680 E42.26646
G1 F3600 X68.8 Y99.403
G1 F1680 E45.26646
G1 F1200 X68.8 Y20.596 E53.95682
G1 F1680 E50.95682
G1 F3600 X67.2 Y20.404
G1 F1680 E53.95682
G1 F1200 X67.2 Y99.6 E62.69008
G1 F1680 E59.69008
G1 F3600 X65.6 Y99.6
G1 F1680 E62.69008
G1 F1200 X65.6 Y20.404 E71.42334
G1 F1680 E68.42334
G1 F3600 X64 Y20.404
G1 F1680 E71.42334
G1 F1200 X64 Y99.562 E80.15241
G1 F1680 E77.15241
G1 F3600 X62.4 Y99.083
G1 F1680 E80.15241
G1 F1200 X62.4 Y20.404 E88.82865
G1 F1680 E85.82865
G1 F3600 X60.8 Y20.404
G1 F1680 E88.82865
G1 F1200 X60.8 Y97.717 E97.35427
G1 F1680 E94.35427
G1 F3600 X72 Y95.906
G1 F1680 E97.35427
G1 F1200 X72 Y24.116 E105.27084
G1 F1680 E102.27084
G1 F3600 X59.2 Y20.404
G1 F1680 E105.27084
G1 F1200 X59.2 Y51.344 E108.68271
G1 F1680 E105.68271
G1 F3600 X57.6 Y49.59
G1 F1680 E108.68271
G1 F1200 X57.6 Y20.403 E111.90128
G1 F1680 E108.90128
G1 F3600 X56 Y20.403
G1 F1680 E111.90128
G1 F1200 X56 Y48.818 E115.03471
G1 F1680 E112.03471
G1 F3600 X54.4 Y48.6
G1 F1680 E115.03471
G1 F1200 X54.4 Y20.403 E118.14411
G1 F1680 E115.14411
G1 F3600 X52.8 Y20.403
G1 F1680 E118.14411
G1 F1200 X52.8 Y48.6 E121.2535
G1 F1680 E118.2535
G1 F3600 X51.2 Y48.6
G1 F1680 E121.2535
M73 P2
G1 F1200 X51.2 Y20.403 E124.3629
G1 F1680 E121.3629
G1 F3600 X49.6 Y20.402
G1 F1680 E124.3629
G1 F1200 X49.6 Y48.6 E127.47241
G1 F1680 E124.47241
G1 F3600 X48 Y48.6
G1 F1680 E127.47241
G1 F1200 X48 Y20.402 E130.58191
G1 F1680 E127.58191
G1 F3600 X46.4 Y20.402
G1 F1680 E130.58191
G1 F1200 X46.4 Y48.6 E133.69142
G1 F1680 E130.69142
G1 F3600 X44.8 Y48.646
G1 F1680 E133.69142
G1 F1200 X44.8 Y20.402 E136.80599
G1 F1680 E133.80599
G1 F3600 X43.2 Y20.402
G1 F1680 E136.80599
G1 F1200 X43.2 Y49.126 E139.9735
G1 F1680 E136.9735
G1 F3600 X41.6 Y50.28
G1 F1680 E139.9735
G1 F1200 X41.6 Y20.402 E143.26827
G1 F1680 E140.26827
G1 F3600 X40 Y20.401
G1 F1680 E143.26827
G1 F1200 X40 Y95.906 E151.59451
G1 F1680 E148.59451
G1 F3600 X38.4 Y98.558
G1 F1680 E151.59451
G1 F1200 X38.4 Y20.401 E160.21319
G1 F1680 E157.21319
G1 F3600 X36.8 Y20.401
G1 F1680 E160.21319
G1 F1200 X36.8 Y99.403 E168.92506
G1 F1680 E165.92506
G1 F3600 X35.2 Y99.599
G1 F1680 E168.92506
G1 F1200 X35.2 Y20.401 E177.65853
G1 F1680 E174.65853
G1 F3600 X33.6 Y20.401
G1 F1680 E177.65853
G1 F1200 X33.6 Y99.597 E186.39179
G1 F1680 E183.39179
G1 F3600 X32 Y99.562
G1 F1680 E186.39179
G1 F1200 X32 Y20.446 E195.11623
G1 F1680 E192.11623
G1 F3600 X30.4 Y20.917
G1 F1680 E195.11623
G1 F1200 X30.4 Y99.083 E203.7359
G1 F1680 E200.7359
G1 F3600 X28.8 Y97.717
M104 T0 S200
G1 F1680 E203.7359
G1 F1200 X28.8 Y37.283 E210.4002
G1 F1680 E207.4002
G1 F3600 X28.8 Y29.714
G1 F1680 E210.4002
G1 F1200 X28.8 Y22.283 E211.21965
G1 F1680 E208.21965
G1 F3600 X71.186 Y22.176
;TIME_ELAPSED:104.373064
;LAYER:-4
G1 X71.186 Y22.176 Z0.619
;TYPE:SUPPORT
G1 F1680 E211.21965
G1 F1980 X71.351 Y22.408 E211.24087
G1 X71.518 Y22.675 E211.26434
G1 X71.641 Y22.905 E211.28379
G1 X71.781 Y23.204 E211.3084
G1 X71.875 Y23.449 E211.32796
G1 F3600 X71.904 Y23.538
G1 F1980 X68.962 Y20.595 E211.63815
G1 X69.092 Y20.638 E211.64835
G1 X69.348 Y20.74 E211.6689
G1 X69.625 Y20.871 E211.69174
G1 X69.876 Y21.01 E211.71312
G1 X70.111 Y21.16 E211.73391
G1 X70.376 Y21.355 E211.75843
G1 X70.574 Y21.522 E211.77774
G1 X70.806 Y21.742 E211.80157
G1 X70.999 Y21.95 E211.82272
G1 X71.186 Y22.176 E211.84459
G1 F1680 E208.84459
G1 F3600 X71.904 Y23.538
G1 F1680 E211.84459
G1 F1980 X71.971 Y23.752 E211.8613
G1 X72.029 Y23.99 E211.87956
G1 X72.088 Y24.342 E211.90617
G1 X72.139 Y24.905 E211.94831
G1 X72.146 Y25.053 E211.95935
G1 X67.446 Y20.353 E212.45482
G1 X66.173 Y20.353 E212.54971
G1 X72.149 Y26.329 E213.17968
G1 X72.149 Y27.601 E213.2745
G1 X64.901 Y20.353 E214.03857
G1 X63.628 Y20.353 E214.13346
G1 X72.149 Y28.874 E215.03172
G1 X72.149 Y30.147 E215.12661
G1 X62.355 Y20.353 E216.15908
G1 X61.082 Y20.352 E216.25397
G1 X72.149 Y31.42 E217.42068
G1 X72.149 Y32.693 E217.51557
G1 X59.809 Y20.352 E218.81648
G1 X58.536 Y20.352 E218.91137
G1 X72.149 Y33.965 E220.34642
G1 X72.149 Y35.238 E220.44131
G1 X57.263 Y20.352 E222.01056
G1 X55.99 Y20.352 E222.10545
G1 X72.149 Y36.511 E223.80889
G1 X72.149 Y37.784 E223.90379
G1 X54.717 Y20.351 E225.74148
G1 X53.444 Y20.351 E225.83637
G1 X72.149 Y39.057 E227.80826
G1 X72.149 Y40.329 E227.90308
G1 X52.171 Y20.351 E230.00911
G1 X50.898 Y20.351 E230.10401
G1 X72.149 Y41.602 E232.34424
G1 X72.148 Y42.874 E232.43905
G1 X49.625 Y20.351 E234.81338
G1 X48.352 Y20.351 E234.90827
G1 X72.148 Y44.147 E237.41679
G1 X72.148 Y45.42 E237.51168
G1 X47.079 Y20.351 E240.1544
G1 X45.807 Y20.351 E240.24921
G1 X72.148 Y46.693 E243.02607
G1 X72.148 Y47.965 E243.12089
G1 X44.534 Y20.351 E246.03189
G1 X43.26 Y20.35 E246.12686
G1 X72.148 Y49.238 E249.17217
G1 X72.148 Y50.511 E249.26706
G1 X41.988 Y20.35 E252.44651
G1 X40.715 Y20.35 E252.5414
G1 X72.148 Y51.784 E255.85505
G1 X72.148 Y53.057 E255.94994
G1 X39.442 Y20.35 E259.39778
G1 X38.168 Y20.349 E259.49275
G1 X72.148 Y54.329 E263.07484
G1 X72.148 Y55.602 E263.16974
G1 X36.896 Y20.349 E266.88597
G1 X35.623 Y20.349 E266.98086
G1 X72.148 Y56.875 E270.8313
G1 X72.148 Y58.148 E270.92619
G1 X34.35 Y20.349 E274.91082
M73 P3
G1 X33.077 Y20.349 E275.00571
G1 X72.148 Y59.421 E279.12454
G1 X72.148 Y60.693 E279.21936
G1 X31.863 Y20.408 E283.46611
G1 X31.841 Y20.409 E283.46775
G1 X31.489 Y20.47 E283.49438
G1 X31.251 Y20.527 E283.51262
G1 X30.947 Y20.622 E283.53637
G1 X30.845 Y20.663 E283.54456
G1 X72.148 Y61.965 E287.89857
G1 X72.148 Y63.238 E287.99347
G1 X30 Y21.09 E292.43661
G1 X29.907 Y21.148 E292.44478
G1 X29.676 Y21.312 E292.4659
G1 X29.45 Y21.499 E292.48776
G1 X29.286 Y21.65 E292.50438
G1 X56.824 Y49.187 E295.40732
G1 X56.738 Y49.141 E295.41459
G1 X56.108 Y48.899 E295.4649
G1 X55.448 Y48.735 E295.51559
G1 X55.064 Y48.7 E295.54434
G1 X28.697 Y22.333 E298.32388
G1 X28.659 Y22.388 E298.32887
G1 X28.513 Y22.617 E298.34911
G1 X28.371 Y22.874 E298.371
G1 X28.24 Y23.149 E298.3937
G1 X53.741 Y48.65 E301.08196
G1 X52.468 Y48.65 E301.17685
G1 X27.941 Y24.122 E303.76249
G1 X27.912 Y24.276 E303.77417
G1 X27.876 Y24.565 E303.79588
G1 X27.852 Y24.947 E303.82441
G1 X27.851 Y25.305 E303.85109
G1 X51.195 Y48.65 E306.31202
G1 X49.923 Y48.65 E306.40683
G1 X27.848 Y26.575 E308.73393
G1 X27.848 Y26.87 E308.75592
G1 X27.857 Y27.076 E308.77129
G1 X27.909 Y27.654 E308.81455
G1 X27.961 Y27.961 E308.83776
G1 X48.65 Y48.65 E311.01874
G1 X47.377 Y48.65 E311.11364
G1 X29.513 Y30.786 E312.99682
G1 X29.747 Y31.208 E313.03279
G1 X29.997 Y31.837 E313.08324
G1 X30.167 Y32.492 E313.13368
G1 X30.198 Y32.743 E313.15254
G1 X46.104 Y48.65 E314.82936
G1 X45.489 Y48.65 E314.87521
G1 X44.87 Y48.689 E314.92144
G1 X30.225 Y34.043 E316.46533
G1 X30.165 Y34.51 E316.50043
G1 X30.011 Y35.102 E316.54603
G1 X43.834 Y48.926 E318.00327
G1 X43.518 Y49.03 E318.02807
G1 X42.94 Y49.304 E318.07575
G1 X29.632 Y35.996 E319.47865
G1 X29.417 Y36.384 E319.51171
G1 X29.133 Y36.77 E319.54743
G1 X42.178 Y49.815 E320.92261
G1 X41.818 Y50.118 E320.95768
G1 X41.524 Y50.434 E320.98986
G1 X28.588 Y37.497 E322.35359
G1 X28.514 Y37.615 E322.36398
G1 X28.371 Y37.872 E322.3859
G1 X28.242 Y38.143 E322.40827
G1 X28.161 Y38.344 E322.42443
G1 X40.971 Y51.153 E323.77477
G1 X40.963 Y51.164 E323.77579
G1 X40.642 Y51.759 E323.82618
G1 X40.548 Y52.003 E323.84567
G1 X27.902 Y39.357 E325.17879
G1 X27.876 Y39.564 E325.19434
G1 X27.852 Y39.947 E325.22294
G1 X27.852 Y40.58 E325.27013
G1 X40.252 Y52.98 E326.57731
G1 X40.235 Y53.05 E326.58268
G1 X40.15 Y53.983 E326.65251
G1 X40.15 Y54.151 E326.66503
G1 X27.852 Y41.852 E327.96151
G1 X27.852 Y43.125 E328.05641
G1 X40.15 Y55.424 E329.35289
G1 X40.15 Y56.697 E329.44778
G1 X27.852 Y44.398 E330.74426
G1 X27.852 Y45.671 E330.83915
G1 X40.15 Y57.97 E332.13563
G1 X40.15 Y59.242 E332.23044
G1 X27.852 Y46.944 E333.52687
G1 X27.852 Y48.216 E333.62169
G1 X40.15 Y60.515 E334.91817
G1 X40.15 Y61.788 E335.01306
G1 X27.851 Y49.488 E336.30964
G1 X27.851 Y50.761 E336.40454
G1 X40.15 Y63.06 E337.70107
G1 X40.15 Y64.333 E337.79596
G1 X27.851 Y52.034 E339.09249
G1 X27.851 Y53.307 E339.18738
G1 X40.15 Y65.606 E340.48392
G1 X40.15 Y66.878 E340.57873
G1 X27.851 Y54.58 E341.87521
G1 X27.851 Y55.852 E341.97003
G1 X40.15 Y68.151 E343.26656
G1 X40.15 Y69.424 E343.36145
G1 X27.851 Y57.125 E344.65799
G1 X27.85 Y58.397 E344.7528
G1 X40.149 Y70.696 E346.04933
G1 X40.149 Y71.969 E346.14423
G1 X27.85 Y59.67 E347.44076
G1 X27.85 Y60.943 E347.53565
G1 X40.149 Y73.242 E348.83218
G1 X40.149 Y74.514 E348.927
G1 X27.85 Y62.216 E350.22348
G1 X27.85 Y63.488 E350.3183
G1 X40.149 Y75.787 E351.61483
G1 X40.149 Y77.06 E351.70972
G1 X27.85 Y64.761 E353.00625
G1 X27.85 Y66.034 E353.10114
G1 X40.149 Y78.333 E354.39768
G1 X40.148 Y79.605 E354.49249
G1 X27.85 Y67.307 E355.78892
G1 X27.85 Y68.579 E355.88374
G1 X40.148 Y80.878 E357.18022
G1 X40.148 Y82.15 E357.27503
G1 X27.85 Y69.852 E358.57146
G1 X27.85 Y71.125 E358.66635
G1 X40.148 Y83.423 E359.96278
G1 X40.148 Y84.696 E360.05767
G1 X27.85 Y72.397 E361.35415
G1 X27.85 Y73.67 E361.44904
G1 X40.148 Y85.969 E362.74552
G1 X40.148 Y87.241 E362.84034
G1 X27.85 Y74.943 E364.13676
G1 X27.85 Y76.216 E364.23166
G1 X40.148 Y88.514 E365.52808
G1 X40.148 Y89.787 E365.62297
G1 X27.849 Y77.488 E366.91951
G1 X27.849 Y78.761 E367.0144
G1 X40.148 Y91.059 E368.31088
G1 X40.148 Y92.332 E368.40577
G1 X27.849 Y80.033 E369.7023
G1 X27.849 Y81.306 E369.79719
