M73 P0
;MINX:34.9
;MAXX:65.1
;MINY:20.0
;MAXY:100.0
;MINZ:0.0
;MAXZ:41.3
;MachineType:ENTINA TINA2
;FilamentType:PLA
;Extruder0Temperature:200
;InfillDensity:10
;FLAVOR:Marlin
;TIME:4907
;FilamentUsed:5964.2
;Layer height: 0.35

;Generated with Cura_SteamEngine 3.1
M104 T0 S215
M82 ; absolute extrusion mode
;(**** start.gcode for tina2****)
M104 S150
G28 Z
G28 X Y; Home extruder
G1 X55 Y55 F1000
G1 Z10 F200
G29
G1 Z15 F100
M107 ; Turn off fan
G90 ; Absolute positioning
M82 ; Extruder in absolute mode
M109 S215.0
G92 E0 ; Reset extruder position
G1 X90 Y6 Z0.27 F2000
G1 X20 Y6 Z0.27 E15 F1000
G92 E0 ; Reset extruder position

;LAYER_COUNT:115
;LAYER:-5
M107
M203 Z5
G1 F3600 X63.955 Y22.439 Z0.349
G1 F1200 X64.117 Y22.698 E0.03369
G1 X64.245 Y22.937 E0.06359
G1 X64.372 Y23.212 E0.09699
G1 X64.474 Y23.473 E0.12789
G1 X64.569 Y23.776 E0.16291
G1 X64.623 Y23.997 E0.18799
G1 X64.683 Y24.353 E0.2278
G1 X64.733 Y24.907 E0.28914
G1 X64.743 Y25.129 E0.31365
G1 X64.739 Y95.05 E8.02412
G1 X64.715 Y95.427 E8.06577
G1 X64.678 Y95.725 E8.09889
G1 X64.623 Y96.009 E8.13079
G1 X64.547 Y96.3 E8.16395
G1 X64.463 Y96.558 E8.19388
G1 X64.352 Y96.837 E8.22699
G1 X64.23 Y97.095 E8.25846
G1 X64.087 Y97.353 E8.29099
G1 X63.935 Y97.592 E8.32222
G1 X63.762 Y97.827 E8.3544
G1 X63.581 Y98.044 E8.38556
G1 X63.367 Y98.27 E8.41988
G1 X63.162 Y98.46 E8.45071
G1 X62.932 Y98.648 E8.48346
G1 X62.704 Y98.812 E8.51443
G1 X62.445 Y98.974 E8.54812
G1 X62.206 Y99.102 E8.57802
G1 X61.931 Y99.229 E8.61142
G1 X61.67 Y99.331 E8.64232
G1 X61.367 Y99.426 E8.67734
G1 X61.146 Y99.48 E8.70243
G1 X60.79 Y99.54 E8.74224
G1 X60.236 Y99.59 E8.80358
G1 X60.014 Y99.6 E8.82809
G1 X58.219 Y99.6 E9.02603
G1 X57.716 Y99.572 E9.08158
G1 X57.418 Y99.535 E9.11469
G1 X57.134 Y99.48 E9.14659
G1 X56.843 Y99.404 E9.17976
G1 X56.583 Y99.319 E9.20992
G1 X56.306 Y99.209 E9.24279
G1 X56.047 Y99.086 E9.27441
G1 X55.79 Y98.944 E9.30679
G1 X55.551 Y98.792 E9.33802
G1 X55.304 Y98.61 E9.37186
G1 X55.103 Y98.441 E9.40081
G1 X54.87 Y98.221 E9.43615
G1 X54.683 Y98.019 E9.46651
G1 X54.491 Y97.784 E9.49997
G1 X54.385 Y97.635 E9.52013
G1 X53.961 Y97.115 E9.59412
G1 X53.466 Y96.645 E9.66939
G1 X52.915 Y96.242 E9.74467
G1 X52.319 Y95.91 E9.81991
G1 X51.685 Y95.656 E9.89522
G1 X51.024 Y95.484 E9.97054
G1 X50.346 Y95.398 E10.0459
G1 X49.664 Y95.398 E10.12111
G1 X48.986 Y95.483 E10.19646
G1 X48.324 Y95.654 E10.27186
G1 X47.69 Y95.907 E10.34713
G1 X47.093 Y96.237 E10.42236
G1 X46.542 Y96.64 E10.49764
G1 X46.047 Y97.109 E10.57283
G1 X45.657 Y97.581 E10.64035
G1 X45.476 Y97.827 E10.67403
G1 X45.303 Y98.035 E10.70386
G1 X45.081 Y98.27 E10.73951
G1 X44.876 Y98.46 E10.77033
G1 X44.646 Y98.648 E10.80309
G1 X44.418 Y98.812 E10.83406
G1 X44.159 Y98.974 E10.86775
G1 X43.92 Y99.102 E10.89765
G1 X43.645 Y99.229 E10.93105
G1 X43.384 Y99.331 E10.96195
G1 X43.081 Y99.426 E10.99697
G1 X42.86 Y99.48 E11.02206
G1 X42.504 Y99.54 E11.06187
G1 X41.95 Y99.59 E11.12321
G1 X41.728 Y99.6 E11.14771
G1 X39.807 Y99.596 E11.35955
G1 X39.43 Y99.572 E11.40121
G1 X39.132 Y99.535 E11.43432
G1 X38.848 Y99.48 E11.46622
G1 X38.557 Y99.404 E11.49939
G1 X38.297 Y99.319 E11.52955
G1 X38.02 Y99.209 E11.56242
G1 X37.761 Y99.086 E11.59404
G1 X37.504 Y98.944 E11.62641
G1 X37.265 Y98.792 E11.65765
G1 X37.018 Y98.61 E11.69148
G1 X36.817 Y98.441 E11.72044
G1 X36.584 Y98.221 E11.75578
G1 X36.397 Y98.019 E11.78613
G1 X36.205 Y97.784 E11.8196
G1 X36.045 Y97.561 E11.84986
G1 X35.883 Y97.302 E11.88355
G1 X35.755 Y97.063 E11.91345
G1 X35.628 Y96.788 E11.94685
G1 X35.526 Y96.527 E11.97775
G1 X35.431 Y96.224 E12.01277
G1 X35.375 Y95.995 E12.03877
G1 X35.317 Y95.647 E12.07767
G1 X35.267 Y95.093 E12.13901
G1 X35.257 Y94.871 E12.16352
G1 X35.261 Y34.95 E18.77124
G1 X35.285 Y34.573 E18.8129
G1 X35.322 Y34.275 E18.84601
G1 X35.377 Y33.991 E18.87791
G1 X35.453 Y33.7 E18.91108
G1 X35.537 Y33.442 E18.941
G1 X35.908 Y32.515 E19.05111
G1 X36.079 Y31.853 E19.12651
G1 X36.164 Y31.176 E19.20175
G1 X36.164 Y30.494 E19.27695
G1 X36.078 Y29.816 E19.35232
G1 X35.906 Y29.156 E19.42753
G1 X35.682 Y28.587 E19.49496
G1 X35.631 Y28.474 E19.50863
G1 X35.526 Y28.205 E19.54048
G1 X35.431 Y27.903 E19.57539
G1 X35.377 Y27.682 E19.60048
G1 X35.317 Y27.326 E19.64029
G1 X35.267 Y26.772 E19.70163
G1 X35.257 Y26.55 E19.72613
G1 X35.261 Y24.95 E19.90257
G1 X35.285 Y24.573 E19.94423
G1 X35.322 Y24.275 E19.97734
G1 X35.377 Y23.991 E20.00924
G1 X35.453 Y23.7 E20.04241
G1 X35.537 Y23.442 E20.07233
G1 X35.648 Y23.163 E20.10544
G1 X35.77 Y22.905 E20.13691
G1 X35.916 Y22.642 E20.17009
G1 X36.065 Y22.408 E20.20068
G1 X36.247 Y22.161 E20.23451
G1 X36.416 Y21.96 E20.26347
G1 X36.636 Y21.727 E20.29881
G1 X36.838 Y21.54 E20.32916
G1 X37.068 Y21.352 E20.36192
G1 X37.296 Y21.188 E20.39289
G1 X37.555 Y21.026 E20.42658
G1 X37.794 Y20.898 E20.45647
G1 X38.069 Y20.771 E20.48988
G1 X38.33 Y20.669 E20.52078
G1 X38.633 Y20.574 E20.5558
G1 X38.854 Y20.52 E20.58088
G1 X39.21 Y20.46 E20.62069
G1 X39.764 Y20.41 E20.68203
G1 X39.986 Y20.4 E20.70654
G1 X60.193 Y20.404 E22.93485
G1 X60.57 Y20.428 E22.9765
G1 X60.868 Y20.465 E23.00962
G1 X61.152 Y20.52 E23.04152
G1 X61.443 Y20.596 E23.07468
G1 X61.701 Y20.68 E23.1046
G1 X61.98 Y20.791 E23.13772
G1 X62.238 Y20.913 E23.16919
G1 X62.496 Y21.056 E23.20172
G1 X62.735 Y21.208 E23.23295
G1 X62.982 Y21.39 E23.26678
G1 X63.183 Y21.559 E23.29574
G1 X63.416 Y21.779 E23.33108
G1 X63.603 Y21.981 E23.36143
G1 X63.791 Y22.211 E23.39419
G1 X63.955 Y22.439 E23.42516
G1 F3600 X64 Y22.511
G1 F1200 X64 Y97.49 E31.6934
G1 F1680 E28.6934
G1 F3600 X62.4 Y98.999
G1 F1680 E31.6934
G1 F1200 X62.4 Y21.003 E40.29433
G1 F1680 E37.29433
G1 F3600 X60.8 Y20.457
G1 F1680 E40.29433
G1 F1200 X60.8 Y99.539 E49.01501
G1 F1680 E46.01501
G1 F3600 X59.2 Y99.6
G1 F1680 E49.01501
G1 F1200 X59.2 Y20.404 E57.74827
G1 F1680 E54.74827
G1 F3600 X57.6 Y20.404
G1 F1680 E57.74827
G1 F1200 X57.6 Y99.557 E66.47679
G1 F1680 E63.47679
G1 F3600 X56 Y99.06
G1 F1680 E66.47679
G1 F1200 X56 Y20.404 E75.1505
G1 F1680 E72.1505
G1 F3600 X54.4 Y20.403
G1 F1680 E75.1505
G1 F1200 X54.4 Y97.656 E83.66949
G1 F1680 E80.66949
G1 F3600 X52.8 Y96.177
G1 F1680 E83.66949
G1 F1200 X52.8 Y20.403 E92.02539
G1 F1680 E89.02539
G1 F3600 X51.2 Y20.403
G1 F1680 E92.02539
G1 F1200 X51.2 Y95.529 E100.30984
G1 F1680 E97.30984
G1 F3600 X49.6 Y95.407
G1 F1680 E100.30984
G1 F1200 X49.6 Y20.402 E108.58093
G1 F1680 E105.58093
G1 F3600 X48 Y20.402
G1 F1680 E108.58093
G1 F1200 X48 Y95.784 E116.89361
G1 F1680 E113.89361
G1 F3600 X46.4 Y96.775
G1 F1680 E116.89361
G1 F1200 X46.4 Y20.402 E125.31556
G1 F1680 E122.31556
G1 F3600 X44.8 Y20.401
G1 F1680 E125.31556
G1 F1200 X44.8 Y98.523 E133.93039
G1 F1680 E130.93039
G1 F3600 X43.2 Y99.389
G1 F1680 E133.93039
G1 F1200 X43.2 Y20.401 E142.64071
G1 F1680 E139.64071
G1 F3600 X41.6 Y20.401
G1 F1680 E142.64071
G1 F1200 X41.6 Y99.599 E151.37419
G1 F1680 E148.37419
G1 F3600 X40 Y99.596
G1 F1680 E151.37419
G1 F1200 X40 Y20.401 E160.10733
G1 F1680 E157.10733
G1 F3600 X38.4 Y20.647
G1 F1680 E160.10733
G1 F1200 X38.4 Y99.352 E168.78645
G1 F1680 E165.78645
G1 F3600 X36.8 Y98.424
M104 T0 S200
G1 F1680 E168.78645
G1 F1200 X36.8 Y21.575 E177.26089
G1 F1680 E174.26089
G1 F3600 X63.994 Y22.408
;TIME_ELAPSED:85.634628
;LAYER:-4
G1 X63.994 Y22.408 Z0.619
;TYPE:SUPPORT
G1 F1680 E177.26089
G1 F1980 X64.161 Y22.675 E177.28437
G1 X64.285 Y22.905 E177.30384
G1 X64.423 Y23.205 E177.32846
G1 X64.519 Y23.449 E177.348
G1 X64.614 Y23.751 E177.3716
G1 F3600 X64.657 Y23.928
G1 F1980 X61.212 Y20.483 E177.73477
G1 X61.455 Y20.546 E177.75348
G1 X61.735 Y20.638 E177.77545
G1 X61.992 Y20.74 E177.79606
G1 X62.268 Y20.871 E177.81883
G1 X62.519 Y21.01 E177.84022
G1 X62.754 Y21.159 E177.86096
G1 X63.019 Y21.355 E177.88553
G1 X63.217 Y21.522 E177.90484
G1 X63.45 Y21.742 E177.92873
G1 X63.643 Y21.95 E177.94988
G1 X63.829 Y22.176 E177.9717
G1 X63.994 Y22.408 E177.99292
G1 F1680 E174.99292
G1 F3600 X64.657 Y23.928
G1 F1680 E177.99292
G1 F1980 X64.672 Y23.99 E177.99767
G1 X64.732 Y24.342 E178.02429
G1 X64.783 Y24.905 E178.06643
G1 X64.792 Y25.127 E178.08299
G1 X64.792 Y25.336 E178.09857
G1 X59.809 Y20.353 E178.62387
G1 X58.537 Y20.353 E178.71868
G1 X64.792 Y26.609 E179.37812
G1 X64.792 Y27.881 E179.47294
G1 X57.263 Y20.352 E180.26663
G1 X55.99 Y20.352 E180.36152
G1 X64.792 Y29.154 E181.28941
G1 X64.792 Y30.427 E181.3843
G1 X54.718 Y20.352 E182.44633
G1 X53.444 Y20.351 E182.5413
G1 X64.792 Y31.7 E183.73763
G1 X64.792 Y32.973 E183.83252
G1 X52.171 Y20.351 E185.16305
G1 X50.898 Y20.351 E185.25794
G1 X64.792 Y34.245 E186.72261
G1 X64.792 Y35.518 E186.81751
G1 X49.625 Y20.351 E188.41638
G1 X48.351 Y20.35 E188.51134
G1 X64.792 Y36.791 E190.24451
G1 X64.792 Y38.064 E190.33941
G1 X47.079 Y20.35 E192.20672
G1 X45.806 Y20.35 E192.30161
G1 X64.792 Y39.337 E194.30313
G1 X64.792 Y40.609 E194.39794
G1 X44.532 Y20.349 E196.53371
G1 X43.26 Y20.349 E196.62852
G1 X64.792 Y41.882 E198.89843
G1 X64.792 Y43.154 E198.99325
G1 X41.986 Y20.349 E201.39735
G1 X40.713 Y20.349 E201.49224
G1 X64.792 Y44.427 E204.03054
G1 X64.792 Y45.7 E204.12543
G1 X39.477 Y20.385 E206.79408
G1 X39.197 Y20.409 E206.81503
G1 X38.846 Y20.47 E206.84159
G1 X38.608 Y20.528 E206.85985
G1 X38.41 Y20.59 E206.87531
G1 X64.792 Y46.973 E209.6565
G1 X64.792 Y48.245 E209.75131
G1 X37.529 Y20.983 E212.62526
G1 X37.264 Y21.148 E212.64853
G1 X37.033 Y21.312 E212.66965
G1 X36.807 Y21.498 E212.69147
G1 X36.789 Y21.515 E212.69331
G1 X64.792 Y49.518 E215.64533
G1 X64.792 Y50.791 E215.74022
G1 X36.174 Y22.173 E218.75706
G1 X36.016 Y22.387 E218.77689
G1 X35.87 Y22.617 E218.7972
G1 X35.727 Y22.874 E218.81912
G1 X35.686 Y22.959 E218.82616
G1 X64.792 Y52.064 E221.89439
G1 X64.792 Y53.337 E221.98928
G1 X35.348 Y23.893 E225.0932
G1 X35.327 Y23.975 E225.09951
G1 X35.269 Y24.277 E225.12243
G1 X35.233 Y24.564 E225.14399
G1 X35.209 Y24.948 E225.17267
G1 X35.208 Y25.026 E225.17849
G1 X64.792 Y54.609 E228.29711
G1 X64.792 Y55.882 E228.392
G1 X35.205 Y26.295 E231.511
G1 X35.205 Y26.551 E231.53008
G1 X35.214 Y26.759 E231.5456
G1 X35.266 Y27.336 E231.58879
G1 X35.326 Y27.689 E231.61548
G1 X64.792 Y57.155 E234.72171
G1 X64.792 Y58.428 E234.81661
G1 X35.969 Y29.605 E237.85506
G1 X36.026 Y29.826 E237.87207
G1 X36.112 Y30.496 E237.92243
G1 X36.112 Y31.021 E237.96156
G1 X64.792 Y59.701 E240.98494
G1 X64.791 Y60.973 E241.07976
G1 X35.952 Y32.133 E244.11995
G1 X35.858 Y32.499 E244.14812
G1 X35.624 Y33.079 E244.19474
G1 X64.791 Y62.245 E247.2694
G1 X64.791 Y63.518 E247.3643
G1 X35.314 Y34.041 E250.47169
G1 X35.269 Y34.277 E250.4896
G1 X35.233 Y34.564 E250.51116
G1 X35.209 Y34.948 E250.53984
G1 X35.208 Y35.208 E250.55922
G1 X64.791 Y64.791 E253.6778
G1 X64.791 Y66.064 E253.77269
G1 X35.208 Y36.481 E256.89126
G1 X35.208 Y37.754 E256.98615
G1 X64.791 Y67.337 E260.10472
G1 X64.791 Y68.609 E260.19954
G1 X35.208 Y39.027 E263.31806
G1 X35.208 Y40.3 E263.41295
G1 X64.791 Y69.882 E266.53147
G1 X64.791 Y71.155 E266.62636
G1 X35.208 Y41.572 E269.74493
G1 X35.208 Y42.845 E269.83982
G1 X64.791 Y72.428 E272.9584
G1 X64.791 Y73.701 E273.05329
G1 X35.208 Y44.118 E276.17186
G1 X35.208 Y45.391 E276.26675
G1 X64.791 Y74.973 E279.38527
G1 X64.791 Y76.246 E279.48016
G1 X35.208 Y46.664 E282.59868
G1 X35.208 Y47.936 E282.6935
G1 X64.791 Y77.519 E285.81207
G1 X64.79 Y78.791 E285.90689
G1 X35.208 Y49.208 E289.02541
G1 X35.208 Y50.481 E289.1203
G1 X64.79 Y80.064 E292.23882
G1 X64.79 Y81.337 E292.33371
G1 X35.208 Y51.754 E295.45223
G1 X35.208 Y53.027 E295.54712
G1 X64.79 Y82.609 E298.66559
G1 X64.79 Y83.882 E298.76048
G1 X35.208 Y54.3 E301.87894
G1 X35.208 Y55.572 E301.97376
G1 X64.79 Y85.155 E305.09228
G1 X64.79 Y86.428 E305.18717
G1 X35.208 Y56.845 E308.30569
G1 X35.208 Y58.118 E308.40058
G1 X64.79 Y87.701 E311.5191
G1 X64.79 Y88.973 E311.61392
G1 X35.207 Y59.39 E314.73249
G1 X35.207 Y60.663 E314.82738
G1 X64.79 Y90.246 E317.94595
G1 X64.79 Y91.519 E318.04085
G1 X35.207 Y61.936 E321.15942
G1 X35.207 Y63.208 E321.25423
G1 X64.79 Y92.792 E324.37286
G1 X64.79 Y94.065 E324.46775
G1 X35.207 Y64.481 E327.58637
G1 X35.207 Y65.754 E327.68127
G1 X64.773 Y95.32 E330.79805
G1 X64.766 Y95.434 E330.80656
G1 X64.729 Y95.722 E330.8282
G1 X64.673 Y96.018 E330.85066
G1 X64.595 Y96.312 E330.87333
G1 X64.57 Y96.39 E330.87944
G1 X35.207 Y67.027 E333.97482
G1 X35.207 Y68.3 E334.06971
G1 X64.186 Y97.278 E337.12456
G1 X64.132 Y97.376 E337.1329
G1 X63.982 Y97.611 E337.15368
G1 X63.8 Y97.859 E337.17661
G1 X63.662 Y98.027 E337.19282
G1 X35.207 Y69.572 E340.19248
G1 X35.207 Y70.845 E340.28737
G1 X63.01 Y98.648 E343.2183
G1 X62.965 Y98.685 E343.22264
G1 X62.735 Y98.851 E343.24378
G1 X62.466 Y99.018 E343.26738
G1 X62.238 Y99.142 E343.28673
G1 F3600 X62.233 Y99.144
G1 F1980 X35.206 Y72.117 E346.13586
G1 X35.206 Y73.39 E346.23075
G1 X61.307 Y99.491 E348.98225
G1 X61.153 Y99.529 E348.99408
G1 X60.801 Y99.588 E349.02068
G1 X60.229 Y99.639 E349.06349
G1 X60.185 Y99.641 E349.06677
G1 X35.206 Y74.663 E351.69995
G1 X35.206 Y75.936 E351.79484
G1 X58.918 Y99.647 E354.29445
G1 X58.09 Y99.646 E354.35617
G1 X57.707 Y99.622 E354.38478
G1 X57.607 Y99.609 E354.3923
G1 X35.206 Y77.208 E356.75376
G1 X35.206 Y78.481 E356.84865
G1 X53.342 Y96.617 E358.7605
G1 X52.888 Y96.284 E358.80247
G1 X52.296 Y95.955 E358.85296
G1 X51.668 Y95.704 E358.90337
G1 X51.013 Y95.534 E358.95381
G1 X50.982 Y95.53 E358.95614
G1 X35.206 Y79.754 E360.61921
G1 X35.206 Y81.027 E360.71411
G1 X49.631 Y95.452 E362.23476
G1 X48.994 Y95.533 E362.28262
G1 X48.553 Y95.646 E362.31656
G1 X35.206 Y82.3 E363.72351
G1 X35.206 Y83.572 E363.81833
G1 X47.63 Y95.996 E365.12804
G1 X47.12 Y96.278 E365.17148
G1 X46.842 Y96.481 E365.19714
G1 X35.206 Y84.845 E366.42378
G1 X35.206 Y86.117 E366.5186
G1 X46.159 Y97.071 E367.67329
G1 X46.084 Y97.143 E367.68104
G1 X45.696 Y97.611 E367.72636
G1 X45.582 Y97.767 E367.74076
G1 X35.206 Y87.39 E368.83462
G1 X35.206 Y88.663 E368.92952
G1 X44.976 Y98.434 E369.9595
G1 X44.906 Y98.5 E369.96667
G1 X44.679 Y98.685 E369.9885
G1 X44.449 Y98.851 E370.00964
G1 X44.246 Y98.976 E370.02741
G1 X35.206 Y89.936 E370.98039
G1 X35.206 Y91.208 E371.07521
G1 X43.381 Y99.384 E371.93705
G1 X43.105 Y99.471 E371.95862
G1 X42.866 Y99.528 E371.97694
G1 X42.514 Y99.589 E372.00357
G1 X42.329 Y99.605 E372.01741
G1 X35.206 Y92.481 E372.76835
G1 X35.206 Y93.754 E372.86324
G1 X41.1 Y99.649 E373.48463
G1 X39.824 Y99.646 E373.57974
G1 X35.213 Y95.034 E374.06588
G1 X35.215 Y95.078 E374.06916
G1 X35.266 Y95.656 E374.11241
G1 X35.326 Y96.007 E374.13895
G1 X35.385 Y96.247 E374.15738
G1 X35.478 Y96.548 E374.18086
G1 X35.493 Y96.587 E374.18398
G1 X38.267 Y99.361 E374.4764
G1 X38.006 Y99.257 E374.49735
G1 X37.73 Y99.127 E374.52009
G1 X37.48 Y98.988 E374.54141
G1 X37.242 Y98.837 E374.56242
G1 X36.98 Y98.644 E374.58668
G1 X36.782 Y98.477 E374.60599
G1 X36.548 Y98.256 E374.62998
G1 X36.355 Y98.048 E374.65113
G1 X36.169 Y97.822 E374.67295
G1 X36.005 Y97.591 E374.69406
G1 X35.837 Y97.323 E374.71764
G1 X35.713 Y97.091 E374.73725
G1 X35.574 Y96.794 E374.76169
G1 F1680 E371.76169
G1 F3600 X53.433 Y96.684
G1 F1680 E374.76169
G1 F1980 X53.922 Y97.149 E374.812
G1 X54.136 Y97.411 E374.83721
G1 X55.621 Y98.896 E374.99376
G1 X55.528 Y98.837 E375.00197
G1 X55.266 Y98.644 E375.02622
G1 X55.068 Y98.477 E375.04553
G1 X54.835 Y98.257 E375.06942
G1 X54.641 Y98.048 E375.09067
G1 X54.458 Y97.825 E375.11218
G1 X54.343 Y97.665 E375.12687
G1 F1680 E372.12687
G1 F3600 X64.166 Y22.4
;TIME_ELAPSED:168.660087
;LAYER:-3
M106 S255
G1 X64.166 Y22.4 Z0.869
G1 F1680 E375.12687
G1 F2400 X64.293 Y22.605 E375.13639
G1 X64.398 Y22.8 E375.14514
G1 X35.599 Y22.8 E376.2826
G1 X35.456 Y23.1 E376.29572
G1 X35.417 Y23.2 E376.29996
G1 X64.583 Y23.2 E377.45191
G1 X64.661 Y23.403 E377.4605
G1 X64.723 Y23.6 E377.46866
G1 X35.274 Y23.6 E378.63179
G1 X35.257 Y23.652 E378.63395
G1 X35.181 Y23.941 E378.64575
G1 X35.17 Y24 E378.64812
G1 X64.827 Y24 E379.81947
G1 X64.881 Y24.328 E379.8326
G1 X64.888 Y24.4 E379.83545
G1 X35.104 Y24.4 E381.01182
G1 X35.086 Y24.545 E381.01759
G1 X35.07 Y24.8 E381.02768
G1 X64.924 Y24.8 E382.2068
G1 X64.932 Y24.897 E382.21065
G1 X64.942 Y25.11 E382.21907
G1 X64.941 Y25.2 E382.22262
G1 X35.06 Y25.2 E383.40282
G1 X35.059 Y25.6 E383.41862
G1 X64.941 Y25.6 E384.59885
