M73 P0
;MINX:10.0
;MAXX:90.0
;MINY:5.0
;MAXY:115.0
;MINZ:0.0
;MAXZ:31.3
;MachineType:ENTINA TINA2
;FilamentType:PLA
;Extruder0Temperature:200
;InfillDensity:15
;FLAVOR:Marlin
;TIME:6512
;FilamentUsed:14737.4
;Layer height: 0.5

;Generated with Cura_SteamEngine 3.1
M104 T0 S215
M82 ; absolute extrusion mode
;(**** start.gcode for tina2****)
M104 S150
G28 Z
G28 X Y; Home extruder
G1 X55 Y55 F1000
G1 Z10 F200
G29
G1 Z15 F100
M107 ; Turn off fan
G90 ; Absolute positioning
M82 ; Extruder in absolute mode
M109 S215.0
G92 E0 ; Reset extruder position
G1 X90 Y6 Z0.27 F2000
G1 X20 Y6 Z0.27 E15 F1000
G92 E0 ; Reset extruder position

;LAYER_COUNT:61
;LAYER:-5
M107
M203 Z5
G1 F3600 X88.637 Y7.511 Z0.349
G1 F1200 X88.793 Y7.742 E0.03074
G1 X88.951 Y8.01 E0.06505
G1 X89.083 Y8.269 E0.0971
G1 X89.186 Y8.508 E0.1258
G1 X89.291 Y8.8 E0.16002
G1 X89.372 Y9.082 E0.19237
G1 X89.428 Y9.336 E0.22106
G1 X89.477 Y9.666 E0.25785
G1 X89.513 Y10.127 E0.30884
G1 X89.52 Y10.312 E0.32925
G1 X89.516 Y109.841 E11.30471
G1 X89.492 Y110.218 E11.34637
G1 X89.455 Y110.516 E11.37948
G1 X89.4 Y110.8 E11.41138
G1 X89.324 Y111.091 E11.44455
G1 X89.24 Y111.349 E11.47447
G1 X89.129 Y111.628 E11.50758
G1 X89.007 Y111.886 E11.53905
G1 X88.863 Y112.145 E11.57173
G1 X88.724 Y112.364 E11.60033
G1 X88.526 Y112.63 E11.6369
G1 X88.106 Y113.111 E11.70732
G1 X87.706 Y113.468 E11.76644
G1 X87.489 Y113.637 E11.79677
G1 X87.258 Y113.793 E11.82751
G1 X86.99 Y113.951 E11.86182
G1 X86.733 Y114.081 E11.89358
G1 X86.464 Y114.196 E11.92584
G1 X86.207 Y114.289 E11.95597
G1 X85.915 Y114.373 E11.98948
G1 X85.654 Y114.429 E12.01892
G1 X85.334 Y114.477 E12.0546
G1 X84.866 Y114.513 E12.10636
G1 X84.674 Y114.52 E12.12755
G1 X15.159 Y114.516 E19.79324
G1 X14.782 Y114.492 E19.8349
G1 X14.484 Y114.455 E19.86801
G1 X14.2 Y114.4 E19.89991
G1 X13.909 Y114.324 E19.93308
G1 X13.649 Y114.239 E19.96324
G1 X13.372 Y114.129 E19.99611
G1 X13.111 Y114.005 E20.02798
G1 X12.855 Y113.863 E20.06026
G1 X12.636 Y113.724 E20.08886
G1 X12.37 Y113.526 E20.12543
G1 X11.887 Y113.104 E20.19616
G1 X11.53 Y112.704 E20.25528
G1 X11.363 Y112.489 E20.2853
G1 X11.204 Y112.253 E20.31668
G1 X11.049 Y111.99 E20.35034
G1 X10.919 Y111.733 E20.3821
G1 X10.803 Y111.463 E20.41451
G1 X10.711 Y111.207 E20.44451
G1 X10.627 Y110.915 E20.47801
G1 X10.571 Y110.654 E20.50745
G1 X10.523 Y110.334 E20.54313
G1 X10.486 Y109.856 E20.596
G1 X10.48 Y109.688 E20.61454
G1 X10.484 Y10.159 E31.59
G1 X10.508 Y9.782 E31.63165
G1 X10.545 Y9.484 E31.66477
G1 X10.6 Y9.2 E31.69667
G1 X10.676 Y8.909 E31.72983
G1 X10.76 Y8.651 E31.75975
G1 X10.871 Y8.372 E31.79287
G1 X10.993 Y8.114 E31.82434
G1 X11.132 Y7.864 E31.85588
G1 X11.284 Y7.626 E31.88702
G1 X11.474 Y7.37 E31.92218
G1 X11.894 Y6.889 E31.99259
G1 X12.296 Y6.53 E32.05203
G1 X12.511 Y6.363 E32.08205
G1 X12.742 Y6.207 E32.11279
G1 X13.01 Y6.049 E32.14709
G1 X13.267 Y5.919 E32.17885
G1 X13.537 Y5.803 E32.21126
G1 X13.793 Y5.711 E32.24126
G1 X14.085 Y5.627 E32.27476
G1 X14.346 Y5.571 E32.3042
G1 X14.666 Y5.523 E32.33988
G1 X15.134 Y5.487 E32.39164
G1 X15.326 Y5.48 E32.41283
G1 X84.841 Y5.484 E40.07853
G1 X85.218 Y5.508 E40.12018
G1 X85.516 Y5.545 E40.1533
G1 X85.8 Y5.6 E40.1852
G1 X86.091 Y5.676 E40.21836
G1 X86.349 Y5.76 E40.24828
G1 X86.628 Y5.871 E40.2814
G1 X86.886 Y5.993 E40.31287
G1 X87.145 Y6.137 E40.34554
G1 X87.364 Y6.276 E40.37415
G1 X87.63 Y6.474 E40.41072
G1 X88.111 Y6.894 E40.48113
G1 X88.47 Y7.296 E40.54057
G1 X88.637 Y7.511 E40.57059
G1 F1680 E37.57059
G1 F3600 X88 Y6.798
G1 F1680 E40.57059
G1 F1200 X88 Y113.206 E52.30462
G1 F1680 E49.30462
G1 F3600 X86.4 Y114.22
G1 F1680 E52.30462
G1 F1200 X86.4 Y5.781 E64.26262
G1 F1680 E61.26262
G1 F3600 X84.8 Y5.484
G1 F1680 E64.26262
G1 F1200 X84.8 Y114.516 E76.28601
G1 F1680 E73.28601
G1 F3600 X83.2 Y114.519
G1 F1680 E76.28601
G1 F1200 X83.2 Y5.484 E88.30974
G1 F1680 E85.30974
G1 F3600 X81.6 Y5.484
G1 F1680 E88.30974
G1 F1200 X81.6 Y114.519 E100.33346
G1 F1680 E97.33346
G1 F3600 X80 Y114.519
G1 F1680 E100.33346
G1 F1200 X80 Y5.484 E112.35718
G1 F1680 E109.35718
G1 F3600 X78.4 Y5.484
G1 F1680 E112.35718
G1 F1200 X78.4 Y114.519 E124.38091
G1 F1680 E121.38091
G1 F3600 X76.8 Y114.519
G1 F1680 E124.38091
G1 F1200 X76.8 Y5.484 E136.40463
G1 F1680 E133.40463
G1 F3600 X75.2 Y5.484
G1 F1680 E136.40463
G1 F1200 X75.2 Y114.519 E148.42835
G1 F1680 E145.42835
G1 F3600 X73.6 Y114.519
G1 F1680 E148.42835
G1 F1200 X73.6 Y5.484 E160.45208
G1 F1680 E157.45208
G1 F3600 X72 Y5.484
G1 F1680 E160.45208
G1 F1200 X72 Y114.519 E172.4758
G1 F1680 E169.4758
G1 F3600 X70.4 Y114.519
G1 F1680 E172.4758
G1 F1200 X70.4 Y5.484 E184.49952
G1 F1680 E181.49952
G1 F3600 X68.8 Y5.484
G1 F1680 E184.49952
G1 F1200 X68.8 Y114.519 E196.52324
G1 F1680 E193.52324
G1 F3600 X67.2 Y114.518
G1 F1680 E196.52324
G1 F1200 X67.2 Y5.483 E208.54697
G1 F1680 E205.54697
G1 F3600 X65.6 Y5.483
G1 F1680 E208.54697
G1 F1200 X65.6 Y114.518 E220.57069
G1 F1680 E217.57069
G1 F3600 X64 Y114.518
G1 F1680 E220.57069
G1 F1200 X64 Y5.483 E232.59441
G1 F1680 E229.59441
G1 F3600 X62.4 Y5.483
G1 F1680 E232.59441
G1 F1200 X62.4 Y114.518 E244.61814
G1 F1680 E241.61814
G1 F3600 X60.8 Y114.518
G1 F1680 E244.61814
G1 F1200 X60.8 Y5.483 E256.64186
G1 F1680 E253.64186
G1 F3600 X59.2 Y5.483
G1 F1680 E256.64186
G1 F1200 X59.2 Y114.518 E268.66558
G1 F1680 E265.66558
G1 F3600 X57.6 Y114.518
G1 F1680 E268.66558
G1 F1200 X57.6 Y5.483 E280.68931
G1 F1680 E277.68931
G1 F3600 X56 Y5.483
G1 F1680 E280.68931
G1 F1200 X56 Y114.518 E292.71303
G1 F1680 E289.71303
G1 F3600 X54.4 Y114.518
G1 F1680 E292.71303
G1 F1200 X54.4 Y5.483 E304.73675
G1 F1680 E301.73675
G1 F3600 X52.8 Y5.483
G1 F1680 E304.73675
G1 F1200 X52.8 Y114.518 E316.76048
G1 F1680 E313.76048
G1 F3600 X51.2 Y114.518
G1 F1680 E316.76048
G1 F1200 X51.2 Y5.483 E328.7842
G1 F1680 E325.7842
G1 F3600 X49.6 Y5.482
G1 F1680 E328.7842
G1 F1200 X49.6 Y114.517 E340.80792
G1 F1680 E337.80792
G1 F3600 X48 Y114.517
G1 F1680 E340.80792
G1 F1200 X48 Y5.482 E352.83165
G1 F1680 E349.83165
G1 F3600 X46.4 Y5.482
G1 F1680 E352.83165
G1 F1200 X46.4 Y114.517 E364.85537
G1 F1680 E361.85537
G1 F3600 X44.8 Y114.517
G1 F1680 E364.85537
G1 F1200 X44.8 Y5.482 E376.87909
G1 F1680 E373.87909
G1 F3600 X43.2 Y5.482
G1 F1680 E376.87909
G1 F1200 X43.2 Y114.517 E388.90282
G1 F1680 E385.90282
G1 F3600 X41.6 Y114.517
G1 F1680 E388.90282
G1 F1200 X41.6 Y5.482 E400.92654
G1 F1680 E397.92654
G1 F3600 X40 Y5.482
G1 F1680 E400.92654
G1 F1200 X40 Y114.517 E412.95026
G1 F1680 E409.95026
G1 F3600 X38.4 Y114.517
G1 F1680 E412.95026
G1 F1200 X38.4 Y5.482 E424.97398
G1 F1680 E421.97398
G1 F3600 X36.8 Y5.482
G1 F1680 E424.97398
G1 F1200 X36.8 Y114.517 E436.99771
G1 F1680 E433.99771
G1 F3600 X35.2 Y114.517
G1 F1680 E436.99771
G1 F1200 X35.2 Y5.482 E449.02143
G1 F1680 E446.02143
G1 F3600 X33.6 Y5.482
G1 F1680 E449.02143
G1 F1200 X33.6 Y114.517 E461.04515
G1 F1680 E458.04515
G1 F3600 X32 Y114.516
G1 F1680 E461.04515
G1 F1200 X32 Y5.481 E473.06888
G1 F1680 E470.06888
G1 F3600 X30.4 Y5.481
G1 F1680 E473.06888
G1 F1200 X30.4 Y114.516 E485.0926
G1 F1680 E482.0926
G1 F3600 X28.8 Y114.516
G1 F1680 E485.0926
G1 F1200 X28.8 Y5.481 E497.11632
G1 F1680 E494.11632
G1 F3600 X27.2 Y5.481
G1 F1680 E497.11632
G1 F1200 X27.2 Y114.516 E509.14005
G1 F1680 E506.14005
G1 F3600 X25.6 Y114.516
G1 F1680 E509.14005
G1 F1200 X25.6 Y5.481 E521.16377
G1 F1680 E518.16377
G1 F3600 X24 Y5.481
G1 F1680 E521.16377
G1 F1200 X24 Y114.516 E533.18749
G1 F1680 E530.18749
G1 F3600 X22.4 Y114.516
G1 F1680 E533.18749
G1 F1200 X22.4 Y5.481 E545.21122
G1 F1680 E542.21122
G1 F3600 X20.8 Y5.481
G1 F1680 E545.21122
G1 F1200 X20.8 Y114.516 E557.23494
G1 F1680 E554.23494
G1 F3600 X19.2 Y114.516
G1 F1680 E557.23494
G1 F1200 X19.2 Y5.481 E569.25866
G1 F1680 E566.25866
G1 F3600 X17.6 Y5.481
G1 F1680 E569.25866
G1 F1200 X17.6 Y114.516 E581.28239
G1 F1680 E578.28239
G1 F3600 X16 Y114.516
G1 F1680 E581.28239
G1 F1200 X16 Y5.481 E593.30611
G1 F1680 E590.30611
G1 F3600 X14.4 Y5.562
G1 F1680 E593.30611
G1 F1200 X14.4 Y114.438 E605.3123
G1 F1680 E602.3123
G1 F3600 X12.8 Y113.828
G1 F1680 E605.3123
G1 F1200 X12.8 Y6.172 E617.18395
G1 F1680 E614.18395
G1 F3600 X11.2 Y7.757
M104 T0 S200
G1 F1680 E617.18395
G1 F1200 X11.2 Y112.246 E628.70637
G1 F1680 E625.70637
G1 F3600 X88.836 Y7.715
;TIME_ELAPSED:299.053824
;LAYER:-4
G1 X88.836 Y7.715 Z0.619
;TYPE:SUPPORT
G1 F1680 E628.70637
G1 F1980 X88.999 Y7.993 E628.73039
G1 X89.131 Y8.252 E628.75206
G1 X89.233 Y8.491 E628.77143
G1 X89.344 Y8.8 E628.79591
G1 X89.417 Y9.058 E628.81589
G1 F3600 X89.468 Y9.282
G1 F1980 X85.719 Y5.533 E629.2111
G1 X85.515 Y5.493 E629.2266
G1 X85.225 Y5.456 E629.24839
G1 X84.842 Y5.432 E629.277
G1 X84.345 Y5.432 E629.31405
G1 X89.569 Y10.656 E629.86475
G1 X89.569 Y11.929 E629.95964
G1 X83.073 Y5.432 E630.64449
G1 X81.8 Y5.432 E630.73938
G1 X89.569 Y13.202 E631.55842
G1 X89.569 Y14.475 E631.65331
G1 X80.527 Y5.432 E632.60655
G1 X79.254 Y5.432 E632.70144
G1 X89.569 Y15.747 E633.78883
G1 X89.569 Y17.02 E633.88372
G1 X77.981 Y5.432 E635.1053
G1 X76.709 Y5.432 E635.20011
G1 X89.569 Y18.293 E636.55584
G1 X89.569 Y19.566 E636.65073
G1 X75.436 Y5.432 E638.14065
G1 X74.163 Y5.432 E638.23554
G1 X89.569 Y20.839 E639.85966
G1 X89.569 Y22.111 E639.95448
G1 X72.89 Y5.432 E641.71274
G1 X71.617 Y5.432 E641.80763
G1 X89.569 Y23.384 E643.70009
G1 X89.569 Y24.657 E643.79498
G1 X70.344 Y5.431 E645.82169
G1 X69.071 Y5.431 E645.91658
G1 X89.569 Y25.93 E648.07749
G1 X89.569 Y27.203 E648.17238
G1 X67.798 Y5.431 E650.46748
G1 X66.526 Y5.431 E650.5623
G1 X89.569 Y28.475 E652.99149
G1 X89.569 Y29.748 E653.08638
G1 X65.253 Y5.431 E655.64977
G1 X63.98 Y5.431 E655.74466
G1 X89.569 Y31.021 E658.44225
G1 X89.569 Y32.294 E658.53714
G1 X62.707 Y5.431 E661.36892
G1 X61.434 Y5.431 E661.46381
G1 X89.569 Y33.567 E664.42979
G1 X89.569 Y34.839 E664.52461
G1 X60.162 Y5.431 E667.62468
G1 X58.889 Y5.431 E667.71957
G1 X89.569 Y36.111 E670.95379
G1 X89.569 Y37.384 E671.04868
G1 X57.616 Y5.431 E674.41709
G1 X56.342 Y5.431 E674.51206
G1 X89.569 Y38.657 E678.01472
G1 X89.569 Y39.93 E678.10961
G1 X55.07 Y5.431 E681.74642
G1 X53.797 Y5.431 E681.84131
G1 X89.569 Y41.203 E685.61231
G1 X89.569 Y42.475 E685.70713
G1 X52.524 Y5.431 E689.61227
G1 X51.251 Y5.431 E689.70716
G1 X89.569 Y43.748 E693.74651
G1 X89.569 Y45.021 E693.8414
G1 X49.979 Y5.431 E698.01489
G1 X48.706 Y5.431 E698.10978
G1 X89.569 Y46.294 E702.41746
G1 X89.569 Y47.567 E702.51235
G1 X47.433 Y5.431 E706.95423
G1 X46.16 Y5.431 E707.04912
G1 X89.569 Y48.839 E711.62515
G1 X89.569 Y50.112 E711.72004
G1 X44.887 Y5.431 E716.43026
G1 X43.615 Y5.431 E716.52508
G1 X89.569 Y51.385 E721.36944
G1 X89.569 Y52.658 E721.46433
G1 X42.341 Y5.43 E726.443
G1 X41.068 Y5.43 E726.53789
G1 X89.569 Y53.931 E731.65076
G1 X89.569 Y55.203 E731.74557
G1 X39.795 Y5.43 E736.99258
G1 X38.523 Y5.43 E737.0874
G1 X89.569 Y56.476 E742.46855
G1 X89.569 Y57.749 E742.56344
G1 X37.25 Y5.43 E748.07879
G1 X35.977 Y5.43 E748.17368
G1 X89.569 Y59.022 E753.82323
G1 X89.568 Y60.294 E753.91805
G1 X34.704 Y5.43 E759.70168
G1 X33.432 Y5.43 E759.7965
G1 X89.568 Y61.567 E765.71428
G1 X89.568 Y62.839 E765.8091
G1 X32.159 Y5.43 E771.86102
G1 X30.886 Y5.43 E771.95591
G1 X89.568 Y64.112 E778.14204
G1 X89.568 Y65.385 E778.23693
G1 X29.613 Y5.43 E784.55725
G1 X28.34 Y5.429 E784.65214
G1 X89.568 Y66.658 E791.10671
G1 X89.568 Y67.931 E791.2016
G1 X27.067 Y5.429 E797.79036
M73 P1
G1 X25.794 Y5.429 E797.88525
G1 X89.568 Y69.203 E804.60816
G1 X89.568 Y70.476 E804.70305
G1 X24.521 Y5.429 E811.56016
G1 X23.248 Y5.429 E811.65505
G1 X89.568 Y71.749 E818.64635
G1 X89.568 Y73.022 E818.74124
G1 X21.976 Y5.429 E825.86669
G1 X20.703 Y5.429 E825.96158
G1 X89.568 Y74.295 E833.22123
G1 X89.568 Y75.567 E833.31604
G1 X19.43 Y5.429 E840.70983
G1 X18.157 Y5.429 E840.80472
G1 X89.568 Y76.84 E848.33271
G1 X89.568 Y78.113 E848.4276
G1 X16.885 Y5.429 E856.08972
G1 X15.612 Y5.429 E856.18462
G1 X89.568 Y79.386 E863.98094
G1 X89.568 Y80.658 E864.07576
G1 X14.417 Y5.508 E871.99795
G1 X14.342 Y5.518 E872.00359
G1 X14.06 Y5.58 E872.02511
G1 X13.791 Y5.656 E872.04595
G1 X13.516 Y5.756 E872.06776
G1 X13.43 Y5.793 E872.07474
G1 X89.568 Y81.931 E880.10103
G1 X89.568 Y83.204 E880.19593
G1 X12.603 Y6.239 E888.3094
G1 X12.487 Y6.317 E888.31982
G1 X12.244 Y6.504 E888.34268
G1 X11.902 Y6.811 E888.37693
G1 X89.568 Y84.477 E896.56431
G1 X89.567 Y85.749 E896.65912
G1 X11.315 Y7.496 E904.90832
G1 X11.242 Y7.595 E904.91749
G1 X11.082 Y7.845 E904.93962
G1 X10.95 Y8.082 E904.95984
G1 X10.846 Y8.3 E904.97784
G1 X89.567 Y87.022 E913.27648
G1 X89.567 Y88.295 E913.37137
G1 X10.535 Y9.262 E921.7028
G1 X10.492 Y9.485 E921.71973
G1 X10.455 Y9.774 E921.74144
G1 X10.432 Y10.156 E921.76997
G1 X10.431 Y10.431 E921.79047
G1 X89.567 Y89.567 E930.13281
G1 X89.567 Y90.84 E930.2277
G1 X10.431 Y11.704 E938.57003
G1 X10.431 Y12.977 E938.66492
G1 X89.567 Y92.113 E947.00726
G1 X89.567 Y93.386 E947.10215
G1 X10.431 Y14.25 E955.44449
G1 X10.431 Y15.523 E955.53938
G1 X89.567 Y94.658 E963.88166
G1 X89.567 Y95.931 E963.97655
G1 X10.431 Y16.795 E972.31889
G1 X10.431 Y18.068 E972.41378
G1 X89.567 Y97.204 E980.75612
G1 X89.567 Y98.477 E980.85101
G1 X10.431 Y19.341 E989.19334
G1 X10.431 Y20.614 E989.28823
G1 X89.567 Y99.75 E997.63057
G1 X89.567 Y101.022 E997.72539
G1 X10.431 Y21.887 E1006.06767
G1 X10.431 Y23.159 E1006.16249
G1 X89.567 Y102.295 E1014.50482
G1 X89.567 Y103.568 E1014.59971
G1 X10.431 Y24.432 E1022.94205
G1 X10.431 Y25.705 E1023.03694
G1 X89.567 Y104.841 E1031.37928
G1 X89.567 Y106.114 E1031.47417
G1 X10.431 Y26.978 E1039.8165
G1 X10.431 Y28.251 E1039.91139
G1 X89.567 Y107.386 E1048.25368
G1 X89.567 Y108.659 E1048.34857
G1 X10.431 Y29.523 E1056.6909
G1 X10.431 Y30.795 E1056.78572
G1 X89.562 Y109.926 E1065.12753
G1 X89.543 Y110.225 E1065.14986
G1 X89.506 Y110.513 E1065.17151
G1 X89.45 Y110.809 E1065.19396
G1 X89.392 Y111.029 E1065.21092
G1 X10.431 Y32.068 E1073.53481
G1 X10.431 Y33.341 E1073.6297
G1 X89.033 Y111.943 E1081.91574
G1 X88.908 Y112.166 E1081.9348
G1 X88.765 Y112.393 E1081.9548
G1 X88.564 Y112.665 E1081.98001
G1 X88.526 Y112.709 E1081.98434
G1 X10.431 Y34.614 E1090.21694
G1 X10.431 Y35.887 E1090.31183
G1 X87.903 Y113.359 E1098.47875
G1 X87.754 Y113.494 E1098.49374
G1 X87.514 Y113.681 E1098.51642
G1 X87.284 Y113.836 E1098.53709
G1 X87.172 Y113.901 E1098.54675
G1 X10.431 Y37.159 E1106.63666
G1 X10.431 Y38.432 E1106.73155
G1 X86.305 Y114.306 E1114.73001
G1 X86.207 Y114.341 E1114.73777
G1 X85.938 Y114.419 E1114.75865
G1 X85.656 Y114.479 E1114.78014
G1 X85.346 Y114.527 E1114.80352
G1 X85.259 Y114.533 E1114.81002
G1 X10.431 Y39.705 E1122.69822
G1 X10.431 Y40.978 E1122.79311
G1 X84.021 Y114.568 E1130.5508
G1 X82.749 Y114.568 E1130.64562
G1 X10.431 Y42.251 E1138.26916
G1 X10.431 Y43.523 E1138.36398
G1 X81.476 Y114.568 E1145.85338
G1 X80.203 Y114.568 E1145.94827
G1 X10.431 Y44.796 E1153.30347
G1 X10.431 Y46.069 E1153.39837
G1 X78.93 Y114.568 E1160.61937
G1 X77.658 Y114.568 E1160.71419
G1 X10.431 Y47.342 E1167.80105
G1 X10.431 Y48.615 E1167.89594
G1 X76.385 Y114.568 E1174.84861
G1 X75.112 Y114.568 E1174.9435
G1 X10.431 Y49.887 E1181.76203
G1 X10.43 Y51.159 E1181.85684
G1 X73.839 Y114.568 E1188.54127
G1 X72.566 Y114.568 E1188.63617
G1 X10.43 Y52.432 E1195.1864
G1 X10.43 Y53.705 E1195.28129
G1 X71.294 Y114.568 E1201.69738
G1 X70.02 Y114.568 E1201.79235
G1 X10.43 Y54.978 E1208.07419
G1 X10.43 Y56.251 E1208.16908
G1 X68.747 Y114.568 E1214.31673
G1 X67.474 Y114.568 E1214.41162
G1 X10.43 Y57.523 E1220.42512
G1 X10.43 Y58.796 E1220.52001
G1 X66.202 Y114.568 E1226.39936
G1 X64.929 Y114.568 E1226.49426
G1 X10.43 Y60.069 E1232.23942
G1 X10.43 Y61.342 E1232.33431
G1 X63.656 Y114.568 E1237.94527
G1 X62.383 Y114.568 E1238.04016
G1 X10.43 Y62.615 E1243.51693
G1 X10.43 Y63.887 E1243.61174
G1 X61.11 Y114.568 E1248.95437
G1 X59.838 Y114.568 E1249.04918
G1 X10.43 Y65.16 E1254.25766
G1 X10.43 Y66.433 E1254.35255
G1 X58.565 Y114.568 E1259.42683
G1 X57.292 Y114.568 E1259.52173
G1 X10.43 Y67.706 E1264.46181
G1 X10.43 Y68.978 E1264.55663
G1 X56.019 Y114.567 E1269.36251
G1 X54.746 Y114.567 E1269.45741
G1 X10.429 Y70.251 E1274.12915
G1 X10.429 Y71.523 E1274.22397
G1 X53.473 Y114.567 E1278.76157
