M73 P0
;MINX:7.0
;MAXX:93.0
;MINY:19.5
;MAXY:100.5
;MINZ:0.0
;MAXZ:10.0
;MachineType:ENTINA TINA2
;FilamentType:PLA
;Extruder0Temperature:200
;InfillDensity:10
;FLAVOR:Marlin
;TIME:2372
;FilamentUsed:2666.2
;Layer height: 0.35

;Generated with Cura_SteamEngine 3.1
M104 T0 S215
M82 ; absolute extrusion mode
;(**** start.gcode for tina2****)
M104 S150
G28 Z
G28 X Y; Home extruder
G1 X55 Y55 F1000
G1 Z10 F200
G29
G1 Z15 F100
M107 ; Turn off fan
G90 ; Absolute positioning
M82 ; Extruder in absolute mode
M109 S215.0
G92 E0 ; Reset extruder position
G1 X90 Y6 Z0.27 F2000
G1 X20 Y6 Z0.27 E15 F1000
G92 E0 ; Reset extruder position

;LAYER_COUNT:29
;LAYER:0
M106 S255
M203 Z5
G1 F3600 X91.458 Y19.645 Z0.299
;TYPE:SKIRT
G1 F1200 X91.89 Y19.911 E0.02645
G1 X92.275 Y20.241 E0.05289
G1 X92.603 Y20.628 E0.07933
G1 X92.866 Y21.061 E0.10575
G1 X93.058 Y21.531 E0.13222
G1 X93.174 Y22.025 E0.15867
G1 X93.211 Y22.511 E0.18408
G1 X93.211 Y97.49 E4.09313
G1 X93.171 Y97.996 E4.11959
G1 X93.052 Y98.489 E4.14604
G1 X92.857 Y98.957 E4.17247
G1 X92.592 Y99.389 E4.19889
G1 X92.261 Y99.774 E4.22536
G1 X91.875 Y100.102 E4.25177
G1 X91.441 Y100.365 E4.27823
G1 X90.972 Y100.557 E4.30465
G1 X90.478 Y100.673 E4.3311
G1 X89.991 Y100.71 E4.35657
G1 X10.009 Y100.71 E8.52645
G1 X9.503 Y100.67 E8.55291
G1 X9.01 Y100.551 E8.57935
G1 X8.542 Y100.356 E8.60578
G1 X8.11 Y100.091 E8.63221
G1 X7.725 Y99.76 E8.65868
G1 X7.397 Y99.374 E8.68509
G1 X7.134 Y98.94 E8.71154
G1 X6.942 Y98.471 E8.73796
G1 X6.826 Y97.977 E8.76442
G1 X6.789 Y97.49 E8.78988
G1 X6.789 Y22.51 E12.69898
G1 X6.829 Y22.004 E12.72545
G1 X6.948 Y21.511 E12.75189
G1 X7.143 Y21.043 E12.77832
G1 X7.408 Y20.611 E12.80474
G1 X7.739 Y20.226 E12.83121
G1 X8.125 Y19.898 E12.85762
G1 X8.559 Y19.635 E12.88408
G1 X9.028 Y19.443 E12.9105
G1 X9.522 Y19.327 E12.93696
G1 X10.008 Y19.29 E12.96237
G1 X42.228 Y19.281 E14.64216
G1 X42.384 Y19.285 E14.6503
G1 X45.782 Y19.449 E14.82766
G1 X51.32 Y19.53 E15.11642
G1 X57.119 Y19.287 E15.41902
G1 X57.255 Y19.284 E15.42611
G1 X89.992 Y19.291 E17.13286
G1 X90.497 Y19.331 E17.15927
G1 X90.99 Y19.45 E17.18571
G1 X91.458 Y19.645 E17.21214
G1 F1680 E14.21214
G1 F3600 X89.34 Y23.161
;TYPE:WALL-INNER
G1 F1680 E17.21214
G1 F1320 X89.34 Y34.836 E17.82082
G1 X10.66 Y34.836 E21.92283
G1 X10.66 Y23.161 E22.5315
G1 X42.055 Y23.161 E24.16829
G1 X41.993 Y23.406 E24.18147
G1 X41.876 Y24.2 E24.22331
G1 X41.838 Y24.999 E24.26501
G1 X41.876 Y25.798 E24.30672
G1 X41.993 Y26.592 E24.34856
G1 X42.189 Y27.369 E24.39034
G1 X42.458 Y28.123 E24.43207
G1 X42.8 Y28.848 E24.47387
G1 X43.212 Y29.534 E24.51558
G1 X43.689 Y30.179 E24.55741
G1 X44.228 Y30.771 E24.59915
G1 X44.82 Y31.31 E24.64089
G1 X45.465 Y31.787 E24.68271
G1 X46.151 Y32.199 E24.72443
G1 X46.876 Y32.541 E24.76622
G1 X47.63 Y32.81 E24.80796
G1 X48.407 Y33.006 E24.84974
G1 X49.201 Y33.123 E24.89158
G1 X50 Y33.161 E24.93329
G1 X50.799 Y33.123 E24.97499
G1 X51.593 Y33.006 E25.01683
G1 X52.37 Y32.81 E25.05861
G1 X53.124 Y32.541 E25.10035
G1 X53.849 Y32.199 E25.14214
G1 X54.535 Y31.787 E25.18386
G1 X55.18 Y31.31 E25.22568
G1 X55.772 Y30.771 E25.26742
G1 X56.311 Y30.179 E25.30916
G1 X56.788 Y29.534 E25.35099
G1 X57.2 Y28.848 E25.39271
G1 X57.542 Y28.123 E25.4345
G1 X57.811 Y27.369 E25.47623
G1 X58.006 Y26.592 E25.518
G1 X58.124 Y25.799 E25.5598
G1 X58.163 Y24.999 E25.60156
G1 X58.124 Y24.199 E25.64331
G1 X58.006 Y23.406 E25.68511
G1 X57.944 Y23.161 E25.69829
G1 X89.34 Y23.161 E27.33513
G1 F1680 E24.33513
G1 F3600 X89.34 Y96.161
G1 F1680 E27.33513
G1 F1320 X89.34 Y96.839 E27.37047
G1 X10.66 Y96.839 E31.47248
G1 X10.66 Y96.161 E31.50782
G1 X89.34 Y96.161 E35.60983
G1 F3600 X89.303 Y95.801
;TYPE:WALL-OUTER
G1 F1320 X89.303 Y35.196 E38.76948
G1 X10.698 Y35.196 E42.86758
G1 X10.698 Y95.801 E46.02723
G1 X89.303 Y95.801 E50.12533
G1 F1680 E47.12533
G1 F3600 X89.7 Y97.199
G1 F1680 E50.12533
G1 F1320 X10.3 Y97.199 E54.26487
G1 X10.3 Y22.801 E58.14363
G1 X42.517 Y22.801 E59.82327
G1 X42.347 Y23.476 E59.85956
G1 X42.235 Y24.235 E59.89956
G1 X42.198 Y24.999 E59.93943
G1 X42.235 Y25.763 E59.97931
G1 X42.347 Y26.522 E60.01931
G1 X42.534 Y27.264 E60.05921
G1 X42.791 Y27.985 E60.09911
G1 X43.118 Y28.678 E60.13906
G1 X43.512 Y29.334 E60.17896
G1 X43.968 Y29.95 E60.21891
G1 X44.483 Y30.516 E60.25881
G1 X45.049 Y31.031 E60.29871
G1 X45.665 Y31.487 E60.33866
G1 X46.321 Y31.881 E60.37856
G1 X47.014 Y32.208 E60.41851
G1 X47.735 Y32.465 E60.45841
G1 X48.477 Y32.652 E60.49831
G1 X49.236 Y32.764 E60.53831
G1 X50 Y32.801 E60.57819
G1 X50.764 Y32.764 E60.61806
G1 X51.523 Y32.652 E60.65806
G1 X52.265 Y32.465 E60.69796
G1 X52.986 Y32.208 E60.73786
G1 X53.679 Y31.881 E60.77781
G1 X54.335 Y31.487 E60.81771
G1 X54.951 Y31.031 E60.85767
G1 X55.517 Y30.516 E60.89756
G1 X56.032 Y29.95 E60.93746
G1 X56.488 Y29.334 E60.97741
G1 X56.882 Y28.678 E61.01731
G1 X57.209 Y27.985 E61.05726
G1 X57.466 Y27.264 E61.09716
G1 X57.653 Y26.522 E61.13706
G1 X57.765 Y25.764 E61.17701
G1 X57.803 Y24.999 E61.21694
G1 X57.765 Y24.234 E61.25687
G1 X57.653 Y23.476 E61.29682
G1 X57.483 Y22.801 E61.33311
G1 X89.7 Y22.801 E63.01275
G1 X89.7 Y97.199 E66.89151
G1 F1680 E63.89151
G1 F3600 X89.016 Y96.483
G1 F1680 E66.89151
G1 F1320 X88.409 Y96.499 E66.91079
G1 X87.787 Y96.499 E66.93128
G1 X87.165 Y96.499 E66.95177
G1 X86.543 Y96.499 E66.97226
G1 X85.92 Y96.499 E66.99278
G1 X85.298 Y96.499 E67.01327
G1 X84.676 Y96.499 E67.03376
G1 X84.054 Y96.499 E67.05425
G1 X83.431 Y96.499 E67.07477
G1 X82.809 Y96.499 E67.09526
G1 X82.187 Y96.499 E67.11575
G1 X81.565 Y96.499 E67.13623
G1 X80.942 Y96.499 E67.15676
G1 X80.32 Y96.499 E67.17724
G1 X79.698 Y96.499 E67.19773
G1 X79.076 Y96.499 E67.21822
G1 X78.453 Y96.499 E67.23874
G1 X77.831 Y96.499 E67.25923
G1 X77.209 Y96.499 E67.27972
G1 X76.587 Y96.499 E67.30021
G1 X75.964 Y96.499 E67.32073
G1 X75.342 Y96.499 E67.34122
G1 X74.72 Y96.499 E67.36171
G1 X74.098 Y96.499 E67.3822
G1 X73.475 Y96.499 E67.40272
G1 X72.853 Y96.499 E67.42321
G1 X72.231 Y96.499 E67.4437
G1 X71.609 Y96.499 E67.46418
G1 X70.986 Y96.499 E67.48471
G1 X70.364 Y96.499 E67.50519
G1 X69.742 Y96.499 E67.52568
G1 X69.119 Y96.499 E67.54621
G1 X68.497 Y96.499 E67.56669
G1 X67.875 Y96.499 E67.58718
G1 X67.253 Y96.499 E67.60767
G1 X66.63 Y96.499 E67.62819
G1 X66.008 Y96.499 E67.64868
G1 X65.386 Y96.499 E67.66917
G1 X64.764 Y96.499 E67.68966
G1 X64.141 Y96.499 E67.71018
G1 X63.519 Y96.499 E67.73067
G1 X62.897 Y96.499 E67.75116
G1 X62.275 Y96.499 E67.77165
G1 X61.652 Y96.499 E67.79217
G1 X61.03 Y96.499 E67.81266
G1 X60.408 Y96.499 E67.83315
G1 X59.786 Y96.499 E67.85363
G1 X59.163 Y96.499 E67.87416
G1 X58.541 Y96.499 E67.89464
G1 X57.919 Y96.499 E67.91513
G1 X57.297 Y96.499 E67.93562
G1 X56.674 Y96.499 E67.95614
G1 X56.052 Y96.499 E67.97663
G1 X55.43 Y96.499 E67.99712
G1 X54.808 Y96.499 E68.01761
G1 X54.185 Y96.499 E68.03813
G1 X53.563 Y96.499 E68.05862
G1 X52.941 Y96.499 E68.07911
G1 X52.319 Y96.499 E68.0996
G1 X51.696 Y96.499 E68.12012
G1 X51.074 Y96.499 E68.14061
G1 X50.452 Y96.499 E68.1611
G1 X49.83 Y96.499 E68.18159
G1 X49.207 Y96.499 E68.20211
G1 X48.585 Y96.499 E68.2226
G1 X47.963 Y96.499 E68.24308
G1 X47.341 Y96.499 E68.26357
G1 X46.718 Y96.499 E68.28409
G1 X46.096 Y96.499 E68.30458
G1 X45.474 Y96.499 E68.32507
G1 X44.852 Y96.499 E68.34556
G1 X44.229 Y96.499 E68.36608
G1 X43.607 Y96.499 E68.38657
G1 X42.985 Y96.499 E68.40706
G1 X42.363 Y96.499 E68.42755
G1 X41.74 Y96.499 E68.44807
G1 X41.118 Y96.499 E68.46856
G1 X40.496 Y96.499 E68.48905
G1 X39.874 Y96.499 E68.50954
G1 X39.251 Y96.499 E68.53006
G1 X38.629 Y96.499 E68.55055
G1 X38.007 Y96.499 E68.57103
M73 P1
G1 X37.385 Y96.499 E68.59152
G1 X36.762 Y96.499 E68.61205
G1 X36.14 Y96.499 E68.63253
G1 X35.518 Y96.499 E68.65302
G1 X34.896 Y96.499 E68.67351
G1 X34.273 Y96.499 E68.69403
G1 X33.651 Y96.499 E68.71452
G1 X33.029 Y96.499 E68.73501
G1 X32.407 Y96.499 E68.7555
G1 X31.784 Y96.499 E68.77602
G1 X31.162 Y96.499 E68.79651
G1 X30.54 Y96.499 E68.817
G1 X29.917 Y96.499 E68.83752
G1 X29.295 Y96.499 E68.85801
G1 X28.673 Y96.499 E68.8785
G1 X28.051 Y96.499 E68.89899
G1 X27.428 Y96.499 E68.91951
G1 X26.806 Y96.499 E68.94
G1 X26.184 Y96.499 E68.96048
G1 X25.562 Y96.499 E68.98097
G1 X24.939 Y96.499 E69.00149
G1 X24.317 Y96.499 E69.02198
G1 X23.695 Y96.499 E69.04247
G1 X23.073 Y96.499 E69.06296
G1 X22.45 Y96.499 E69.08348
G1 X21.828 Y96.499 E69.10397
G1 X21.206 Y96.499 E69.12446
G1 X20.584 Y96.499 E69.14495
G1 X19.961 Y96.499 E69.16547
G1 X19.339 Y96.499 E69.18596
G1 X18.717 Y96.499 E69.20645
G1 X18.095 Y96.499 E69.22694
G1 X17.472 Y96.499 E69.24746
G1 X16.85 Y96.499 E69.26795
G1 X16.228 Y96.499 E69.28844
G1 X15.606 Y96.499 E69.30892
G1 X14.983 Y96.499 E69.32945
G1 X14.361 Y96.499 E69.34993
G1 X13.739 Y96.499 E69.37042
G1 X13.117 Y96.499 E69.39091
G1 X12.494 Y96.499 E69.41143
G1 X11.872 Y96.499 E69.43192
G1 X11.25 Y96.499 E69.45241
G1 F1680 E66.45241
G1 F3600 X11.09 Y34.406
;TYPE:SKIN
G1 F1680 E69.45241
G1 F1320 X11.09 Y23.591 E70.01625
G1 X41.531 Y23.591 E71.6033
G1 X41.448 Y24.159 E71.63323
G1 X41.408 Y24.999 E71.67707
G1 X41.448 Y25.839 E71.72092
G1 X41.571 Y26.676 E71.76502
G1 X41.777 Y27.494 E71.809
G1 X42.06 Y28.287 E71.8529
G1 X42.421 Y29.051 E71.89695
G1 X42.854 Y29.773 E71.94084
G1 X43.356 Y30.452 E71.98487
G1 X43.923 Y31.076 E72.02882
G1 X44.547 Y31.643 E72.07278
G1 X45.226 Y32.145 E72.11681
G1 X45.948 Y32.578 E72.1607
G1 X46.712 Y32.939 E72.20475
G1 X47.505 Y33.222 E72.24865
G1 X48.323 Y33.428 E72.29263
G1 X49.16 Y33.551 E72.33673
G1 X50 Y33.591 E72.38058
G1 X50.84 Y33.551 E72.42442
G1 X51.677 Y33.428 E72.46852
G1 X52.495 Y33.222 E72.5125
G1 X53.288 Y32.939 E72.5564
G1 X54.052 Y32.578 E72.60045
G1 X54.774 Y32.145 E72.64435
G1 X55.453 Y31.643 E72.68837
G1 X56.077 Y31.076 E72.73233
G1 X56.644 Y30.452 E72.77628
G1 X57.146 Y29.773 E72.82031
G1 X57.579 Y29.051 E72.8642
G1 X57.94 Y28.287 E72.90825
G1 X58.223 Y27.494 E72.95215
G1 X58.428 Y26.676 E72.99612
G1 X58.552 Y25.842 E73.04008
G1 X58.593 Y24.999 E73.08408
G1 X58.552 Y24.156 E73.12808
G1 X58.469 Y23.591 E73.15785
G1 X88.91 Y23.591 E74.7449
G1 X88.91 Y34.406 E75.30874
G1 X11.09 Y34.406 E79.36591
G1 F3600 X11.804 Y34.205
G1 F1320 X11.289 Y33.69 E79.40388
G1 F3600 X11.289 Y33.068
G1 F1320 X12.426 Y34.205 E79.48771
G1 X12.454 Y34.233
G1 F3600 X13.048 Y34.205
G1 F1320 X11.289 Y32.446 E79.6174
G1 X11.261 Y32.418
G1 F3600 X11.289 Y31.824
G1 F1320 X13.671 Y34.205 E79.79299
G1 X13.699 Y34.233
G1 F3600 X14.293 Y34.205
G1 F1320 X11.289 Y31.201 E80.01448
G1 X11.261 Y31.173
G1 F3600 X11.289 Y30.579
G1 F1320 X14.915 Y34.205 E80.28183
G1 X14.943 Y34.233
G1 F3600 X15.537 Y34.205
G1 F1320 X11.289 Y29.957 E80.59503
G1 X11.261 Y29.929
G1 F3600 X11.289 Y29.335
G1 F1320 X16.16 Y34.205 E80.95414
G1 X16.188 Y34.233
G1 F3600 X16.782 Y34.205
G1 F1320 X11.289 Y28.712 E81.35914
G1 X11.261 Y28.684
G1 F3600 X11.289 Y28.09
G1 F1320 X17.404 Y34.205 E81.81
G1 X17.432 Y34.233
G1 F3600 X18.026 Y34.205
G1 F1320 X11.289 Y27.468 E82.30672
G1 X11.261 Y27.44
G1 F3600 X11.289 Y26.846
G1 F1320 X18.649 Y34.205 E82.84934
G1 X18.677 Y34.233
G1 F3600 X19.271 Y34.205
G1 F1320 X11.289 Y26.223 E83.43786
G1 X11.261 Y26.195
G1 F3600 X11.289 Y25.601
G1 F1320 X19.893 Y34.205 E84.07223
G1 X19.921 Y34.233
G1 F3600 X20.515 Y34.205
G1 F1320 X11.289 Y24.979 E84.75247
G1 X11.261 Y24.951
G1 F3600 X11.289 Y24.357
G1 F1320 X21.138 Y34.205 E85.4786
G1 X21.166 Y34.233
G1 F3600 X21.76 Y34.205
G1 F1320 X11.345 Y23.79 E86.2465
G1 X11.317 Y23.762
G1 F3600 X11.967 Y23.79
G1 F1320 X22.382 Y34.205 E87.01441
G1 X22.41 Y34.233
G1 F3600 X23.005 Y34.205
G1 F1320 X12.59 Y23.79 E87.78231
G1 X12.562 Y23.762
G1 F3600 X13.212 Y23.79
G1 F1320 X23.627 Y34.205 E88.55021
G1 X23.655 Y34.233
G1 F3600 X24.249 Y34.205
G1 F1320 X13.834 Y23.79 E89.31811
G1 X13.806 Y23.762
G1 F3600 X14.456 Y23.79
G1 F1320 X24.871 Y34.205 E90.08601
G1 X24.899 Y34.233
G1 F3600 X25.494 Y34.205
G1 F1320 X15.079 Y23.79 E90.85392
G1 X15.051 Y23.762
G1 F3600 X15.701 Y23.79
G1 F1320 X26.116 Y34.205 E91.62182
G1 X26.144 Y34.233
G1 F3600 X26.738 Y34.205
G1 F1320 X16.323 Y23.79 E92.38972
G1 X16.295 Y23.762
G1 F3600 X16.945 Y23.79
G1 F1320 X27.36 Y34.205 E93.15762
G1 X27.388 Y34.233
G1 F3600 X27.983 Y34.205
G1 F1320 X17.568 Y23.79 E93.92552
G1 X17.54 Y23.762
G1 F3600 X18.19 Y23.79
G1 F1320 X28.605 Y34.205 E94.69343
G1 X28.633 Y34.233
G1 F3600 X29.227 Y34.205
G1 F1320 X18.812 Y23.79 E95.46133
G1 X18.784 Y23.762
G1 F3600 X19.434 Y23.79
G1 F1320 X29.849 Y34.205 E96.22923
G1 X29.877 Y34.233
G1 F3600 X30.472 Y34.205
G1 F1320 X20.057 Y23.79 E96.99713
G1 X20.029 Y23.762
G1 F3600 X20.679 Y23.79
G1 F1320 X31.094 Y34.205 E97.76503
G1 X31.122 Y34.233
G1 F3600 X31.716 Y34.205
G1 F1320 X21.301 Y23.79 E98.53294
G1 X21.273 Y23.762
G1 F3600 X21.923 Y23.79
G1 F1320 X32.338 Y34.205 E99.30084
G1 X32.366 Y34.233
G1 F3600 X32.961 Y34.205
G1 F1320 X22.546 Y23.79 E100.06874
G1 X22.518 Y23.762
G1 F3600 X23.168 Y23.79
G1 F1320 X33.583 Y34.205 E100.83664
G1 X33.611 Y34.233
G1 F3600 X34.205 Y34.205
G1 F1320 X23.79 Y23.79 E101.60455
G1 X23.762 Y23.762
G1 F3600 X24.412 Y23.79
G1 F1320 X34.827 Y34.205 E102.37245
G1 X34.855 Y34.233
G1 F3600 X35.45 Y34.205
G1 F1320 X25.035 Y23.79 E103.14035
G1 X25.007 Y23.762
G1 F3600 X25.657 Y23.79
G1 F1320 X36.072 Y34.205 E103.90825
G1 X36.1 Y34.233
G1 F3600 X36.694 Y34.205
G1 F1320 X26.279 Y23.79 E104.67615
G1 X26.251 Y23.762
G1 F3600 X26.901 Y23.79
G1 F1320 X37.316 Y34.205 E105.44406
G1 X37.344 Y34.233
G1 F3600 X37.939 Y34.205
G1 F1320 X27.524 Y23.79 E106.21196
G1 X27.496 Y23.762
G1 F3600 X28.146 Y23.79
G1 F1320 X38.561 Y34.205 E106.97986
G1 X38.589 Y34.233
G1 F3600 X39.183 Y34.205
G1 F1320 X28.768 Y23.79 E107.74776
G1 X28.74 Y23.762
G1 F3600 X29.39 Y23.79
G1 F1320 X39.805 Y34.205 E108.51566
G1 X39.833 Y34.233
G1 F3600 X40.428 Y34.205
G1 F1320 X30.013 Y23.79 E109.28357
G1 X29.985 Y23.762
G1 F3600 X30.635 Y23.79
G1 F1320 X41.05 Y34.205 E110.05147
G1 X41.078 Y34.233
G1 F3600 X41.672 Y34.205
G1 F1320 X31.257 Y23.79 E110.81937
G1 X31.229 Y23.762
G1 F3600 X31.879 Y23.79
G1 F1320 X42.294 Y34.205 E111.58727
G1 X42.322 Y34.233
G1 F3600 X42.917 Y34.205
G1 F1320 X32.502 Y23.79 E112.35517
G1 X32.474 Y23.762
G1 F3600 X33.124 Y23.79
G1 F1320 X43.539 Y34.205 E113.12308
G1 X43.567 Y34.233
G1 F3600 X44.161 Y34.205
G1 F1320 X33.746 Y23.79 E113.89098
G1 X33.718 Y23.762
G1 F3600 X34.368 Y23.79
G1 F1320 X44.783 Y34.205 E114.65888
G1 X44.811 Y34.233
G1 F3600 X45.406 Y34.205
G1 F1320 X34.991 Y23.79 E115.42678
G1 X34.963 Y23.762
G1 F3600 X35.613 Y23.79
G1 F1320 X46.028 Y34.205 E116.19468
G1 X46.056 Y34.233
G1 F3600 X46.65 Y34.205
G1 F1320 X36.235 Y23.79 E116.96259
G1 X36.207 Y23.762
G1 F3600 X36.857 Y23.79
G1 F1320 X42.291 Y29.224 E117.36324
G1 X42.319 Y29.252
G1 F1680 E114.36324
G1 F3600 X41.775 Y28.085
G1 F1680 E117.36324
G1 F1320 X37.48 Y23.79 E117.67991
G1 X37.452 Y23.762
G1 F3600 X38.102 Y23.79
G1 F1320 X41.49 Y27.179 E117.92974
G1 X41.518 Y27.207
G1 F1680 E114.92974
G1 F3600 X41.326 Y26.392
M73 P2
G1 F1680 E117.92974
G1 F1320 X38.724 Y23.79 E118.12159
G1 X38.696 Y23.762
G1 F3600 X39.346 Y23.79
G1 F1320 X41.24 Y25.684 E118.26124
G1 X41.268 Y25.712
G1 F3600 X41.209 Y25.03
G1 F1320 X39.969 Y23.79 E118.35266
G1 X39.941 Y23.762
G1 F3600 X40.591 Y23.79
G1 F1320 X41.234 Y24.434 E118.40011
G1 X41.262 Y24.462
G1 F3600 X41.287 Y23.864
G1 F1320 X41.213 Y23.79 E118.40556
G1 F1680 E115.40556
G1 F3600 X45.775 Y32.707
G1 F1680 E118.40556
G1 F1320 X47.272 Y34.205 E118.51598
G1 X47.3 Y34.233
G1 F3600 X47.895 Y34.205
G1 F1320 X46.913 Y33.224 E118.58834
G1 X46.885 Y33.196
G1 F1680 E115.58834
G1 F3600 X47.819 Y33.507
G1 F1680 E118.58834
G1 F1320 X48.517 Y34.205 E118.63981
G1 X48.545 Y34.233
G1 F3600 X48.872 Y33.938
G1 F1320 X49.538 Y33.981 E118.67594
G1 X50.176 Y33.997 E118.7077
G1 X50.785 Y33.984 E118.73925
G1 X51.38 Y33.957 E118.77376
G1 X51.963 Y33.917 E118.81322
G1 F3600 X52.873 Y34.205
G1 F1320 X52.176 Y33.509 E118.86458
G1 X52.148 Y33.481
G1 F3600 X52.664 Y33.374
G1 F1320 X53.495 Y34.205 E118.92585
G1 X53.523 Y34.233
G1 F3600 X54.117 Y34.205
G1 F1320 X53.122 Y33.21 E118.99921
G1 X53.094 Y33.182
G1 F3600 X53.564 Y33.029
G1 F1320 X54.739 Y34.205 E119.08588
G1 X54.767 Y34.233
G1 F3600 X55.362 Y34.205
