M73 P0
;MINX:10.0
;MAXX:90.0
;MINY:5.0
;MAXY:115.0
;MINZ:0.0
;MAXZ:36.3
;MachineType:ENTINA TINA2
;FilamentType:PLA
;Extruder0Temperature:200
;InfillDensity:10
;FLAVOR:Marlin
;TIME:10543
;FilamentUsed:15083.9
;Layer height: 0.35

;Generated with Cura_SteamEngine 3.1
M104 T0 S215
M82 ; absolute extrusion mode
;(**** start.gcode for tina2****)
M104 S150
G28 Z
G28 X Y; Home extruder
G1 X55 Y55 F1000
G1 Z10 F200
G29
G1 Z15 F100
M107 ; Turn off fan
G90 ; Absolute positioning
M82 ; Extruder in absolute mode
M109 S215.0
G92 E0 ; Reset extruder position
G1 X90 Y6 Z0.27 F2000
G1 X20 Y6 Z0.27 E15 F1000
G92 E0 ; Reset extruder position

;LAYER_COUNT:101
;LAYER:-5
M107
M203 Z5
G1 F3600 X88.637 Y7.51 Z0.349
G1 F1200 X88.793 Y7.741 E0.03074
G1 X88.951 Y8.009 E0.06505
G1 X89.083 Y8.268 E0.0971
G1 X89.186 Y8.507 E0.1258
G1 X89.291 Y8.799 E0.16002
G1 X89.372 Y9.081 E0.19237
G1 X89.428 Y9.335 E0.22106
G1 X89.477 Y9.665 E0.25785
G1 X89.513 Y10.126 E0.30884
G1 X89.52 Y10.311 E0.32925
G1 X89.516 Y109.842 E11.30493
G1 X89.492 Y110.219 E11.34659
G1 X89.455 Y110.517 E11.3797
G1 X89.4 Y110.801 E11.4116
G1 X89.324 Y111.092 E11.44477
G1 X89.24 Y111.35 E11.47469
G1 X89.129 Y111.629 E11.5078
G1 X89.007 Y111.887 E11.53927
G1 X88.863 Y112.146 E11.57195
G1 X88.724 Y112.365 E11.60055
G1 X88.526 Y112.631 E11.63712
G1 X88.106 Y113.112 E11.70754
G1 X87.706 Y113.469 E11.76666
G1 X87.489 Y113.638 E11.79699
G1 X87.258 Y113.794 E11.82773
G1 X86.99 Y113.952 E11.86204
G1 X86.733 Y114.082 E11.8938
G1 X86.464 Y114.197 E11.92606
G1 X86.207 Y114.29 E11.9562
G1 X85.915 Y114.374 E11.9897
G1 X85.654 Y114.43 E12.01914
G1 X85.334 Y114.478 E12.05482
G1 X84.866 Y114.514 E12.10658
G1 X84.674 Y114.521 E12.12777
G1 X15.159 Y114.517 E19.79346
G1 X14.782 Y114.493 E19.83512
G1 X14.484 Y114.456 E19.86823
G1 X14.2 Y114.401 E19.90013
G1 X13.909 Y114.325 E19.9333
G1 X13.649 Y114.24 E19.96346
G1 X13.372 Y114.13 E19.99633
G1 X13.111 Y114.006 E20.0282
G1 X12.856 Y113.865 E20.06033
G1 X12.636 Y113.725 E20.08908
G1 X12.37 Y113.527 E20.12565
G1 X11.887 Y113.105 E20.19638
G1 X11.53 Y112.705 E20.2555
G1 X11.363 Y112.49 E20.28552
G1 X11.204 Y112.254 E20.3169
G1 X11.049 Y111.991 E20.35057
G1 X10.919 Y111.734 E20.38233
G1 X10.803 Y111.464 E20.41473
G1 X10.711 Y111.208 E20.44473
G1 X10.627 Y110.916 E20.47824
G1 X10.571 Y110.655 E20.50767
G1 X10.523 Y110.335 E20.54335
G1 X10.486 Y109.857 E20.59622
G1 X10.48 Y109.689 E20.61476
G1 X10.484 Y10.158 E31.59044
G1 X10.508 Y9.781 E31.6321
G1 X10.545 Y9.483 E31.66521
G1 X10.6 Y9.199 E31.69711
G1 X10.676 Y8.908 E31.73028
G1 X10.76 Y8.65 E31.7602
G1 X10.871 Y8.371 E31.79331
G1 X10.993 Y8.113 E31.82478
G1 X11.132 Y7.863 E31.85632
G1 X11.284 Y7.625 E31.88747
G1 X11.474 Y7.369 E31.92262
G1 X11.894 Y6.888 E31.99304
G1 X12.296 Y6.529 E32.05247
G1 X12.511 Y6.362 E32.08249
G1 X12.742 Y6.206 E32.11323
G1 X13.01 Y6.048 E32.14754
G1 X13.267 Y5.918 E32.1793
G1 X13.537 Y5.802 E32.2117
G1 X13.793 Y5.71 E32.2417
G1 X14.085 Y5.626 E32.27521
G1 X14.346 Y5.57 E32.30464
G1 X14.666 Y5.522 E32.34033
G1 X15.134 Y5.486 E32.39209
G1 X15.326 Y5.479 E32.41327
G1 X84.841 Y5.483 E40.07897
G1 X85.218 Y5.507 E40.12063
G1 X85.516 Y5.544 E40.15374
G1 X85.8 Y5.599 E40.18564
G1 X86.091 Y5.675 E40.21881
G1 X86.349 Y5.759 E40.24873
G1 X86.628 Y5.87 E40.28184
G1 X86.886 Y5.992 E40.31331
G1 X87.145 Y6.136 E40.34599
G1 X87.364 Y6.275 E40.37459
G1 X87.63 Y6.473 E40.41116
G1 X88.111 Y6.893 E40.48158
G1 X88.47 Y7.295 E40.54101
G1 X88.637 Y7.51 E40.57103
G1 F1680 E37.57103
G1 F3600 X88 Y6.797
G1 F1680 E40.57103
G1 F1200 X88 Y113.207 E52.30528
G1 F1680 E49.30528
G1 F3600 X86.4 Y114.221
G1 F1680 E52.30528
G1 F1200 X86.4 Y5.78 E64.26351
G1 F1680 E61.26351
G1 F3600 X84.8 Y5.483
G1 F1680 E64.26351
G1 F1200 X84.8 Y114.517 E76.28712
G1 F1680 E73.28712
G1 F3600 X83.2 Y114.52
G1 F1680 E76.28712
G1 F1200 X83.2 Y5.483 E88.31106
G1 F1680 E85.31106
G1 F3600 X81.6 Y5.483
G1 F1680 E88.31106
G1 F1200 X81.6 Y114.52 E100.33501
G1 F1680 E97.33501
G1 F3600 X80 Y114.52
G1 F1680 E100.33501
G1 F1200 X80 Y5.483 E112.35895
G1 F1680 E109.35895
G1 F3600 X78.4 Y5.483
G1 F1680 E112.35895
G1 F1200 X78.4 Y114.52 E124.38289
G1 F1680 E121.38289
G1 F3600 X76.8 Y114.52
G1 F1680 E124.38289
G1 F1200 X76.8 Y5.483 E136.40684
G1 F1680 E133.40684
G1 F3600 X75.2 Y5.483
G1 F1680 E136.40684
G1 F1200 X75.2 Y114.52 E148.43078
G1 F1680 E145.43078
G1 F3600 X73.6 Y114.52
G1 F1680 E148.43078
G1 F1200 X73.6 Y5.483 E160.45472
G1 F1680 E157.45472
G1 F3600 X72 Y5.483
G1 F1680 E160.45472
G1 F1200 X72 Y114.52 E172.47867
G1 F1680 E169.47867
G1 F3600 X70.4 Y114.52
G1 F1680 E172.47867
G1 F1200 X70.4 Y5.483 E184.50261
G1 F1680 E181.50261
G1 F3600 X68.8 Y5.483
G1 F1680 E184.50261
G1 F1200 X68.8 Y114.52 E196.52656
G1 F1680 E193.52656
G1 F3600 X67.2 Y114.519
G1 F1680 E196.52656
G1 F1200 X67.2 Y5.482 E208.5505
G1 F1680 E205.5505
G1 F3600 X65.6 Y5.482
G1 F1680 E208.5505
G1 F1200 X65.6 Y114.519 E220.57444
G1 F1680 E217.57444
G1 F3600 X64 Y114.519
G1 F1680 E220.57444
G1 F1200 X64 Y5.482 E232.59839
G1 F1680 E229.59839
G1 F3600 X62.4 Y5.482
G1 F1680 E232.59839
G1 F1200 X62.4 Y114.519 E244.62233
G1 F1680 E241.62233
G1 F3600 X60.8 Y114.519
G1 F1680 E244.62233
G1 F1200 X60.8 Y5.482 E256.64627
G1 F1680 E253.64627
G1 F3600 X59.2 Y5.482
G1 F1680 E256.64627
G1 F1200 X59.2 Y114.519 E268.67022
G1 F1680 E265.67022
G1 F3600 X57.6 Y114.519
G1 F1680 E268.67022
G1 F1200 X57.6 Y5.482 E280.69416
G1 F1680 E277.69416
G1 F3600 X56 Y5.482
G1 F1680 E280.69416
G1 F1200 X56 Y114.519 E292.7181
G1 F1680 E289.7181
G1 F3600 X54.4 Y114.519
G1 F1680 E292.7181
G1 F1200 X54.4 Y5.482 E304.74205
G1 F1680 E301.74205
G1 F3600 X52.8 Y5.482
G1 F1680 E304.74205
G1 F1200 X52.8 Y114.519 E316.76599
G1 F1680 E313.76599
G1 F3600 X51.2 Y114.519
G1 F1680 E316.76599
G1 F1200 X51.2 Y5.482 E328.78994
G1 F1680 E325.78994
G1 F3600 X49.6 Y5.481
G1 F1680 E328.78994
G1 F1200 X49.6 Y114.518 E340.81388
G1 F1680 E337.81388
G1 F3600 X48 Y114.518
G1 F1680 E340.81388
G1 F1200 X48 Y5.481 E352.83782
G1 F1680 E349.83782
G1 F3600 X46.4 Y5.481
G1 F1680 E352.83782
G1 F1200 X46.4 Y114.518 E364.86177
G1 F1680 E361.86177
G1 F3600 X44.8 Y114.518
G1 F1680 E364.86177
G1 F1200 X44.8 Y5.481 E376.88571
G1 F1680 E373.88571
G1 F3600 X43.2 Y5.481
G1 F1680 E376.88571
G1 F1200 X43.2 Y114.518 E388.90965
G1 F1680 E385.90965
G1 F3600 X41.6 Y114.518
G1 F1680 E388.90965
G1 F1200 X41.6 Y5.481 E400.9336
G1 F1680 E397.9336
G1 F3600 X40 Y5.481
G1 F1680 E400.9336
G1 F1200 X40 Y114.518 E412.95754
G1 F1680 E409.95754
G1 F3600 X38.4 Y114.518
G1 F1680 E412.95754
G1 F1200 X38.4 Y5.481 E424.98149
G1 F1680 E421.98149
G1 F3600 X36.8 Y5.481
G1 F1680 E424.98149
G1 F1200 X36.8 Y114.518 E437.00543
G1 F1680 E434.00543
G1 F3600 X35.2 Y114.518
G1 F1680 E437.00543
G1 F1200 X35.2 Y5.481 E449.02937
G1 F1680 E446.02937
G1 F3600 X33.6 Y5.481
G1 F1680 E449.02937
G1 F1200 X33.6 Y114.518 E461.05332
G1 F1680 E458.05332
G1 F3600 X32 Y114.517
G1 F1680 E461.05332
G1 F1200 X32 Y5.48 E473.07726
G1 F1680 E470.07726
G1 F3600 X30.4 Y5.48
G1 F1680 E473.07726
G1 F1200 X30.4 Y114.517 E485.1012
G1 F1680 E482.1012
G1 F3600 X28.8 Y114.517
G1 F1680 E485.1012
G1 F1200 X28.8 Y5.48 E497.12515
G1 F1680 E494.12515
G1 F3600 X27.2 Y5.48
G1 F1680 E497.12515
G1 F1200 X27.2 Y114.517 E509.14909
G1 F1680 E506.14909
G1 F3600 X25.6 Y114.517
G1 F1680 E509.14909
G1 F1200 X25.6 Y5.48 E521.17304
G1 F1680 E518.17304
G1 F3600 X24 Y5.48
G1 F1680 E521.17304
G1 F1200 X24 Y114.517 E533.19698
G1 F1680 E530.19698
G1 F3600 X22.4 Y114.517
G1 F1680 E533.19698
G1 F1200 X22.4 Y5.48 E545.22092
G1 F1680 E542.22092
G1 F3600 X20.8 Y5.48
G1 F1680 E545.22092
G1 F1200 X20.8 Y114.517 E557.24487
G1 F1680 E554.24487
G1 F3600 X19.2 Y114.517
G1 F1680 E557.24487
G1 F1200 X19.2 Y5.48 E569.26881
G1 F1680 E566.26881
G1 F3600 X17.6 Y5.48
G1 F1680 E569.26881
G1 F1200 X17.6 Y114.517 E581.29275
G1 F1680 E578.29275
G1 F3600 X16 Y114.517
G1 F1680 E581.29275
G1 F1200 X16 Y5.48 E593.3167
G1 F1680 E590.3167
G1 F3600 X14.4 Y5.561
G1 F1680 E593.3167
G1 F1200 X14.4 Y114.439 E605.32311
G1 F1680 E602.32311
G1 F3600 X12.8 Y113.829
G1 F1680 E605.32311
G1 F1200 X12.8 Y6.171 E617.19498
G1 F1680 E614.19498
G1 F3600 X11.2 Y7.756
M104 T0 S200
G1 F1680 E617.19498
G1 F1200 X11.2 Y112.247 E628.71762
G1 F1680 E625.71762
G1 F3600 X88.682 Y7.486
;TIME_ELAPSED:299.060479
;LAYER:-4
G1 X88.682 Y7.486 Z0.619
;TYPE:SUPPORT
G1 F1680 E628.71762
G1 F1980 X88.494 Y7.245 E628.74041
G1 X88.147 Y6.858 E628.77915
G1 X87.664 Y6.435 E628.82701
G1 X87.393 Y6.233 E628.85221
G1 X87.167 Y6.09 E628.87214
G1 X86.916 Y5.951 E628.89353
G1 X86.64 Y5.819 E628.91633
G1 X86.383 Y5.716 E628.93697
G1 X86.102 Y5.625 E628.95899
G1 X85.809 Y5.548 E628.98157
G1 X85.716 Y5.53 E628.98863
G1 X89.467 Y9.281 E629.38405
G1 F3600 X89.418 Y9.057
G1 F1980 X89.343 Y8.799 E629.40408
G1 X89.233 Y8.49 E629.42853
G1 X89.13 Y8.251 E629.44793
G1 X89 Y7.993 E629.46947
G1 X88.835 Y7.715 E629.49356
G1 X88.682 Y7.486 E629.51409
G1 F1680 E626.51409
G1 F3600 X89.57 Y10.657
G1 F1680 E629.51409
G1 F1980 X89.57 Y11.93 E629.60898
G1 X83.072 Y5.431 E630.29404
G1 X81.799 Y5.431 E630.38893
G1 X89.57 Y13.203 E631.20819
G1 X89.57 Y14.475 E631.303
G1 X80.526 Y5.431 E632.2564
G1 X79.253 Y5.431 E632.35129
G1 X89.57 Y15.748 E633.43889
G1 X89.57 Y17.021 E633.53378
G1 X77.981 Y5.431 E634.75552
G1 X76.708 Y5.431 E634.85041
G1 X89.57 Y18.294 E636.20634
G1 X89.57 Y19.567 E636.30124
G1 X75.435 Y5.431 E637.79137
G1 X74.162 Y5.431 E637.88626
G1 X89.57 Y20.839 E639.51053
G1 X89.57 Y22.112 E639.60543
G1 X72.889 Y5.431 E641.3639
G1 X71.616 Y5.431 E641.45879
G1 X89.57 Y23.385 E643.35146
G1 X89.57 Y24.658 E643.44635
G1 X70.343 Y5.431 E645.47322
G1 X69.07 Y5.431 E645.56811
G1 X89.57 Y25.931 E647.72917
G1 X89.569 Y27.203 E647.82399
G1 X67.798 Y5.431 E650.11909
G1 X66.525 Y5.431 E650.21398
G1 X89.569 Y28.475 E652.64323
G1 X89.569 Y29.748 E652.73812
G1 X65.252 Y5.431 E655.30156
G1 X63.979 Y5.431 E655.39645
G1 X89.569 Y31.021 E658.09409
G1 X89.569 Y32.294 E658.18898
G1 X62.706 Y5.431 E661.02082
G1 X61.433 Y5.43 E661.11571
G1 X89.569 Y33.567 E664.0818
G1 X89.569 Y34.839 E664.17661
G1 X60.16 Y5.43 E667.27684
G1 X58.887 Y5.43 E667.37173
G1 X89.569 Y36.112 E670.60616
G1 X89.569 Y37.385 E670.70105
G1 X57.615 Y5.43 E674.06962
G1 X56.342 Y5.43 E674.16451
G1 X89.569 Y38.658 E677.66728
G1 X89.569 Y39.931 E677.76217
G1 X55.069 Y5.43 E681.39913
G1 X53.796 Y5.43 E681.49403
G1 X89.569 Y41.203 E685.26513
G1 X89.569 Y42.476 E685.36003
G1 X52.523 Y5.43 E689.26533
G1 X51.251 Y5.43 E689.36015
G1 X89.569 Y43.748 E693.39954
G1 X89.569 Y45.021 E693.49443
G1 X49.977 Y5.429 E697.66813
G1 X48.704 Y5.429 E697.76302
G1 X89.569 Y46.294 E702.07092
G1 X89.569 Y47.567 E702.16581
G1 X47.432 Y5.429 E706.60785
G1 X46.159 Y5.429 E706.70274
G1 X89.569 Y48.839 E711.27892
G1 X89.569 Y50.112 E711.37381
G1 X44.886 Y5.429 E716.08419
G1 X43.613 Y5.429 E716.17908
G1 X89.569 Y51.385 E721.02366
G1 X89.569 Y52.658 E721.11855
G1 X42.34 Y5.429 E726.09732
G1 X41.068 Y5.429 E726.19214
G1 X89.569 Y53.931 E731.30506
G1 X89.569 Y55.203 E731.39987
G1 X39.795 Y5.429 E736.64694
G1 X38.522 Y5.429 E736.74183
G1 X89.569 Y56.476 E742.12308
G1 X89.569 Y57.749 E742.21798
G1 X37.248 Y5.429 E747.73348
G1 X35.976 Y5.429 E747.8283
G1 X89.569 Y59.022 E753.47795
G1 X89.568 Y60.294 E753.57277
G1 X34.703 Y5.429 E759.35651
G1 X33.43 Y5.429 E759.4514
G1 X89.568 Y61.567 E765.36934
G1 X89.568 Y62.839 E765.46416
G1 X32.157 Y5.429 E771.51624
G1 X30.885 Y5.429 E771.61106
G1 X89.568 Y64.112 E777.79729
G1 X89.568 Y65.385 E777.89218
G1 X29.612 Y5.429 E784.2126
G1 X28.339 Y5.429 E784.30749
G1 X89.568 Y66.658 E790.76211
G1 X89.568 Y67.931 E790.857
G1 X27.066 Y5.429 E797.44582
G1 X25.793 Y5.428 E797.54071
G1 X89.568 Y69.203 E804.26373
G1 X89.568 Y70.476 E804.35862
G1 X24.52 Y5.428 E811.21583
G1 X23.247 Y5.428 E811.31072
G1 X89.568 Y71.749 E818.30213
G1 X89.568 Y73.022 E818.39702
G1 X21.974 Y5.428 E825.52263
G1 X20.701 Y5.428 E825.61752
G1 X89.568 Y74.295 E832.87732
G1 X89.568 Y75.567 E832.97214
G1 X19.429 Y5.428 E840.36603
G1 X18.156 Y5.428 E840.46092
G1 X89.567 Y76.839 E847.9889
G1 X89.567 Y78.112 E848.08379
G1 X16.883 Y5.428 E855.74597
G1 X15.61 Y5.428 E855.84087
G1 X89.567 Y79.385 E863.63724
G1 X89.567 Y80.658 E863.73214
G1 X14.416 Y5.506 E871.65443
G1 X14.342 Y5.517 E871.66001
G1 X14.06 Y5.579 E871.68153
G1 X13.791 Y5.655 E871.70237
G1 X13.516 Y5.755 E871.72418
G1 X13.429 Y5.792 E871.73123
G1 X89.567 Y81.931 E879.75758
G1 X89.567 Y83.203 E879.85239
G1 X12.602 Y6.238 E887.96587
G1 X12.487 Y6.315 E887.97618
G1 X12.245 Y6.503 E887.99903
G1 X11.902 Y6.81 E888.03334
G1 X89.567 Y84.476 E896.22066
G1 X89.567 Y85.749 E896.31555
G1 X11.314 Y7.496 E904.5648
G1 X11.242 Y7.593 E904.57381
G1 X11.082 Y7.843 E904.59593
G1 X10.951 Y8.082 E904.61625
G1 X10.846 Y8.3 E904.63428
G1 X89.567 Y87.022 E912.93292
G1 X89.567 Y88.295 E913.02781
G1 X10.534 Y9.261 E921.35935
G1 X10.492 Y9.485 E921.37633
G1 X10.455 Y9.772 E921.3979
G1 X10.431 Y10.156 E921.42658
G1 X10.431 Y10.431 E921.44708
G1 X89.567 Y89.567 E929.78942
G1 X89.567 Y90.84 E929.88431
G1 X10.431 Y11.704 E938.22665
G1 X10.431 Y12.976 E938.32146
G1 X89.567 Y92.113 E946.66385
G1 X89.567 Y93.385 E946.75867
G1 X10.431 Y14.249 E955.101
G1 X10.431 Y15.522 E955.19589
G1 X89.567 Y94.658 E963.53823
G1 X89.567 Y95.931 E963.63312
G1 X10.431 Y16.795 E971.97546
G1 X10.431 Y18.067 E972.07027
G1 X89.567 Y97.203 E980.41261
G1 X89.567 Y98.476 E980.5075
G1 X10.431 Y19.34 E988.84984
G1 X10.431 Y20.613 E988.94473
G1 X89.567 Y99.749 E997.28706
G1 X89.567 Y101.022 E997.38196
G1 X10.431 Y21.886 E1005.72429
G1 X10.431 Y23.159 E1005.81918
G1 X89.567 Y102.295 E1014.16152
G1 X89.567 Y103.567 E1014.25633
G1 X10.431 Y24.431 E1022.59867
G1 X10.431 Y25.704 E1022.69356
G1 X89.567 Y104.84 E1031.0359
G1 X89.567 Y106.113 E1031.13079
G1 X10.431 Y26.977 E1039.47312
G1 X10.431 Y28.25 E1039.56802
G1 X89.567 Y107.386 E1047.91035
G1 X89.567 Y108.658 E1048.00517
G1 X10.431 Y29.523 E1056.34745
G1 X10.431 Y30.795 E1056.44227
G1 X89.561 Y109.926 E1064.78402
G1 X89.543 Y110.225 E1064.80635
G1 X89.506 Y110.513 E1064.828
G1 X89.449 Y110.809 E1064.85047
G1 X89.393 Y111.03 E1064.86746
G1 X10.431 Y32.068 E1073.19145
G1 X10.431 Y33.341 E1073.28635
G1 X89.033 Y111.944 E1081.57244
G1 X88.908 Y112.168 E1081.59156
G1 X88.765 Y112.394 E1081.6115
G1 X88.563 Y112.666 E1081.63675
G1 X88.526 Y112.709 E1081.64098
G1 X10.431 Y34.614 E1089.87358
G1 X10.43 Y35.886 E1089.96839
G1 X87.903 Y113.359 E1098.13542
G1 X87.754 Y113.495 E1098.15046
G1 X87.513 Y113.682 E1098.1732
G1 X87.283 Y113.837 E1098.19387
G1 X87.172 Y113.901 E1098.20342
G1 X10.43 Y37.159 E1106.29339
G1 X10.43 Y38.431 E1106.3882
G1 X86.305 Y114.307 E1114.38682
G1 X86.207 Y114.343 E1114.39461
G1 X85.938 Y114.419 E1114.41544
G1 X85.656 Y114.481 E1114.43697
G1 X85.345 Y114.527 E1114.4604
G1 X85.26 Y114.534 E1114.46676
G1 X10.43 Y39.704 E1122.35517
G1 X10.43 Y40.977 E1122.45006
G1 X84.023 Y114.57 E1130.20806
G1 X82.75 Y114.57 E1130.30295
G1 X10.43 Y42.25 E1137.92676
G1 X10.43 Y43.523 E1138.02165
G1 X81.477 Y114.57 E1145.51127
G1 X80.205 Y114.57 E1145.60608
G1 X10.43 Y44.795 E1152.9616
G1 X10.43 Y46.068 E1153.05649
G1 X78.932 Y114.57 E1160.27782
G1 X77.659 Y114.57 E1160.37271
G1 X10.43 Y47.341 E1167.45984
G1 X10.43 Y48.614 E1167.55473
G1 X76.386 Y114.57 E1174.50766
G1 X75.113 Y114.57 E1174.60255
G1 X10.43 Y49.887 E1181.42128
G1 X10.43 Y51.159 E1181.5161
G1 X73.841 Y114.57 E1188.20074
G1 X72.568 Y114.57 E1188.29563
G1 X10.43 Y52.432 E1194.84608
G1 X10.43 Y53.705 E1194.94097
G1 X71.295 Y114.57 E1201.35722
G1 X70.021 Y114.569 E1201.45219
G1 X10.43 Y54.978 E1207.73413
G1 X10.43 Y56.251 E1207.82902
G1 X68.749 Y114.569 E1213.97683
G1 X67.476 Y114.569 E1214.07172
G1 X10.43 Y57.523 E1220.08538
G1 X10.43 Y58.796 E1220.18027
G1 X66.203 Y114.569 E1226.05973
G1 X64.93 Y114.569 E1226.15462
G1 X10.429 Y60.068 E1231.89999
G1 X10.429 Y61.341 E1231.99488
G1 X63.657 Y114.569 E1237.60606
G1 X62.385 Y114.569 E1237.70087
G1 X10.429 Y62.614 E1243.1779
G1 X10.429 Y63.887 E1243.27279
G1 X61.112 Y114.569 E1248.61563
G1 X59.839 Y114.569 E1248.71052
G1 X10.429 Y65.159 E1253.91921
G1 X10.429 Y66.432 E1254.0141
G1 X58.566 Y114.569 E1259.08859
G1 X57.294 Y114.569 E1259.18341
