M73 P0
;MachineType:WEEDO TINA2
;FilamentType:PLA
;Extruder0Temperature:200
;InfillDensity:10
;FLAVOR:Marlin
;TIME:630
;FilamentUsed:519.0
;Layer height: 0.15

;Generated with Cura_SteamEngine 3.1
M104 S215
M82 ; absolute extrusion mode
;(**** start.gcode for WEEDO TINA2****)
M104 S150
G28 Z
G28 X Y; Home extruder
G1 X55 Y55 F1000
G1 Z10 F200
G29
G1 Z15 F100
M107 ; Turn off fan
G90 ; Absolute positioning
M82 ; Extruder in absolute mode
M109 S215.0
G92 E0 ; Reset extruder position
G1 X90 Y6 Z0.27 F2000
G1 X20 Y6 Z0.27 E15 F1000
G92 E0 ; Reset extruder position

;LAYER_COUNT:26
;LAYER:-7
M107
M203 Z5
G1 F3600 X60.679 Y38.122 Z0.349
G1 F1200 X61.214 Y38.736 E0.08981
G1 X61.571 Y39.183 E0.15289
G1 X61.751 Y39.425 E0.18615
G1 X61.888 Y39.629 E0.21325
G1 X62.01 Y39.793 E0.23579
G1 X62.379 Y40.36 E0.31039
G1 X62.639 Y40.796 E0.36637
G1 X62.748 Y40.992 E0.3911
G1 X63.091 Y41.656 E0.47351
G1 X63.293 Y42.093 E0.5266
G1 X63.514 Y42.616 E0.58921
G1 X63.666 Y43.012 E0.63599
G1 X63.865 Y43.589 E0.70329
G1 X63.97 Y43.934 E0.74306
G1 X64.153 Y44.634 E0.82285
G1 X64.298 Y45.315 E0.89963
G1 X64.399 Y45.936 E0.96901
G1 X64.452 Y46.346 E1.01459
G1 X64.517 Y47.084 E1.09629
G1 X64.544 Y47.742 E1.16891
G1 X64.541 Y48.383 E1.2396
G1 X64.506 Y49.056 E1.31391
G1 X64.471 Y49.475 E1.36028
G1 X64.356 Y50.361 E1.4588
G1 X64.215 Y51.092 E1.5409
G1 X64.034 Y51.827 E1.62437
G1 X63.943 Y52.146 E1.66095
G1 X63.783 Y52.657 E1.72
G1 X63.734 Y52.781 E1.7347
G1 X63.518 Y53.408 E1.80783
G1 X63.479 Y53.6 E1.82944
G1 X63.418 Y53.824 E1.85504
G1 X63.396 Y53.979 E1.8723
G1 X63.375 Y54.068 E1.88238
G1 X63.32 Y54.5 E1.93041
G1 X63.312 Y54.749 E1.95788
G1 X63.312 Y55.221 E2.00993
G1 X63.381 Y56.451 E2.14578
G1 X63.389 Y56.794 E2.18361
G1 X63.381 Y58.195 E2.33811
G1 X63.366 Y58.596 E2.38236
G1 X63.249 Y60.161 E2.55542
G1 X63.062 Y61.518 E2.70648
G1 X63.007 Y61.846 E2.74315
G1 X62.852 Y62.552 E2.82286
G1 X62.772 Y62.844 E2.85625
G1 X62.678 Y63.143 E2.89081
G1 X62.509 Y63.564 E2.94084
G1 X62.3 Y64.006 E2.99475
G1 X62 Y64.503 E3.05877
G1 X61.832 Y64.739 E3.09071
G1 X61.483 Y65.165 E3.15144
G1 X61.089 Y65.553 E3.21242
G1 X60.969 Y65.662 E3.2303
G1 X60.754 Y65.828 E3.26025
G1 X60.367 Y66.098 E3.31229
G1 X60.172 Y66.218 E3.33754
G1 X60.034 Y66.29 E3.3547
G1 X59.55 Y66.521 E3.41384
G1 X59.311 Y66.611 E3.442
G1 X59.071 Y66.691 E3.4699
G1 X58.447 Y66.839 E3.54062
G1 X58.209 Y66.875 E3.56716
G1 X57.762 Y66.911 E3.61662
G1 X57.532 Y66.918 E3.64199
G1 X57.177 Y66.91 E3.68115
G1 X56.811 Y66.875 E3.72169
G1 X56.4 Y66.81 E3.76758
G1 X56.063 Y66.729 E3.8058
G1 X55.608 Y66.595 E3.8581
G1 X55.094 Y66.39 E3.91913
G1 X54.786 Y66.247 E3.95657
G1 X54.525 Y66.112 E3.98898
G1 X54.132 Y65.876 E4.03953
G1 X53.673 Y65.572 E4.10024
G1 X53.334 Y65.32 E4.14682
G1 X52.782 Y64.94 E4.22072
G1 X52.176 Y64.627 E4.29593
G1 X51.534 Y64.393 E4.37128
G1 X50.868 Y64.242 E4.44659
G1 X50.188 Y64.177 E4.52192
G1 X49.505 Y64.198 E4.59727
G1 X48.832 Y64.305 E4.67242
G1 X48.176 Y64.495 E4.74773
G1 X47.549 Y64.767 E4.8231
G1 X46.967 Y65.113 E4.89776
G1 X46.432 Y65.517 E4.97169
G1 X45.803 Y65.929 E5.05461
G1 X45.409 Y66.16 E5.10497
G1 X45.105 Y66.311 E5.1424
G1 X44.819 Y66.437 E5.17687
G1 X44.385 Y66.604 E5.22815
G1 X44.095 Y66.693 E5.2616
G1 X43.622 Y66.811 E5.31536
G1 X43.36 Y66.855 E5.34465
G1 X42.881 Y66.908 E5.3978
G1 X42.481 Y66.919 E5.44192
G1 X41.895 Y66.884 E5.50666
G1 X41.64 Y66.849 E5.53504
G1 X41.416 Y66.806 E5.56019
G1 X41.032 Y66.716 E5.60369
G1 X40.724 Y66.618 E5.63933
G1 X40.086 Y66.345 E5.71585
G1 X39.812 Y66.192 E5.75046
G1 X39.314 Y65.87 E5.81586
G1 X39.04 Y65.652 E5.85447
G1 X38.507 Y65.133 E5.93651
G1 X38.443 Y65.059 E5.9473
G1 X38.266 Y64.843 E5.97809
G1 X37.929 Y64.362 E6.04285
G1 X37.751 Y64.058 E6.0817
G1 X37.535 Y63.614 E6.13615
G1 X37.454 Y63.423 E6.15903
G1 X37.293 Y62.991 E6.20987
G1 X37.226 Y62.767 E6.23565
M73 P1
G1 X37.123 Y62.37 E6.28088
G1 X37.046 Y62.011 E6.32137
G1 X36.823 Y60.604 E6.47846
G1 X36.796 Y60.377 E6.50367
G1 X36.695 Y59.253 E6.62811
G1 X36.666 Y58.805 E6.67762
G1 X36.624 Y57.357 E6.83736
G1 X36.667 Y55.837 E7.00505
G1 X36.708 Y55.118 E7.08446
G1 X36.708 Y54.605 E7.14103
G1 X36.69 Y54.605 E7.14302
G1 X36.645 Y54.126 E7.19607
G1 X36.403 Y53.175 E7.30429
G1 X36.203 Y52.614 E7.36996
G1 X36.131 Y52.395 E7.39539
G1 X36 Y51.953 E7.44622
G1 X35.82 Y51.243 E7.52699
G1 X35.751 Y50.93 E7.56234
G1 X35.637 Y50.308 E7.63207
G1 X35.574 Y49.862 E7.68174
G1 X35.528 Y49.476 E7.72461
G1 X35.485 Y48.967 E7.78094
G1 X35.465 Y48.59 E7.82257
G1 X35.454 Y47.91 E7.89757
G1 X35.459 Y47.623 E7.92922
G1 X35.502 Y46.824 E8.01746
G1 X35.54 Y46.412 E8.06308
G1 X35.662 Y45.533 E8.16094
G1 X35.791 Y44.873 E8.2351
G1 X35.912 Y44.367 E8.29247
G1 X36.127 Y43.621 E8.37808
G1 X36.334 Y43.009 E8.44933
G1 X36.42 Y42.78 E8.4763
G1 X36.699 Y42.106 E8.55674
G1 X37.042 Y41.389 E8.64439
G1 X37.415 Y40.704 E8.7304
G1 X37.731 Y40.183 E8.7976
G1 X38.045 Y39.713 E8.85993
G1 X38.237 Y39.443 E8.89646
G1 X38.516 Y39.073 E8.94756
G1 X38.984 Y38.504 E9.02881
G1 X39.436 Y38.003 E9.10321
G1 X39.665 Y37.766 E9.13956
G1 X39.784 Y37.644 E9.15835
G1 X40.181 Y37.268 E9.21865
G1 X40.397 Y37.075 E9.25059
G1 X40.789 Y36.743 E9.30724
G1 X41.285 Y36.354 E9.37675
G1 X41.739 Y36.028 E9.43838
G1 X42.046 Y35.824 E9.47903
G1 X42.703 Y35.416 E9.56431
G1 X42.996 Y35.25 E9.60145
G1 X43.677 Y34.898 E9.68598
G1 X44.377 Y34.581 E9.77072
G1 X44.994 Y34.34 E9.84377
G1 X45.402 Y34.197 E9.89144
G1 X45.842 Y34.06 E9.94226
G1 X46.458 Y33.89 E10.01273
G1 X47.007 Y33.763 E10.07487
G1 X47.191 Y33.726 E10.09556
G1 X47.869 Y33.611 E10.1714
G1 X48.325 Y33.55 E10.22213
G1 X49.071 Y33.483 E10.30473
G1 X49.664 Y33.46 E10.37017
G1 X50.04 Y33.452 E10.41164
G1 X50.666 Y33.471 E10.4807
G1 X51.568 Y33.539 E10.58045
G1 X52.256 Y33.629 E10.65697
G1 X52.558 Y33.68 E10.69074
G1 X53.178 Y33.807 E10.76053
G1 X53.551 Y33.892 E10.80272
G1 X54.11 Y34.046 E10.86666
G1 X54.567 Y34.187 E10.9194
G1 X55.223 Y34.422 E10.99624
G1 X55.714 Y34.622 E11.0547
G1 X56.274 Y34.874 E11.12242
G1 X56.939 Y35.215 E11.20483
G1 X57.508 Y35.539 E11.27704
G1 X58.078 Y35.902 E11.35156
G1 X58.829 Y36.44 E11.45343
G1 X59.416 Y36.912 E11.53649
G1 X59.992 Y37.429 E11.62184
G1 X60.196 Y37.624 E11.65296
G1 X60.679 Y38.122 E11.72947
G1 F3600 X60.8 Y38.261
G1 F1200 X60.8 Y65.793 E14.76553
G1 F3600 X59.2 Y66.648
G1 F1200 X59.2 Y36.739 E18.06371
G1 F3600 X57.6 Y35.598
G1 F1200 X57.6 Y66.916 E21.51727
G1 F3600 X56 Y66.71
G1 F1200 X56 Y34.751 E25.04152
G1 F3600 X54.4 Y34.136
G1 F1200 X54.4 Y66.036 E28.55926
G1 F3600 X52.8 Y64.952
G1 F1200 X52.8 Y33.73 E32.00223
G1 F3600 X51.2 Y33.512
G1 F1200 X51.2 Y64.317 E35.39922
G1 F3600 X49.6 Y64.196
G1 F1200 X49.6 Y33.462 E38.78838
G1 F3600 X48 Y33.593
G1 F1200 X48 Y64.572 E42.20456
G1 F3600 X46.4 Y65.538
G1 F1200 X46.4 Y33.906 E45.69275
G1 F3600 X44.8 Y34.415
G1 F1200 X44.8 Y66.445 E49.22482
G1 F3600 X43.2 Y66.873
G1 F1200 X43.2 Y35.144 E52.72371
G1 F3600 X41.6 Y36.127
G1 F1200 X41.6 Y66.841 E56.11066
G1 F3600 X40 Y66.296
G1 F1200 X40 Y37.439 E59.29284
G1 F3600 X38.4 Y39.226
G1 F1200 X38.4 Y65.006 E62.1357
G1 F3600 X36.8 Y60.41
M104 S200
G1 F1200 X36.8 Y41.894 E64.17753
G1 F3600 X62.4 Y40.396
G1 F1200 X62.4 Y63.795 E66.75784
G1 F3600 X64 Y51.947
G1 F1200 X64 Y44.049 E67.62878
G1 F3600 X60.715 Y38.086
;TIME_ELAPSED:33.312104
;LAYER:-6
G1 X60.715 Y38.086 Z0.619
;TYPE:SUPPORT
G1 F1980 X61.166 Y38.602 E67.67986
G1 X61.649 Y39.201 E67.73722
G1 X61.791 Y39.395 E67.75514
G1 X61.929 Y39.6 E67.77356
G1 X62.04 Y39.747 E67.78729
G1 X62.422 Y40.334 E67.8395
G1 X62.73 Y40.853 E67.88449
G1 F3600 X62.991 Y41.353
G1 F1980 X56.646 Y35.008 E68.55336
G1 X56.972 Y35.176 E68.5807
G1 X57.439 Y35.438 E68.62061
G1 X58.034 Y35.811 E68.67296
G1 X58.618 Y36.22 E68.72611
G1 X59.189 Y36.659 E68.7798
G1 X59.499 Y36.917 E68.80986
G1 X59.72 Y37.113 E68.83188
G1 X60.231 Y37.588 E68.88388
G1 X60.715 Y38.086 E68.93565
M73 P2
G1 F3600 X56.646 Y35.008
G1 F1980 X56.296 Y34.828 E68.96499
G1 X55.744 Y34.58 E69.0101
G1 X55.24 Y34.373 E69.05071
G1 X54.581 Y34.137 E69.10289
G1 X54.467 Y34.103 E69.11176
G1 X63.899 Y43.535 E70.10606
G1 X63.912 Y43.573 E70.10905
G1 X64.018 Y43.919 E70.13602
G1 X64.201 Y44.621 E70.1901
G1 X64.334 Y45.242 E70.23744
G1 X52.76 Y33.668 E71.45755
G1 X52.567 Y33.629 E71.47222
G1 X52.095 Y33.556 E71.50782
G1 X51.567 Y33.486 E71.54753
G1 X51.285 Y33.465 E71.56861
G1 X64.539 Y46.719 E72.96581
G1 X64.555 Y46.925 E72.98121
G1 X64.586 Y47.471 E73.02198
G1 X64.594 Y47.742 E73.04219
G1 X64.593 Y48.047 E73.06492
G1 X49.949 Y33.403 E74.60866
G1 X49.661 Y33.409 E74.63013
G1 X49.067 Y33.432 E74.67444
G1 X48.735 Y33.462 E74.69929
G1 X64.538 Y49.264 E76.36516
G1 X64.529 Y49.395 E76.37494
G1 X64.486 Y49.79 E76.40456
G1 X64.407 Y50.358 E76.44731
G1 X64.4 Y50.399 E76.45041
G1 X47.604 Y33.603 E78.22101
G1 X47.105 Y33.69 E78.25876
G1 X46.543 Y33.815 E78.30168
G1 X64.178 Y51.45 E80.16072
G1 X64.082 Y51.839 E80.19059
G1 X63.98 Y52.197 E80.21834
G1 X63.902 Y52.447 E80.23786
G1 X45.552 Y34.097 E82.17227
G1 X45.374 Y34.152 E82.18616
G1 X44.962 Y34.296 E82.21869
G1 X44.615 Y34.433 E82.2465
G1 X63.58 Y53.397 E84.24569
G1 X63.467 Y53.834 E84.27934
G1 X63.425 Y54.075 E84.29758
G1 X63.375 Y54.466 E84.32696
G1 X43.728 Y34.818 E86.39815
G1 X43.653 Y34.851 E86.40426
G1 X42.97 Y35.206 E86.46164
G1 X42.888 Y35.252 E86.46865
G1 X63.392 Y55.756 E88.63013
G1 X63.431 Y56.449 E88.68187
G1 X63.439 Y56.794 E88.7076
G1 X63.438 Y57.074 E88.72847
G1 X42.096 Y35.732 E90.97829
G1 X42.016 Y35.781 E90.98529
G1 X41.616 Y36.052 E91.0213
G1 X41.341 Y36.25 E91.04656
G1 X63.426 Y58.334 E93.37466
G1 X63.416 Y58.599 E93.39443
G1 X63.345 Y59.527 E93.4638
G1 X40.629 Y36.811 E95.85847
G1 X40.458 Y36.952 E95.87499
G1 X39.956 Y37.41 E95.92565
G1 X63.229 Y60.683 E98.37903
G1 X63.112 Y61.523 E98.44225
G1 X63.065 Y61.792 E98.46261
G1 X39.322 Y38.05 E100.96549
G1 X38.951 Y38.46 E101.0067
G1 X38.729 Y38.729 E101.0327
G1 X62.828 Y62.828 E103.57316
G1 X62.697 Y63.235 E103.60503
G1 X62.506 Y63.698 E103.64237
G1 X62.479 Y63.752 E103.64687
G1 X38.171 Y39.444 E106.20936
G1 X38.011 Y39.671 E106.23006
G1 X37.695 Y40.144 E106.27247
G1 X37.658 Y40.203 E106.27766
G1 X62.018 Y64.564 E108.84569
G1 X61.939 Y64.682 E108.85627
G1 X61.6 Y65.106 E108.89674
G1 X61.451 Y65.27 E108.91325
G1 X37.187 Y41.005 E111.47116
G1 X37.147 Y41.08 E111.4775
G1 X36.816 Y41.732 E111.532
G1 X36.761 Y41.852 E111.54184
G1 X60.78 Y65.871 E114.07387
G1 X60.393 Y66.139 E114.10896
G1 X60.185 Y66.269 E114.12724
G1 X59.996 Y66.36 E114.14288
G1 X36.379 Y42.743 E116.63253
G1 X36.367 Y42.773 E116.63494
G1 X36.16 Y43.35 E116.68063
G1 X36.051 Y43.688 E116.70711
G1 X59.095 Y66.731 E119.1363
G1 X58.976 Y66.769 E119.14561
G1 X58.486 Y66.883 E119.18311
G1 X58.221 Y66.924 E119.2031
G1 X58.029 Y66.938 E119.21745
G1 X35.779 Y44.689 E121.56294
G1 X35.776 Y44.703 E121.56401
G1 X35.633 Y45.412 E121.61792
G1 X35.578 Y45.76 E121.64418
G1 X56.73 Y66.912 E123.87398
G1 X56.389 Y66.859 E123.8997
G1 X56.045 Y66.776 E123.92608
G1 X55.538 Y66.624 E123.96554
G1 X55.14 Y66.465 E123.99748
G1 X54.891 Y66.347 E124.01802
G1 X35.449 Y46.904 E126.06761
G1 X35.426 Y47.197 E126.08952
G1 X35.402 Y47.829 E126.13666
G1 X35.404 Y48.132 E126.15925
G1 X51.825 Y64.553 E127.89031
G1 X51.52 Y64.442 E127.9145
G1 X50.858 Y64.292 E127.9651
G1 X50.231 Y64.232 E128.01205
G1 X35.479 Y49.48 E129.56717
G1 X35.568 Y50.198 E129.62111
G1 X35.628 Y50.558 E129.64831
G1 X35.706 Y50.97 E129.67957
G1 X35.709 Y50.983 E129.68056
G1 X49.047 Y64.321 E131.08662
G1 X48.843 Y64.354 E131.10203
G1 X48.192 Y64.542 E131.15254
G1 X48.055 Y64.601 E131.16366
G1 X36.198 Y52.744 E132.41359
G1 X36.354 Y53.189 E132.44874
G1 X36.595 Y54.133 E132.52137
G1 X36.623 Y54.442 E132.5445
G1 X47.208 Y65.027 E133.66034
G1 X46.995 Y65.154 E133.67883
G1 X46.463 Y65.555 E133.72849
G1 X36.622 Y55.714 E134.7659
G1 X36.616 Y55.833 E134.77478
G1 X36.584 Y56.948 E134.85793
G1 X45.689 Y66.054 E135.81781
G1 X45.546 Y66.141 E135.83029
G1 X45.21 Y66.316 E135.85853
G1 X44.921 Y66.449 E135.88224
G1 X44.842 Y66.48 E135.88857
G1 X36.597 Y58.235 E136.75774
G1 X36.614 Y58.798 E136.79973
G1 X36.645 Y59.256 E136.83394
G1 X36.674 Y59.585 E136.85856
M73 P3
G1 X43.887 Y66.797 E137.61889
G1 X43.642 Y66.858 E137.63771
G1 X43.25 Y66.92 E137.66729
G1 X42.88 Y66.957 E137.69501
G1 X42.776 Y66.959 E137.70276
G1 X36.834 Y61.017 E138.32916
G1 X36.985 Y61.961 E138.40042
G1 X37.075 Y62.386 E138.4328
G1 X37.125 Y62.581 E138.44781
G1 X41.396 Y66.852 E138.89804
G1 X41.135 Y66.794 E138.91797
G1 X40.694 Y66.661 E138.95231
G1 X40.054 Y66.385 E139.00426
G1 X39.931 Y66.321 E139.0146
G1 X39.373 Y65.972 E139.06366
G1 X39.09 Y65.758 E139.09011
G1 X38.941 Y65.63 E139.10475
G1 X38.468 Y65.166 E139.15414
G1 X38.26 Y64.92 E139.17815
G1 X37.999 Y64.561 E139.21124
G1 X37.886 Y64.389 E139.22658
G1 X37.705 Y64.08 E139.25327
G1 X37.543 Y63.756 E139.28027
G1 X37.408 Y63.45 E139.30521
G1 X37.244 Y63.001 E139.34084
G1 X37.176 Y62.774 E139.3585
G1 F3600 X60.679 Y37.831
;TIME_ELAPSED:63.425929
;LAYER:-5
M106 S255
G1 X60.679 Y37.831 Z0.869
G1 F2400 X60.453 Y37.6 E139.37127
G1 X39.551 Y37.6 E140.19682
G1 X39.804 Y37.344 E140.21103
G1 X39.962 Y37.2 E140.21948
G1 X60.032 Y37.2 E141.01217
G1 X59.591 Y36.8 E141.03569
G1 X40.41 Y36.8 E141.79327
G1 X40.662 Y36.586 E141.80632
G1 X40.9 Y36.4 E141.81826
G1 X59.098 Y36.4 E142.53701
G1 X58.941 Y36.274 E142.54496
G1 X58.557 Y36 E142.56359
G1 X41.441 Y36 E143.23961
G1 X41.85 Y35.713 E143.25935
G1 X42.026 Y35.6 E143.26761
G1 X57.979 Y35.6 E143.8977
G1 X57.529 Y35.318 E143.91867
G1 X57.314 Y35.2 E143.92836
G1 X42.677 Y35.2 E144.50647
G1 X42.897 Y35.075 E144.51646
G1 X43.279 Y34.874 E144.53351
G1 X43.427 Y34.8 E144.54004
G1 X56.577 Y34.8 E145.05942
G1 X56.364 Y34.696 E145.06878
G1 X55.876 Y34.474 E145.08996
G1 X55.701 Y34.4 E145.09746
G1 X44.291 Y34.4 E145.54812
G1 X44.914 Y34.155 E145.57456
G1 X45.323 Y34.011 E145.59168
G1 X45.359 Y34 E145.59317
G1 X54.641 Y34 E145.95978
G1 X54.626 Y33.995 E145.9604
G1 X53.936 Y33.786 E145.98888
G1 X53.275 Y33.621 E146.01578
G1 X53.181 Y33.6 E146.01959
G1 X46.821 Y33.6 E146.27079
G1 X47.066 Y33.545 E146.2807
G1 X47.523 Y33.463 E146.29904
G1 X47.955 Y33.395 E146.31631
G1 X48.291 Y33.351 E146.3297
G1 X49.06 Y33.281 E146.3602
G1 X49.783 Y33.256 E146.38877
G1 X50.11 Y33.252 E146.40169
G1 X50.792 Y33.276 E146.42864
G1 X51.584 Y33.339 E146.46002
G1 X52.282 Y33.43 E146.48782
G1 X52.597 Y33.483 E146.50044
G1 X53.044 Y33.575 E146.51846
G1 F3600 X60.679 Y37.831
G1 F2400 X60.834 Y38 E146.52752
G1 X39.166 Y38 E147.38333
G1 X38.994 Y38.186 E147.39333
G1 X38.837 Y38.366 E147.40277
G1 X38.81 Y38.4 E147.40448
G1 X61.191 Y38.4 E148.28845
G1 X61.52 Y38.8 E148.30891
G1 X38.48 Y38.8 E149.2189
G1 X38.358 Y38.948 E149.22648
G1 X38.169 Y39.2 E149.23892
G1 X61.832 Y39.2 E150.17352
G1 X61.906 Y39.298 E150.17837
G1 X62.051 Y39.513 E150.18862
G1 X62.117 Y39.6 E150.19293
G1 X37.879 Y39.6 E151.15024
G1 X37.612 Y40 E151.16924
G1 X62.383 Y40 E152.1476
G1 X62.551 Y40.259 E152.1598
G1 X62.635 Y40.4 E152.16628
G1 X37.364 Y40.4 E153.16439
G1 X37.242 Y40.601 E153.17368
G1 X37.132 Y40.8 E153.18266
G1 X62.87 Y40.8 E154.19922
G1 X63.081 Y41.2 E154.21708
G1 X36.918 Y41.2 E155.25043
G1 X36.715 Y41.6 E155.26814
G1 X63.282 Y41.6 E156.31744
G1 X63.47 Y42 E156.3349
G1 X36.527 Y42 E157.39905
G1 X36.519 Y42.016 E157.39976
G1 X36.36 Y42.4 E157.41617
G1 X63.639 Y42.4 E158.4936
G1 X63.8 Y42.8 E158.51063
G1 X36.199 Y42.8 E159.60077
G1 X36.056 Y43.2 E159.61755
G1 X63.94 Y43.2 E160.71886
G1 X64.073 Y43.586 E160.73499
G1 X64.078 Y43.6 E160.73558
G1 X35.924 Y43.6 E161.84756
G1 X35.889 Y43.709 E161.85208
G1 X35.807 Y44 E161.86402
G1 X64.193 Y44 E162.98517
G1 X64.23 Y44.131 E162.99054
G1 X64.301 Y44.4 E163.00153
G1 X35.698 Y44.4 E164.13125
G1 X35.603 Y44.8 E164.14748
G1 X64.396 Y44.8 E165.2847
G1 X64.406 Y44.846 E165.28656
G1 X64.479 Y45.2 E165.30084
G1 X35.526 Y45.2 E166.44438
G1 X35.451 Y45.6 E166.46045
G1 X64.548 Y45.6 E167.60968
G1 X64.605 Y46 E167.62564
G1 X35.393 Y46 E168.77941
G1 X35.34 Y46.385 E168.79476
G1 X35.339 Y46.4 E168.79535
G1 X64.658 Y46.4 E169.95335
G1 X64.694 Y46.8 E169.96921
G1 X35.307 Y46.8 E171.12989
G1 X35.275 Y47.2 E171.14574
G1 X64.721 Y47.2 E172.30875
