M73 P0
;MINX:16.1
;MAXX:75.0
;MINY:6.0
;MAXY:115.9
;MINZ:0.0
;MAXZ:6.3
;MachineType:ENTINA TINA2
;FilamentType:PLA
;Extruder0Temperature:200
;InfillDensity:10
;FLAVOR:Marlin
;TIME:3426
;FilamentUsed:3266.7
;Layer height: 0.2

;Generated with Cura_SteamEngine 3.1
M104 T0 S215
M82 ; absolute extrusion mode
;(**** start.gcode for tina2****)
M104 S150
G28 Z
G28 X Y; Home extruder
G1 X55 Y55 F1000
G1 Z10 F200
G29
G1 Z15 F100
M107 ; Turn off fan
G90 ; Absolute positioning
M82 ; Extruder in absolute mode
M109 S215.0
G92 E0 ; Reset extruder position
G1 X90 Y6 Z0.27 F2000
G1 X20 Y6 Z0.27 E15 F1000
G92 E0 ; Reset extruder position

;LAYER_COUNT:25
;LAYER:-6
M107
M203 Z5
G1 F3600 X69.797 Y14.943 Z0.349
G1 F1200 X70.037 Y15.437 E0.06056
G1 X70.982 Y17.73 E0.33405
G1 X71.096 Y18.064 E0.37297
G1 X71.179 Y18.368 E0.40772
G1 X71.284 Y18.93 E0.47077
G1 X71.599 Y21.364 E0.74141
G1 X71.622 Y21.714 E0.78009
G1 X71.623 Y22.028 E0.81472
G1 X71.583 Y22.572 E0.87487
G1 X71.284 Y24.854 E1.12867
G1 X71.189 Y25.371 E1.18663
G1 X71.107 Y25.682 E1.2221
G1 X70.928 Y26.196 E1.28212
G1 X70.044 Y28.331 E1.53694
G1 X69.823 Y28.793 E1.59341
G1 X69.659 Y29.078 E1.62967
G1 X69.344 Y29.54 E1.69133
G1 X67.867 Y31.461 E1.95855
G1 X67.607 Y31.76 E2.00224
G1 X67.401 Y31.966 E2.03437
G1 X67.149 Y32.187 E2.07133
G1 X66.675 Y32.661 E2.14525
G1 X66.257 Y33.201 E2.22055
G1 X65.91 Y33.789 E2.29584
G1 X65.642 Y34.416 E2.37104
G1 X65.453 Y35.073 E2.44643
G1 X65.349 Y35.747 E2.52163
G1 X65.33 Y36.43 E2.59698
G1 X65.4 Y37.109 E2.67225
G1 X65.553 Y37.774 E2.7475
G1 X65.788 Y38.415 E2.82278
G1 X66.106 Y39.026 E2.89874
G1 X66.665 Y39.788 E3.00295
G1 X67.089 Y40.277 E3.07433
G1 X68.408 Y41.994 E3.31309
G1 X68.708 Y42.431 E3.37154
G1 X68.859 Y42.691 E3.40469
G1 X69.103 Y43.194 E3.46634
G1 X69.991 Y45.347 E3.72316
G1 X70.112 Y45.7 E3.76431
G1 X70.192 Y45.997 E3.79823
G1 X70.294 Y46.533 E3.8584
G1 X70.596 Y48.864 E4.1176
G1 X70.619 Y49.214 E4.15628
G1 X70.62 Y49.528 E4.1909
G1 X70.58 Y50.072 E4.25105
G1 X70.298 Y52.224 E4.49039
G1 X70.203 Y52.739 E4.54814
G1 X70.119 Y53.057 E4.58441
G1 X69.941 Y53.568 E4.64408
G1 X69.049 Y55.71 E4.89995
G1 X68.937 Y55.937 E4.92786
G1 X68.681 Y56.556 E5.00173
G1 X68.5 Y57.215 E5.07709
G1 X68.405 Y57.891 E5.15237
G1 X68.396 Y58.574 E5.22769
G1 X68.472 Y59.252 E5.30293
G1 X68.634 Y59.915 E5.37819
G1 X68.878 Y60.554 E5.45362
G1 X69.201 Y61.155 E5.52886
G1 X69.594 Y61.708 E5.60367
G1 X69.975 Y62.133 E5.66661
G1 X71.524 Y64.006 E5.93464
G1 X71.809 Y64.395 E5.98782
G1 X71.978 Y64.664 E6.02285
G1 X72.234 Y65.148 E6.08323
G1 X73.179 Y67.222 E6.33456
G1 X73.375 Y67.72 E6.39357
G1 X73.468 Y68.025 E6.42874
G1 X73.555 Y68.39 E6.47011
G1 X73.591 Y68.568 E6.49014
G1 X73.984 Y70.937 E6.75495
G1 X74.023 Y71.322 E6.79762
G1 X74.035 Y71.63 E6.83161
G1 X74.016 Y72.173 E6.89153
G1 X73.779 Y74.597 E7.16011
G1 X73.718 Y74.977 E7.20255
G1 X73.65 Y75.273 E7.23604
G1 X73.495 Y75.78 E7.2945
G1 X72.63 Y78.082 E7.56568
G1 X72.478 Y78.42 E7.60655
G1 X72.339 Y78.684 E7.63945
G1 X72.032 Y79.172 E7.70303
G1 X70.619 Y81.144 E7.97055
G1 X70.382 Y81.435 E8.01194
G1 X70.193 Y81.64 E8.04268
G1 X69.9 Y81.917 E8.08715
G1 X69.444 Y82.408 E8.16104
G1 X69.045 Y82.963 E8.23642
G1 X68.72 Y83.564 E8.31176
G1 X68.474 Y84.2 E8.38696
G1 X68.31 Y84.863 E8.46227
G1 X68.23 Y85.54 E8.53745
G1 X68.236 Y86.224 E8.61288
G1 X68.329 Y86.901 E8.68824
G1 X68.507 Y87.56 E8.76351
G1 X68.767 Y88.191 E8.83877
G1 X69.106 Y88.79 E8.91467
G1 X69.684 Y89.523 E9.01761
G1 X70.186 Y90.06 E9.09867
G1 X71.586 Y91.759 E9.34144
G1 X71.873 Y92.15 E9.39492
G1 X72.031 Y92.403 E9.42781
G1 X72.287 Y92.883 E9.4878
G1 X73.245 Y94.994 E9.74344
G1 X73.389 Y95.37 E9.78784
G1 X73.47 Y95.633 E9.81819
G1 X73.595 Y96.178 E9.87985
G1 X73.957 Y98.337 E10.12125
G1 X74.012 Y98.84 E10.17705
G1 X74.024 Y99.148 E10.21104
G1 X74.005 Y99.684 E10.27018
G1 X73.78 Y101.982 E10.52481
G1 X73.717 Y102.372 E10.56837
G1 X73.653 Y102.653 E10.60015
G1 X73.487 Y103.195 E10.66266
G1 X72.686 Y105.33 E10.91412
G1 X72.511 Y105.721 E10.96136
G1 X72.391 Y105.948 E10.98967
G1 X72.075 Y106.451 E11.05518
G1 X70.731 Y108.326 E11.30957
G1 X70.507 Y108.602 E11.34877
G1 X70.286 Y108.84 E11.38459
G1 X69.9 Y109.198 E11.44264
G1 X68.238 Y110.568 E11.68016
G1 X67.8 Y110.894 E11.74037
G1 X67.54 Y111.057 E11.77421
G1 X67.06 Y111.313 E11.8342
G1 X64.943 Y112.273 E12.09053
G1 X64.586 Y112.408 E12.13262
G1 X64.316 Y112.493 E12.16383
G1 X63.773 Y112.617 E12.22525
G1 X61.614 Y112.977 E12.46662
G1 X61.121 Y113.032 E12.52132
G1 X60.801 Y113.044 E12.55663
G1 X60.259 Y113.025 E12.61644
G1 X57.937 Y112.796 E12.87374
G1 X57.579 Y112.738 E12.91373
G1 X57.287 Y112.671 E12.94677
G1 X56.756 Y112.507 E13.00805
G1 X54.61 Y111.701 E13.26084
G1 X54.252 Y111.54 E13.30413
G1 X53.975 Y111.393 E13.33871
G1 X53.503 Y111.096 E13.4002
G1 X52.38 Y110.295 E13.55232
G1 X51.812 Y109.941 E13.62612
G1 X51.191 Y109.657 E13.70142
G1 X50.54 Y109.453 E13.77665
G1 X49.867 Y109.332 E13.85206
G1 X49.185 Y109.297 E13.92736
G1 X48.504 Y109.349 E14.00268
G1 X47.836 Y109.487 E14.0779
G1 X47.189 Y109.708 E14.15329
G1 X46.576 Y110.008 E14.22855
G1 X46.011 Y110.381 E14.30321
G1 X45.703 Y110.629 E14.34681
G1 X43.715 Y112.274 E14.63136
G1 X43.31 Y112.572 E14.68681
G1 X43.056 Y112.731 E14.71985
G1 X42.7 Y112.924 E14.76451
G1 X40.237 Y114.046 E15.06296
G1 X39.893 Y114.178 E15.1036
G1 X39.591 Y114.271 E15.13844
G1 X39.053 Y114.393 E15.19928
G1 X36.554 Y114.809 E15.47864
G1 X36.163 Y114.849 E15.52198
G1 X35.855 Y114.861 E15.55597
G1 X35.309 Y114.841 E15.61622
G1 X32.757 Y114.591 E15.89899
G1 X32.383 Y114.531 E15.94076
G1 X32.098 Y114.466 E15.973
G1 X31.574 Y114.307 E16.03338
G1 X29.302 Y113.456 E16.30092
G1 X28.817 Y113.245 E16.35925
G1 X28.572 Y113.115 E16.38983
G1 X28.081 Y112.807 E16.45375
G1 X26.122 Y111.411 E16.71901
G1 X25.709 Y111.081 E16.77731
G1 X25.501 Y110.888 E16.8086
G1 X25.096 Y110.45 E16.87438
G1 X23.496 Y108.501 E17.15245
G1 X23.274 Y108.194 E17.19423
G1 X23.112 Y107.936 E17.22783
G1 X22.855 Y107.454 E17.28806
G1 X21.791 Y105.109 E17.57203
G1 X21.66 Y104.764 E17.61272
G1 X21.567 Y104.459 E17.64788
G1 X21.447 Y103.931 E17.70759
G1 X21.029 Y101.419 E17.98841
G1 X20.991 Y101.04 E18.03041
G1 X20.979 Y100.732 E18.0644
G1 X21 Y100.168 E18.12664
G1 X21.249 Y97.639 E18.40687
G1 X21.31 Y97.264 E18.44877
G1 X21.382 Y96.95 E18.48429
G1 X21.544 Y96.428 E18.54457
G1 X22.433 Y94.06 E18.82349
G1 X22.594 Y93.702 E18.86678
G1 X22.741 Y93.425 E18.90136
G1 X23.028 Y92.968 E18.96087
G1 X24.421 Y91.012 E19.22567
G1 X24.74 Y90.611 E19.28218
G1 X25.468 Y89.831 E19.39983
G1 X25.866 Y89.275 E19.47523
G1 X26.19 Y88.674 E19.55053
G1 X26.436 Y88.037 E19.62583
G1 X26.599 Y87.374 E19.70112
G1 X26.677 Y86.696 E19.77637
G1 X26.67 Y86.013 E19.8517
G1 X26.576 Y85.337 E19.92696
G1 X26.398 Y84.677 E20.00234
G1 X26.137 Y84.046 E20.07764
G1 X25.797 Y83.449 E20.1534
G1 X25.223 Y82.722 E20.25555
G1 X25.051 Y82.532 E20.28381
G1 X23.475 Y80.615 E20.55747
G1 X23.251 Y80.304 E20.59974
G1 X23.094 Y80.055 E20.6322
G1 X22.833 Y79.561 E20.69381
G1 X21.798 Y77.281 E20.96993
G1 X21.661 Y76.92 E21.01251
G1 X21.581 Y76.657 E21.04282
G1 X21.485 Y76.257 E21.08818
G1 X21.452 Y76.089 E21.10706
G1 X21.066 Y73.788 E21.36435
G1 X21.009 Y73.271 E21.4217
G1 X20.997 Y72.963 E21.45569
G1 X21.016 Y72.424 E21.51517
G1 X21.259 Y69.94 E21.7904
G1 X21.321 Y69.554 E21.83351
G1 X21.386 Y69.269 E21.86574
G1 X21.545 Y68.745 E21.92613
G1 X22.43 Y66.394 E22.20314
G1 X22.894 Y65.369 E22.32722
G1 X23.093 Y64.716 E22.40249
G1 X23.207 Y64.043 E22.47777
G1 X23.236 Y63.36 E22.55315
G1 X23.177 Y62.68 E22.62842
G1 X23.035 Y62.012 E22.70373
G1 X22.808 Y61.368 E22.77903
G1 X22.502 Y60.758 E22.85428
G1 X22.122 Y60.191 E22.92955
G1 X21.23 Y59.176 E23.07856
G1 X19.752 Y57.251 E23.34619
G1 X19.467 Y56.833 E23.40198
G1 X19.314 Y56.57 E23.43553
G1 X19.071 Y56.068 E23.49703
G1 X18.082 Y53.67 E23.78308
G1 X17.965 Y53.328 E23.82294
G1 X17.887 Y53.038 E23.85605
G1 X17.782 Y52.49 E23.91758
G1 X17.467 Y50.094 E24.18407
G1 X17.426 Y49.57 E24.24203
G1 X17.425 Y49.257 E24.27655
G1 X17.467 Y48.695 E24.3387
G1 X17.778 Y46.326 E24.60218
G1 X17.812 Y46.12 E24.6252
G1 X17.873 Y45.806 E24.66047
G1 X17.958 Y45.485 E24.69709
G1 X18.138 Y44.968 E24.75746
G1 X19.061 Y42.739 E25.0235
G1 X19.291 Y42.254 E25.08269
G1 X19.441 Y41.993 E25.11589
G1 X19.757 Y41.526 E25.17807
G1 X21.238 Y39.596 E25.44634
G1 X21.582 Y39.198 E25.50435
G1 X22.257 Y38.523 E25.60962
G1 X22.676 Y37.983 E25.68499
G1 X23.022 Y37.395 E25.76022
G1 X23.293 Y36.768 E25.83554
G1 X23.48 Y36.111 E25.91087
G1 X23.585 Y35.437 E25.98609
G1 X23.604 Y34.754 E26.06144
G1 X23.535 Y34.075 E26.1367
G1 X23.382 Y33.41 E26.21195
G1 X23.147 Y32.769 E26.28724
G1 X22.829 Y32.158 E26.36319
G1 X22.525 Y31.742 E26.42001
G1 X22.542 Y31.725 E26.42266
G1 X22.144 Y31.243 E26.49159
G1 X20.727 Y29.396 E26.7483
G1 X20.428 Y28.96 E26.8066
G1 X20.267 Y28.684 E26.84184
G1 X20.031 Y28.192 E26.90201
G1 X19.131 Y26.021 E27.16117
G1 X18.956 Y25.53 E27.21865
G1 X18.871 Y25.217 E27.25442
G1 X18.796 Y24.842 E27.29659
G1 X18.766 Y24.659 E27.31704
G1 X18.461 Y22.34 E27.57497
G1 X18.442 Y22.152 E27.5958
G1 X18.42 Y21.82 E27.6325
G1 X18.419 Y21.508 E27.6669
G1 X18.46 Y20.952 E27.72838
G1 X18.765 Y18.632 E27.98642
G1 X18.797 Y18.437 E28.00821
G1 X18.863 Y18.096 E28.04651
G1 X18.94 Y17.809 E28.07928
G1 X19.125 Y17.279 E28.14118
G1 X20.091 Y14.957 E28.41851
G1 X20.256 Y14.62 E28.45989
G1 X20.396 Y14.376 E28.49091
G1 X20.723 Y13.894 E28.55514
G1 X22.236 Y11.926 E28.82888
G1 X22.496 Y11.627 E28.87258
G1 X22.709 Y11.414 E28.90579
G1 X23.149 Y11.036 E28.96976
G1 X24.996 Y9.619 E29.22647
G1 X25.432 Y9.32 E29.28477
G1 X25.708 Y9.159 E29.32001
G1 X26.2 Y8.923 E29.38018
G1 X28.371 Y8.023 E29.63934
G1 X28.862 Y7.848 E29.69682
G1 X29.173 Y7.764 E29.73234
G1 X29.724 Y7.659 E29.7942
G1 X32.052 Y7.353 E30.05313
G1 X32.235 Y7.334 E30.07341
G1 X32.572 Y7.312 E30.11066
G1 X32.884 Y7.311 E30.14506
G1 X33.44 Y7.352 E30.20654
G1 X35.769 Y7.658 E30.46558
G1 X36.296 Y7.755 E30.52467
G1 X36.583 Y7.832 E30.55743
G1 X37.113 Y8.017 E30.61934
G1 X39.435 Y8.983 E30.89667
G1 X39.779 Y9.152 E30.93893
G1 X40.009 Y9.283 E30.96812
G1 X40.494 Y9.612 E31.03275
G1 X42.18 Y10.906 E31.26712
G1 X42.736 Y11.279 E31.34095
G1 X43.346 Y11.585 E31.4162
G1 X43.99 Y11.812 E31.4915
G1 X44.658 Y11.955 E31.56684
G1 X45.338 Y12.014 E31.6421
G1 X46.021 Y11.986 E31.71748
G1 X46.694 Y11.871 E31.79277
G1 X47.347 Y11.674 E31.86799
G1 X47.975 Y11.393 E31.94386
G1 X48.731 Y10.909 E32.04285
G1 X49.867 Y10.037 E32.20077
G1 X50.297 Y9.743 E32.25821
G1 X50.551 Y9.595 E32.29063
G1 X51.045 Y9.355 E32.35119
G1 X53.338 Y8.41 E32.62468
G1 X53.672 Y8.296 E32.6636
G1 X53.976 Y8.213 E32.69835
G1 X54.542 Y8.107 E32.76185
G1 X56.972 Y7.793 E33.03204
G1 X57.322 Y7.77 E33.07072
G1 X57.636 Y7.769 E33.10535
G1 X58.18 Y7.809 E33.1655
G1 X60.471 Y8.109 E33.42029
G1 X60.979 Y8.203 E33.47726
G1 X61.29 Y8.285 E33.51273
G1 X61.804 Y8.464 E33.57275
G1 X63.939 Y9.348 E33.82757
G1 X64.401 Y9.569 E33.88404
M73 P1
G1 X64.686 Y9.733 E33.9203
G1 X65.148 Y10.048 E33.98197
G1 X67.069 Y11.525 E34.24918
G1 X67.368 Y11.785 E34.29287
G1 X67.581 Y11.998 E34.32609
G1 X67.959 Y12.438 E34.39006
G1 X69.343 Y14.242 E34.64079
G1 X69.649 Y14.689 E34.70053
G1 X69.797 Y14.943 E34.73295
G1 F1680 E31.73295
G1 F3600 X70.4 Y16.318
G1 F1680 E34.73295
G1 F1200 X70.4 Y27.472 E35.96294
G1 F1680 E32.96294
G1 F3600 X68.8 Y30.248
G1 F1680 E35.96294
G1 F1200 X68.8 Y13.535 E37.80595
G1 F1680 E34.80595
G1 F3600 X67.2 Y11.639
G1 F1680 E37.80595
G1 F1200 X67.2 Y32.143 E40.06701
G1 F1680 E37.06701
G1 F3600 X65.6 Y34.562
G1 F1680 E40.06701
G1 F1200 X65.6 Y10.396 E42.73189
G1 F1680 E39.73189
G1 F3600 X64 Y9.378
G1 F1680 E42.73189
G1 F1200 X64 Y112.566 E54.11084
G1 F1680 E51.11084
G1 F3600 X62.4 Y112.846
G1 F1680 E54.11084
G1 F1200 X62.4 Y8.711 E65.59422
G1 F1680 E62.59422
G1 F3600 X60.8 Y8.17
G1 F1680 E65.59422
G1 F1200 X60.8 Y113.043 E77.15898
G1 F1680 E74.15898
G1 F3600 X59.2 Y112.92
G1 F1680 E77.15898
G1 F1200 X59.2 Y7.943 E88.73521
G1 F1680 E85.73521
G1 F3600 X57.6 Y7.769
G1 F1680 E88.73521
G1 F1200 X57.6 Y112.741 E100.31089
G1 F1680 E97.31089
G1 F3600 X56 Y112.223
G1 F1680 E100.31089
G1 F1200 X56 Y7.918 E111.81302
G1 F1680 E108.81302
G1 F3600 X54.4 Y8.133
G1 F1680 E111.81302
G1 F1200 X54.4 Y111.606 E123.2234
G1 F1680 E120.2234
G1 F3600 X52.8 Y110.594
G1 F1680 E123.2234
G1 F1200 X52.8 Y8.631 E134.46727
G1 F1680 E131.46727
G1 F3600 X51.2 Y9.291
G1 F1680 E134.46727
G1 F1200 X51.2 Y109.661 E145.53547
G1 F1680 E142.53547
G1 F3600 X49.6 Y109.318
G1 F1680 E145.53547
G1 F1200 X49.6 Y10.241 E156.46108
G1 F1680 E153.46108
G1 F3600 X48 Y11.376
G1 F1680 E156.46108
G1 F1200 X48 Y109.454 E167.27653
G1 F1680 E164.27653
G1 F3600 X46.4 Y110.125
G1 F1680 E167.27653
G1 F1200 X46.4 Y11.921 E178.10588
G1 F1680 E175.10588
G1 F3600 X44.8 Y11.968
G1 F1680 E178.10588
G1 F1200 X44.8 Y111.377 E189.0681
G1 F1680 E186.0681
G1 F3600 X43.2 Y112.641
G1 F1680 E189.0681
G1 F1200 X43.2 Y11.512 E200.22
G1 F1680 E197.22
G1 F3600 X41.6 Y10.461
G1 F1680 E200.22
G1 F1200 X41.6 Y113.426 E211.57436
G1 F1680 E208.57436
G1 F3600 X40 Y114.137
G1 F1680 E211.57436
G1 F1200 X40 Y9.278 E223.13758
G1 F1680 E220.13758
G1 F3600 X38.4 Y8.553
G1 F1680 E223.13758
G1 F1200 X38.4 Y114.502 E234.821
G1 F1680 E231.821
G1 F3600 X36.8 Y114.769
G1 F1680 E234.821
G1 F1200 X36.8 Y7.908 E246.60499
G1 F1680 E243.60499
G1 F3600 X35.2 Y7.584
G1 F1680 E246.60499
G1 F1200 X35.2 Y114.83 E258.43143
G1 F1680 E255.43143
G1 F3600 X33.6 Y114.673
G1 F1680 E258.43143
G1 F1200 X33.6 Y7.374 E270.26372
G1 F1680 E267.26372
G1 F3600 X32 Y7.359
G1 F1680 E270.26372
G1 F1200 X32 Y114.436 E282.07152
G1 F1680 E279.07152
G1 F3600 X30.4 Y113.867
G1 F1680 E282.07152
G1 F1200 X30.4 Y7.57 E293.79332
G1 F1680 E290.79332
G1 F3600 X28.8 Y7.87
G1 F1680 E293.79332
G1 F1200 X28.8 Y113.235 E305.41233
G1 F1680 E302.41233
G1 F3600 X27.2 Y112.179
G1 F1680 E305.41233
G1 F1200 X27.2 Y8.508 E316.84455
G1 F1680 E313.84455
G1 F3600 X25.6 Y9.222
G1 F1680 E316.84455
G1 F1200 X25.6 Y83.199 E325.00228
G1 F1680 E322.00228
G1 F3600 X24 Y81.253
G1 F1680 E325.00228
G1 F1200 X24 Y10.383 E332.8174
G1 F1680 E329.8174
G1 F3600 X22.4 Y11.737
G1 F1680 E332.8174
G1 F1200 X22.4 Y31.553 E335.00259
G1 F1680 E332.00259
G1 F3600 X20.8 Y29.491
G1 F1680 E335.00259
G1 F1200 X20.8 Y13.793 E336.73367
G1 F1680 E333.73367
G1 F3600 X19.2 Y17.098
G1 F1680 E336.73367
G1 F1200 X19.2 Y26.187 E337.73595
G1 F1680 E334.73595
G1 F3600 X22.4 Y38.338
G1 F1680 E337.73595
G1 F1200 X22.4 Y60.605 E340.19142
G1 F1680 E337.19142
G1 F3600 X20.8 Y58.615
G1 F1680 E340.19142
G1 F1200 X20.8 Y40.166 E342.22587
G1 F1680 E339.22587
G1 F3600 X19.2 Y42.445
G1 F1680 E342.22587
G1 F1200 X19.2 Y56.334 E343.75746
G1 F1680 E340.75746
G1 F3600 X17.6 Y51.105
G1 F1680 E343.75746
G1 F1200 X17.6 Y47.681 E344.13504
G1 F1680 E341.13504
G1 F3600 X22.4 Y66.473
G1 F1680 E344.13504
G1 F1200 X22.4 Y78.607 E345.4731
G1 F1680 E342.4731
G1 F3600 X25.6 Y89.646
G1 F1680 E345.4731
G1 F1200 X25.6 Y110.979 E347.82558
G1 F1680 E344.82558
G1 F3600 X24 Y109.114
G1 F1680 E347.82558
G1 F1200 X24 Y91.603 E349.75659
G1 F1680 E346.75659
G1 F3600 X22.4 Y94.147
G1 F1680 E349.75659
G1 F1200 X22.4 Y106.451 E351.1134
G1 F1680 E348.1134
G1 F3600 X65.6 Y111.976
G1 F1680 E351.1134
G1 F1200 X65.6 Y37.903 E359.28172
G1 F1680 E356.28172
G1 F3600 X67.2 Y40.422
G1 F1680 E359.28172
G1 F1200 X67.2 Y111.239 E367.09099
G1 F1680 E364.09099
G1 F3600 X68.8 Y110.105
G1 F1680 E367.09099
G1 F1200 X68.8 Y88.25 E369.50103
G1 F1680 E366.50103
G1 F3600 X70.4 Y90.32
G1 F1680 E369.50103
G1 F1200 X70.4 Y108.718 E371.52985
G1 F1680 E368.52985
G1 F3600 X72 Y106.556
G1 F1680 E371.52985
G1 F1200 X72 Y92.354 E373.09596
G1 F1680 E370.09596
G1 F3600 X73.6 Y96.208
G1 F1680 E373.09596
G1 F1200 X73.6 Y102.827 E373.82587
G1 F1680 E370.82587
G1 F3600 X68.8 Y83.417
G1 F1680 E373.82587
G1 F1200 X68.8 Y60.35 E376.36956
G1 F1680 E373.36956
G1 F3600 X70.4 Y62.647
G1 F1680 E376.36956
G1 F1200 X70.4 Y81.413 E378.43896
M104 T0 S200
G1 F1680 E375.43896
G1 F3600 X72 Y79.217
G1 F1680 E378.43896
G1 F1200 X72 Y64.706 E380.03914
G1 F1680 E377.03914
G1 F3600 X73.6 Y68.623
G1 F1680 E380.03914
G1 F1200 X73.6 Y75.437 E380.79055
