M73 P0
;MINX:34.5
;MAXX:65.5
;MINY:44.5
;MAXY:75.5
;MINZ:0.1
;MAXZ:5.1
;MachineType:ENTINA TINA2
;FilamentType:PLA
;Extruder0Temperature:200
;InfillDensity:10
;FLAVOR:Marlin
;TIME:765
;FilamentUsed:379.4
;Layer height: 0.1

;Generated with Cura_SteamEngine 3.1
M104 T0 S215
M82 ; absolute extrusion mode
;(**** start.gcode for tina2****)
M104 S150
G28 Z
G28 X Y; Home extruder
G1 X55 Y55 F1000
G1 Z10 F200
G29
G1 Z15 F100
M107 ; Turn off fan
G90 ; Absolute positioning
M82 ; Extruder in absolute mode
M109 S215.0
G92 E0 ; Reset extruder position
G1 X90 Y6 Z0.27 F2000
G1 X20 Y6 Z0.27 E15 F1000
G92 E0 ; Reset extruder position

;LAYER_COUNT:37
;LAYER:-8
M107
M203 Z5
G1 F3600 X59.541 Y49.434 Z0.349
G1 F1200 X60.026 Y49.853 E0.07068
G1 X60.139 Y49.965 E0.08822
G1 X60.566 Y50.459 E0.16023
G1 X61.96 Y52.277 E0.41286
G1 X62.285 Y52.754 E0.47651
G1 X62.362 Y52.885 E0.49326
G1 X62.669 Y53.511 E0.57015
G1 X63.597 Y55.763 E0.83874
G1 X63.764 Y56.253 E0.89583
G1 X63.885 Y56.831 E0.96095
G1 X63.916 Y57.015 E0.98153
G1 X64.215 Y59.283 E1.23379
G1 X64.231 Y59.439 E1.25109
G1 X64.265 Y60 E1.31306
G1 X64.232 Y60.548 E1.3736
G1 X63.918 Y62.971 E1.64303
G1 X63.789 Y63.645 E1.7187
G1 X63.743 Y63.815 E1.73813
G1 X63.548 Y64.366 E1.80258
G1 X62.669 Y66.489 E2.05596
G1 X62.32 Y67.192 E2.14251
G1 X61.96 Y67.723 E2.21326
G1 X60.566 Y69.541 E2.46589
G1 X60.147 Y70.026 E2.53657
G1 X60.035 Y70.139 E2.55411
G1 X59.541 Y70.566 E2.62612
G1 X57.723 Y71.96 E2.87875
G1 X57.246 Y72.285 E2.94239
G1 X57.105 Y72.367 E2.96038
G1 X56.489 Y72.669 E3.03603
G1 X54.237 Y73.597 E3.30463
G1 X53.752 Y73.763 E3.36116
G1 X53.169 Y73.885 E3.42684
G1 X52.975 Y73.917 E3.44852
G1 X50.717 Y74.215 E3.69968
G1 X50.552 Y74.232 E3.71797
G1 X50 Y74.265 E3.77895
G1 X49.448 Y74.232 E3.83993
G1 X47.025 Y73.917 E4.10938
G1 X46.355 Y73.789 E4.18459
G1 X46.173 Y73.739 E4.20541
G1 X45.634 Y73.548 E4.26847
G1 X43.511 Y72.669 E4.52185
G1 X42.895 Y72.367 E4.59751
G1 X42.754 Y72.285 E4.61549
G1 X42.277 Y71.96 E4.67914
G1 X40.459 Y70.566 E4.93177
G1 X39.965 Y70.139 E5.00378
G1 X39.853 Y70.026 E5.02132
G1 X39.434 Y69.541 E5.092
G1 X38.04 Y67.723 E5.34463
G1 X37.715 Y67.246 E5.40828
G1 X37.633 Y67.105 E5.42627
G1 X37.331 Y66.489 E5.50192
G1 X36.403 Y64.237 E5.77051
G1 X36.236 Y63.747 E5.8276
G1 X36.115 Y63.169 E5.89272
G1 X36.082 Y62.971 E5.91486
G1 X35.785 Y60.717 E6.16556
G1 X35.768 Y60.548 E6.18429
G1 X35.735 Y60 E6.24483
G1 X35.768 Y59.452 E6.30537
G1 X36.082 Y57.029 E6.5748
G1 X36.212 Y56.35 E6.65104
G1 X36.257 Y56.185 E6.6699
G1 X36.452 Y55.634 E6.73435
G1 X37.331 Y53.511 E6.98773
G1 X37.633 Y52.895 E7.06339
G1 X37.715 Y52.754 E7.08137
G1 X38.04 Y52.277 E7.14502
G1 X39.434 Y50.459 E7.39765
G1 X39.853 Y49.974 E7.46833
G1 X39.965 Y49.861 E7.48588
G1 X40.459 Y49.434 E7.55788
G1 X42.277 Y48.04 E7.81051
G1 X42.754 Y47.715 E7.87416
G1 X42.895 Y47.633 E7.89215
G1 X43.511 Y47.331 E7.9678
G1 X45.763 Y46.403 E8.2364
G1 X46.248 Y46.237 E8.29292
G1 X46.831 Y46.115 E8.35861
G1 X47.025 Y46.083 E8.38029
G1 X49.283 Y45.785 E8.63145
G1 X49.448 Y45.768 E8.64974
G1 X50 Y45.735 E8.71072
G1 X50.552 Y45.768 E8.7717
G1 X52.975 Y46.083 E9.04114
G1 X53.645 Y46.211 E9.11636
M73 P1
G1 X53.827 Y46.261 E9.13717
G1 X54.366 Y46.452 E9.20023
G1 X56.489 Y47.331 E9.45362
G1 X57.105 Y47.633 E9.52927
G1 X57.246 Y47.715 E9.54726
G1 X57.723 Y48.04 E9.61091
G1 X59.541 Y49.434 E9.86354
G1 F3600 X59.2 Y49.173
G1 F1200 X59.2 Y70.828 E12.25152
G1 F1680 E9.25152
G1 F3600 X57.6 Y72.044
G1 F1680 E12.25152
G1 F1200 X57.6 Y47.957 E14.90769
G1 F1680 E11.90769
G1 F3600 X56 Y47.129
G1 F1680 E14.90769
G1 F1200 X56 Y72.871 E17.74636
G1 F1680 E14.74636
G1 F3600 X54.4 Y73.53
G1 F1680 E17.74636
G1 F1200 X54.4 Y46.467 E20.73071
G1 F1680 E17.73071
G1 F3600 X52.8 Y46.061
G1 F1680 E20.73071
G1 F1200 X52.8 Y73.941 E23.80515
G1 F1680 E20.80515
G1 F3600 X51.2 Y74.152
G1 F1680 E23.80515
G1 F1200 X51.2 Y45.853 E26.92579
G1 F1680 E23.92579
G1 F3600 X49.6 Y45.758
G1 F1680 E26.92579
G1 F1200 X49.6 Y74.241 E30.06672
G1 F1680 E27.06672
G1 F3600 X48 Y74.043
G1 F1680 E30.06672
G1 F1200 X48 Y45.954 E33.16421
G1 F1680 E30.16421
G1 F3600 X46.4 Y46.205
G1 F1680 E33.16421
G1 F1200 X46.4 Y73.797 E36.20689
G1 F1680 E33.20689
G1 F3600 X44.8 Y73.202
G1 F1680 E36.20689
G1 F1200 X44.8 Y46.799 E39.11845
G1 F1680 E36.11845
G1 F3600 X43.2 Y47.483
G1 F1680 E39.11845
G1 F1200 X43.2 Y72.516 E41.87894
G1 F1680 E38.87894
G1 F3600 X41.6 Y71.44
G1 F1680 E41.87894
G1 F1200 X41.6 Y48.559 E44.40212
G1 F1680 E41.40212
G1 F3600 X40 Y49.83
G1 F1680 E44.40212
G1 F1200 X40 Y70.169 E46.64498
G1 F1680 E43.64498
G1 F3600 X38.4 Y68.192
G1 F1680 E46.64498
G1 F1200 X38.4 Y51.807 E48.45182
G1 F1680 E45.45182
G1 F3600 X36.8 Y54.793
M104 T0 S200
G1 F1680 E48.45182
G1 F1200 X36.8 Y65.2 E49.59944
G1 F1680 E46.59944
G1 F3600 X60.8 Y69.236
G1 F1680 E49.59944
G1 F1200 X60.8 Y50.765 E51.63631
G1 F1680 E48.63631
G1 F3600 X62.4 Y52.963
G1 F1680 E51.63631
G1 F1200 X62.4 Y67.031 E53.18765
G1 F1680 E50.18765
G1 F3600 X64 Y62.339
G1 F1680 E53.18765
G1 F1200 X64 Y57.653 E53.70439
G1 F1680 E50.70439
G1 F3600 X59.604 Y49.421
;TIME_ELAPSED:29.980968
;LAYER:-7
G1 X59.604 Y49.421 Z0.619
;TYPE:SUPPORT
G1 F1680 E53.70439
G1 F1980 X60.068 Y49.822 E53.7501
G1 X60.176 Y49.93 E53.76149
G1 F3600 X60.588 Y50.406
G1 F1980 X59.604 Y49.421 E53.86527
G1 F1680 E50.86527
G1 F3600 X60.588 Y50.406
G1 F1680 E53.86527
G1 F1980 X60.596 Y50.416 E53.86623
G1 X62.078 Y52.355 E54.04815
G1 X62.359 Y52.774 E54.08575
G1 X62.646 Y53.34 E54.13306
G1 X62.721 Y53.503 E54.14643
G1 X62.937 Y54.027 E54.18868
G1 X55.97 Y47.06 E54.92313
G1 X54.394 Y46.408 E55.05026
G1 X53.853 Y46.217 E55.09303
G1 X63.781 Y56.144 E56.13956
G1 X63.806 Y56.217 E56.14531
G1 X63.84 Y56.354 E56.15583
G1 X63.935 Y56.821 E56.19136
G1 X63.966 Y57.008 E56.20549
G1 X64.056 Y57.692 E56.25691
G1 X52.306 Y45.942 E57.49557
G1 X50.841 Y45.75 E57.60571
G1 X64.249 Y59.158 E59.01915
G1 X64.265 Y59.277 E59.0281
G1 X64.28 Y59.435 E59.03993
G1 X64.314 Y60 E59.08212
G1 X64.287 Y60.468 E59.11707
G1 X49.533 Y45.715 E60.67235
G1 X49.276 Y45.733 E60.69155
G1 X48.395 Y45.85 E60.7578
M73 P2
G1 X64.146 Y61.601 E62.41823
G1 X64 Y62.728 E62.50294
G1 X47.271 Y45.998 E64.26653
G1 X47.008 Y46.032 E64.2863
G1 X46.833 Y46.062 E64.29953
G1 X46.354 Y46.159 E64.33596
G1 X46.2 Y46.2 E64.34784
G1 X63.8 Y63.8 E66.20319
G1 X63.791 Y63.831 E66.2056
G1 X63.59 Y64.395 E66.25023
G1 X63.454 Y64.727 E66.27697
G1 X45.273 Y46.546 E68.19357
G1 X44.373 Y46.918 E68.26616
G1 X63.081 Y65.627 E70.23837
G1 X62.721 Y66.494 E70.30835
G1 X62.706 Y66.525 E70.31092
G1 X43.473 Y47.292 E72.33842
G1 X43.341 Y47.352 E72.34922
G1 X42.779 Y47.637 E72.39619
G1 X42.639 Y47.731 E72.40876
G1 X62.269 Y67.361 E74.47811
G1 X62 Y67.752 E74.51349
G1 X61.735 Y68.099 E74.54604
G1 X41.903 Y48.267 E76.63668
G1 X41.181 Y48.817 E76.70434
G1 X61.183 Y68.819 E78.8129
G1 X60.63 Y69.54 E78.88063
G1 X40.459 Y49.369 E81.00702
G1 X40.416 Y49.402 E81.01106
G1 X39.931 Y49.822 E81.05888
G1 X39.822 Y49.93 E81.07032
G1 X39.787 Y49.969 E81.07422
G1 X60.027 Y70.209 E83.20788
G1 X59.583 Y70.596 E83.25178
G1 X59.332 Y70.787 E83.27529
G1 X39.21 Y50.665 E85.39651
G1 X38.658 Y51.386 E85.4642
G1 X58.611 Y71.339 E87.56759
G1 X57.889 Y71.89 E87.6353
G1 X38.105 Y52.106 E89.72088
G1 X37.999 Y52.245 E89.73391
G1 X37.671 Y52.724 E89.77718
G1 X37.591 Y52.864 E89.7892
G1 X57.132 Y72.406 E91.84922
G1 X56.659 Y72.646 E91.88876
G1 X56.497 Y72.72 E91.90204
G1 X56.268 Y72.814 E91.92049
G1 X37.183 Y53.73 E93.93233
G1 X36.811 Y54.63 E94.00493
G1 X55.366 Y73.185 E95.96095
G1 X54.464 Y73.556 E96.03365
G1 X36.439 Y55.531 E97.93381
G1 X36.409 Y55.603 E97.93962
G1 X36.208 Y56.167 E97.98425
G1 X36.159 Y56.354 E97.99866
G1 X36.131 Y56.496 E98.00945
G1 X53.503 Y73.868 E99.84077
G1 X53.165 Y73.937 E99.86648
G1 X52.99 Y73.966 E99.87971
G1 X52.405 Y74.043 E99.92369
G1 X35.956 Y57.593 E101.65776
G1 X35.81 Y58.72 E101.74247
G1 X51.28 Y74.191 E103.37333
G1 X50.722 Y74.265 E103.41529
G1 X50.126 Y74.309 E103.45984
G1 X35.69 Y59.873 E104.98165
G1 X35.683 Y59.999 E104.99105
G1 X35.717 Y60.552 E105.03235
G1 X35.734 Y60.722 E105.04509
G1 X35.805 Y61.26 E105.08554
G1 X48.738 Y74.193 E106.44891
G1 X47.272 Y74 E106.55913
G1 X35.997 Y62.726 E107.74766
G1 X36.032 Y62.99 E107.76751
G1 X36.061 Y63.165 E107.78073
G1 X36.159 Y63.644 E107.81718
G1 X36.208 Y63.831 E107.83159
G1 X36.408 Y64.394 E107.87613
G1 X36.419 Y64.42 E107.87823
G1 X45.577 Y73.578 E108.84365
G1 X43.503 Y72.72 E109.01095
G1 X43.392 Y72.666 E109.02015
G1 X37.326 Y66.6 E109.65962
G1 F3600 X37.347 Y66.647
G1 F1980 X37.637 Y67.22 E109.70749
G1 X37.92 Y67.643 E109.74542
G1 X39.395 Y69.572 E109.92643
G1 X39.822 Y70.068 E109.97522
G1 X39.931 Y70.176 E109.98666
G1 X40.416 Y70.596 E110.03448
G1 X42.246 Y72 E110.20642
G1 X42.719 Y72.322 E110.24907
G1 X42.871 Y72.411 E110.2622
G1 X43.392 Y72.666 E110.30544
G1 F1680 E107.30544
G1 F3600 X59.565 Y49.2
;TIME_ELAPSED:54.110431
;LAYER:-6
M106 S255
G1 X59.565 Y49.2 Z0.869
G1 F1680 E110.30544
G1 F2400 X40.434 Y49.2 E111.06104
G1 X40.325 Y49.283 E111.06645
G1 X39.959 Y49.6 E111.08558
G1 X60.04 Y49.6 E111.8787
G1 X60.166 Y49.709 E111.88528
G1 X60.289 Y49.832 E111.89216
G1 X60.435 Y50 E111.90095
G1 X39.564 Y50 E112.72528
G1 X39.283 Y50.325 E112.74224
G1 X39.226 Y50.4 E112.74597
G1 X60.773 Y50.4 E113.59699
G1 X61.079 Y50.8 E113.61689
G1 X38.92 Y50.8 E114.49209
G1 X38.613 Y51.2 E114.512
G1 X61.386 Y51.2 E115.41145
G1 X61.693 Y51.6 E115.43137
M73 P3
G1 X38.306 Y51.6 E116.35507
G1 X38 Y52 E116.37496
G1 X61.999 Y52 E117.32284
G1 X62.125 Y52.165 E117.33104
G1 X62.286 Y52.4 E117.34229
G1 X37.713 Y52.4 E118.31283
G1 X37.548 Y52.641 E118.32437
G1 X37.456 Y52.8 E118.33162
G1 X62.543 Y52.8 E119.32247
G1 X62.739 Y53.2 E119.34006
G1 X37.26 Y53.2 E120.34639
G1 X37.142 Y53.441 E120.35699
G1 X37.077 Y53.6 E120.36378
G1 X62.922 Y53.6 E121.38456
G1 X63.088 Y54 E121.40167
G1 X36.911 Y54 E122.43556
G1 X36.745 Y54.4 E122.45267
G1 X63.254 Y54.4 E123.49968
G1 X63.419 Y54.8 E123.51677
G1 X36.58 Y54.8 E124.57681
G1 X36.414 Y55.2 E124.59392
G1 X63.585 Y55.2 E125.66707
G1 X63.73 Y55.551 E125.68207
G1 X63.748 Y55.6 E125.68414
G1 X36.251 Y55.6 E126.77017
G1 X36.109 Y56 E126.78693
G1 X63.889 Y56 E127.88414
G1 X63.929 Y56.113 E127.88888
G1 X63.983 Y56.31 E127.89695
G1 X64.002 Y56.4 E127.90058
G1 X35.998 Y56.4 E129.00664
G1 X35.921 Y56.8 E129.02273
G1 X64.083 Y56.8 E130.13502
G1 X64.114 Y56.988 E130.14255
G1 X64.142 Y57.2 E130.15099
G1 X35.856 Y57.2 E131.26819
G1 X35.804 Y57.6 E131.28412
G1 X64.195 Y57.6 E132.40546
G1 X64.248 Y58 E132.4214
G1 X35.751 Y58 E133.54693
G1 X35.698 Y58.4 E133.56287
G1 X64.301 Y58.4 E134.69258
G1 X64.353 Y58.8 E134.70851
G1 X35.646 Y58.8 E135.84234
G1 X35.593 Y59.2 E135.85827
G1 X64.406 Y59.2 E136.99628
G1 X64.412 Y59.25 E136.99827
G1 X64.439 Y59.6 E137.01214
G1 X35.56 Y59.6 E138.15275
G1 X35.537 Y59.907 E138.16491
G1 X35.537 Y60 E138.16859
G1 X64.461 Y60 E139.31098
G1 X64.461 Y60.091 E139.31458
G1 X64.438 Y60.4 E139.32681
G1 X35.559 Y60.4 E140.46743
G1 X35.585 Y60.742 E140.48098
G1 X35.592 Y60.8 E140.48328
G1 X64.405 Y60.8 E141.6213
G1 X64.352 Y61.2 E141.63723
G1 X35.645 Y61.2 E142.77106
G1 X35.698 Y61.6 E142.78699
G1 X64.299 Y61.6 E143.91663
G1 X64.247 Y62 E143.93256
G1 X35.75 Y62 E145.05809
G1 X35.803 Y62.4 E145.07403
G1 X64.194 Y62.4 E146.19537
G1 X64.141 Y62.8 E146.21131
G1 X35.856 Y62.8 E147.32846
G1 X35.883 Y63.003 E147.33655
G1 X35.916 Y63.2 E147.34444
G1 X64.077 Y63.2 E148.4567
G1 X64 Y63.6 E148.47279
G1 X35.996 Y63.6 E149.57884
G1 X36.013 Y63.68 E149.58207
G1 X36.067 Y63.88 E149.59026
G1 X36.109 Y64 E149.59528
G1 X63.888 Y64 E150.69245
G1 X63.746 Y64.4 E150.70921
G1 X36.251 Y64.4 E151.79517
G1 X36.266 Y64.441 E151.79689
G1 X36.414 Y64.8 E151.81223
G1 X63.583 Y64.8 E152.88531
G1 X63.417 Y65.2 E152.90241
G1 X36.58 Y65.2 E153.96238
G1 X36.745 Y65.6 E153.97947
G1 X63.252 Y65.6 E155.0264
G1 X63.086 Y66 E155.0435
G1 X36.911 Y66 E156.07732
G1 X37.077 Y66.4 E156.09443
G1 X62.92 Y66.4 E157.11513
G1 X62.856 Y66.557 E157.12183
G1 X62.737 Y66.8 E157.13251
G1 X37.26 Y66.8 E158.13876
G1 X37.456 Y67.2 E158.15636
G1 X62.541 Y67.2 E159.14712
G1 X62.45 Y67.357 E159.15429
G1 X62.284 Y67.6 E159.16592
G1 X37.713 Y67.6 E160.13638
G1 X37.873 Y67.833 E160.14755
G1 X38 Y68 E160.15583
G1 X61.997 Y68 E161.10363
G1 X61.69 Y68.4 E161.12354
G1 X38.307 Y68.4 E162.04709
G1 X38.614 Y68.8 E162.067
G1 X61.383 Y68.8 E162.9663
G1 X61.077 Y69.2 E162.98619
G1 X38.92 Y69.2 E163.86131
G1 X39.227 Y69.6 E163.88122
G1 X60.77 Y69.6 E164.7321
G1 X60.715 Y69.673 E164.73571
G1 X60.432 Y70 E164.75279
G1 X39.565 Y70 E165.57696
G1 X39.705 Y70.162 E165.58541
G1 X39.832 Y70.289 E165.59251
G1 X39.96 Y70.4 E165.5992
G1 X60.037 Y70.4 E166.39217
G1 X59.673 Y70.715 E166.41118
M73 P4
G1 X59.562 Y70.8 E166.4167
G1 X40.435 Y70.8 E167.17215
G1 X40.957 Y71.2 E167.19813
G1 X59.04 Y71.2 E167.91234
G1 X58.518 Y71.6 E167.93831
G1 X41.479 Y71.6 E168.61129
G1 X42.001 Y72 E168.63727
G1 X57.996 Y72 E169.26901
G1 X57.833 Y72.125 E169.27713
G1 X57.43 Y72.4 E169.2964
G1 X42.567 Y72.4 E169.88343
G1 X42.641 Y72.45 E169.88696
G1 X42.794 Y72.54 E169.89397
G1 X43.325 Y72.8 E169.91732
G1 X56.672 Y72.8 E170.44448
G1 X56.564 Y72.853 E170.44923
G1 X55.721 Y73.2 E170.48524
G1 X44.272 Y73.2 E170.93743
G1 X45.238 Y73.6 E170.97873
G1 X54.75 Y73.6 E171.35442
G1 X54.296 Y73.787 E171.37381
G1 X53.805 Y73.954 E171.39429
G1 X53.688 Y73.983 E171.39905
G1 X53.604 Y74 E171.40244
G1 X46.397 Y74 E171.68709
G1 X46.993 Y74.115 E171.71106
G1 X49.158 Y74.4 E171.79731
G1 X50.839 Y74.4 E171.8637
G1 X50.748 Y74.412 E171.86733
G1 X50.091 Y74.461 E171.89335
G1 X49.907 Y74.461 E171.90062
G1 X49.25 Y74.412 E171.92664
G1 F1680 E168.92664
G1 F3600 X40.956 Y48.8
G1 F1680 E171.92664
G1 F2400 X59.043 Y48.8 E172.64101
G1 X59.565 Y49.2 E172.66698
G1 F1680 E169.66698
G1 F3600 X58.521 Y48.4
G1 F1680 E172.66698
G1 F2400 X41.478 Y48.4 E173.34012
G1 X40.956 Y48.8 E173.3661
G1 F1680 E170.3661
G1 F3600 X42 Y48
G1 F1680 E173.3661
G1 F2400 X57.999 Y48 E173.998
G1 X58.521 Y48.4 E174.02397
G1 F1680 E171.02397
G1 F3600 X57.434 Y47.6
G1 F1680 E174.02397
G1 F2400 X42.565 Y47.6 E174.61125
G1 X42.165 Y47.873 E174.63037
G1 X42 Y48 E174.6386
G1 F1680 E171.6386
G1 F3600 X43.322 Y47.2
G1 F1680 E174.6386
G1 F2400 X56.676 Y47.2 E175.16603
G1 X57.204 Y47.458 E175.18924
G1 X57.357 Y47.548 E175.19625
G1 X57.434 Y47.6 E175.19992
G1 F1680 E172.19992
G1 F3600 X55.731 Y46.8
G1 F1680 E175.19992
G1 F2400 X44.272 Y46.8 E175.65251
G1 X43.434 Y47.145 E175.68831
G1 X43.322 Y47.2 E175.69323
G1 F1680 E172.69323
G1 F3600 X45.244 Y46.4
G1 F1680 E175.69323
G1 F2400 X54.765 Y46.4 E176.06928
G1 X55.731 Y46.8 E176.11057
G1 F1680 E173.11057
G1 F3600 X53.611 Y46
G1 F1680 E176.11057
G1 F2400 X46.385 Y46 E176.39598
G1 X46.31 Y46.015 E176.399
G1 X46.193 Y46.044 E176.40376
G1 X45.702 Y46.211 E176.42424
G1 X45.244 Y46.4 E176.44381
G1 F1680 E173.44381
G1 F3600 X49.144 Y45.6
G1 F1680 E176.44381
G1 F2400 X50.855 Y45.6 E176.51139
G1 X53.005 Y45.883 E176.59704
G1 X53.611 Y46 E176.62142
G1 F1680 E173.62142
G1 F3600 X50.748 Y45.586
G1 F1680 E176.62142
G1 F2400 X50.091 Y45.537 E176.64744
G1 X49.907 Y45.537 E176.6547
G1 X49.25 Y45.586 E176.68072
G1 X49.144 Y45.6 E176.68495
G1 F1680 E173.68495
G1 F3600 X59.599 Y49.227
;TIME_ELAPSED:99.667435
;LAYER:-5
G1 X59.599 Y49.227 Z1.119
G1 F1680 E176.68495
G1 F2400 X59.599 Y70.772 E177.5359
G1 X59.673 Y70.715 E177.53959
G1 X59.999 Y70.434 E177.55659
G1 X59.999 Y49.565 E178.38084
G1 X60.166 Y49.709 E178.38955
G1 X60.289 Y49.832 E178.39642
G1 X60.399 Y49.96 E178.40308
G1 X60.399 Y70.04 E179.19617
G1 X60.715 Y69.673 E179.2153
G1 X60.799 Y69.564 E179.22073
G1 X60.799 Y50.435 E179.97626
G1 X61.199 Y50.957 E180.00223
G1 X61.199 Y69.042 E180.71653
G1 X61.599 Y68.52 E180.7425
G1 X61.599 Y51.479 E181.41556
G1 X61.999 Y52.001 E181.44153
G1 X61.999 Y67.998 E182.07336
G1 X62.125 Y67.833 E182.08156
G1 X62.399 Y67.432 E182.10074
M73 P5
G1 X62.399 Y52.567 E182.68785
G1 X62.45 Y52.641 E182.6914
G1 X62.54 Y52.794 E182.69841
G1 X62.799 Y53.324 E182.72171
G1 X62.799 Y66.674 E183.24899
G1 X62.856 Y66.557 E183.25413
G1 X63.199 Y65.729 E183.28953
G1 X63.199 Y54.27 E183.74212
G1 X63.599 Y55.235 E183.78338
G1 X63.599 Y64.763 E184.1597
