M73 P0
;MINX:36.5
;MAXX:63.5
;MINY:46.5
;MAXY:73.5
;MINZ:0.0
;MAXZ:5.3
;MachineType:ENTINA TINA2
;FilamentType:PLA
;Extruder0Temperature:200
;InfillDensity:10
;FLAVOR:Marlin
;TIME:280
;FilamentUsed:274.5
;Layer height: 0.15

;Generated with Cura_SteamEngine 3.1
M104 T0 S215
M82 ; absolute extrusion mode
;(**** start.gcode for tina2****)
M104 S150
G28 Z
G28 X Y; Home extruder
G1 X55 Y55 F1000
G1 Z10 F200
G29
G1 Z15 F100
M107 ; Turn off fan
G90 ; Absolute positioning
M82 ; Extruder in absolute mode
M109 S215.0
G92 E0 ; Reset extruder position
G1 X90 Y6 Z0.27 F2000
M73 P1
G1 X20 Y6 Z0.27 E15 F1000
G92 E0 ; Reset extruder position

;LAYER_COUNT:25
;LAYER:-7
M107
M203 Z5
G1 F3600 X58.639 Y50.378 Z0.349
G1 F1200 X59.113 Y50.788 E0.06911
G1 X59.208 Y50.883 E0.08393
G1 X59.618 Y51.357 E0.15304
G1 X60.911 Y53.046 E0.3876
G1 X61.198 Y53.475 E0.44452
G1 X61.525 Y54.136 E0.52584
G1 X62.334 Y56.097 E0.75977
G1 X62.493 Y56.557 E0.81344
G1 X62.619 Y57.153 E0.88061
G1 X62.653 Y57.355 E0.9032
G1 X62.923 Y59.437 E1.13472
G1 X62.958 Y59.998 E1.1967
G1 X62.924 Y60.545 E1.25714
M73 P2
G1 X62.655 Y62.627 E1.48864
G1 X62.619 Y62.843 E1.51278
G1 X62.493 Y63.439 E1.57996
G1 X62.338 Y63.888 E1.63234
G1 X61.531 Y65.847 E1.86598
G1 X61.245 Y66.434 E1.93798
G1 X61.16 Y66.582 E1.9568
G1 X60.849 Y67.038 E2.01767
G1 X59.619 Y68.638 E2.24022
G1 X59.208 Y69.113 E2.30949
G1 X59.113 Y69.208 E2.3243
G1 X58.639 Y69.618 E2.39341
G1 X56.95 Y70.911 E2.62798
G1 X56.535 Y71.19 E2.68312
G1 X55.983 Y71.469 E2.75132
G1 X55.86 Y71.525 E2.76623
G1 X53.899 Y72.334 E3.00015
G1 X53.439 Y72.493 E3.05383
G1 X52.843 Y72.619 E3.121
G1 X52.632 Y72.654 E3.14459
G1 X50.547 Y72.924 E3.37643
M73 P3
G1 X49.998 Y72.958 E3.43708
G1 X49.449 Y72.924 E3.49774
G1 X47.364 Y72.654 E3.72958
G1 X47.153 Y72.619 E3.75317
G1 X46.557 Y72.493 E3.82034
G1 X46.097 Y72.334 E3.87401
G1 X44.136 Y71.525 E4.10794
G1 X43.561 Y71.245 E4.17847
G1 X43.405 Y71.154 E4.19838
G1 X42.946 Y70.84 E4.25971
G1 X41.357 Y69.618 E4.48076
G1 X40.883 Y69.208 E4.54987
G1 X40.788 Y69.113 E4.56468
G1 X40.377 Y68.638 E4.63395
G1 X39.147 Y67.038 E4.8565
G1 X38.836 Y66.582 E4.91737
G1 X38.751 Y66.434 E4.93619
G1 X38.465 Y65.847 E5.00819
G1 X37.658 Y63.888 E5.24183
G1 X37.503 Y63.439 E5.29421
G1 X37.471 Y63.307 E5.30919
M73 P4
G1 X37.377 Y62.843 E5.36139
G1 X37.341 Y62.627 E5.38554
G1 X37.072 Y60.545 E5.61704
G1 X37.038 Y59.998 E5.67748
G1 X37.072 Y59.451 E5.73791
G1 X37.341 Y57.369 E5.96941
G1 X37.377 Y57.153 E5.99356
G1 X37.503 Y56.557 E6.06074
G1 X37.658 Y56.108 E6.11312
G1 X38.471 Y54.136 E6.34833
G1 X38.758 Y53.548 E6.42048
G1 X38.843 Y53.404 E6.43892
G1 X39.147 Y52.958 E6.49845
G1 X40.378 Y51.357 E6.72115
G1 X40.788 Y50.883 E6.79026
G1 X40.883 Y50.788 E6.80507
G1 X41.357 Y50.378 E6.87419
G1 X43.046 Y49.085 E7.10875
G1 X43.461 Y48.806 E7.16389
G1 X44.013 Y48.527 E7.2321
G1 X44.136 Y48.471 E7.247
M73 P5
G1 X46.097 Y47.662 E7.48093
G1 X46.557 Y47.503 E7.5346
G1 X47.153 Y47.377 E7.60177
G1 X47.364 Y47.342 E7.62536
G1 X49.449 Y47.072 E7.8572
G1 X49.998 Y47.038 E7.91786
G1 X50.547 Y47.072 E7.97851
G1 X52.632 Y47.342 E8.21036
G1 X52.843 Y47.377 E8.23394
G1 X53.439 Y47.503 E8.30112
G1 X53.899 Y47.662 E8.35479
G1 X55.86 Y48.471 E8.58871
G1 X56.434 Y48.751 E8.65914
G1 X56.582 Y48.836 E8.67796
G1 X57.05 Y49.156 E8.74048
G1 X58.639 Y50.378 E8.96153
G1 F3600 X59.2 Y50.875
G1 F1200 X59.2 Y69.121 E10.97359
G1 F1680 E7.97359
G1 F3600 X57.6 Y70.414
G1 F1680 E10.97359
M73 P6
G1 F1200 X57.6 Y49.579 E13.27115
G1 F1680 E10.27115
G1 F3600 X56 Y48.54
G1 F1680 E13.27115
G1 F1200 X56 Y71.461 E15.79874
G1 F1680 E12.79874
G1 F3600 X54.4 Y72.128
G1 F1680 E15.79874
G1 F1200 X54.4 Y47.869 E18.47387
G1 F1680 E15.47387
G1 F3600 X52.8 Y47.37
G1 F1680 E18.47387
G1 F1200 X52.8 Y72.627 E21.25906
G1 F1680 E18.25906
G1 F3600 X51.2 Y72.84
G1 F1680 E21.25906
G1 F1200 X51.2 Y47.157 E24.09123
G1 F1680 E21.09123
G1 F3600 X49.6 Y47.062
G1 F1680 E24.09123
G1 F1200 X49.6 Y72.933 E26.94413
M73 P7
G1 F1680 E23.94413
G1 F3600 X48 Y72.736
G1 F1680 E26.94413
G1 F1200 X48 Y47.259 E29.75358
G1 F1680 E26.75358
G1 F3600 X46.4 Y47.557
G1 F1680 E29.75358
G1 F1200 X46.4 Y72.438 E32.49731
G1 F1680 E29.49731
G1 F3600 X44.8 Y71.798
G1 F1680 E32.49731
G1 F1200 X44.8 Y48.197 E35.09988
G1 F1680 E32.09988
G1 F3600 X43.2 Y48.981
G1 F1680 E35.09988
G1 F1200 X43.2 Y71.013 E37.52944
G1 F1680 E34.52944
G1 F3600 X41.6 Y69.804
G1 F1680 E37.52944
G1 F1200 X41.6 Y50.191 E39.69224
G1 F1680 E36.69224
M73 P8
G1 F3600 X40 Y51.848
M104 T0 S200
G1 F1680 E39.69224
G1 F1200 X40 Y68.147 E41.4896
G1 F1680 E38.4896
G1 F3600 X38.4 Y65.689
G1 F1680 E41.4896
G1 F1200 X38.4 Y54.308 E42.74462
G1 F1680 E39.74462
G1 F3600 X60.8 Y52.902
G1 F1680 E42.74462
G1 F1200 X60.8 Y67.102 E44.31052
G1 F1680 E41.31052
G1 F3600 X62.4 Y63.709
G1 F1680 E44.31052
G1 F1200 X62.4 Y56.288 E45.12886
G1 F1680 E42.12886
G1 F3600 X58.669 Y50.338
;TIME_ELAPSED:25.555294
;LAYER:-6
G1 X58.669 Y50.338 Z0.619
M73 P9
;TYPE:SUPPORT
G1 F1680 E45.12886
G1 F1980 X56.979 Y49.044 E45.28752
G1 X56.55 Y48.757 E45.326
G1 X56.234 Y48.598 E45.35236
G1 X61.397 Y53.76 E45.89658
G1 X61.576 Y54.127 E45.92702
G1 X62.338 Y55.974 E46.07596
G1 X54.017 Y47.653 E46.95314
G1 X53.465 Y47.458 E46.99677
G1 X53.329 Y47.424 E47.00722
G1 X52.647 Y47.292 E47.05901
G1 X52.343 Y47.252 E47.08186
G1 X62.742 Y57.651 E48.1781
G1 X62.931 Y59.113 E48.28799
G1 X50.878 Y47.06 E49.55859
G1 X50.697 Y47.036 E49.5722
G1 X50.077 Y46.99 E49.61854
G1 X49.917 Y46.99 E49.63047
G1 X49.562 Y47.016 E49.657
G1 X62.982 Y60.436 E51.0717
M73 P10
G1 X62.974 Y60.55 E51.08022
G1 X62.843 Y61.57 E51.15688
G1 X48.424 Y47.151 E52.6769
G1 X47.347 Y47.292 E52.75786
G1 X47.3 Y47.3 E52.76142
G1 X62.694 Y62.694 E54.38422
G1 X62.571 Y63.329 E54.43243
G1 X62.537 Y63.465 E54.44288
G1 X62.448 Y63.72 E54.46301
G1 X46.273 Y47.546 E56.16809
G1 X46.08 Y47.613 E56.18332
G1 X45.363 Y47.909 E56.24114
G1 X62.088 Y64.634 E58.00425
G1 X61.716 Y65.534 E58.07685
G1 X44.462 Y48.28 E59.89572
G1 X44.127 Y48.418 E59.92273
G1 X43.991 Y48.48 E59.93387
G1 X43.591 Y48.682 E59.96728
G1 X61.312 Y66.403 E61.83538
G1 X61.238 Y66.55 E61.84765
G1 X60.951 Y66.979 E61.88613
M73 P11
G1 X60.806 Y67.17 E61.904
G1 X42.825 Y49.189 E63.79952
G1 X42.104 Y49.741 E63.8672
G1 X60.254 Y67.891 E65.78053
G1 X59.702 Y68.611 E65.84816
G1 X41.384 Y50.293 E67.7792
G1 X41.326 Y50.337 E67.78463
G1 X40.848 Y50.749 E67.83167
G1 X40.749 Y50.848 E67.84211
G1 X40.71 Y50.893 E67.84655
G1 X59.101 Y69.283 E69.78523
G1 X58.67 Y69.657 E69.82777
G1 X58.404 Y69.86 E69.85271
G1 X40.134 Y51.589 E71.77874
G1 X39.583 Y52.311 E71.84644
G1 X57.685 Y70.413 E73.75472
G1 X57.072 Y70.886 E73.81243
G1 X56.96 Y70.961 E73.82248
G1 X39.032 Y53.033 E75.71241
G1 X38.758 Y53.441 E75.74904
G1 X38.559 Y53.833 E75.78181
M73 P12
G1 X56.159 Y71.433 E77.63716
G1 X55.868 Y71.576 E77.66133
G1 X55.274 Y71.82 E77.7092
G1 X38.175 Y54.721 E79.51174
G1 X37.801 Y55.62 E79.58432
G1 X54.373 Y72.192 E81.3313
G1 X53.916 Y72.381 E81.36816
G1 X53.449 Y72.541 E81.40496
G1 X37.453 Y56.545 E83.09122
G1 X37.423 Y56.664 E83.10037
G1 X37.289 Y57.359 E83.15313
G1 X37.256 Y57.62 E83.17274
G1 X52.373 Y72.738 E84.76639
G1 X51.246 Y72.883 E84.8511
G1 X37.11 Y58.747 E86.34128
G1 X37.02 Y59.444 E86.39367
G1 X36.992 Y59.902 E86.42787
G1 X50.092 Y73.002 E87.80884
G1 X49.998 Y73.008 E87.81586
G1 X49.439 Y72.973 E87.85761
G1 X48.693 Y72.876 E87.91369
M73 P13
G1 X37.117 Y61.3 E89.13401
G1 X37.289 Y62.635 E89.23434
G1 X37.311 Y62.767 E89.24432
G1 X47.223 Y72.679 E90.28922
G1 X46.664 Y72.571 E90.33166
G1 X46.529 Y72.537 E90.34203
G1 X45.969 Y72.339 E90.38631
G1 X45.353 Y72.082 E90.43606
G1 X37.912 Y64.64 E91.22053
G1 X38.411 Y65.854 E91.31837
G1 X38.756 Y66.551 E91.37634
G1 X39.044 Y66.979 E91.41479
G1 X39.261 Y67.262 E91.44138
G1 X42.752 Y70.753 E91.80939
G1 X41.326 Y69.657 E91.94346
G1 X40.848 Y69.244 E91.99054
G1 X40.749 Y69.145 E92.00098
G1 X40.338 Y68.669 E92.04786
G1 F1680 E89.04786
G1 F3600 X61.282 Y53.525
G1 F1680 E92.04786
M73 P14
G1 F1980 X61.195 Y53.377 E92.06066
G1 X60.88 Y52.915 E92.10234
G1 X59.657 Y51.326 E92.2518
G1 X59.244 Y50.848 E92.29889
G1 X59.145 Y50.749 E92.30933
G1 X58.669 Y50.338 E92.35621
G1 F3600 X58.974 Y50.4
;TIME_ELAPSED:45.720963
;LAYER:-5
M106 S255
G1 X58.974 Y50.4 Z0.869
G1 F2400 X59.302 Y50.692 E92.37355
G1 X59.399 Y50.8 E92.37929
G1 X40.597 Y50.8 E93.1219
G1 X40.319 Y51.112 E93.1384
G1 X40.247 Y51.2 E93.14289
G1 X59.748 Y51.2 E93.91311
G1 X59.775 Y51.234 E93.91483
G1 X60.056 Y51.6 E93.93305
G1 X39.938 Y51.6 E94.72764
G1 X39.631 Y52 E94.74756
M73 P15
G1 X60.362 Y52 E95.56636
G1 X60.668 Y52.4 E95.58625
G1 X39.323 Y52.4 E96.4293
G1 X39.015 Y52.8 E96.44924
G1 X60.975 Y52.8 E97.31658
G1 X61.07 Y52.925 E97.32278
G1 X61.255 Y53.2 E97.33587
G1 X38.739 Y53.2 E98.22517
G1 X38.67 Y53.301 E98.23
G1 X38.578 Y53.458 E98.23719
G1 X38.509 Y53.6 E98.24343
G1 X61.484 Y53.6 E99.15086
G1 X61.65 Y53.929 E99.16541
G1 X61.683 Y54 E99.1685
G1 X38.314 Y54 E100.09149
G1 X38.285 Y54.059 E100.09409
G1 X38.145 Y54.4 E100.10865
G1 X61.85 Y54.4 E101.04491
G1 X62.015 Y54.8 E101.062
G1 X37.98 Y54.8 E102.0113
G1 X37.815 Y55.2 E102.02839
M73 P16
G1 X62.18 Y55.2 E102.99072
G1 X62.345 Y55.6 E103.00781
G1 X37.65 Y55.6 E103.98317
G1 X37.485 Y56 E104.00026
G1 X62.51 Y56 E104.98866
G1 X62.522 Y56.031 E104.98997
G1 X62.649 Y56.4 E105.00539
G1 X37.346 Y56.4 E106.00476
G1 X37.305 Y56.519 E106.00973
G1 X37.246 Y56.8 E106.02108
G1 X62.749 Y56.8 E107.02835
G1 X62.816 Y57.119 E107.04123
G1 X62.83 Y57.2 E107.04447
G1 X37.165 Y57.2 E108.05815
G1 X37.142 Y57.335 E108.06356
G1 X37.108 Y57.6 E108.07411
G1 X62.887 Y57.6 E109.09229
G1 X62.94 Y58 E109.10822
G1 X37.055 Y58 E110.13059
G1 X37.003 Y58.4 E110.14652
G1 X62.992 Y58.4 E111.17299
M73 P17
G1 X63.045 Y58.8 E111.18893
G1 X36.95 Y58.8 E112.21959
G1 X36.898 Y59.2 E112.23552
G1 X63.097 Y59.2 E113.27029
G1 X63.106 Y59.272 E113.27315
G1 X63.131 Y59.6 E113.28614
G1 X36.864 Y59.6 E114.3236
G1 X36.84 Y59.919 E114.33623
G1 X36.84 Y60 E114.33943
G1 X63.154 Y60 E115.37874
G1 X63.154 Y60.075 E115.3817
G1 X63.13 Y60.4 E115.39457
G1 X36.863 Y60.4 E116.43202
G1 X36.887 Y60.716 E116.44454
G1 X36.898 Y60.8 E116.44789
G1 X63.095 Y60.8 E117.48258
G1 X63.043 Y61.2 E117.49851
G1 X36.95 Y61.2 E118.52909
G1 X37.003 Y61.6 E118.54502
G1 X62.99 Y61.6 E119.57142
G1 X62.938 Y62 E119.58735
M73 P18
G1 X37.055 Y62 E120.60963
G1 X37.108 Y62.4 E120.62557
G1 X62.885 Y62.4 E121.64367
G1 X62.852 Y62.659 E121.65398
G1 X62.828 Y62.8 E121.65963
G1 X37.165 Y62.8 E122.67323
G1 X37.177 Y62.868 E122.67595
G1 X37.247 Y63.2 E122.68936
G1 X62.746 Y63.2 E123.69647
G1 X62.689 Y63.475 E123.70757
G1 X62.646 Y63.6 E123.71279
G1 X37.347 Y63.6 E124.71201
G1 X37.47 Y63.958 E124.72696
G1 X37.487 Y64 E124.72875
G1 X62.506 Y64 E125.71691
G1 X62.342 Y64.4 E125.73398
G1 X37.651 Y64.4 E126.70919
G1 X37.816 Y64.8 E126.72628
G1 X62.177 Y64.8 E127.68845
G1 X62.012 Y65.2 E127.70554
G1 X37.981 Y65.2 E128.65468
M73 P19
G1 X38.145 Y65.6 E128.67175
G1 X61.848 Y65.6 E129.60794
G1 X61.718 Y65.916 E129.62143
G1 X61.677 Y66 E129.62513
G1 X38.316 Y66 E130.5478
G1 X38.512 Y66.4 E130.56539
G1 X61.481 Y66.4 E131.47259
G1 X61.419 Y66.529 E131.47824
G1 X61.324 Y66.693 E131.48573
G1 X61.25 Y66.8 E131.49086
G1 X38.743 Y66.8 E132.37981
G1 X38.988 Y67.159 E132.39698
G1 X39.019 Y67.2 E132.39901
G1 X60.974 Y67.2 E133.26615
G1 X60.666 Y67.6 E133.28609
G1 X39.326 Y67.6 E134.12894
G1 X39.634 Y68 E134.14888
G1 X60.359 Y68 E134.96745
G1 X60.051 Y68.4 E134.98738
G1 X39.941 Y68.4 E135.78166
G1 X40.218 Y68.76 E135.7996
M73 P20
G1 X40.252 Y68.8 E135.80167
G1 X59.742 Y68.8 E136.57146
G1 X59.675 Y68.882 E136.57564
G1 X59.392 Y69.2 E136.59245
G1 X40.602 Y69.2 E137.33459
G1 X40.692 Y69.302 E137.33996
G1 X41.027 Y69.6 E137.35767
G1 X58.966 Y69.6 E138.0662
G1 X58.887 Y69.671 E138.07039
G1 X58.76 Y69.775 E138.07688
G1 X58.466 Y70 E138.0915
G1 X41.527 Y70 E138.76053
G1 X42.05 Y70.4 E138.78653
G1 X57.943 Y70.4 E139.41425
G1 X57.421 Y70.8 E139.44022
G1 X42.572 Y70.8 E140.02671
G1 X42.925 Y71.07 E140.04426
G1 X43.119 Y71.2 E140.05348
G1 X56.874 Y71.2 E140.59676
G1 X56.63 Y71.364 E140.60837
G1 X56.163 Y71.6 E140.62903
M73 P21
G1 X43.83 Y71.6 E141.11614
G1 X43.929 Y71.65 E141.12052
G1 X44.769 Y72 E141.15647
G1 X55.229 Y72 E141.5696
G1 X54.258 Y72.4 E141.61108
G1 X45.729 Y72.4 E141.94794
G1 X45.921 Y72.48 E141.95616
G1 X46.472 Y72.675 E141.97924
G1 X46.634 Y72.717 E141.98585
G1 X47.063 Y72.8 E142.00311
G1 X52.948 Y72.8 E142.23555
G1 X52.868 Y72.817 E142.23878
G1 X52.661 Y72.852 E142.24707
G1 X50.722 Y73.106 E142.32431
G1 X50.075 Y73.154 E142.34993
G1 X49.919 Y73.154 E142.35609
G1 X49.272 Y73.106 E142.38172
G1 X47.333 Y72.852 E142.45895
G1 F1680 E139.45895
G1 F3600 X41.021 Y50.4
G1 F1680 E142.45895
M73 P22
G1 F2400 X58.974 Y50.4 E143.16803
G1 F3600 X58.475 Y50
G1 F2400 X41.52 Y50 E143.83769
G1 X41.234 Y50.219 E143.85192
G1 X41.107 Y50.323 E143.8584
G1 X41.021 Y50.4 E143.86296
G1 F1680 E140.86296
G1 F3600 X42.043 Y49.6
G1 F1680 E143.86296
G1 F2400 X57.952 Y49.6 E144.49131
G1 X58.475 Y50 E144.51732
G1 F1680 E141.51732
G1 F3600 X57.43 Y49.2
G1 F1680 E144.51732
G1 F2400 X42.565 Y49.2 E145.10443
G1 X42.043 Y49.6 E145.13041
G1 F1680 E142.13041
G1 F3600 X43.111 Y48.8
G1 F1680 E145.13041
G1 F2400 X56.885 Y48.8 E145.67443
G1 X57.065 Y48.921 E145.683
M73 P23
G1 X57.43 Y49.2 E145.70114
G1 F1680 E142.70114
G1 F3600 X56.176 Y48.4
G1 F1680 E145.70114
G1 F2400 X43.819 Y48.4 E146.1892
G1 X43.364 Y48.63 E146.20934
G1 X43.111 Y48.8 E146.22137
G1 F1680 E143.22137
G1 F3600 X44.751 Y48
G1 F1680 E146.22137
G1 F2400 X55.24 Y48 E146.63565
G1 X56.065 Y48.344 E146.67096
G1 X56.176 Y48.4 E146.67587
G1 F1680 E143.67587
G1 F3600 X54.28 Y47.6
G1 F1680 E146.67587
G1 F2400 X45.721 Y47.6 E147.01392
G1 X44.751 Y48 E147.05536
G1 F1680 E144.05536
G1 F3600 X47.017 Y47.2
G1 F1680 E147.05536
M73 P24
G1 F2400 X52.962 Y47.2 E147.29016
G1 X53.36 Y47.277 E147.30617
G1 X53.522 Y47.319 E147.31278
G1 X54.073 Y47.514 E147.33587
G1 X54.28 Y47.6 E147.34472
G1 F1680 E144.34472
G1 F3600 X52.661 Y47.142
G1 F1680 E147.34472
G1 F2400 X50.722 Y46.888 E147.42196
G1 X50.075 Y46.84 E147.44758
G1 X49.919 Y46.84 E147.45375
G1 X49.272 Y46.888 E147.47937
G1 X47.333 Y47.142 E147.55661
G1 X47.126 Y47.177 E147.5649
G1 X47.017 Y47.2 E147.5693
G1 F1680 E144.5693
G1 F3600 X58.799 Y50.251
;TIME_ELAPSED:83.750252
;LAYER:-4
G1 X58.799 Y50.251 Z1.119
G1 F1680 E147.5693
M73 P25
G1 F2400 X58.799 Y69.744 E148.3392
G1 X58.887 Y69.671 E148.34372
G1 X59.199 Y69.394 E148.3602
G1 X59.199 Y50.601 E149.10245
G1 X59.302 Y50.692 E149.10788
G1 X59.599 Y51.027 E149.12557
G1 X59.599 Y68.968 E149.83417
G1 X59.675 Y68.882 E149.8387
G1 X59.775 Y68.76 E149.84493
G1 X59.999 Y68.469 E149.85944
G1 X59.999 Y51.527 E150.52859
G1 X60.399 Y52.049 E150.55456
G1 X60.399 Y67.949 E151.18255
G1 X60.799 Y67.429 E151.20846
G1 X60.799 Y52.572 E151.79526
G1 X61.07 Y52.925 E151.81284
G1 X61.199 Y53.118 E151.82201
G1 X61.199 Y66.877 E152.36544
G1 X61.324 Y66.693 E152.37423
G1 X61.419 Y66.529 E152.38171
G1 X61.599 Y66.16 E152.39793
M73 P26
G1 X61.599 Y53.829 E152.88496
G1 X61.65 Y53.929 E152.88939
G1 X61.709 Y54.059 E152.89503
G1 X61.999 Y54.763 E152.9251
G1 X61.999 Y65.234 E153.33867
G1 X62.399 Y64.262 E153.38018
G1 X62.399 Y55.733 E153.71705
G1 X62.522 Y56.031 E153.72978
G1 X62.689 Y56.519 E153.75015
G1 X62.799 Y57.039 E153.77114
G1 X62.799 Y62.954 E154.00477
G1 F3600 X62.817 Y62.868
G1 F2400 X62.852 Y62.659 E154.01314
G1 X63.107 Y60.716 E154.09054
G1 X63.154 Y60.075 E154.11592
G1 X63.154 Y59.913 E154.12232
G1 X63.106 Y59.272 E154.14771
G1 X62.851 Y57.328 E154.22515
G1 X62.816 Y57.119 E154.23352
G1 X62.799 Y57.039 E154.23675
G1 F1680 E151.23675
M73 P27
G1 F3600 X58.799 Y50.251
G1 F1680 E154.23675
G1 F2400 X58.76 Y50.219 E154.23874
G1 X58.399 Y49.943 E154.25669
G1 X58.399 Y70.052 E155.05092
G1 X57.999 Y70.358 E155.07081
G1 X57.999 Y49.637 E155.88922
G1 X57.599 Y49.33 E155.90913
G1 X57.599 Y70.665 E156.75179
G1 X57.199 Y70.971 E156.77168
G1 X57.199 Y49.024 E157.63851
G1 X57.065 Y48.921 E157.64518
G1 X56.799 Y48.744 E157.6578
G1 X56.799 Y71.251 E158.54675
G1 X56.63 Y71.364 E158.55478
G1 X56.399 Y71.481 E158.565
G1 X56.399 Y48.514 E159.47212
G1 X56.065 Y48.344 E159.48692
