M73 P0
;MINX:17.7
;MAXX:82.3
;MINY:11.4
;MAXY:108.6
;MINZ:0.0
;MAXZ:21.0
;MachineType:ENTINA TINA2
;FilamentType:PLA
;Extruder0Temperature:200
;InfillDensity:10
;FLAVOR:Marlin
;TIME:6442
;FilamentUsed:4920.0
;Layer height: 0.2

;Generated with Cura_SteamEngine 3.1
M104 T0 S215
M82 ; absolute extrusion mode
;(**** start.gcode for tina2****)
M104 S150
G28 Z
G28 X Y; Home extruder
G1 X55 Y55 F1000
G1 Z10 F200
G29
G1 Z15 F100
M107 ; Turn off fan
G90 ; Absolute positioning
M82 ; Extruder in absolute mode
M109 S215.0
G92 E0 ; Reset extruder position
G1 X90 Y6 Z0.27 F2000
G1 X20 Y6 Z0.27 E15 F1000
G92 E0 ; Reset extruder position

;LAYER_COUNT:99
;LAYER:-6
M107
M203 Z5
G1 F3600 X67.674 Y22.751 Z0.349
G1 F1200 X67.93 Y23.129 E0.05034
G1 X68.927 Y24.787 E0.26369
G1 X69.129 Y25.162 E0.31066
G1 X69.958 Y26.906 E0.5236
G1 X70.148 Y27.359 E0.57777
G1 X70.788 Y29.14 E0.78646
G1 X70.918 Y29.561 E0.83505
G1 X71.414 Y31.538 E1.05982
G1 X71.482 Y31.876 E1.09784
G1 X71.767 Y33.77 E1.30905
G1 X71.824 Y34.348 E1.3731
G1 X71.916 Y36.246 E1.58264
G1 X71.914 Y36.714 E1.63425
G1 X71.825 Y38.547 E1.83662
G1 X71.786 Y38.97 E1.88346
G1 X71.505 Y40.887 E2.09712
G1 X71.392 Y41.457 E2.1612
G1 X70.918 Y43.334 E2.37468
G1 X70.792 Y43.743 E2.42187
G1 X70.148 Y45.536 E2.63196
G1 X69.962 Y45.98 E2.68505
G1 X69.134 Y47.723 E2.89784
G1 X68.932 Y48.099 E2.94491
G1 X67.996 Y49.661 E3.14571
G1 X67.69 Y50.143 E3.20867
G1 X67.706 Y50.154 E3.21081
G1 X67.598 Y50.34 E3.23453
G1 X67.334 Y50.969 E3.30975
G1 X67.15 Y51.627 E3.3851
G1 X67.052 Y52.303 E3.46042
G1 X67.039 Y52.986 E3.53575
G1 X67.112 Y53.664 E3.61095
G1 X67.271 Y54.329 E3.68635
G1 X67.512 Y54.967 E3.76156
G1 X67.831 Y55.571 E3.83688
G1 X68.225 Y56.129 E3.91221
G1 X68.686 Y56.632 E3.98745
G1 X69.205 Y57.075 E4.06269
G1 X69.778 Y57.448 E4.13809
G1 X70.392 Y57.745 E4.2133
G1 X71.037 Y57.962 E4.28835
G1 X71.757 Y58.129 E4.36985
G1 X72.354 Y58.323 E4.43907
G1 X72.903 Y58.545 E4.50438
G1 X73.288 Y58.726 E4.55129
G1 X73.459 Y58.818 E4.5727
G1 X73.72 Y58.978 E4.60646
G1 X74.133 Y59.251 E4.66105
G1 X74.294 Y59.369 E4.68307
G1 X74.813 Y59.786 E4.75648
G1 X74.939 Y59.897 E4.775
G1 X75.39 Y60.395 E4.84909
G1 X75.785 Y60.902 E4.91996
G1 X76.081 Y61.337 E4.97799
G1 X76.216 Y61.566 E5.0073
G1 X76.389 Y61.908 E5.04956
G1 X76.672 Y62.543 E5.12623
G1 X76.803 Y62.897 E5.16785
G1 X76.899 Y63.223 E5.20533
G1 X77.008 Y63.741 E5.2637
G1 X77.042 Y63.943 E5.28629
G1 X77.112 Y64.539 E5.35246
G1 X77.134 Y64.911 E5.39356
G1 X77.133 Y65.219 E5.42752
G1 X77.102 Y65.667 E5.47704
G1 X77.022 Y66.296 E5.54696
G1 X76.958 Y66.641 E5.58566
G1 X76.868 Y66.979 E5.62423
G1 X76.685 Y67.508 E5.68596
G1 X76.613 Y67.689 E5.70744
G1 X76.347 Y68.272 E5.7781
G1 X76.159 Y68.627 E5.8224
G1 X75.739 Y69.319 E5.91167
G1 X75.743 Y69.322 E5.91222
G1 X75.705 Y69.386 E5.92042
G1 X75.43 Y70.011 E5.99572
G1 X75.235 Y70.665 E6.07098
G1 X75.126 Y71.337 E6.14605
G1 X75.1 Y71.862 E6.20402
G1 X75.1 Y83.122 E7.4457
G1 X75.142 Y83.79 E7.51951
G1 X75.271 Y84.461 E7.59486
G1 X75.484 Y85.11 E7.67018
G1 X75.776 Y85.725 E7.74526
G1 X76.138 Y86.295 E7.81972
G1 X76.293 Y86.554 E7.853
G1 X76.542 Y87.045 E7.91371
G1 X76.726 Y87.485 E7.9663
G1 X76.896 Y87.976 E8.0236
G1 X76.977 Y88.281 E8.0584
G1 X77.028 Y88.541 E8.08762
G1 X77.069 Y88.85 E8.12199
G1 X77.1 Y89.372 E8.17966
G1 X77.164 Y90.039 E8.25355
G1 X77.316 Y90.705 E8.32888
G1 X77.552 Y91.352 E8.40482
G1 X78.008 Y92.182 E8.50925
G1 X78.157 Y92.403 E8.53865
G1 X78.776 Y93.419 E8.66984
G1 X78.852 Y93.558 E8.68731
G1 X79.125 Y94.105 E8.75473
G1 X79.215 Y94.31 E8.77941
G1 X79.67 Y95.455 E8.91528
G1 X79.739 Y95.653 E8.9384
G1 X79.903 Y96.182 E8.99948
G1 X79.949 Y96.353 E9.01901
G1 X80.237 Y97.638 E9.16422
G1 X80.27 Y97.817 E9.18429
G1 X80.348 Y98.342 E9.24282
G1 X80.367 Y98.517 E9.26224
G1 X80.465 Y99.863 E9.41106
G1 X80.472 Y100.05 E9.43169
G1 X80.466 Y100.737 E9.50745
G1 X80.35 Y102.24 E9.67369
G1 X80.239 Y102.951 E9.75304
G1 X80.056 Y103.743 E9.84268
G1 X79.947 Y104.119 E9.88585
G1 X79.853 Y104.377 E9.91613
G1 X79.738 Y104.642 E9.94799
G1 X79.614 Y104.885 E9.97807
G1 X79.45 Y105.161 E10.01347
G1 X79.294 Y105.388 E10.04385
G1 X79.113 Y105.621 E10.07638
G1 X78.915 Y105.843 E10.10919
G1 X78.711 Y106.045 E10.14084
G1 X78.498 Y106.232 E10.1721
G1 X78.255 Y106.417 E10.20578
G1 X78.019 Y106.575 E10.2371
G1 X77.772 Y106.72 E10.26868
G1 X77.514 Y106.849 E10.30049
G1 X77.239 Y106.966 E10.33345
G1 X76.97 Y107.06 E10.36487
G1 X76.686 Y107.139 E10.39738
G1 X76.42 Y107.196 E10.42737
G1 X76.071 Y107.249 E10.4663
G1 X75.86 Y107.269 E10.48967
G1 X75.504 Y107.281 E10.52895
G1 X73.811 Y107.282 E10.71565
G1 X73.276 Y107.254 E10.77472
G1 X72.981 Y107.217 E10.80751
G1 X72.694 Y107.162 E10.83974
G1 X72.402 Y107.087 E10.87298
G1 X72.139 Y107.001 E10.90349
G1 X71.999 Y106.945 E10.92012
G1 X71.362 Y106.735 E10.99408
G1 X70.692 Y106.606 E11.06933
G1 X70.011 Y106.562 E11.14458
G1 X69.329 Y106.604 E11.21993
G1 X68.655 Y106.733 E11.2956
G1 X68.508 Y106.784 E11.31276
G1 X68.502 Y106.77 E11.31444
G1 X67.699 Y107.056 E11.40844
G1 X67.437 Y107.132 E11.43852
G1 X67.157 Y107.193 E11.47012
G1 X66.844 Y107.239 E11.50501
G1 X66.379 Y107.274 E11.55643
G1 X66.177 Y107.282 E11.57872
G1 X64.36 Y107.277 E11.77909
G1 X63.989 Y107.253 E11.82009
G1 X63.684 Y107.215 E11.85398
G1 X63.405 Y107.161 E11.88532
G1 X63.112 Y107.084 E11.91873
G1 X62.85 Y106.999 E11.9491
G1 X62.587 Y106.893 E11.98037
G1 X62.309 Y106.761 E12.01431
G1 X61.687 Y106.512 E12.08819
G1 X61.026 Y106.341 E12.16348
G1 X60.349 Y106.253 E12.23876
G1 X59.666 Y106.253 E12.31408
G1 X58.989 Y106.337 E12.38931
G1 X58.325 Y106.509 E12.46495
G1 X57.589 Y106.811 E12.55268
G1 X57.505 Y106.853 E12.56303
G1 X57.246 Y106.963 E12.59406
G1 X56.97 Y107.06 E12.62632
G1 X56.686 Y107.139 E12.65883
G1 X56.42 Y107.196 E12.68883
G1 X56.071 Y107.249 E12.72776
G1 X55.86 Y107.269 E12.75113
G1 X55.504 Y107.281 E12.79041
G1 X53.811 Y107.282 E12.9771
G1 X53.276 Y107.254 E13.03618
G1 X52.981 Y107.217 E13.06896
G1 X52.694 Y107.162 E13.10119
G1 X52.402 Y107.087 E13.13443
G1 X52.139 Y107.001 E13.16495
G1 X51.999 Y106.945 E13.18157
G1 X51.362 Y106.735 E13.25554
G1 X50.692 Y106.606 E13.33078
G1 X50.011 Y106.562 E13.40603
G1 X49.329 Y106.604 E13.48138
G1 X48.655 Y106.733 E13.55705
G1 X48.508 Y106.784 E13.57421
G1 X48.502 Y106.77 E13.57589
G1 X47.699 Y107.056 E13.66989
G1 X47.437 Y107.132 E13.69997
G1 X47.157 Y107.193 E13.73158
G1 X46.844 Y107.239 E13.76646
G1 X46.379 Y107.274 E13.81788
G1 X46.177 Y107.282 E13.84018
G1 X44.36 Y107.277 E14.04055
G1 X43.989 Y107.253 E14.08154
G1 X43.684 Y107.215 E14.11544
G1 X43.405 Y107.161 E14.14677
G1 X43.112 Y107.084 E14.18018
G1 X42.85 Y106.999 E14.21056
G1 X42.587 Y106.893 E14.24182
G1 X42.309 Y106.761 E14.27576
G1 X41.687 Y106.512 E14.34964
G1 X41.026 Y106.341 E14.42493
G1 X40.349 Y106.253 E14.50022
G1 X39.666 Y106.253 E14.57553
G1 X38.989 Y106.337 E14.65076
G1 X38.325 Y106.509 E14.7264
G1 X37.589 Y106.811 E14.81413
G1 X37.505 Y106.853 E14.82449
G1 X37.246 Y106.963 E14.85552
G1 X36.97 Y107.06 E14.88778
G1 X36.686 Y107.139 E14.92028
G1 X36.42 Y107.196 E14.95028
G1 X36.071 Y107.249 E14.98921
G1 X35.86 Y107.269 E15.01258
G1 X35.504 Y107.281 E15.05186
G1 X33.811 Y107.282 E15.23856
G1 X33.276 Y107.254 E15.29763
G1 X32.981 Y107.217 E15.33042
G1 X32.694 Y107.162 E15.36264
G1 X32.402 Y107.087 E15.39589
G1 X32.139 Y107.001 E15.4264
G1 X31.999 Y106.945 E15.44303
G1 X31.362 Y106.735 E15.51699
G1 X30.692 Y106.606 E15.59223
G1 X30.011 Y106.562 E15.66749
G1 X29.329 Y106.604 E15.74283
G1 X28.655 Y106.733 E15.81851
G1 X28.508 Y106.784 E15.83567
G1 X28.502 Y106.77 E15.83735
G1 X27.699 Y107.056 E15.93135
G1 X27.437 Y107.132 E15.96143
G1 X27.157 Y107.193 E15.99303
G1 X26.844 Y107.239 E16.02792
G1 X26.379 Y107.274 E16.07934
G1 X26.177 Y107.282 E16.10163
G1 X24.36 Y107.277 E16.302
G1 X23.989 Y107.253 E16.343
G1 X23.684 Y107.215 E16.37689
G1 X23.405 Y107.161 E16.40823
G1 X23.112 Y107.084 E16.44163
G1 X22.856 Y107 E16.47135
G1 X22.574 Y106.888 E16.50481
G1 X22.324 Y106.769 E16.53534
G1 X22.042 Y106.613 E16.57088
G1 X21.83 Y106.477 E16.59865
G1 X21.578 Y106.292 E16.63313
G1 X21.367 Y106.116 E16.66342
G1 X21.139 Y105.899 E16.69813
G1 X20.956 Y105.702 E16.72779
G1 X20.764 Y105.466 E16.76133
G1 X20.597 Y105.233 E16.79295
G1 X20.446 Y104.991 E16.8244
G1 X20.31 Y104.738 E16.85608
G1 X20.186 Y104.469 E16.88874
G1 X20.066 Y104.161 E16.92519
G1 X19.993 Y103.939 E16.95096
G1 X19.919 Y103.653 E16.98354
G1 X19.758 Y102.943 E17.06382
G1 X19.65 Y102.246 E17.1416
G1 X19.632 Y102.082 E17.15979
G1 X19.534 Y100.729 E17.30938
G1 X19.528 Y100.556 E17.32847
G1 X19.534 Y99.863 E17.4049
G1 X19.648 Y98.369 E17.57012
G1 X19.734 Y97.796 E17.63402
G1 X20.052 Y96.354 E17.79685
G1 X20.262 Y95.654 E17.87745
G1 X20.331 Y95.456 E17.90057
G1 X20.79 Y94.297 E18.03803
G1 X20.865 Y94.129 E18.05832
G1 X21.134 Y93.589 E18.12485
G1 X21.24 Y93.395 E18.14923
G1 X21.838 Y92.409 E18.27639
G1 X21.991 Y92.182 E18.30658
G1 X22.329 Y91.604 E18.38041
G1 X22.597 Y90.975 E18.45581
G1 X22.784 Y90.313 E18.53167
G1 X22.901 Y89.366 E18.63689
G1 X22.928 Y88.876 E18.69101
G1 X22.965 Y88.578 E18.72412
G1 X23.021 Y88.287 E18.7568
G1 X23.091 Y88.018 E18.78745
G1 X23.215 Y87.643 E18.83101
G1 X23.453 Y87.051 E18.90137
G1 X23.622 Y86.699 E18.94443
G1 X23.758 Y86.456 E18.97513
G1 X24.233 Y85.72 E19.07173
G1 X24.224 Y85.714 E19.07292
G1 X24.502 Y85.137 E19.14355
G1 X24.719 Y84.49 E19.2188
G1 X24.853 Y83.82 E19.29415
G1 X24.9 Y83.115 E19.37207
G1 X24.9 Y71.85 E20.6143
G1 X24.858 Y71.182 E20.68811
G1 X24.729 Y70.511 E20.76346
G1 X24.516 Y69.862 E20.83878
G1 X24.225 Y69.249 E20.91361
G1 X23.784 Y68.528 E21.00681
G1 X23.606 Y68.175 E21.05041
G1 X23.328 Y67.551 E21.12574
G1 X23.197 Y67.197 E21.16736
G1 X23.101 Y66.871 E21.20484
G1 X22.989 Y66.337 E21.26501
G1 X22.958 Y66.15 E21.28591
G1 X22.887 Y65.54 E21.35363
G1 X22.866 Y65.183 E21.39307
G1 X22.867 Y64.868 E21.4278
G1 X22.898 Y64.427 E21.47655
G1 X22.978 Y63.798 E21.54648
G1 X23.042 Y63.453 E21.58517
G1 X23.132 Y63.115 E21.62374
G1 X23.315 Y62.586 E21.68547
G1 X23.388 Y62.402 E21.7073
G1 X23.653 Y61.822 E21.77761
G1 X23.842 Y61.465 E21.82216
G1 X23.972 Y61.25 E21.84987
G1 X24.25 Y60.855 E21.90313
G1 X24.519 Y60.508 E21.95155
G1 X24.655 Y60.345 E21.97496
G1 X25.118 Y59.841 E22.05043
G1 X25.222 Y59.751 E22.06559
G1 X25.762 Y59.325 E22.14144
G1 X25.905 Y59.223 E22.16081
G1 X26.395 Y58.909 E22.22499
G1 X26.582 Y58.803 E22.24869
G1 X27.144 Y58.437 E22.32265
G1 X27.665 Y57.995 E22.39799
G1 X28.125 Y57.491 E22.47324
G1 X28.519 Y56.934 E22.54847
G1 X28.839 Y56.33 E22.62385
G1 X29.08 Y55.692 E22.69906
G1 X29.239 Y55.027 E22.77445
G1 X29.312 Y54.349 E22.84965
G1 X29.299 Y53.666 E22.92498
G1 X29.201 Y52.99 E23.00031
G1 X29.018 Y52.332 E23.07562
G1 X28.751 Y51.698 E23.15148
G1 X28.265 Y50.904 E23.25414
G1 X27.651 Y50.074 E23.36799
G1 X27.378 Y49.662 E23.42249
G1 X26.409 Y48.039 E23.63094
G1 X26.178 Y47.599 E23.68574
G1 X25.372 Y45.89 E23.8941
G1 X25.198 Y45.463 E23.94495
G1 X24.553 Y43.653 E24.15684
G1 X24.412 Y43.177 E24.21159
G1 X23.96 Y41.357 E24.41838
G1 X23.89 Y41.01 E24.45742
G1 X23.607 Y39.125 E24.66761
G1 X23.55 Y38.547 E24.73166
G1 X23.458 Y36.65 E24.9411
G1 X23.46 Y36.182 E24.99271
G1 X23.549 Y34.348 E25.19519
G1 X23.588 Y33.925 E25.24203
G1 X23.869 Y32.008 E25.45568
G1 X23.982 Y31.438 E25.51976
G1 X24.456 Y29.561 E25.73325
G1 X24.582 Y29.152 E25.78044
G1 X25.226 Y27.359 E25.99053
G1 X25.412 Y26.915 E26.04361
G1 X26.245 Y25.162 E26.25764
G1 X26.442 Y24.796 E26.30347
G1 X27.438 Y23.138 E26.51676
G1 X27.694 Y22.759 E26.56719
G1 X28.847 Y21.209 E26.78022
G1 X29.158 Y20.838 E26.83361
G1 X30.429 Y19.439 E27.04204
G1 X30.796 Y19.079 E27.09873
G1 X32.171 Y17.836 E27.30313
G1 X32.542 Y17.534 E27.35588
G1 X34.009 Y16.447 E27.55723
G1 X34.45 Y16.153 E27.61567
G1 X36.106 Y15.163 E27.82843
G1 X36.507 Y14.951 E27.87845
G1 X38.286 Y14.115 E28.09521
G1 X38.679 Y13.956 E28.14196
G1 X40.447 Y13.324 E28.34901
G1 X40.952 Y13.175 E28.40707
G1 X42.808 Y12.713 E28.61798
G1 X43.257 Y12.628 E28.66837
G1 X45.149 Y12.351 E28.87924
G1 X45.611 Y12.309 E28.93039
G1 X47.532 Y12.218 E29.14247
G1 X47.992 Y12.222 E29.1932
G1 X49.9 Y12.319 E29.40387
G1 X50.362 Y12.368 E29.4551
G1 X52.262 Y12.653 E29.66697
G1 X52.711 Y12.746 E29.71753
G1 X54.563 Y13.214 E29.92818
G1 X54.969 Y13.338 E29.97499
G1 X56.806 Y13.999 E30.19028
G1 X57.239 Y14.182 E30.24212
G1 X58.938 Y14.987 E30.44944
G1 X59.371 Y15.222 E30.50377
G1 X60.968 Y16.181 E30.70919
G1 X61.365 Y16.448 E30.76195
G1 X62.823 Y17.527 E30.96196
G1 X63.196 Y17.83 E31.01496
G1 X64.578 Y19.079 E31.22037
G1 X64.937 Y19.431 E31.27582
G1 X66.212 Y20.834 E31.48487
G1 X66.519 Y21.199 E31.53747
G1 X67.674 Y22.751 E31.7508
G1 F3600 X67.2 Y22.115
G1 F1200 X67.2 Y51.449 E34.98558
G1 F1680 E31.98558
G1 F3600 X67.2 Y54.033
G1 F1680 E34.98558
G1 F1200 X67.2 Y107.184 E40.84675
G1 F1680 E37.84675
G1 F3600 X65.6 Y107.28
G1 F1680 E40.84675
G1 F1200 X65.6 Y20.161 E50.45371
G1 F1680 E47.45371
G1 F3600 X64 Y18.557
G1 F1680 E50.45371
G1 F1200 X64 Y107.253 E60.23457
G1 F1680 E57.23457
G1 F3600 X62.4 Y106.804
G1 F1680 E60.23457
G1 F1200 X62.4 Y17.214 E70.11402
G1 F1680 E67.11402
G1 F3600 X60.8 Y16.081
G1 F1680 E70.11402
G1 F1200 X60.8 Y106.311 E80.06404
G1 F1680 E77.06404
G1 F3600 X59.2 Y106.311
G1 F1680 E80.06404
G1 F1200 X59.2 Y15.13 E90.11893
G1 F1680 E87.11893
G1 F3600 X57.6 Y14.354
G1 F1680 E90.11893
G1 F1200 X57.6 Y106.807 E100.31409
G1 F1680 E97.31409
G1 F3600 X56 Y107.256
G1 F1680 E100.31409
G1 F1200 X56 Y13.709 E110.62989
G1 F1680 E107.62989
G1 F3600 X54.4 Y13.173
G1 F1680 E110.62989
G1 F1200 X54.4 Y107.282 E121.00766
G1 F1680 E118.00766
G1 F3600 X52.8 Y107.182
G1 F1680 E121.00766
G1 F1200 X52.8 Y12.769 E131.41896
G1 F1680 E128.41896
G1 F3600 X51.2 Y12.494
G1 F1680 E131.41896
G1 F1200 X51.2 Y106.703 E141.80776
G1 F1680 E138.80776
G1 F3600 X49.6 Y106.588
G1 F1680 E141.80776
G1 F1200 X49.6 Y12.304 E152.20483
G1 F1680 E149.20483
G1 F3600 X48 Y12.223
G1 F1680 E152.20483
G1 F1200 X48 Y106.949 E162.65065
G1 F1680 E159.65065
G1 F3600 X46.4 Y107.273
G1 F1680 E162.65065
G1 F1200 X46.4 Y12.271 E173.1269
G1 F1680 E170.1269
G1 F3600 X44.8 Y12.402
G1 F1680 E173.1269
G1 F1200 X44.8 Y107.278 E183.58925
G1 F1680 E180.58925
G1 F3600 X43.2 Y107.107
G1 F1680 E183.58925
G1 F1200 X43.2 Y12.638 E194.00672
G1 F1680 E191.00672
G1 F3600 X41.6 Y13.013
G1 F1680 E194.00672
G1 F1200 X41.6 Y106.489 E204.31469
G1 F1680 E201.31469
G1 F3600 X40 Y106.253
G1 F1680 E204.31469
G1 F1200 X40 Y13.483 E214.54481
G1 F1680 E211.54481
G1 F3600 X38.4 Y14.068
G1 F1680 E214.54481
G1 F1200 X38.4 Y106.49 E224.73655
G1 F1680 E221.73655
G1 F3600 X36.8 Y107.108
G1 F1680 E224.73655
G1 F1200 X36.8 Y14.813 E234.91429
G1 F1680 E231.91429
G1 F3600 X35.2 Y15.704
G1 F1680 E234.91429
G1 F1200 X35.2 Y107.282 E245.01296
G1 F1680 E242.01296
G1 F3600 X33.6 Y107.27
G1 F1680 E245.01296
G1 F1200 X33.6 Y16.75 E254.99496
G1 F1680 E251.99496
G1 F3600 X32 Y17.99
G1 F1680 E254.99496
G1 F1200 X32 Y106.945 E264.80438
G1 F1680 E261.80438
G1 F3600 X30.4 Y106.587
G1 F1680 E264.80438
G1 F1200 X30.4 Y19.47 E274.41112
G1 F1680 E271.41112
G1 F3600 X28.8 Y21.272
G1 F1680 E274.41112
G1 F1200 X28.8 Y51.814 E277.77911
G1 F1680 E274.77911
G1 F3600 X27.2 Y49.363
G1 F1680 E277.77911
G1 F1200 X27.2 Y23.534 E280.62737
G1 F1680 E277.62737
G1 F3600 X25.6 Y26.519
G1 F1680 E280.62737
G1 F1200 X25.6 Y46.373 E282.81675
G1 F1680 E279.81675
G1 F3600 X24 Y41.518
G1 F1680 E282.81675
G1 F1200 X24 Y31.366 E283.93625
G1 F1680 E280.93625
G1 F3600 X28.8 Y56.403
G1 F1680 E283.93625
G1 F1200 X28.8 Y106.706 E289.48337
G1 F1680 E286.48337
G1 F3600 X27.2 Y107.184
G1 F1680 E289.48337
G1 F1200 X27.2 Y58.389 E294.86418
G1 F1680 E291.86418
G1 F3600 X25.6 Y59.452
G1 F1680 E294.86418
G1 F1200 X25.6 Y107.28 E300.13837
G1 F1680 E297.13837
G1 F3600 X24 Y107.253
G1 F1680 E300.13837
G1 F1200 X24 Y86.081 E302.47309
G1 F1680 E299.47309
G1 F3600 X22.4 Y91.437
G1 F1680 E302.47309
G1 F1200 X22.4 Y106.805 E304.16778
G1 F1680 E301.16778
G1 F3600 X20.8 Y105.51
G1 F1680 E304.16778
G1 F1200 X20.8 Y94.274 E305.40682
G1 F1680 E302.40682
G1 F3600 X24 Y68.881
G1 F1680 E305.40682
G1 F1200 X24 Y61.21 E306.25273
G1 F1680 E303.25273
G1 F3600 X68.8 Y56.73
