M73 P0
;MINX:33.0
;MAXX:63.0
;MINY:46.5
;MAXY:82.0
;MINZ:0.0
;MAXZ:34.8
;MachineType:ENTINA TINA2
;FilamentType:PLA
;Extruder0Temperature:200
;InfillDensity:10
;FLAVOR:Marlin
;TIME:2727
;FilamentUsed:2133.0
;Layer height: 0.2

;Generated with Cura_SteamEngine 3.1
M104 T0 S215
M82 ; absolute extrusion mode
;(**** start.gcode for tina2****)
M104 S150
G28 Z
G28 X Y; Home extruder
G1 X55 Y55 F1000
G1 Z10 F200
G29
G1 Z15 F100
M107 ; Turn off fan
G90 ; Absolute positioning
M82 ; Extruder in absolute mode
M109 S215.0
G92 E0 ; Reset extruder position
G1 X90 Y6 Z0.27 F2000
G1 X20 Y6 Z0.27 E15 F1000
G92 E0 ; Reset extruder position

;LAYER_COUNT:168
;LAYER:-6
M107
M203 Z5
G1 F3600 X60.63 Y47.974 Z0.349
G1 F1200 X61.111 Y48.394 E0.07042
G1 X61.47 Y48.796 E0.12985
G1 X61.637 Y49.011 E0.15987
G1 X61.793 Y49.242 E0.19061
G1 X61.951 Y49.51 E0.22492
G1 X62.083 Y49.769 E0.25697
G1 X62.186 Y50.008 E0.28567
G1 X62.291 Y50.3 E0.31989
G1 X62.372 Y50.582 E0.35224
G1 X62.428 Y50.836 E0.38093
G1 X62.477 Y51.166 E0.41772
G1 X62.513 Y51.627 E0.46871
G1 X62.52 Y51.812 E0.48912
G1 X62.516 Y76.841 E3.24917
G1 X62.492 Y77.218 E3.29083
G1 X62.455 Y77.516 E3.32394
G1 X62.4 Y77.8 E3.35584
G1 X62.324 Y78.091 E3.38901
G1 X62.24 Y78.349 E3.41893
G1 X62.129 Y78.628 E3.45204
G1 X62.007 Y78.886 E3.48351
G1 X61.863 Y79.145 E3.51619
G1 X61.724 Y79.364 E3.54479
G1 X61.526 Y79.63 E3.58136
G1 X61.106 Y80.111 E3.65178
G1 X60.706 Y80.468 E3.7109
G1 X60.489 Y80.637 E3.74123
G1 X60.258 Y80.793 E3.77197
G1 X59.99 Y80.951 E3.80628
G1 X59.733 Y81.081 E3.83804
G1 X59.464 Y81.196 E3.8703
G1 X59.207 Y81.289 E3.90043
G1 X58.915 Y81.373 E3.93394
G1 X58.654 Y81.429 E3.96338
G1 X58.334 Y81.477 E3.99906
G1 X57.866 Y81.513 E4.05082
G1 X57.674 Y81.52 E4.07201
G1 X38.159 Y81.516 E6.224
G1 X37.782 Y81.492 E6.26566
G1 X37.484 Y81.455 E6.29878
G1 X37.2 Y81.4 E6.33068
G1 X36.909 Y81.324 E6.36384
G1 X36.649 Y81.239 E6.39401
G1 X36.372 Y81.129 E6.42687
G1 X36.111 Y81.005 E6.45874
G1 X35.856 Y80.864 E6.49087
G1 X35.636 Y80.724 E6.51962
G1 X35.37 Y80.526 E6.55619
G1 X34.887 Y80.104 E6.62692
G1 X34.53 Y79.704 E6.68604
G1 X34.363 Y79.489 E6.71606
G1 X34.204 Y79.253 E6.74744
G1 X34.049 Y78.99 E6.78111
G1 X33.919 Y78.733 E6.81287
G1 X33.803 Y78.463 E6.84527
G1 X33.711 Y78.207 E6.87527
G1 X33.627 Y77.915 E6.90878
G1 X33.571 Y77.654 E6.93821
G1 X33.523 Y77.334 E6.9739
G1 X33.486 Y76.856 E7.02676
G1 X33.48 Y76.688 E7.0453
G1 X33.484 Y51.659 E9.80535
G1 X33.508 Y51.282 E9.84701
G1 X33.545 Y50.984 E9.88012
G1 X33.6 Y50.7 E9.91202
G1 X33.676 Y50.409 E9.94519
G1 X33.76 Y50.151 E9.97511
G1 X33.871 Y49.872 E10.00822
G1 X33.993 Y49.614 E10.03969
G1 X34.132 Y49.364 E10.07123
G1 X34.284 Y49.126 E10.10237
G1 X34.474 Y48.87 E10.13753
G1 X34.894 Y48.389 E10.20795
G1 X35.296 Y48.03 E10.26738
G1 X35.511 Y47.863 E10.2974
G1 X35.742 Y47.707 E10.32814
G1 X36.01 Y47.549 E10.36245
G1 X36.267 Y47.419 E10.39421
G1 X36.537 Y47.303 E10.42661
G1 X36.793 Y47.211 E10.45661
G1 X37.085 Y47.127 E10.49012
G1 X37.346 Y47.071 E10.51955
G1 X37.666 Y47.023 E10.55523
G1 X38.134 Y46.987 E10.607
G1 X38.326 Y46.98 E10.62818
G1 X57.841 Y46.984 E12.78018
G1 X58.218 Y47.008 E12.82184
G1 X58.516 Y47.045 E12.85495
G1 X58.8 Y47.1 E12.88685
G1 X59.091 Y47.176 E12.92002
G1 X59.349 Y47.26 E12.94994
G1 X59.628 Y47.371 E12.98305
G1 X59.886 Y47.493 E13.01452
G1 X60.145 Y47.637 E13.0472
G1 X60.364 Y47.776 E13.0758
G1 X60.63 Y47.974 E13.11237
G1 F3600 X60.8 Y48.123
G1 F1200 X60.8 Y80.385 E16.67003
G1 F1680 E13.67003
G1 F3600 X59.2 Y81.292
G1 F1680 E16.67003
G1 F1200 X59.2 Y47.212 E20.42817
G1 F1680 E17.42817
G1 F3600 X57.6 Y46.984
G1 F1680 E20.42817
G1 F1200 X57.6 Y81.519 E24.23648
G1 F1680 E21.23648
G1 F3600 X56 Y81.519
G1 F1680 E24.23648
G1 F1200 X56 Y46.984 E28.04479
G1 F1680 E25.04479
G1 F3600 X54.4 Y46.984
G1 F1680 E28.04479
G1 F1200 X54.4 Y81.519 E31.8531
G1 F1680 E28.8531
G1 F3600 X52.8 Y81.519
G1 F1680 E31.8531
G1 F1200 X52.8 Y46.983 E35.66152
G1 F1680 E32.66152
G1 F3600 X51.2 Y46.983
G1 F1680 E35.66152
G1 F1200 X51.2 Y81.518 E39.46983
G1 F1680 E36.46983
G1 F3600 X49.6 Y81.518
G1 F1680 E39.46983
G1 F1200 X49.6 Y46.983 E43.27815
G1 F1680 E40.27815
G1 F3600 X48 Y46.982
G1 F1680 E43.27815
G1 F1200 X48 Y81.518 E47.08657
G1 F1680 E44.08657
G1 F3600 X46.4 Y81.517
M73 P1
G1 F1680 E47.08657
G1 F1200 X46.4 Y46.982 E50.89488
G1 F1680 E47.89488
G1 F3600 X44.8 Y46.982
G1 F1680 E50.89488
G1 F1200 X44.8 Y81.517 E54.70319
G1 F1680 E51.70319
G1 F3600 X43.2 Y81.517
G1 F1680 E54.70319
G1 F1200 X43.2 Y46.981 E58.51161
G1 F1680 E55.51161
G1 F3600 X41.6 Y46.981
G1 F1680 E58.51161
G1 F1200 X41.6 Y81.516 E62.31993
G1 F1680 E59.31993
G1 F3600 X40 Y81.516
G1 F1680 E62.31993
G1 F1200 X40 Y46.981 E66.12824
G1 F1680 E63.12824
G1 F3600 X38.4 Y46.981
G1 F1680 E66.12824
G1 F1200 X38.4 Y81.516 E69.93655
G1 F1680 E66.93655
G1 F3600 X36.8 Y81.288
G1 F1680 E69.93655
G1 F1200 X36.8 Y47.208 E73.69469
G1 F1680 E70.69469
G1 F3600 X35.2 Y48.115
G1 F1680 E73.69469
G1 F1200 X35.2 Y80.377 E77.25235
G1 F1680 E74.25235
G1 F3600 X33.6 Y77.789
M104 T0 S200
G1 F1680 E77.25235
G1 F1200 X33.6 Y50.7 E80.23956
G1 F1680 E77.23956
G1 F3600 X62.4 Y50.709
G1 F1680 E80.23956
G1 F1200 X62.4 Y77.8 E83.22699
G1 F1680 E80.22699
G1 F3600 X60.66 Y47.932
;TIME_ELAPSED:43.866628
;LAYER:-5
G1 X60.66 Y47.932 Z0.619
;TYPE:SUPPORT
G1 F1680 E83.22699
G1 F1980 X61.563 Y48.835 E83.32218
G1 X61.682 Y48.988 E83.33663
G1 X61.836 Y49.216 E83.35714
G1 X61.999 Y49.493 E83.3811
G1 X62.131 Y49.752 E83.40277
G1 X62.233 Y49.991 E83.42214
G1 X62.344 Y50.3 E83.44661
G1 X62.417 Y50.558 E83.4666
G1 X62.478 Y50.831 E83.48745
G1 X62.513 Y51.058 E83.50457
G1 X58.439 Y46.984 E83.93404
G1 X58.225 Y46.956 E83.95013
G1 X57.842 Y46.932 E83.97874
G1 X57.115 Y46.932 E84.03293
G1 X62.569 Y52.387 E84.60793
G1 X62.569 Y53.66 E84.70282
G1 X55.842 Y46.932 E85.41202
G1 X54.568 Y46.932 E85.50698
G1 X62.569 Y54.933 E86.35043
G1 X62.569 Y56.205 E86.44525
G1 X53.296 Y46.932 E87.42279
G1 X52.022 Y46.931 E87.51775
G1 X62.569 Y57.478 E88.62959
G1 X62.569 Y58.75 E88.72441
G1 X50.749 Y46.931 E89.97039
G1 X49.476 Y46.93 E90.06529
G1 X62.569 Y60.023 E91.44552
G1 X62.569 Y61.296 E91.54041
G1 X48.203 Y46.93 E93.05484
G1 X46.93 Y46.93 E93.14973
G1 X62.569 Y62.569 E94.79836
G1 X62.569 Y63.841 E94.89318
G1 X45.657 Y46.929 E96.676
G1 X44.384 Y46.929 E96.77089
G1 X62.568 Y65.113 E98.68781
G1 X62.568 Y66.386 E98.7827
G1 X43.11 Y46.929 E100.83386
G1 X41.838 Y46.929 E100.92868
G1 X62.568 Y67.659 E103.11399
G1 X62.568 Y68.932 E103.20888
G1 X40.564 Y46.928 E105.52849
G1 X39.291 Y46.928 E105.62338
G1 X62.568 Y70.205 E108.07719
G1 X62.567 Y71.477 E108.17201
G1 X38.033 Y46.943 E110.75833
G1 X37.654 Y46.97 E110.78665
G1 X37.343 Y47.017 E110.8101
G1 X37.06 Y47.079 E110.83169
G1 X36.933 Y47.115 E110.84153
G1 X62.567 Y72.749 E113.54381
G1 X62.567 Y74.022 E113.6387
G1 X36.027 Y47.482 E116.43649
G1 X35.989 Y47.501 E116.43965
G1 X35.715 Y47.661 E116.46331
G1 X35.488 Y47.815 E116.48375
G1 X35.263 Y47.991 E116.50505
G1 X62.567 Y75.295 E119.38337
G1 X62.567 Y76.568 E119.47826
G1 X34.619 Y48.619 E122.42453
G1 X34.436 Y48.833 E122.44552
G1 X34.243 Y49.093 E122.46966
G1 X34.078 Y49.351 E122.49248
G1 X62.463 Y77.737 E125.48482
G1 X62.449 Y77.809 E125.49029
G1 X62.373 Y78.103 E125.51292
G1 X62.281 Y78.382 E125.53482
G1 X62.178 Y78.64 E125.55553
G1 X62.151 Y78.698 E125.5603
G1 X33.681 Y50.227 E128.56159
G1 X33.627 Y50.395 E128.57474
G1 X33.55 Y50.688 E128.59733
G1 X33.492 Y50.985 E128.61988
G1 X33.456 Y51.275 E128.64167
G1 X61.684 Y79.503 E131.6174
G1 X61.563 Y79.665 E131.63247
G1 X61.139 Y80.148 E131.68038
G1 X61.095 Y80.187 E131.68476
G1 X33.432 Y52.523 E134.60098
G1 X33.432 Y53.796 E134.69588
G1 X60.395 Y80.76 E137.53831
G1 X60.283 Y80.836 E137.5484
G1 X60.01 Y80.996 E137.57198
G1 X59.759 Y81.125 E137.59302
G1 X59.568 Y81.206 E137.60848
G1 X33.432 Y55.069 E140.36373
G1 X33.432 Y56.342 E140.45862
G1 X58.58 Y81.491 E143.10972
G1 X58.345 Y81.527 E143.12744
G1 X57.871 Y81.563 E143.16288
G1 X57.675 Y81.57 E143.1775
G1 X57.386 Y81.569 E143.19904
G1 X33.431 Y57.614 E145.72432
G1 X33.431 Y58.887 E145.81921
G1 X56.113 Y81.569 E148.2103
G1 X54.841 Y81.569 E148.30511
G1 X33.431 Y60.159 E150.56211
G1 X33.431 Y61.432 E150.657
G1 X53.567 Y81.569 E152.77974
G1 X52.294 Y81.569 E152.87463
G1 X33.43 Y62.704 E154.86329
G1 X33.43 Y63.977 E154.95818
G1 X51.021 Y81.568 E156.81258
G1 X49.748 Y81.568 E156.90747
G1 X33.43 Y65.25 E158.62768
G1 X33.43 Y66.523 E158.72257
G1 X48.475 Y81.568 E160.30858
G1 X47.202 Y81.567 E160.40347
G1 X33.429 Y67.795 E161.85534
G1 X33.429 Y69.068 E161.95023
G1 X45.929 Y81.567 E163.2679
G1 X44.655 Y81.566 E163.36286
G1 X33.429 Y70.34 E164.54628
G1 X33.429 Y71.613 E164.64117
G1 X43.383 Y81.566 E165.69045
G1 X42.11 Y81.566 E165.78534
M73 P2
G1 X33.429 Y72.885 E166.70047
G1 X33.429 Y74.158 E166.79536
G1 X40.836 Y81.566 E167.57624
G1 X39.564 Y81.566 E167.67106
G1 X33.429 Y75.431 E168.3178
G1 X33.429 Y76.687 E168.41142
G1 X33.429 Y76.704 E168.41269
G1 X38.291 Y81.566 E168.92523
G1 X38.156 Y81.566 E168.93529
G1 X37.773 Y81.542 E168.9639
G1 X37.484 Y81.506 E168.98561
G1 X37.19 Y81.449 E169.00793
G1 X36.896 Y81.371 E169.0306
G1 X36.789 Y81.337 E169.03897
G1 X33.655 Y78.203 E169.36935
G1 F3600 X33.656 Y78.207
G1 F1980 X33.755 Y78.481 E169.39107
G1 X33.873 Y78.759 E169.41358
G1 X33.999 Y79.005 E169.43418
G1 X34.16 Y79.277 E169.45774
G1 X34.317 Y79.511 E169.47875
G1 X34.505 Y79.753 E169.50159
G1 X34.85 Y80.139 E169.54018
G1 X35.334 Y80.563 E169.58815
G1 X35.606 Y80.765 E169.6134
G1 X35.831 Y80.908 E169.63327
G1 X36.081 Y81.046 E169.65456
G1 X36.358 Y81.177 E169.6774
G1 X36.616 Y81.281 E169.69814
G1 X36.789 Y81.337 E169.71169
G1 F1680 E166.71169
G1 F3600 X61.494 Y48.746
G1 F1680 E169.71169
G1 F1980 X61.148 Y48.359 E169.75039
G1 X60.66 Y47.932 E169.79872
G1 F3600 X60.969 Y48
;TIME_ELAPSED:80.331671
;LAYER:-4
M106 S255
G1 X60.969 Y48 Z0.869
G1 F2400 X61.114 Y48.125 E169.80628
G1 X61.257 Y48.256 E169.81394
G1 X61.386 Y48.4 E169.82158
G1 X34.617 Y48.4 E170.87886
G1 X34.325 Y48.733 E170.89635
G1 X34.276 Y48.8 E170.89963
G1 X61.726 Y48.8 E171.98381
G1 X61.796 Y48.89 E171.98831
G1 X61.971 Y49.15 E172.00069
G1 X62.001 Y49.2 E172.00299
G1 X33.997 Y49.2 E173.10905
G1 X33.963 Y49.253 E173.11154
G1 X33.823 Y49.505 E173.12292
G1 X33.778 Y49.6 E173.12707
G1 X62.222 Y49.6 E174.25051
G1 X62.258 Y49.673 E174.25372
G1 X62.378 Y49.951 E174.26568
G1 X62.396 Y50 E174.26775
G1 X33.604 Y50 E175.40493
G1 X33.573 Y50.076 E175.40817
G1 X33.48 Y50.361 E175.42001
G1 X33.47 Y50.4 E175.4216
G1 X62.528 Y50.4 E176.56929
G1 X62.564 Y50.525 E176.57442
G1 X62.623 Y50.793 E176.58526
G1 F3600 X62.625 Y50.8
G1 F2400 X33.376 Y50.8 E177.74049
G1 X33.345 Y50.957 E177.74681
G1 X33.316 Y51.2 E177.75648
G1 X62.68 Y51.2 E178.91625
G1 X62.711 Y51.6 E178.9321
G1 X33.287 Y51.6 E180.09424
G1 X33.283 Y51.658 E180.09654
G1 X33.283 Y52 E180.11004
G1 X62.718 Y52 E181.27262
G1 X62.718 Y52.4 E181.28842
G1 X33.283 Y52.4 E182.451
G1 X33.283 Y52.8 E182.46679
G1 X62.718 Y52.8 E183.62937
G1 X62.718 Y53.2 E183.64517
G1 X33.283 Y53.2 E184.80775
G1 X33.283 Y53.6 E184.82354
G1 X62.718 Y53.6 E185.98612
G1 X62.718 Y54 E186.00192
G1 X33.283 Y54 E187.1645
G1 X33.283 Y54.4 E187.1803
G1 X62.718 Y54.4 E188.34287
G1 X62.718 Y54.8 E188.35867
G1 X33.283 Y54.8 E189.52125
G1 X33.283 Y55.2 E189.53705
G1 X62.718 Y55.2 E190.69962
G1 X62.718 Y55.6 E190.71542
G1 X33.283 Y55.6 E191.878
G1 X33.283 Y56 E191.8938
G1 X62.718 Y56 E193.05637
G1 X62.718 Y56.4 E193.07217
G1 X33.283 Y56.4 E194.23475
G1 X33.283 Y56.8 E194.25055
G1 X62.718 Y56.8 E195.41312
G1 X62.718 Y57.2 E195.42892
G1 X33.283 Y57.2 E196.5915
G1 X33.283 Y57.6 E196.6073
G1 X62.718 Y57.6 E197.76988
G1 X62.718 Y58 E197.78567
G1 X33.282 Y58 E198.94829
G1 X33.282 Y58.4 E198.96409
G1 X62.717 Y58.4 E200.12667
G1 X62.717 Y58.8 E200.14246
G1 X33.282 Y58.8 E201.30504
G1 X33.282 Y59.2 E201.32084
G1 X62.717 Y59.2 E202.48342
G1 X62.717 Y59.6 E202.49922
G1 X33.282 Y59.6 E203.66179
G1 X33.282 Y60 E203.67759
G1 X62.717 Y60 E204.84017
G1 X62.717 Y60.4 E204.85597
G1 X33.282 Y60.4 E206.01854
G1 X33.282 Y60.8 E206.03434
G1 X62.717 Y60.8 E207.19692
G1 X62.717 Y61.2 E207.21272
G1 X33.282 Y61.2 E208.37529
G1 X33.282 Y61.6 E208.39109
G1 X62.717 Y61.6 E209.55367
G1 X62.717 Y62 E209.56947
G1 X33.282 Y62 E210.73204
G1 X33.282 Y62.4 E210.74784
G1 X62.717 Y62.4 E211.91042
G1 X62.717 Y62.8 E211.92622
G1 X33.282 Y62.8 E213.0888
G1 X33.282 Y63.2 E213.10459
G1 X62.717 Y63.2 E214.26717
G1 X62.717 Y63.6 E214.28297
G1 X33.282 Y63.6 E215.44555
G1 X33.282 Y64 E215.46134
G1 X62.717 Y64 E216.62392
G1 X62.716 Y64.4 E216.63972
G1 X33.281 Y64.4 E217.8023
G1 X33.281 Y64.8 E217.8181
G1 X62.716 Y64.8 E218.98067
G1 X62.716 Y65.2 E218.99647
G1 X33.281 Y65.2 E220.15905
G1 X33.281 Y65.6 E220.17485
G1 X62.716 Y65.6 E221.33742
G1 X62.716 Y66 E221.35322
G1 X33.281 Y66 E222.5158
G1 X33.281 Y66.4 E222.5316
G1 X62.716 Y66.4 E223.69417
G1 X62.716 Y66.8 E223.70997
G1 X33.281 Y66.8 E224.87255
G1 X33.281 Y67.2 E224.88835
G1 X62.716 Y67.2 E226.05092
G1 X62.716 Y67.6 E226.06672
G1 X33.281 Y67.6 E227.2293
G1 X33.281 Y68 E227.2451
G1 X62.716 Y68 E228.40768
G1 X62.716 Y68.4 E228.42347
G1 X33.281 Y68.4 E229.58605
G1 X33.281 Y68.8 E229.60185
G1 X62.716 Y68.8 E230.76443
G1 X62.716 Y69.2 E230.78023
G1 X33.281 Y69.2 E231.9428
M73 P3
G1 X33.281 Y69.6 E231.9586
G1 X62.716 Y69.6 E233.12118
G1 X62.716 Y70 E233.13698
G1 X33.281 Y70 E234.29955
G1 X33.281 Y70.4 E234.31535
G1 X62.716 Y70.4 E235.47793
G1 X62.715 Y70.8 E235.49373
G1 X33.28 Y70.8 E236.6563
G1 X33.28 Y71.2 E236.6721
G1 X62.715 Y71.2 E237.83468
G1 X62.715 Y71.6 E237.85048
G1 X33.28 Y71.6 E239.01305
G1 X33.28 Y72 E239.02885
G1 X62.715 Y72 E240.19143
G1 X62.715 Y72.4 E240.20723
G1 X33.28 Y72.4 E241.36981
G1 X33.28 Y72.8 E241.3856
G1 X62.715 Y72.8 E242.54818
G1 X62.715 Y73.2 E242.56398
G1 X33.28 Y73.2 E243.72656
G1 X33.28 Y73.6 E243.74235
G1 X62.715 Y73.6 E244.90493
G1 X62.715 Y74 E244.92073
G1 X33.28 Y74 E246.08331
G1 X33.28 Y74.4 E246.09911
G1 X62.715 Y74.4 E247.26168
G1 X62.715 Y74.8 E247.27748
G1 X33.28 Y74.8 E248.44006
G1 X33.28 Y75.2 E248.45586
G1 X62.715 Y75.2 E249.61843
G1 X62.715 Y75.6 E249.63423
G1 X33.28 Y75.6 E250.79681
G1 X33.28 Y76 E250.81261
G1 X62.715 Y76 E251.97518
G1 X62.715 Y76.4 E251.99098
G1 X33.28 Y76.4 E253.15356
G1 X33.279 Y76.687 E253.16489
G1 X33.283 Y76.8 E253.16936
G1 X62.715 Y76.8 E254.33182
G1 X62.715 Y76.84 E254.3334
G1 X62.691 Y77.2 E254.34765
G1 X33.31 Y77.2 E255.50809
G1 X33.322 Y77.351 E255.51408
G1 X33.359 Y77.6 E255.52402
G1 X62.641 Y77.6 E256.68055
G1 X62.595 Y77.842 E256.69028
G1 X62.553 Y78 E256.69674
G1 X33.442 Y78 E257.84652
G1 X33.513 Y78.248 E257.85671
G1 X33.567 Y78.4 E257.86308
G1 X62.432 Y78.4 E259.00314
G1 X62.425 Y78.422 E259.00405
G1 X62.319 Y78.689 E259.0154
G1 X62.266 Y78.8 E259.02026
G1 X33.729 Y78.8 E260.14737
G1 X33.74 Y78.825 E260.14845
G1 X33.869 Y79.08 E260.15973
G1 X33.939 Y79.2 E260.16522
G1 X62.06 Y79.2 E261.2759
G1 X62.041 Y79.235 E261.27747
G1 X61.88 Y79.488 E261.28932
G1 X61.796 Y79.6 E261.29485
G1 X34.196 Y79.6 E262.38495
G1 X34.202 Y79.608 E262.38534
G1 X34.386 Y79.844 E262.39716
G1 X34.524 Y80 E262.40539
G1 X61.466 Y80 E263.4695
G1 X61.245 Y80.254 E263.4828
G1 X61.081 Y80.4 E263.49147
G1 X34.915 Y80.4 E264.52493
G1 X35.244 Y80.682 E264.54205
G1 X35.402 Y80.8 E264.54984
G1 X60.602 Y80.8 E265.54515
G1 X60.349 Y80.97 E265.55718
G1 X60.08 Y81.129 E265.56953
G1 X59.939 Y81.2 E265.57576
G1 X36.057 Y81.2 E266.51901
G1 X36.306 Y81.318 E266.5299
G1 X36.575 Y81.425 E266.54133
G1 X36.859 Y81.517 E266.55312
G1 X37.156 Y81.595 E266.56525
G1 X37.181 Y81.6 E266.56626
G1 X58.807 Y81.6 E267.42041
G1 X58.693 Y81.625 E267.42502
G1 X58.351 Y81.676 E267.43867
G1 X57.879 Y81.712 E267.45737
G1 X57.68 Y81.719 E267.46524
G1 X38.158 Y81.715 E268.23628
G1 X37.754 Y81.689 E268.25227
G1 X37.451 Y81.652 E268.26433
G1 F1680 E265.26433
G1 F3600 X35.027 Y48
G1 F1680 E268.26433
G1 F2400 X60.969 Y48 E269.28895
G1 F3600 X60.46 Y47.6
G1 F2400 X35.542 Y47.6 E270.27312
G1 X35.39 Y47.702 E270.28035
G1 X35.154 Y47.886 E270.29217
G1 X35.027 Y48 E270.29891
G1 F1680 E267.29891
G1 F3600 X36.267 Y47.2
G1 F1680 E270.29891
G1 F2400 X59.735 Y47.2 E271.22581
