M73 P0
;MINX:35.0
;MAXX:65.0
;MINY:38.0
;MAXY:82.0
;MINZ:0.0
;MAXZ:28.8
;MachineType:ENTINA TINA2
;FilamentType:PLA
;Extruder0Temperature:200
;InfillDensity:10
;FLAVOR:Marlin
;TIME:3068
;FilamentUsed:2414.5
;Layer height: 0.2

;Generated with Cura_SteamEngine 3.1
M104 T0 S215
M82 ; absolute extrusion mode
;(**** start.gcode for tina2****)
M104 S150
G28 Z
G28 X Y; Home extruder
G1 X55 Y55 F1000
G1 Z10 F200
G29
G1 Z15 F100
M107 ; Turn off fan
G90 ; Absolute positioning
M82 ; Extruder in absolute mode
M109 S215.0
G92 E0 ; Reset extruder position
G1 X90 Y6 Z0.27 F2000
G1 X20 Y6 Z0.27 E15 F1000
G92 E0 ; Reset extruder position

;LAYER_COUNT:138
;LAYER:-6
M107
M203 Z5
G1 F3600 X63.111 Y39.894 Z0.349
G1 F1200 X63.47 Y40.296 E0.05943
G1 X63.637 Y40.511 E0.08945
G1 X63.793 Y40.742 E0.12019
G1 X63.951 Y41.01 E0.1545
G1 X64.083 Y41.269 E0.18656
G1 X64.186 Y41.508 E0.21526
G1 X64.291 Y41.8 E0.24947
G1 X64.372 Y42.082 E0.28183
G1 X64.428 Y42.336 E0.31051
G1 X64.477 Y42.666 E0.3473
G1 X64.513 Y43.127 E0.39829
G1 X64.52 Y43.312 E0.41871
G1 X64.516 Y54.21 E1.62047
G1 X64.492 Y54.587 E1.66213
G1 X64.455 Y54.883 E1.69502
G1 X64.371 Y55.323 E1.74442
G1 X64.287 Y55.988 E1.81834
G1 X64.287 Y56.67 E1.89354
G1 X64.373 Y57.347 E1.9688
G1 X64.594 Y58.211 E2.06714
G1 X64.656 Y58.568 E2.1071
G1 X64.71 Y59.151 E2.17166
G1 X64.72 Y59.368 E2.19562
G1 X64.716 Y60.803 E2.35386
G1 X64.692 Y61.185 E2.39607
G1 X64.655 Y61.483 E2.42919
G1 X64.6 Y61.768 E2.46119
G1 X64.373 Y62.648 E2.56141
G1 X64.285 Y63.326 E2.6368
G1 X64.283 Y64.011 E2.71234
G1 X64.398 Y64.833 E2.80387
G1 X64.431 Y64.983 E2.82081
G1 X64.477 Y65.296 E2.85569
G1 X64.513 Y65.757 E2.90668
G1 X64.52 Y65.942 E2.9271
G1 X64.516 Y76.841 E4.12898
G1 X64.492 Y77.218 E4.17063
G1 X64.455 Y77.516 E4.20375
G1 X64.4 Y77.8 E4.23565
G1 X64.324 Y78.091 E4.26881
G1 X64.24 Y78.349 E4.29873
G1 X64.129 Y78.628 E4.33185
G1 X64.007 Y78.886 E4.36332
G1 X63.863 Y79.145 E4.39599
G1 X63.724 Y79.364 E4.4246
G1 X63.526 Y79.63 E4.46117
G1 X63.106 Y80.111 E4.53158
G1 X62.706 Y80.468 E4.59071
G1 X62.489 Y80.637 E4.62104
G1 X62.258 Y80.793 E4.65177
G1 X61.99 Y80.951 E4.68608
G1 X61.733 Y81.081 E4.71784
G1 X61.464 Y81.196 E4.7501
G1 X61.207 Y81.289 E4.78024
G1 X60.915 Y81.373 E4.81375
G1 X60.654 Y81.429 E4.84318
G1 X60.334 Y81.477 E4.87886
G1 X59.866 Y81.513 E4.93063
G1 X59.674 Y81.52 E4.95181
G1 X40.159 Y81.516 E7.10381
G1 X39.782 Y81.492 E7.14547
G1 X39.484 Y81.455 E7.17858
G1 X39.2 Y81.4 E7.21048
G1 X38.909 Y81.324 E7.24365
G1 X38.649 Y81.239 E7.27381
G1 X38.372 Y81.129 E7.30668
G1 X38.111 Y81.005 E7.33854
G1 X37.856 Y80.864 E7.37067
G1 X37.636 Y80.724 E7.39943
G1 X37.37 Y80.526 E7.436
G1 X36.887 Y80.104 E7.50672
G1 X36.53 Y79.704 E7.56585
G1 X36.363 Y79.489 E7.59587
G1 X36.204 Y79.253 E7.62725
G1 X36.049 Y78.99 E7.66091
G1 X35.919 Y78.733 E7.69267
G1 X35.803 Y78.463 E7.72508
G1 X35.711 Y78.207 E7.75508
G1 X35.627 Y77.915 E7.78858
G1 X35.571 Y77.654 E7.81802
G1 X35.523 Y77.334 E7.8537
G1 X35.486 Y76.856 E7.90657
G1 X35.48 Y76.688 E7.92511
G1 X35.484 Y65.79 E9.12687
G1 X35.507 Y65.423 E9.16742
G1 X35.547 Y65.108 E9.20244
G1 X35.627 Y64.687 E9.24969
G1 X35.712 Y64.022 E9.32362
G1 X35.712 Y63.339 E9.39894
G1 X35.626 Y62.666 E9.47376
G1 X35.53 Y62.252 E9.52062
G1 X35.415 Y61.836 E9.56822
G1 X35.358 Y61.557 E9.59962
G1 X35.309 Y61.219 E9.63728
G1 X35.291 Y61.015 E9.65986
G1 X35.28 Y60.708 E9.69374
G1 X35.285 Y59.188 E9.86136
G1 X35.307 Y58.828 E9.90113
G1 X35.348 Y58.507 E9.93682
G1 X35.404 Y58.219 E9.96917
G1 X35.63 Y57.34 E10.06925
G1 X35.716 Y56.662 E10.14462
G1 X35.716 Y55.977 E10.22016
G1 X35.604 Y55.18 E10.30891
G1 X35.57 Y55.023 E10.32662
G1 X35.523 Y54.706 E10.36196
G1 X35.486 Y54.226 E10.41505
G1 X35.48 Y54.058 E10.43359
G1 X35.484 Y43.159 E11.63546
G1 X35.508 Y42.782 E11.67712
G1 X35.545 Y42.484 E11.71023
G1 X35.6 Y42.2 E11.74213
G1 X35.676 Y41.909 E11.7753
G1 X35.76 Y41.651 E11.80522
G1 X35.871 Y41.372 E11.83833
G1 X35.993 Y41.114 E11.8698
G1 X36.132 Y40.864 E11.90135
G1 X36.284 Y40.626 E11.93249
G1 X36.474 Y40.37 E11.96764
G1 X36.894 Y39.889 E12.03806
G1 X37.296 Y39.53 E12.0975
G1 X37.511 Y39.363 E12.12752
G1 X37.742 Y39.207 E12.15825
G1 X38.01 Y39.049 E12.19256
G1 X38.267 Y38.919 E12.22432
G1 X38.537 Y38.803 E12.25673
G1 X38.793 Y38.711 E12.28672
G1 X39.085 Y38.627 E12.32023
G1 X39.346 Y38.571 E12.34967
G1 X39.666 Y38.523 E12.38535
G1 X40.134 Y38.487 E12.43711
G1 X40.326 Y38.48 E12.4583
G1 X59.841 Y38.484 E14.61029
G1 X60.218 Y38.508 E14.65195
G1 X60.516 Y38.545 E14.68506
G1 X60.8 Y38.6 E14.71696
G1 X61.091 Y38.676 E14.75013
G1 X61.349 Y38.76 E14.78005
G1 X61.628 Y38.871 E14.81316
G1 X61.886 Y38.993 E14.84463
G1 X62.145 Y39.137 E14.87731
M73 P1
G1 X62.364 Y39.276 E14.90592
G1 X62.63 Y39.474 E14.94248
G1 X63.111 Y39.894 E15.0129
G1 F1680 E12.0129
G1 F3600 X62.4 Y39.303
G1 F1680 E15.0129
G1 F1200 X62.4 Y80.698 E19.57769
G1 F1680 E16.57769
G1 F3600 X60.8 Y81.398
G1 F1680 E19.57769
G1 F1200 X60.8 Y38.6 E24.2972
G1 F1680 E21.2972
G1 F3600 X59.2 Y38.484
G1 F1680 E24.2972
G1 F1200 X59.2 Y81.519 E29.04284
G1 F1680 E26.04284
G1 F3600 X57.6 Y81.519
G1 F1680 E29.04284
G1 F1200 X57.6 Y38.484 E33.78848
G1 F1680 E30.78848
G1 F3600 X56 Y38.484
G1 F1680 E33.78848
G1 F1200 X56 Y81.519 E38.53412
G1 F1680 E35.53412
G1 F3600 X54.4 Y81.518
G1 F1680 E38.53412
G1 F1200 X54.4 Y38.483 E43.27976
G1 F1680 E40.27976
G1 F3600 X52.8 Y38.483
G1 F1680 E43.27976
G1 F1200 X52.8 Y81.518 E48.0254
G1 F1680 E45.0254
G1 F3600 X51.2 Y81.518
G1 F1680 E48.0254
G1 F1200 X51.2 Y38.483 E52.77104
G1 F1680 E49.77104
G1 F3600 X49.6 Y38.482
G1 F1680 E52.77104
G1 F1200 X49.6 Y81.517 E57.51668
G1 F1680 E54.51668
G1 F3600 X48 Y81.517
G1 F1680 E57.51668
G1 F1200 X48 Y38.482 E62.26232
G1 F1680 E59.26232
G1 F3600 X46.4 Y38.482
G1 F1680 E62.26232
G1 F1200 X46.4 Y81.517 E67.00796
G1 F1680 E64.00796
G1 F3600 X44.8 Y81.516
G1 F1680 E67.00796
G1 F1200 X44.8 Y38.481 E71.7536
G1 F1680 E68.7536
G1 F3600 X43.2 Y38.481
G1 F1680 E71.7536
G1 F1200 X43.2 Y81.516 E76.49924
G1 F1680 E73.49924
G1 F3600 X41.6 Y81.516
G1 F1680 E76.49924
G1 F1200 X41.6 Y38.481 E81.24488
G1 F1680 E78.24488
G1 F3600 X40 Y38.497
G1 F1680 E81.24488
G1 F1200 X40 Y81.505 E85.98755
G1 F1680 E82.98755
G1 F3600 X38.4 Y81.14
G1 F1680 E85.98755
G1 F1200 X38.4 Y38.861 E90.64982
G1 F1680 E87.64982
G1 F3600 X36.8 Y39.996
M104 T0 S200
G1 F1680 E90.64982
G1 F1200 X36.8 Y80.006 E95.06188
G1 F1680 E92.06188
G1 F3600 X64 Y78.899
G1 F1680 E95.06188
G1 F1200 X64 Y41.107 E99.22936
G1 F1680 E96.22936
G1 F3600 X63.148 Y39.86
;TIME_ELAPSED:50.533196
;LAYER:-5
G1 X63.148 Y39.86 Z0.619
;TYPE:SUPPORT
G1 F1680 E99.22936
G1 F1980 X62.665 Y39.436 E99.27727
G1 X62.392 Y39.233 E99.30262
G1 X62.166 Y39.09 E99.32256
G1 X61.916 Y38.952 E99.34385
G1 X61.813 Y38.903 E99.35235
G1 X64.098 Y41.188 E99.59323
G1 X64.131 Y41.253 E99.59866
G1 X64.232 Y41.49 E99.61787
G1 X64.344 Y41.8 E99.64244
G1 X64.418 Y42.058 E99.66244
G1 X64.478 Y42.33 E99.68321
G1 X64.527 Y42.656 E99.70778
G1 X64.546 Y42.909 E99.72669
G1 X60.085 Y38.448 E100.19696
G1 X59.842 Y38.432 E100.21511
G1 X58.797 Y38.432 E100.29301
G1 X64.57 Y44.205 E100.90158
G1 X64.57 Y45.478 E100.99648
G1 X57.524 Y38.432 E101.73925
G1 X56.251 Y38.432 E101.83414
G1 X64.569 Y46.75 E102.71101
G1 X64.568 Y48.022 E102.80582
G1 X54.978 Y38.431 E103.81683
G1 X53.705 Y38.431 E103.91172
G1 X64.568 Y49.295 E105.05693
G1 X64.568 Y50.567 E105.15174
G1 X52.432 Y38.431 E106.43109
G1 X51.159 Y38.431 E106.52598
G1 X64.568 Y51.84 E107.93953
G1 X64.567 Y53.112 E108.03435
G1 X49.886 Y38.431 E109.58199
G1 X48.613 Y38.431 E109.67688
G1 X64.556 Y54.374 E111.35755
G1 X64.542 Y54.595 E111.37406
G1 X64.506 Y54.882 E111.39562
G1 X64.42 Y55.331 E111.4297
G1 X64.4 Y55.49 E111.44164
G1 X47.34 Y38.43 E113.24007
G1 X46.067 Y38.43 E113.33496
G1 X64.343 Y56.706 E115.26157
G1 X64.423 Y57.337 E115.30899
G1 X64.641 Y58.189 E115.37454
G1 X64.659 Y58.296 E115.38263
G1 X44.794 Y38.43 E117.4768
G1 X43.521 Y38.429 E117.5717
G1 X64.769 Y59.678 E119.81166
G1 X64.766 Y60.809 E119.89597
G1 X64.758 Y60.94 E119.90575
G1 X42.248 Y38.429 E122.27876
G1 X40.975 Y38.429 E122.37365
G1 X64.582 Y62.037 E124.8623
G1 X64.422 Y62.657 E124.91003
G1 X64.366 Y63.093 E124.9428
G1 X39.738 Y38.465 E127.53902
G1 X39.653 Y38.472 E127.54538
G1 X39.342 Y38.518 E127.56882
G1 X39.06 Y38.579 E127.59032
G1 X38.791 Y38.656 E127.61118
G1 X38.692 Y38.692 E127.61903
G1 X64.387 Y64.387 E130.32774
G1 X64.448 Y64.823 E130.36056
G1 X64.484 Y64.985 E130.37293
G1 X64.527 Y65.282 E130.3953
G1 X64.563 Y65.754 E130.43058
G1 X64.567 Y65.84 E130.437
G1 X37.825 Y39.098 E133.25608
G1 X37.715 Y39.162 E133.26557
G1 X37.487 Y39.316 E133.28608
G1 X37.246 Y39.504 E133.30886
G1 X37.094 Y39.64 E133.32406
G1 X64.57 Y67.116 E136.22052
G1 X64.57 Y68.388 E136.31534
G1 X36.472 Y40.29 E139.27736
G1 X36.437 Y40.333 E139.2815
G1 X36.242 Y40.594 E139.30578
G1 X36.082 Y40.844 E139.32791
G1 X35.964 Y41.056 E139.34599
G1 X64.569 Y69.66 E142.36141
G1 X64.569 Y70.933 E142.45631
G1 X35.607 Y41.971 E145.50941
G1 X35.549 Y42.189 E145.52623
G1 X35.493 Y42.485 E145.54868
G1 X35.457 Y42.772 E145.57025
G1 X35.438 Y43.074 E145.5928
G1 X64.568 Y72.205 E148.66367
G1 X64.568 Y73.477 E148.75849
G1 X35.432 Y44.341 E151.82994
M73 P2
G1 X35.431 Y45.614 E151.92483
G1 X64.568 Y74.75 E154.99633
G1 X64.567 Y76.022 E155.09115
G1 X35.43 Y46.886 E158.16265
G1 X35.43 Y48.158 E158.25747
G1 X64.538 Y77.266 E161.32597
G1 X64.507 Y77.513 E161.34453
G1 X64.45 Y77.809 E161.36699
G1 X64.372 Y78.103 E161.38967
G1 X64.307 Y78.307 E161.40563
G1 X35.43 Y49.431 E164.44972
G1 X35.429 Y50.703 E164.54454
G1 X63.903 Y79.176 E167.54615
G1 X63.766 Y79.393 E167.56528
G1 X63.563 Y79.664 E167.59052
G1 X63.356 Y79.902 E167.61403
G1 X35.429 Y51.975 E170.55803
G1 X35.428 Y53.247 E170.65285
G1 X62.709 Y80.528 E173.52875
G1 X62.513 Y80.68 E173.54724
G1 X62.284 Y80.835 E173.56785
G1 X62.009 Y80.996 E173.5916
G1 X61.94 Y81.032 E173.59741
G1 X35.459 Y54.551 E176.38897
G1 X35.472 Y54.715 E176.40124
G1 X35.516 Y55.021 E176.42428
G1 X35.553 Y55.188 E176.43703
G1 X35.665 Y55.98 E176.49665
G1 X35.665 Y56.029 E176.50031
G1 X61.028 Y81.393 E179.17407
G1 X60.939 Y81.419 E179.18098
G1 X60.657 Y81.479 E179.20247
G1 X60.346 Y81.527 E179.22593
G1 X59.921 Y81.559 E179.2577
G1 X35.591 Y57.228 E181.82256
G1 X35.578 Y57.329 E181.83015
G1 X35.351 Y58.219 E181.89862
G1 X35.344 Y58.254 E181.90128
G1 X58.659 Y81.569 E184.3591
G1 X57.386 Y81.569 E184.45399
G1 X35.232 Y59.415 E186.78941
G1 X35.228 Y60.684 E186.884
G1 X56.113 Y81.569 E189.08565
G1 X54.84 Y81.569 E189.18054
G1 X35.459 Y62.187 E191.2237
G1 X35.48 Y62.264 E191.22965
G1 X35.575 Y62.673 E191.26095
G1 X35.66 Y63.341 E191.31114
G1 X35.66 Y63.662 E191.33507
G1 X53.567 Y81.569 E193.22278
G1 X52.294 Y81.568 E193.31768
G1 X35.548 Y64.822 E195.083
G1 X35.493 Y65.111 E195.10493
G1 X35.457 Y65.404 E195.12693
G1 X35.433 Y65.787 E195.15554
G1 X35.432 Y65.979 E195.16985
G1 X51.021 Y81.568 E196.81321
G1 X49.747 Y81.567 E196.90817
G1 X35.432 Y67.252 E198.41723
G1 X35.431 Y68.524 E198.51205
G1 X48.474 Y81.567 E199.88701
G1 X47.202 Y81.567 E199.98183
G1 X35.43 Y69.796 E201.22275
G1 X35.43 Y71.069 E201.31764
G1 X45.928 Y81.566 E202.42426
G1 X44.655 Y81.566 E202.51916
G1 X35.43 Y72.341 E203.49163
G1 X35.429 Y73.613 E203.58645
G1 X43.382 Y81.566 E204.42484
G1 X42.109 Y81.566 E204.51973
G1 X35.428 Y74.885 E205.22403
G1 X35.428 Y76.158 E205.31892
G1 X40.836 Y81.566 E205.88902
G1 X40.156 Y81.566 E205.9397
G1 X39.774 Y81.542 E205.96824
G1 X39.506 Y81.508 E205.98837
G1 X35.494 Y77.496 E206.41131
G1 X35.518 Y77.656 E206.42337
G1 X35.58 Y77.938 E206.44489
G1 X35.656 Y78.207 E206.46573
G1 X35.756 Y78.482 E206.48754
G1 X35.874 Y78.758 E206.50991
G1 X35.998 Y79.005 E206.53052
G1 X36.16 Y79.277 E206.55412
G1 X36.317 Y79.511 E206.57512
G1 X36.505 Y79.753 E206.59796
G1 X36.739 Y80.014 E206.62409
G1 X36.956 Y80.231 E206.64697
G1 X36.851 Y80.139 E206.65737
G1 F1680 E203.65737
G1 F3600 X64 Y40.993
G1 F1680 E206.65737
G1 F1980 X63.836 Y40.715 E206.68143
G1 X63.682 Y40.488 E206.70188
G1 X63.493 Y40.245 E206.72483
G1 X63.148 Y39.86 E206.76336
G1 F3600 X63.085 Y39.6
;TIME_ELAPSED:95.661467
;LAYER:-4
M106 S255
G1 X63.085 Y39.6 Z0.869
G1 F2400 X62.754 Y39.316 E206.78059
G1 X62.599 Y39.2 E206.78824
G1 X37.393 Y39.2 E207.78378
G1 X37.65 Y39.027 E207.79602
G1 X37.918 Y38.869 E207.80831
G1 X38.055 Y38.8 E207.81437
G1 X61.945 Y38.8 E208.75793
G1 X61.692 Y38.68 E208.76899
G1 X61.422 Y38.573 E208.78047
G1 X61.137 Y38.48 E208.79231
G1 X60.842 Y38.403 E208.80435
G1 X60.827 Y38.4 E208.80495
G1 X39.182 Y38.4 E209.65985
G1 X39.305 Y38.373 E209.66483
G1 X39.647 Y38.322 E209.67848
G1 X40.119 Y38.286 E209.69718
G1 X40.318 Y38.279 E209.70504
G1 X59.84 Y38.283 E210.47609
G1 X60.244 Y38.309 E210.49208
G1 X60.547 Y38.346 E210.50414
G1 F1680 E207.50414
G1 F3600 X63.085 Y39.6
G1 F1680 E210.50414
G1 F2400 X36.915 Y39.6 E211.53776
G1 X36.753 Y39.744 E211.54632
G1 X36.529 Y40 E211.55976
G1 X63.475 Y40 E212.62403
G1 X63.612 Y40.154 E212.63217
G1 X63.796 Y40.39 E212.64399
G1 X63.803 Y40.4 E212.64447
G1 X36.201 Y40.4 E213.73465
G1 X36.114 Y40.517 E213.74041
G1 X35.963 Y40.753 E213.75147
G1 X35.937 Y40.8 E213.75359
G1 X64.06 Y40.8 E214.86435
G1 X64.129 Y40.918 E214.86975
G1 X64.258 Y41.173 E214.88104
G1 X64.27 Y41.2 E214.8822
G1 X35.731 Y41.2 E216.00939
G1 X35.679 Y41.309 E216.01416
G1 X35.573 Y41.576 E216.02551
G1 X35.566 Y41.6 E216.0265
G1 X64.432 Y41.6 E217.1666
G1 X64.481 Y41.737 E217.17235
G1 X64.557 Y42 E217.18316
G1 X35.444 Y42 E218.33302
G1 X35.404 Y42.15 E218.33915
G1 X35.356 Y42.4 E218.3492
G1 X64.639 Y42.4 E219.50578
G1 X64.676 Y42.648 E219.51568
G1 X64.688 Y42.8 E219.5217
G1 X35.307 Y42.8 E220.68215
G1 X35.283 Y43.158 E220.69632
G1 X35.283 Y43.2 E220.69798
G1 X64.715 Y43.2 E221.86044
G1 X64.719 Y43.311 E221.86482
G1 X64.718 Y43.6 E221.87624
G1 X35.283 Y43.6 E223.03881
G1 X35.283 Y44 E223.05461
G1 X64.718 Y44 E224.21719
G1 X64.718 Y44.4 E224.23299
G1 X35.283 Y44.4 E225.39556
G1 X35.283 Y44.8 E225.41136
G1 X64.718 Y44.8 E226.57394
G1 X64.718 Y45.2 E226.58974
G1 X35.283 Y45.2 E227.75232
G1 X35.283 Y45.6 E227.76811
G1 X64.718 Y45.6 E228.93069
G1 X64.718 Y46 E228.94649
M73 P3
G1 X35.282 Y46 E230.10911
G1 X35.282 Y46.4 E230.1249
G1 X64.717 Y46.4 E231.28748
G1 X64.717 Y46.8 E231.30328
G1 X35.282 Y46.8 E232.46586
G1 X35.282 Y47.2 E232.48166
G1 X64.717 Y47.2 E233.64423
G1 X64.717 Y47.6 E233.66003
G1 X35.282 Y47.6 E234.82261
G1 X35.282 Y48 E234.83841
G1 X64.717 Y48 E236.00098
G1 X64.717 Y48.4 E236.01678
G1 X35.282 Y48.4 E237.17936
G1 X35.281 Y48.8 E237.19516
G1 X64.716 Y48.8 E238.35773
G1 X64.716 Y49.2 E238.37353
G1 X35.281 Y49.2 E239.53611
G1 X35.281 Y49.6 E239.55191
G1 X64.716 Y49.6 E240.71448
G1 X64.716 Y50 E240.73028
G1 X35.281 Y50 E241.89286
G1 X35.281 Y50.4 E241.90866
G1 X64.716 Y50.4 E243.07124
G1 X64.716 Y50.8 E243.08703
G1 X35.281 Y50.8 E244.24961
G1 X35.281 Y51.2 E244.26541
G1 X64.716 Y51.2 E245.42799
G1 X64.715 Y51.6 E245.44378
G1 X35.28 Y51.6 E246.60636
G1 X35.28 Y52 E246.62216
G1 X64.715 Y52 E247.78474
G1 X64.715 Y52.4 E247.80054
G1 X35.28 Y52.4 E248.96311
G1 X35.28 Y52.8 E248.97891
G1 X64.715 Y52.8 E250.14149
G1 X64.715 Y53.2 E250.15729
G1 X35.28 Y53.2 E251.31986
G1 X35.28 Y53.6 E251.33566
G1 X64.715 Y53.6 E252.49824
G1 X64.715 Y54 E252.51404
G1 X35.28 Y54 E253.67661
G1 X35.279 Y54.057 E253.67887
G1 X35.286 Y54.249 E253.68645
G1 X35.297 Y54.4 E253.69243
G1 X64.702 Y54.4 E254.85383
G1 X64.689 Y54.613 E254.86225
G1 X64.666 Y54.8 E254.8697
G1 X35.333 Y54.8 E256.02824
G1 X35.373 Y55.065 E256.03883
G1 X35.402 Y55.2 E256.04428
G1 X64.596 Y55.2 E257.19734
G1 X64.567 Y55.354 E257.20353
G1 X64.536 Y55.6 E257.21332
G1 X35.46 Y55.6 E258.36172
G1 X35.515 Y55.99 E258.37728
G1 X35.515 Y56 E258.37767
G1 X64.486 Y56 E259.52192
G1 X64.486 Y56.4 E259.53772
G1 X35.515 Y56.4 E260.68197
G1 X35.515 Y56.649 E260.69181
G1 X35.496 Y56.8 E260.69782
G1 X64.505 Y56.8 E261.84357
G1 X64.556 Y57.2 E261.85949
G1 X35.445 Y57.2 E263.00927
G1 X35.432 Y57.301 E263.0133
G1 X35.356 Y57.6 E263.02548
G1 X64.644 Y57.6 E264.18225
G1 X64.746 Y58 E264.19856
G1 X35.254 Y58 E265.36338
G1 X35.204 Y58.192 E265.37122
G1 X35.164 Y58.4 E265.37959
G1 X64.829 Y58.4 E266.55125
