M73 P0
;MINX:35.0
;MAXX:65.0
;MINY:42.5
;MAXY:77.5
;MINZ:0.0
;MAXZ:30.3
;MachineType:ENTINA TINA2
;FilamentType:PLA
;Extruder0Temperature:200
;InfillDensity:10
;FLAVOR:Marlin
;TIME:3075
;FilamentUsed:2337.6
;Layer height: 0.2

;Generated with Cura_SteamEngine 3.1
M104 T0 S215
M82 ; absolute extrusion mode
;(**** start.gcode for tina2****)
M104 S150
G28 Z
G28 X Y; Home extruder
G1 X55 Y55 F1000
G1 Z10 F200
G29
G1 Z15 F100
M107 ; Turn off fan
G90 ; Absolute positioning
M82 ; Extruder in absolute mode
M109 S215.0
G92 E0 ; Reset extruder position
G1 X90 Y6 Z0.27 F2000
G1 X20 Y6 Z0.27 E15 F1000
G92 E0 ; Reset extruder position

;LAYER_COUNT:145
;LAYER:-6
M107
M203 Z5
G1 F3600 X62.63 Y43.974 Z0.349
G1 F1200 X63.111 Y44.394 E0.07042
G1 X63.47 Y44.796 E0.12985
G1 X63.637 Y45.011 E0.15987
G1 X63.793 Y45.242 E0.19061
G1 X63.951 Y45.51 E0.22492
G1 X64.083 Y45.769 E0.25697
G1 X64.186 Y46.008 E0.28567
G1 X64.291 Y46.3 E0.31989
G1 X64.372 Y46.582 E0.35224
G1 X64.428 Y46.836 E0.38093
G1 X64.477 Y47.166 E0.41772
G1 X64.513 Y47.627 E0.46871
G1 X64.52 Y47.812 E0.48912
G1 X64.516 Y72.341 E3.19403
G1 X64.492 Y72.718 E3.23569
G1 X64.455 Y73.016 E3.2688
G1 X64.4 Y73.3 E3.3007
G1 X64.324 Y73.591 E3.33387
G1 X64.24 Y73.849 E3.36379
G1 X64.129 Y74.128 E3.3969
G1 X64.007 Y74.386 E3.42837
G1 X63.863 Y74.645 E3.46105
G1 X63.724 Y74.864 E3.48966
G1 X63.526 Y75.13 E3.52622
G1 X63.106 Y75.611 E3.59664
G1 X62.706 Y75.968 E3.65576
G1 X62.489 Y76.137 E3.68609
G1 X62.258 Y76.293 E3.71683
G1 X61.99 Y76.451 E3.75114
G1 X61.733 Y76.581 E3.7829
G1 X61.464 Y76.696 E3.81516
G1 X61.207 Y76.789 E3.8453
G1 X60.915 Y76.873 E3.8788
G1 X60.654 Y76.929 E3.90824
G1 X60.334 Y76.977 E3.94392
G1 X59.866 Y77.013 E3.99568
G1 X59.674 Y77.02 E4.01687
G1 X40.159 Y77.016 E6.16887
G1 X39.782 Y76.992 E6.21052
G1 X39.484 Y76.955 E6.24364
G1 X39.2 Y76.9 E6.27554
G1 X38.909 Y76.824 E6.3087
G1 X38.649 Y76.739 E6.33887
G1 X38.372 Y76.629 E6.37173
G1 X38.111 Y76.505 E6.4036
G1 X37.856 Y76.364 E6.43573
G1 X37.636 Y76.224 E6.46449
G1 X37.37 Y76.026 E6.50105
G1 X36.887 Y75.604 E6.57178
G1 X36.53 Y75.204 E6.63091
G1 X36.363 Y74.989 E6.66093
G1 X36.204 Y74.753 E6.69231
G1 X36.049 Y74.49 E6.72597
G1 X35.919 Y74.233 E6.75773
G1 X35.803 Y73.963 E6.79014
G1 X35.711 Y73.707 E6.82013
G1 X35.627 Y73.415 E6.85364
G1 X35.571 Y73.154 E6.88308
G1 X35.523 Y72.834 E6.91876
G1 X35.486 Y72.356 E6.97163
G1 X35.48 Y72.188 E6.99016
G1 X35.484 Y47.659 E9.69508
G1 X35.508 Y47.282 E9.73673
G1 X35.545 Y46.984 E9.76985
G1 X35.6 Y46.7 E9.80175
G1 X35.676 Y46.409 E9.83491
G1 X35.76 Y46.151 E9.86483
G1 X35.871 Y45.872 E9.89795
G1 X35.993 Y45.614 E9.92942
G1 X36.132 Y45.364 E9.96096
G1 X36.284 Y45.126 E9.9921
G1 X36.474 Y44.87 E10.02726
G1 X36.894 Y44.389 E10.09767
G1 X37.296 Y44.03 E10.15711
G1 X37.511 Y43.863 E10.18713
G1 X37.742 Y43.707 E10.21787
G1 X38.01 Y43.549 E10.25217
G1 X38.267 Y43.419 E10.28393
G1 X38.537 Y43.303 E10.31634
G1 X38.793 Y43.211 E10.34634
G1 X39.085 Y43.127 E10.37984
G1 X39.346 Y43.071 E10.40928
G1 X39.666 Y43.023 E10.44496
G1 X40.134 Y42.987 E10.49672
G1 X40.326 Y42.98 E10.51791
G1 X59.841 Y42.984 E12.66991
G1 X60.218 Y43.008 E12.71156
G1 X60.516 Y43.045 E12.74468
G1 X60.8 Y43.1 E12.77658
G1 X61.091 Y43.176 E12.80974
G1 X61.349 Y43.26 E12.83966
G1 X61.628 Y43.371 E12.87277
G1 X61.886 Y43.493 E12.90425
G1 X62.145 Y43.637 E12.93692
G1 X62.364 Y43.776 E12.96553
G1 X62.63 Y43.974 E13.0021
G1 F3600 X62.4 Y43.803
G1 F1200 X62.4 Y76.198 E16.57442
G1 F1680 E13.57442
G1 F3600 X60.8 Y76.898
G1 F1680 E16.57442
G1 F1200 X60.8 Y43.1 E20.30146
G1 F1680 E17.30146
G1 F3600 X59.2 Y42.984
G1 F1680 E20.30146
G1 F1200 X59.2 Y77.019 E24.05464
G1 F1680 E21.05464
G1 F3600 X57.6 Y77.019
M73 P1
G1 F1680 E24.05464
G1 F1200 X57.6 Y42.984 E27.80781
G1 F1680 E24.80781
G1 F3600 X56 Y42.984
G1 F1680 E27.80781
G1 F1200 X56 Y77.019 E31.56099
G1 F1680 E28.56099
G1 F3600 X54.4 Y77.018
G1 F1680 E31.56099
G1 F1200 X54.4 Y42.983 E35.31416
G1 F1680 E32.31416
G1 F3600 X52.8 Y42.983
G1 F1680 E35.31416
G1 F1200 X52.8 Y77.018 E39.06733
G1 F1680 E36.06733
G1 F3600 X51.2 Y77.018
G1 F1680 E39.06733
G1 F1200 X51.2 Y42.983 E42.82051
G1 F1680 E39.82051
G1 F3600 X49.6 Y42.982
G1 F1680 E42.82051
G1 F1200 X49.6 Y77.017 E46.57368
G1 F1680 E43.57368
G1 F3600 X48 Y77.017
G1 F1680 E46.57368
G1 F1200 X48 Y42.982 E50.32686
G1 F1680 E47.32686
G1 F3600 X46.4 Y42.982
G1 F1680 E50.32686
G1 F1200 X46.4 Y77.017 E54.08003
G1 F1680 E51.08003
G1 F3600 X44.8 Y77.016
G1 F1680 E54.08003
G1 F1200 X44.8 Y42.981 E57.83321
G1 F1680 E54.83321
G1 F3600 X43.2 Y42.981
G1 F1680 E57.83321
G1 F1200 X43.2 Y77.016 E61.58638
G1 F1680 E58.58638
G1 F3600 X41.6 Y77.016
G1 F1680 E61.58638
G1 F1200 X41.6 Y42.981 E65.33956
G1 F1680 E62.33956
G1 F3600 X40 Y42.997
G1 F1680 E65.33956
G1 F1200 X40 Y77.005 E69.08976
G1 F1680 E66.08976
G1 F3600 X38.4 Y76.64
G1 F1680 E69.08976
G1 F1200 X38.4 Y43.361 E72.75956
G1 F1680 E69.75956
G1 F3600 X36.8 Y44.496
M104 T0 S200
G1 F1680 E72.75956
G1 F1200 X36.8 Y75.506 E76.17916
G1 F1680 E73.17916
G1 F3600 X64 Y74.399
G1 F1680 E76.17916
G1 F1200 X64 Y45.607 E79.35417
G1 F1680 E76.35417
G1 F3600 X62.665 Y43.935
;TIME_ELAPSED:41.379339
;LAYER:-5
G1 X62.665 Y43.935 Z0.619
;TYPE:SUPPORT
G1 F1680 E79.35417
G1 F1980 X62.392 Y43.733 E79.37948
G1 X62.166 Y43.591 E79.39938
G1 X61.916 Y43.452 E79.4207
G1 X61.64 Y43.32 E79.44351
G1 X61.383 Y43.217 E79.46414
G1 X61.103 Y43.127 E79.48607
G1 X60.89 Y43.071 E79.50249
G1 X64.43 Y46.611 E79.87566
G1 X64.478 Y46.83 E79.89238
G1 X64.527 Y47.156 E79.91695
G1 X64.563 Y47.625 E79.95201
G1 X64.57 Y47.811 E79.96589
G1 X64.57 Y48.023 E79.98169
G1 X59.478 Y42.932 E80.51842
G1 X58.206 Y42.932 E80.61324
G1 X64.57 Y49.296 E81.28412
G1 X64.57 Y50.569 E81.37901
G1 X56.933 Y42.932 E82.18409
G1 X55.659 Y42.931 E82.27905
G1 X64.57 Y51.842 E83.21843
G1 X64.569 Y53.114 E83.31325
G1 X54.387 Y42.931 E84.38666
G1 X53.113 Y42.931 E84.48163
G1 X64.569 Y54.387 E85.68929
G1 X64.569 Y55.659 E85.78411
G1 X51.84 Y42.931 E87.12592
G1 X50.568 Y42.931 E87.22074
G1 X64.569 Y56.932 E88.69669
G1 X64.568 Y58.204 E88.79151
G1 X49.294 Y42.93 E90.40166
G1 X48.021 Y42.93 E90.49655
G1 X64.568 Y59.477 E92.24089
G1 X64.568 Y60.75 E92.33579
G1 X46.748 Y42.929 E94.21438
G1 X45.475 Y42.929 E94.30927
G1 X64.568 Y62.023 E96.32207
G1 X64.568 Y63.295 E96.41688
G1 X44.202 Y42.929 E98.56382
G1 X42.929 Y42.929 E98.65871
G1 X64.568 Y64.568 E100.93985
G1 X64.568 Y65.84 E101.03466
G1 X41.656 Y42.929 E103.44994
G1 X40.383 Y42.929 E103.54483
G1 X64.568 Y67.113 E106.09431
G1 X64.567 Y68.385 E106.18912
G1 X39.225 Y43.043 E108.86062
G1 X39.061 Y43.079 E108.87313
G1 X38.791 Y43.156 E108.89406
G1 X38.517 Y43.255 E108.91578
G1 X38.27 Y43.361 E108.93582
G1 X64.567 Y69.658 E111.70798
G1 X64.567 Y70.931 E111.80288
G1 X37.468 Y43.832 E114.65959
G1 X37.246 Y44.004 E114.68052
G1 X36.867 Y44.341 E114.71833
G1 X36.789 Y44.426 E114.72693
G1 X64.567 Y72.204 E117.65522
G1 X64.566 Y72.341 E117.66543
G1 X64.542 Y72.725 E117.69411
G1 X64.507 Y73.013 E117.71574
G1 X64.45 Y73.309 E117.73821
G1 X64.44 Y73.349 E117.74128
G1 X36.22 Y45.129 E120.71617
G1 X36.082 Y45.344 E120.73521
G1 X35.951 Y45.582 E120.75546
G1 X35.822 Y45.852 E120.77777
G1 X35.778 Y45.961 E120.78653
G1 X64.108 Y74.29 E123.77296
G1 X64.048 Y74.415 E123.7833
G1 X63.909 Y74.666 E123.80469
G1 X63.766 Y74.893 E123.82468
M73 P2
G1 X63.626 Y75.081 E123.84216
G1 X35.498 Y46.954 E126.80729
G1 X35.493 Y46.985 E126.80963
G1 X35.457 Y47.272 E126.8312
G1 X35.433 Y47.656 E126.85988
G1 X35.432 Y48.16 E126.89744
G1 X63.023 Y75.751 E129.80602
G1 X62.754 Y75.994 E129.83305
G1 X62.513 Y76.18 E129.85574
G1 X62.314 Y76.315 E129.87366
G1 X35.432 Y49.433 E132.7075
G1 X35.432 Y50.705 E132.80232
G1 X61.472 Y76.745 E135.5474
G1 X61.207 Y76.842 E135.56843
G1 X60.939 Y76.919 E135.58922
G1 X60.657 Y76.979 E135.61071
G1 X60.462 Y77.008 E135.6254
G1 X35.431 Y51.978 E138.26406
G1 X35.431 Y53.25 E138.35888
G1 X59.25 Y77.069 E140.86982
G1 X57.977 Y77.069 E140.96471
G1 X35.431 Y54.523 E143.34146
G1 X35.431 Y55.796 E143.43635
G1 X56.705 Y77.069 E145.67896
G1 X55.431 Y77.068 E145.77392
G1 X35.43 Y57.068 E147.88233
G1 X35.43 Y58.341 E147.97722
G1 X54.158 Y77.068 E149.95143
G1 X52.885 Y77.068 E150.04632
G1 X35.43 Y59.614 E151.88634
G1 X35.43 Y60.886 E151.98115
G1 X51.612 Y77.068 E153.68702
G1 X50.339 Y77.068 E153.78191
G1 X35.43 Y62.158 E155.35364
G1 X35.43 Y63.431 E155.44853
G1 X49.066 Y77.067 E156.88601
G1 X47.793 Y77.067 E156.9809
G1 X35.429 Y64.703 E158.28428
G1 X35.429 Y65.976 E158.37917
G1 X46.519 Y77.066 E159.54826
G1 X45.247 Y77.066 E159.64307
G1 X35.429 Y67.249 E160.67801
G1 X35.428 Y68.521 E160.77283
G1 X43.974 Y77.066 E161.67368
G1 X42.7 Y77.066 E161.76864
G1 X35.428 Y69.794 E162.53524
G1 X35.428 Y71.067 E162.63013
G1 X41.427 Y77.066 E163.26253
G1 X40.156 Y77.066 E163.35727
G1 F3600 X40.154 Y77.065
G1 F1980 X35.434 Y72.345 E163.85484
G1 X35.435 Y72.358 E163.85582
G1 X35.472 Y72.845 E163.89222
G1 X35.518 Y73.156 E163.91566
G1 X35.58 Y73.438 E163.93718
G1 X35.656 Y73.707 E163.95802
G1 X35.731 Y73.915 E163.9745
G1 X38.584 Y76.768 E164.27526
G1 X38.359 Y76.678 E164.29332
G1 X38.081 Y76.546 E164.31626
G1 X37.831 Y76.408 E164.33755
G1 X37.606 Y76.265 E164.35742
G1 X37.333 Y76.063 E164.38273
G1 X36.851 Y75.639 E164.43058
G1 X36.505 Y75.253 E164.46923
G1 X36.317 Y75.011 E164.49207
G1 X36.16 Y74.777 E164.51307
G1 X35.998 Y74.505 E164.53667
G1 X35.873 Y74.259 E164.55724
G1 X35.756 Y73.982 E164.57966
G1 F1680 E161.57966
G1 F3600 X64.418 Y46.558
G1 F1680 E164.57966
G1 F1980 X64.344 Y46.3 E164.59966
G1 X64.232 Y45.99 E164.62423
G1 X64.131 Y45.753 E164.64344
G1 X64 Y45.493 E164.66514
G1 X63.836 Y45.215 E164.6892
G1 X63.682 Y44.988 E164.70964
G1 X63.493 Y44.745 E164.73259
G1 X63.148 Y44.36 E164.77113
G1 X62.665 Y43.935 E164.81908
G1 F3600 X62.969 Y44
;TIME_ELAPSED:77.375547
;LAYER:-4
M106 S255
G1 X62.969 Y44 Z0.869
G1 F2400 X37.027 Y44 E165.8437
G1 X37.154 Y43.886 E165.85044
G1 X37.39 Y43.702 E165.86226
G1 X37.542 Y43.6 E165.86949
G1 X62.46 Y43.6 E166.85366
G1 X62.241 Y43.461 E166.86391
G1 X61.993 Y43.323 E166.87512
G1 X61.735 Y43.2 E166.8864
G1 X38.267 Y43.2 E167.81331
G1 X38.458 Y43.118 E167.82152
G1 X38.746 Y43.014 E167.83361
G1 X39.031 Y42.933 E167.84531
G1 X39.305 Y42.873 E167.85639
G1 X39.647 Y42.822 E167.87005
G1 X39.936 Y42.8 E167.8815
G1 X40.119 Y42.786 E167.88874
G1 X40.318 Y42.779 E167.89661
G1 X59.84 Y42.783 E168.66766
G1 F3600 X60.105 Y42.8
G1 F2400 X39.936 Y42.8 E169.46426
G1 F1680 E166.46426
G1 F3600 X36.617 Y44.4
G1 F1680 E169.46426
G1 F2400 X63.386 Y44.4 E170.52154
G1 X63.257 Y44.256 E170.52918
G1 X63.114 Y44.125 E170.53684
G1 X62.969 Y44 E170.5444
G1 F1680 E167.5444
G1 F3600 X63.726 Y44.8
G1 F1680 E170.5444
G1 F2400 X63.796 Y44.89 E170.5489
G1 X63.971 Y45.15 E170.56128
G1 X64.001 Y45.2 E170.56358
G1 X35.997 Y45.2 E171.66964
G1 X35.963 Y45.253 E171.67213
G1 X35.823 Y45.505 E171.68351
G1 X35.778 Y45.6 E171.68766
G1 X64.222 Y45.6 E172.8111
G1 X64.258 Y45.673 E172.81432
G1 X64.378 Y45.951 E172.82627
G1 X64.396 Y46 E172.82834
G1 X35.604 Y46 E173.96552
G1 X35.573 Y46.076 E173.96876
G1 X35.48 Y46.361 E173.9806
G1 X35.47 Y46.4 E173.98219
G1 X64.528 Y46.4 E175.12988
G1 X64.564 Y46.525 E175.13501
G1 X64.623 Y46.793 E175.14585
G1 F3600 X64.625 Y46.8
G1 F2400 X35.376 Y46.8 E176.30108
M73 P3
G1 X35.345 Y46.957 E176.3074
G1 X35.316 Y47.2 E176.31707
G1 X64.68 Y47.2 E177.47684
G1 X64.711 Y47.6 E177.49269
G1 X35.287 Y47.6 E178.65483
G1 X35.283 Y47.658 E178.65713
G1 X35.283 Y48 E178.67063
G1 X64.718 Y48 E179.83321
G1 X64.718 Y48.4 E179.84901
G1 X35.283 Y48.4 E181.01159
G1 X35.283 Y48.8 E181.02739
G1 X64.718 Y48.8 E182.18996
G1 X64.718 Y49.2 E182.20576
G1 X35.283 Y49.2 E183.36834
G1 X35.283 Y49.6 E183.38414
G1 X64.718 Y49.6 E184.54671
G1 X64.718 Y50 E184.56251
G1 X35.283 Y50 E185.72509
G1 X35.283 Y50.4 E185.74089
G1 X64.718 Y50.4 E186.90346
G1 X64.718 Y50.8 E186.91926
G1 X35.283 Y50.8 E188.08184
G1 X35.283 Y51.2 E188.09764
G1 X64.718 Y51.2 E189.26021
G1 X64.718 Y51.6 E189.27601
G1 X35.283 Y51.6 E190.43859
G1 X35.283 Y52 E190.45439
G1 X64.718 Y52 E191.61697
G1 X64.718 Y52.4 E191.63276
G1 X35.283 Y52.4 E192.79534
G1 X35.283 Y52.8 E192.81114
G1 X64.718 Y52.8 E193.97372
G1 X64.718 Y53.2 E193.98951
G1 X35.283 Y53.2 E195.15209
G1 X35.283 Y53.6 E195.16789
G1 X64.718 Y53.6 E196.33047
G1 X64.717 Y54 E196.34627
G1 X35.282 Y54 E197.50884
G1 X35.282 Y54.4 E197.52464
G1 X64.717 Y54.4 E198.68722
G1 X64.717 Y54.8 E198.70302
G1 X35.282 Y54.8 E199.86559
G1 X35.282 Y55.2 E199.88139
G1 X64.717 Y55.2 E201.04397
G1 X64.717 Y55.6 E201.05977
G1 X35.282 Y55.6 E202.22234
G1 X35.282 Y56 E202.23814
G1 X64.717 Y56 E203.40072
G1 X64.717 Y56.4 E203.41652
G1 X35.282 Y56.4 E204.57909
G1 X35.282 Y56.8 E204.59489
G1 X64.717 Y56.8 E205.75747
G1 X64.717 Y57.2 E205.77327
G1 X35.282 Y57.2 E206.93585
G1 X35.282 Y57.6 E206.95164
G1 X64.717 Y57.6 E208.11422
G1 X64.717 Y58 E208.13002
G1 X35.282 Y58 E209.2926
G1 X35.282 Y58.4 E209.30839
G1 X64.717 Y58.4 E210.47097
G1 X64.717 Y58.8 E210.48677
G1 X35.282 Y58.8 E211.64935
G1 X35.282 Y59.2 E211.66515
G1 X64.717 Y59.2 E212.82772
G1 X64.717 Y59.6 E212.84352
G1 X35.282 Y59.6 E214.0061
G1 X35.281 Y60 E214.0219
G1 X64.717 Y60 E215.18451
G1 X64.716 Y60.4 E215.20031
G1 X35.281 Y60.4 E216.36289
G1 X35.281 Y60.8 E216.37869
G1 X64.716 Y60.8 E217.54126
G1 X64.716 Y61.2 E217.55706
G1 X35.281 Y61.2 E218.71964
G1 X35.281 Y61.6 E218.73544
G1 X64.716 Y61.6 E219.89801
G1 X64.716 Y62 E219.91381
G1 X35.281 Y62 E221.07639
G1 X35.281 Y62.4 E221.09219
G1 X64.716 Y62.4 E222.25477
G1 X64.716 Y62.8 E222.27056
G1 X35.281 Y62.8 E223.43314
G1 X35.281 Y63.2 E223.44894
G1 X64.716 Y63.2 E224.61152
G1 X64.716 Y63.6 E224.62731
G1 X35.281 Y63.6 E225.78989
G1 X35.281 Y64 E225.80569
G1 X64.716 Y64 E226.96827
G1 X64.716 Y64.4 E226.98407
G1 X35.281 Y64.4 E228.14664
G1 X35.281 Y64.8 E228.16244
G1 X64.716 Y64.8 E229.32502
G1 X64.716 Y65.2 E229.34082
G1 X35.281 Y65.2 E230.50339
G1 X35.281 Y65.6 E230.51919
G1 X64.716 Y65.6 E231.68177
G1 X64.716 Y66 E231.69757
G1 X35.281 Y66 E232.86014
G1 X35.28 Y66.4 E232.87594
G1 X64.715 Y66.4 E234.03852
G1 X64.715 Y66.8 E234.05432
G1 X35.28 Y66.8 E235.21689
G1 X35.28 Y67.2 E235.23269
G1 X64.715 Y67.2 E236.39527
G1 X64.715 Y67.6 E236.41107
G1 X35.28 Y67.6 E237.57365
G1 X35.28 Y68 E237.58944
G1 X64.715 Y68 E238.75202
G1 X64.715 Y68.4 E238.76782
G1 X35.28 Y68.4 E239.9304
G1 X35.28 Y68.8 E239.94619
G1 X64.715 Y68.8 E241.10877
G1 X64.715 Y69.2 E241.12457
G1 X35.28 Y69.2 E242.28715
G1 X35.28 Y69.6 E242.30295
G1 X64.715 Y69.6 E243.46552
G1 X64.715 Y70 E243.48132
G1 X35.28 Y70 E244.6439
G1 X35.28 Y70.4 E244.6597
G1 X64.715 Y70.4 E245.82227
G1 X64.715 Y70.8 E245.83807
G1 X35.28 Y70.8 E247.00065
G1 X35.28 Y71.2 E247.01645
G1 X64.715 Y71.2 E248.17902
G1 X64.715 Y71.6 E248.19482
G1 X35.28 Y71.6 E249.3574
G1 X35.28 Y72 E249.3732
G1 X64.715 Y72 E250.53578
G1 X64.715 Y72.34 E250.5492
G1 X64.711 Y72.4 E250.55158
G1 X35.287 Y72.4 E251.71372
G1 X35.318 Y72.8 E251.72957
G1 X64.682 Y72.8 E252.88934
G1 X64.653 Y73.041 E252.89893
G1 X64.622 Y73.2 E252.90533
G1 X35.374 Y73.2 E254.06052
G1 X35.431 Y73.461 E254.07107
M73 P4
G1 X35.47 Y73.6 E254.07677
G1 X64.527 Y73.6 E255.22442
G1 X64.518 Y73.637 E255.22592
G1 X64.425 Y73.922 E255.23776
G1 X64.394 Y74 E255.24108
G1 X35.603 Y74 E256.37822
G1 X35.618 Y74.04 E256.37991
G1 X35.74 Y74.325 E256.39215
G1 X35.777 Y74.4 E256.39545
G1 X64.219 Y74.4 E257.51881
G1 X64.176 Y74.492 E257.52282
G1 X64.041 Y74.735 E257.5338
G1 X63.999 Y74.8 E257.53686
G1 X35.998 Y74.8 E258.6428
G1 X36.025 Y74.845 E258.64487
G1 X36.202 Y75.108 E258.65739
G1 X36.273 Y75.2 E258.66198
G1 X63.722 Y75.2 E259.74612
G1 X63.682 Y75.254 E259.74877
G1 X63.379 Y75.6 E259.76694
G1 X36.613 Y75.6 E260.8241
G1 X36.736 Y75.737 E260.83137
G1 X36.884 Y75.873 E260.83931
G1 X37.031 Y76 E260.84698
G1 X62.969 Y76 E261.87144
G1 X62.844 Y76.112 E261.87807
G1 X62.608 Y76.296 E261.88989
G1 X62.453 Y76.4 E261.89726
G1 X37.541 Y76.4 E262.88119
G1 X37.758 Y76.538 E262.89135
G1 X38.003 Y76.674 E262.90242
G1 X38.268 Y76.8 E262.91401
G1 X61.727 Y76.8 E263.84055
G1 X61.541 Y76.88 E263.84855
G1 X61.252 Y76.984 E263.86068
G1 X60.967 Y77.065 E263.87238
G1 X60.693 Y77.125 E263.88346
