M73 P0
;MINX:35.0
;MAXX:65.0
;MINY:38.3
;MAXY:81.8
;MINZ:0.0
;MAXZ:26.3
;MachineType:ENTINA TINA2
;FilamentType:PLA
;Extruder0Temperature:200
;InfillDensity:10
;FLAVOR:Marlin
;TIME:2809
;FilamentUsed:2232.9
;Layer height: 0.2

;Generated with Cura_SteamEngine 3.1
M104 T0 S215
M82 ; absolute extrusion mode
;(**** start.gcode for tina2****)
M104 S150
G28 Z
G28 X Y; Home extruder
G1 X55 Y55 F1000
G1 Z10 F200
G29
G1 Z15 F100
M107 ; Turn off fan
G90 ; Absolute positioning
M82 ; Extruder in absolute mode
M109 S215.0
G92 E0 ; Reset extruder position
G1 X90 Y6 Z0.27 F2000
G1 X20 Y6 Z0.27 E15 F1000
G92 E0 ; Reset extruder position

;LAYER_COUNT:125
;LAYER:-6
M107
M203 Z5
G1 F3600 X63.111 Y40.144 Z0.349
G1 F1200 X63.47 Y40.546 E0.05943
G1 X63.637 Y40.761 E0.08945
G1 X63.793 Y40.992 E0.12019
G1 X63.951 Y41.26 E0.1545
G1 X64.083 Y41.519 E0.18656
G1 X64.186 Y41.758 E0.21526
G1 X64.291 Y42.05 E0.24947
G1 X64.372 Y42.332 E0.28183
G1 X64.428 Y42.586 E0.31051
G1 X64.477 Y42.916 E0.3473
G1 X64.513 Y43.377 E0.39829
G1 X64.52 Y43.562 E0.41871
G1 X64.516 Y54.297 E1.6025
G1 X64.492 Y54.674 E1.64415
G1 X64.454 Y54.979 E1.67805
G1 X64.38 Y55.366 E1.7215
G1 X64.296 Y56.031 E1.79541
G1 X64.296 Y56.714 E1.87073
G1 X64.383 Y57.39 E1.94589
G1 X64.411 Y57.501 E1.95851
G1 X64.594 Y58.224 E2.04076
G1 X64.656 Y58.581 E2.08071
G1 X64.71 Y59.164 E2.14528
G1 X64.72 Y59.381 E2.16923
G1 X64.716 Y60.795 E2.32516
G1 X64.694 Y61.157 E2.36515
G1 X64.655 Y61.472 E2.40016
G1 X64.6 Y61.755 E2.43195
G1 X64.383 Y62.588 E2.52687
G1 X64.295 Y63.288 E2.60467
G1 X64.293 Y63.973 E2.68021
G1 X64.407 Y64.784 E2.77052
G1 X64.429 Y64.888 E2.78224
G1 X64.477 Y65.209 E2.81803
G1 X64.513 Y65.67 E2.86902
G1 X64.52 Y65.855 E2.88944
G1 X64.516 Y76.591 E4.07334
G1 X64.492 Y76.968 E4.115
G1 X64.455 Y77.266 E4.14811
G1 X64.4 Y77.55 E4.18001
G1 X64.324 Y77.841 E4.21318
G1 X64.24 Y78.099 E4.2431
G1 X64.129 Y78.378 E4.27621
G1 X64.007 Y78.636 E4.30768
G1 X63.863 Y78.895 E4.34036
G1 X63.724 Y79.114 E4.36896
G1 X63.526 Y79.38 E4.40553
G1 X63.106 Y79.861 E4.47595
G1 X62.706 Y80.218 E4.53507
G1 X62.489 Y80.387 E4.5654
G1 X62.258 Y80.543 E4.59614
G1 X61.99 Y80.701 E4.63045
G1 X61.733 Y80.831 E4.66221
G1 X61.464 Y80.946 E4.69447
G1 X61.207 Y81.039 E4.72461
G1 X60.915 Y81.123 E4.75811
G1 X60.654 Y81.179 E4.78755
G1 X60.334 Y81.227 E4.82323
G1 X59.866 Y81.263 E4.87499
G1 X59.674 Y81.27 E4.89618
G1 X40.159 Y81.266 E7.04817
G1 X39.782 Y81.242 E7.08983
G1 X39.484 Y81.205 E7.12295
G1 X39.2 Y81.15 E7.15485
G1 X38.909 Y81.074 E7.18801
G1 X38.649 Y80.989 E7.21818
G1 X38.372 Y80.879 E7.25104
G1 X38.111 Y80.755 E7.28291
G1 X37.856 Y80.614 E7.31504
G1 X37.636 Y80.474 E7.3438
G1 X37.37 Y80.276 E7.38036
G1 X36.887 Y79.854 E7.45109
G1 X36.53 Y79.454 E7.51021
G1 X36.363 Y79.239 E7.54023
G1 X36.204 Y79.003 E7.57161
G1 X36.049 Y78.74 E7.60528
G1 X35.919 Y78.483 E7.63704
G1 X35.803 Y78.213 E7.66944
G1 X35.711 Y77.957 E7.69944
G1 X35.627 Y77.665 E7.73295
G1 X35.571 Y77.404 E7.76238
G1 X35.523 Y77.084 E7.79807
G1 X35.486 Y76.606 E7.85093
G1 X35.48 Y76.438 E7.86947
G1 X35.484 Y65.703 E9.05326
G1 X35.508 Y65.326 E9.09492
G1 X35.546 Y65.021 E9.12881
G1 X35.62 Y64.634 E9.17226
G1 X35.704 Y63.969 E9.24618
G1 X35.704 Y63.286 E9.3215
G1 X35.617 Y62.61 E9.39666
G1 X35.406 Y61.773 E9.49184
G1 X35.346 Y61.422 E9.53111
G1 X35.29 Y60.836 E9.59603
G1 X35.28 Y60.615 E9.62042
G1 X35.285 Y59.201 E9.77635
G1 X35.307 Y58.841 E9.81612
G1 X35.348 Y58.52 E9.85181
G1 X35.403 Y58.24 E9.88327
G1 X35.618 Y57.412 E9.97761
G1 X35.611 Y57.41 E9.97841
G1 X35.626 Y57.351 E9.98513
G1 X35.708 Y56.674 E10.06033
G1 X35.704 Y55.989 E10.13587
G1 X35.595 Y55.224 E10.22108
G1 X35.569 Y55.103 E10.23472
G1 X35.523 Y54.793 E10.26928
G1 X35.486 Y54.313 E10.32237
G1 X35.48 Y54.145 E10.34091
G1 X35.484 Y43.409 E11.52481
G1 X35.508 Y43.032 E11.56647
G1 X35.545 Y42.734 E11.59958
G1 X35.6 Y42.45 E11.63148
G1 X35.676 Y42.159 E11.66465
G1 X35.76 Y41.901 E11.69457
G1 X35.871 Y41.622 E11.72768
G1 X35.993 Y41.364 E11.75915
G1 X36.132 Y41.114 E11.7907
G1 X36.284 Y40.876 E11.82184
G1 X36.474 Y40.62 E11.85699
G1 X36.894 Y40.139 E11.92741
G1 X37.296 Y39.78 E11.98684
G1 X37.511 Y39.613 E12.01686
G1 X37.742 Y39.457 E12.0476
G1 X38.01 Y39.299 E12.08191
G1 X38.267 Y39.169 E12.11367
M73 P1
G1 X38.537 Y39.053 E12.14607
G1 X38.793 Y38.961 E12.17607
G1 X39.085 Y38.877 E12.20958
G1 X39.346 Y38.821 E12.23901
G1 X39.666 Y38.773 E12.2747
G1 X40.134 Y38.737 E12.32646
G1 X40.326 Y38.73 E12.34764
G1 X59.841 Y38.734 E14.49964
G1 X60.218 Y38.758 E14.5413
G1 X60.516 Y38.795 E14.57441
G1 X60.8 Y38.85 E14.60631
G1 X61.091 Y38.926 E14.63948
G1 X61.349 Y39.01 E14.6694
G1 X61.628 Y39.121 E14.70251
G1 X61.886 Y39.243 E14.73398
G1 X62.145 Y39.387 E14.76666
G1 X62.364 Y39.526 E14.79526
G1 X62.63 Y39.724 E14.83183
G1 X63.111 Y40.144 E14.90225
G1 F1680 E11.90225
G1 F3600 X62.4 Y39.553
G1 F1680 E14.90225
G1 F1200 X62.4 Y80.448 E19.4119
G1 F1680 E16.4119
G1 F3600 X60.8 Y81.148
G1 F1680 E19.4119
G1 F1200 X60.8 Y38.85 E24.07627
G1 F1680 E21.07627
G1 F3600 X59.2 Y38.734
G1 F1680 E24.07627
G1 F1200 X59.2 Y81.269 E28.76678
G1 F1680 E25.76678
G1 F3600 X57.6 Y81.269
G1 F1680 E28.76678
G1 F1200 X57.6 Y38.734 E33.45728
G1 F1680 E30.45728
G1 F3600 X56 Y38.734
G1 F1680 E33.45728
G1 F1200 X56 Y81.269 E38.14778
G1 F1680 E35.14778
G1 F3600 X54.4 Y81.268
G1 F1680 E38.14778
G1 F1200 X54.4 Y38.733 E42.83829
G1 F1680 E39.83829
G1 F3600 X52.8 Y38.733
G1 F1680 E42.83829
G1 F1200 X52.8 Y81.268 E47.52879
G1 F1680 E44.52879
G1 F3600 X51.2 Y81.268
G1 F1680 E47.52879
G1 F1200 X51.2 Y38.733 E52.21929
G1 F1680 E49.21929
G1 F3600 X49.6 Y38.732
G1 F1680 E52.21929
G1 F1200 X49.6 Y81.267 E56.9098
G1 F1680 E53.9098
G1 F3600 X48 Y81.267
G1 F1680 E56.9098
G1 F1200 X48 Y38.732 E61.6003
G1 F1680 E58.6003
G1 F3600 X46.4 Y38.732
G1 F1680 E61.6003
G1 F1200 X46.4 Y81.267 E66.2908
G1 F1680 E63.2908
G1 F3600 X44.8 Y81.266
G1 F1680 E66.2908
G1 F1200 X44.8 Y38.731 E70.98131
G1 F1680 E67.98131
G1 F3600 X43.2 Y38.731
G1 F1680 E70.98131
G1 F1200 X43.2 Y81.266 E75.67181
G1 F1680 E72.67181
G1 F3600 X41.6 Y81.266
G1 F1680 E75.67181
G1 F1200 X41.6 Y38.731 E80.36232
G1 F1680 E77.36232
G1 F3600 X40 Y38.747
G1 F1680 E80.36232
G1 F1200 X40 Y81.255 E85.04984
G1 F1680 E82.04984
G1 F3600 X38.4 Y80.89
G1 F1680 E85.04984
G1 F1200 X38.4 Y39.111 E89.65698
G1 F1680 E86.65698
G1 F3600 X36.8 Y40.246
M104 T0 S200
G1 F1680 E89.65698
G1 F1200 X36.8 Y79.756 E94.0139
G1 F1680 E91.0139
G1 F3600 X64 Y78.649
G1 F1680 E94.0139
G1 F1200 X64 Y41.357 E98.12624
G1 F1680 E95.12624
G1 F3600 X63.148 Y40.109
;TIME_ELAPSED:50.035796
;LAYER:-5
G1 X63.148 Y40.109 Z0.619
;TYPE:SUPPORT
G1 F1680 E98.12624
G1 F1980 X62.665 Y39.685 E98.17415
G1 X62.398 Y39.488 E98.19888
G1 X63.753 Y40.843 E98.34172
G1 X63.836 Y40.965 E98.35272
G1 X64 Y41.244 E98.37685
G1 X64.131 Y41.502 E98.39841
G1 X64.232 Y41.741 E98.41776
G1 X64.344 Y42.05 E98.44226
G1 X64.418 Y42.308 E98.46226
G1 X64.478 Y42.58 E98.48303
G1 X64.525 Y42.888 E98.50625
G1 X60.361 Y38.723 E98.94526
G1 X60.225 Y38.707 E98.95547
G1 X59.842 Y38.682 E98.98408
G1 X59.047 Y38.682 E99.04334
G1 X64.57 Y44.205 E99.62556
G1 X64.569 Y45.477 E99.72038
G1 X57.774 Y38.682 E100.43669
G1 X56.501 Y38.682 E100.53158
G1 X64.569 Y46.75 E101.38209
G1 X64.568 Y48.022 E101.47691
G1 X55.228 Y38.682 E102.46151
G1 X53.955 Y38.682 E102.5564
G1 X64.568 Y49.294 E103.67515
G1 X64.568 Y50.567 E103.77004
G1 X52.682 Y38.681 E105.02304
G1 X51.409 Y38.681 E105.11793
G1 X64.567 Y51.839 E106.50501
G1 X64.566 Y53.111 E106.59983
G1 X50.136 Y38.681 E108.12101
G1 X48.863 Y38.68 E108.2159
G1 X64.56 Y54.378 E109.87069
G1 X64.541 Y54.681 E109.89332
G1 X64.505 Y54.976 E109.91548
G1 X64.429 Y55.374 E109.94568
G1 X64.413 Y55.504 E109.95544
G1 X47.59 Y38.68 E111.72894
G1 X46.316 Y38.68 E111.8239
G1 X64.346 Y56.709 E113.72453
G1 X64.433 Y57.381 E113.77504
G1 X64.64 Y58.206 E113.83845
G1 X64.656 Y58.292 E113.84497
G1 X45.044 Y38.68 E115.91242
G1 X43.771 Y38.68 E116.00731
G1 X64.769 Y59.678 E118.22087
G1 X64.766 Y60.797 E118.30428
G1 X64.758 Y60.939 E118.31488
G1 X42.497 Y38.679 E120.66154
G1 X41.225 Y38.679 E120.75635
G1 X64.579 Y62.033 E123.21828
G1 X64.444 Y62.55 E123.25811
G1 X64.431 Y62.621 E123.26349
G1 X64.37 Y63.097 E123.29926
G1 X39.97 Y38.697 E125.87145
G1 X39.653 Y38.721 E125.89515
G1 X39.342 Y38.769 E125.91861
M73 P2
G1 X39.06 Y38.83 E125.94011
G1 X38.881 Y38.881 E125.95399
G1 X64.405 Y64.405 E128.64467
G1 X64.457 Y64.773 E128.67237
G1 X64.481 Y64.885 E128.68091
G1 X64.527 Y65.196 E128.70435
G1 X64.563 Y65.666 E128.73948
G1 X64.571 Y65.844 E128.75276
G1 X37.982 Y39.255 E131.55572
G1 X37.716 Y39.412 E131.57874
G1 X37.487 Y39.566 E131.59931
G1 X37.245 Y39.754 E131.62215
G1 X37.226 Y39.771 E131.62405
G1 X64.571 Y67.117 E134.50675
G1 X64.57 Y68.389 E134.60157
G1 X36.587 Y40.406 E137.55147
G1 X36.437 Y40.583 E137.56877
G1 X36.242 Y40.844 E137.59305
G1 X36.082 Y41.094 E137.61518
G1 X36.054 Y41.145 E137.61952
G1 X64.57 Y69.661 E140.62561
G1 X64.57 Y70.934 E140.7205
G1 X35.664 Y42.028 E143.7677
G1 X35.626 Y42.144 E143.7768
G1 X35.55 Y42.439 E143.79951
G1 X35.493 Y42.735 E143.82198
G1 X35.457 Y43.023 E143.84362
G1 X35.452 Y43.089 E143.84855
G1 X64.569 Y72.206 E146.918
G1 X64.568 Y73.478 E147.01281
G1 X35.432 Y44.341 E150.08432
G1 X35.431 Y45.614 E150.17921
G1 X64.568 Y74.751 E153.25076
G1 X64.568 Y76.023 E153.34558
G1 X35.431 Y46.886 E156.41714
G1 X35.43 Y48.158 E156.51195
G1 X64.51 Y77.238 E159.5775
G1 X64.507 Y77.263 E159.57938
G1 X64.449 Y77.559 E159.60186
G1 X64.372 Y77.853 E159.62452
G1 X64.282 Y78.133 E159.64644
G1 X64.239 Y78.24 E159.65503
G1 X35.43 Y49.431 E162.69201
G1 X35.429 Y50.703 E162.78683
G1 X63.806 Y79.079 E165.77822
G1 X63.766 Y79.142 E165.78378
G1 X63.563 Y79.415 E165.80914
G1 X63.239 Y79.785 E165.8458
G1 X35.429 Y51.975 E168.77746
G1 X35.428 Y53.247 E168.87228
G1 X62.569 Y80.388 E171.73342
G1 X62.514 Y80.431 E171.73863
G1 X62.284 Y80.586 E171.7593
G1 X62.01 Y80.747 E171.78299
G1 X61.774 Y80.866 E171.80269
G1 X35.452 Y54.544 E174.5775
G1 X35.472 Y54.802 E174.59679
G1 X35.515 Y55.101 E174.6193
G1 X35.544 Y55.232 E174.62931
G1 X35.653 Y55.992 E174.68654
G1 X35.653 Y56.017 E174.6884
G1 X60.828 Y81.192 E177.34229
G1 X60.656 Y81.23 E177.35542
G1 X60.345 Y81.277 E177.37887
G1 X59.87 Y81.313 E177.41438
G1 X59.681 Y81.319 E177.42847
G1 X35.589 Y57.226 E179.96825
G1 X35.575 Y57.34 E179.97681
G1 X35.554 Y57.448 E179.98501
G1 X35.351 Y58.232 E180.04538
G1 X35.346 Y58.257 E180.04728
G1 X58.409 Y81.319 E182.47847
G1 X57.136 Y81.319 E182.57337
G1 X35.232 Y59.415 E184.88244
G1 X35.228 Y60.616 E184.97196
G1 X35.231 Y60.687 E184.97726
G1 X55.863 Y81.319 E187.15224
G1 X54.59 Y81.318 E187.24713
G1 X35.456 Y62.185 E189.26414
G1 X35.566 Y62.618 E189.29744
G1 X35.653 Y63.289 E189.34787
G1 X35.653 Y63.654 E189.37508
G1 X53.317 Y81.318 E191.23718
G1 X52.044 Y81.318 E191.33207
G1 X35.534 Y64.809 E193.07247
G1 X35.493 Y65.022 E193.08863
G1 X35.457 Y65.316 E193.11071
G1 X35.433 Y65.7 E193.13939
G1 X35.432 Y65.979 E193.16019
G1 X50.77 Y81.317 E194.77709
G1 X49.498 Y81.317 E194.8719
G1 X35.432 Y67.252 E196.35466
G1 X35.431 Y68.524 E196.44947
G1 X48.225 Y81.317 E197.79814
G1 X46.951 Y81.317 E197.8931
G1 X35.43 Y69.796 E199.10762
G1 X35.43 Y71.068 E199.20244
G1 X45.679 Y81.317 E200.28286
G1 X44.406 Y81.317 E200.37775
G1 X35.43 Y72.341 E201.32398
G1 X35.429 Y73.613 E201.4188
G1 X43.132 Y81.316 E202.23083
G1 X41.86 Y81.316 E202.32565
G1 X35.428 Y74.885 E203.00364
G1 X35.428 Y76.158 E203.09853
G1 X40.587 Y81.316 E203.64233
G1 X40.157 Y81.316 E203.67438
G1 X39.774 Y81.292 E203.70299
G1 X39.484 Y81.255 E203.72478
G1 X39.198 Y81.2 E203.74649
G1 X35.55 Y77.552 E204.13106
G1 F3600 X35.58 Y77.688
G1 F1980 X35.656 Y77.957 E204.15189
G1 X35.756 Y78.232 E204.1737
G1 X35.873 Y78.509 E204.19612
G1 X35.999 Y78.755 E204.21672
G1 X36.16 Y79.027 E204.24028
G1 X36.317 Y79.261 E204.26129
G1 X36.505 Y79.502 E204.28407
G1 X36.85 Y79.889 E204.32272
G1 X37.333 Y80.313 E204.37063
G1 X37.606 Y80.514 E204.3959
G1 X37.831 Y80.658 E204.41581
G1 X38.081 Y80.796 E204.43709
G1 X38.359 Y80.928 E204.46003
G1 X38.615 Y81.03 E204.48058
G1 X38.896 Y81.122 E204.50262
G1 X39.198 Y81.2 E204.52587
G1 F1680 E201.52587
G1 F3600 X63.682 Y40.737
G1 F1680 E204.52587
G1 F1980 X63.493 Y40.496 E204.5487
G1 X63.148 Y40.109 E204.58734
G1 F3600 X63.251 Y40
;TIME_ELAPSED:94.720337
;LAYER:-4
M106 S255
G1 X63.251 Y40 Z0.869
G1 F2400 X36.748 Y40 E205.63412
G1 X37.154 Y39.636 E205.65565
G1 X37.201 Y39.6 E205.65799
G1 X62.794 Y39.6 E206.66882
G1 X62.754 Y39.566 E206.6709
G1 X62.488 Y39.368 E206.68399
G1 X62.241 Y39.211 E206.69555
G1 X62.222 Y39.2 E206.69642
G1 X37.781 Y39.2 E207.66175
G1 X37.918 Y39.119 E207.66804
G1 X38.173 Y38.99 E207.67932
G1 X38.458 Y38.868 E207.69157
G1 X38.647 Y38.8 E207.6995
G1 X38.746 Y38.764 E207.70366
G1 X39.031 Y38.683 E207.71537
G1 X39.305 Y38.623 E207.72644
G1 X39.647 Y38.572 E207.7401
M73 P3
G1 X40.119 Y38.536 E207.7588
G1 X40.318 Y38.529 E207.76666
G1 X59.84 Y38.533 E208.53771
G1 X60.244 Y38.559 E208.5537
G1 X60.547 Y38.596 E208.56576
G1 X60.842 Y38.653 E208.57762
G1 X61.137 Y38.73 E208.58967
G1 F3600 X61.352 Y38.8
G1 F2400 X38.647 Y38.8 E209.48643
G1 F1680 E206.48643
G1 F3600 X36.398 Y40.4
G1 F1680 E209.48643
G1 F2400 X63.609 Y40.4 E210.56117
G1 X63.251 Y40 E210.58237
G1 F1680 E207.58237
G1 F3600 X63.904 Y40.8
G1 F1680 E210.58237
G1 F2400 X63.971 Y40.9 E210.58712
G1 X64.129 Y41.168 E210.59941
G1 X64.146 Y41.2 E210.60084
G1 X35.854 Y41.2 E211.71828
G1 X35.823 Y41.255 E211.72077
G1 X35.679 Y41.559 E211.73406
G1 X35.663 Y41.6 E211.73579
G1 X64.335 Y41.6 E212.86823
G1 X64.378 Y41.701 E212.87257
G1 X64.481 Y41.987 E212.88458
G1 X64.485 Y42 E212.88511
G1 X35.517 Y42 E214.02925
G1 X35.48 Y42.111 E214.03387
G1 X35.404 Y42.4 E214.04567
G1 X64.592 Y42.4 E215.19849
G1 X64.623 Y42.543 E215.20427
G1 X64.662 Y42.8 E215.21454
G1 X35.334 Y42.8 E216.37289
G1 X35.309 Y43.004 E216.38101
G1 X35.297 Y43.2 E216.38876
G1 X64.7 Y43.2 E217.55007
G1 X64.712 Y43.369 E217.55677
G1 X64.719 Y43.561 E217.56435
G1 X64.718 Y43.6 E217.56589
G1 X35.283 Y43.6 E218.72847
G1 X35.283 Y44 E218.74427
G1 X64.718 Y44 E219.90685
G1 X64.718 Y44.4 E219.92265
G1 X35.283 Y44.4 E221.08522
G1 X35.283 Y44.8 E221.10102
G1 X64.718 Y44.8 E222.2636
G1 X64.718 Y45.2 E222.2794
G1 X35.283 Y45.2 E223.44197
G1 X35.283 Y45.6 E223.45777
G1 X64.718 Y45.6 E224.62035
G1 X64.718 Y46 E224.63615
G1 X35.283 Y46 E225.79872
G1 X35.282 Y46.4 E225.81452
G1 X64.717 Y46.4 E226.9771
G1 X64.717 Y46.8 E226.9929
G1 X35.282 Y46.8 E228.15547
G1 X35.282 Y47.2 E228.17127
G1 X64.717 Y47.2 E229.33385
G1 X64.717 Y47.6 E229.34965
G1 X35.282 Y47.6 E230.51223
G1 X35.282 Y48 E230.52802
G1 X64.717 Y48 E231.6906
G1 X64.717 Y48.4 E231.7064
G1 X35.282 Y48.4 E232.86898
G1 X35.281 Y48.8 E232.88478
G1 X64.717 Y48.8 E234.04739
G1 X64.716 Y49.2 E234.06319
G1 X35.281 Y49.2 E235.22577
G1 X35.281 Y49.6 E235.24157
G1 X64.716 Y49.6 E236.40414
G1 X64.716 Y50 E236.41994
G1 X35.281 Y50 E237.58252
G1 X35.281 Y50.4 E237.59832
G1 X64.716 Y50.4 E238.76089
G1 X64.716 Y50.8 E238.77669
G1 X35.281 Y50.8 E239.93927
G1 X35.281 Y51.2 E239.95507
G1 X64.716 Y51.2 E241.11764
G1 X64.716 Y51.6 E241.13344
G1 X35.28 Y51.6 E242.29606
G1 X35.28 Y52 E242.31186
G1 X64.715 Y52 E243.47443
G1 X64.715 Y52.4 E243.49023
G1 X35.28 Y52.4 E244.65281
G1 X35.28 Y52.8 E244.66861
G1 X64.715 Y52.8 E245.83119
G1 X64.715 Y53.2 E245.84698
G1 X35.28 Y53.2 E247.00956
G1 X35.28 Y53.6 E247.02536
G1 X64.715 Y53.6 E248.18794
G1 X64.715 Y54 E248.20373
G1 X35.28 Y54 E249.36631
G1 X35.279 Y54.144 E249.372
G1 X35.286 Y54.336 E249.37959
G1 X35.29 Y54.4 E249.38212
G1 X64.708 Y54.4 E250.54403
G1 X64.689 Y54.7 E250.5559
G1 X64.676 Y54.8 E250.55988
G1 X35.321 Y54.8 E251.7193
G1 F3600 X35.322 Y54.808
G1 F2400 X35.372 Y55.145 E251.73275
G1 X35.384 Y55.2 E251.73498
G1 X64.614 Y55.2 E252.88946
G1 X64.576 Y55.397 E252.89738
G1 X64.55 Y55.6 E252.90546
G1 X35.445 Y55.6 E254.05501
G1 X35.502 Y56 E254.07097
G1 X64.5 Y56 E255.21628
G1 X64.495 Y56.042 E255.21795
G1 X64.495 Y56.4 E255.23209
G1 X35.505 Y56.4 E256.37709
G1 X35.507 Y56.661 E256.3874
G1 X35.491 Y56.8 E256.39293
G1 X64.508 Y56.8 E257.539
G1 X64.56 Y57.2 E257.55493
G1 X35.442 Y57.2 E258.70498
