M73 P0
;MINX:35.0
;MAXX:65.0
;MINY:42.5
;MAXY:77.5
;MINZ:0.0
;MAXZ:30.3
;MachineType:ENTINA TINA2
;FilamentType:PLA
;Extruder0Temperature:200
;InfillDensity:10
;FLAVOR:Marlin
;TIME:2529
;FilamentUsed:1866.1
;Layer height: 0.2

;Generated with Cura_SteamEngine 3.1
M104 T0 S215
M82 ; absolute extrusion mode
;(**** start.gcode for tina2****)
M104 S150
G28 Z
G28 X Y; Home extruder
G1 X55 Y55 F1000
G1 Z10 F200
G29
G1 Z15 F100
M107 ; Turn off fan
G90 ; Absolute positioning
M82 ; Extruder in absolute mode
M109 S215.0
G92 E0 ; Reset extruder position
G1 X90 Y6 Z0.27 F2000
G1 X20 Y6 Z0.27 E15 F1000
G92 E0 ; Reset extruder position

;LAYER_COUNT:145
;LAYER:-6
M107
M203 Z5
G1 F3600 X62.378 Y54.788 Z0.349
G1 F1200 X62.63 Y54.976 E0.03467
G1 X63.111 Y55.396 E0.10509
G1 X63.47 Y55.798 E0.16452
G1 X63.637 Y56.013 E0.19454
G1 X63.793 Y56.244 E0.22528
G1 X63.951 Y56.512 E0.25959
G1 X64.083 Y56.771 E0.29164
G1 X64.186 Y57.01 E0.32034
G1 X64.293 Y57.308 E0.35526
G1 X64.373 Y57.587 E0.38726
G1 X64.429 Y57.848 E0.4167
G1 X64.477 Y58.168 E0.45238
G1 X64.513 Y58.629 E0.50337
G1 X64.52 Y58.814 E0.52379
G1 X64.516 Y72.341 E2.01547
G1 X64.492 Y72.718 E2.05712
G1 X64.455 Y73.016 E2.09024
G1 X64.4 Y73.3 E2.12214
G1 X64.324 Y73.591 E2.1553
G1 X64.24 Y73.849 E2.18522
G1 X64.129 Y74.128 E2.21834
G1 X64.007 Y74.386 E2.24981
G1 X63.863 Y74.645 E2.28249
G1 X63.724 Y74.864 E2.31109
G1 X63.526 Y75.13 E2.34766
G1 X63.106 Y75.611 E2.41807
G1 X62.706 Y75.968 E2.4772
G1 X62.489 Y76.137 E2.50753
G1 X62.258 Y76.293 E2.53826
G1 X61.99 Y76.451 E2.57257
G1 X61.733 Y76.581 E2.60433
G1 X61.464 Y76.696 E2.63659
G1 X61.207 Y76.789 E2.66673
G1 X60.915 Y76.873 E2.70024
G1 X60.654 Y76.929 E2.72967
G1 X60.334 Y76.977 E2.76536
G1 X59.866 Y77.013 E2.81712
G1 X59.674 Y77.02 E2.8383
G1 X40.159 Y77.016 E4.9903
G1 X39.782 Y76.992 E5.03196
G1 X39.484 Y76.955 E5.06507
G1 X39.2 Y76.9 E5.09697
G1 X38.909 Y76.824 E5.13014
G1 X38.649 Y76.739 E5.1603
G1 X38.372 Y76.629 E5.19317
G1 X38.111 Y76.505 E5.22503
G1 X37.856 Y76.364 E5.25716
G1 X37.636 Y76.224 E5.28592
G1 X37.37 Y76.026 E5.32249
G1 X36.887 Y75.604 E5.39321
G1 X36.53 Y75.204 E5.45234
G1 X36.363 Y74.989 E5.48236
G1 X36.204 Y74.753 E5.51374
G1 X36.049 Y74.49 E5.5474
G1 X35.919 Y74.233 E5.57916
G1 X35.803 Y73.963 E5.61157
G1 X35.711 Y73.707 E5.64157
G1 X35.627 Y73.415 E5.67507
G1 X35.571 Y73.154 E5.70451
G1 X35.523 Y72.834 E5.74019
G1 X35.486 Y72.356 E5.79306
G1 X35.48 Y72.188 E5.8116
G1 X35.484 Y47.659 E8.51651
G1 X35.508 Y47.282 E8.55816
G1 X35.545 Y46.984 E8.59128
G1 X35.6 Y46.7 E8.62318
G1 X35.676 Y46.409 E8.65634
G1 X35.76 Y46.151 E8.68627
G1 X35.871 Y45.872 E8.71938
G1 X35.993 Y45.614 E8.75085
G1 X36.132 Y45.364 E8.78239
G1 X36.284 Y45.126 E8.81353
G1 X36.474 Y44.87 E8.84869
G1 X36.894 Y44.389 E8.91911
G1 X37.296 Y44.03 E8.97854
G1 X37.511 Y43.863 E9.00856
G1 X37.742 Y43.707 E9.0393
G1 X38.01 Y43.549 E9.07361
G1 X38.267 Y43.419 E9.10537
G1 X38.537 Y43.303 E9.13777
G1 X38.793 Y43.211 E9.16777
G1 X39.085 Y43.127 E9.20127
G1 X39.346 Y43.071 E9.23071
G1 X39.666 Y43.023 E9.26639
G1 X40.134 Y42.987 E9.31815
G1 X40.326 Y42.98 E9.33934
G1 X43.841 Y42.984 E9.72695
G1 X44.218 Y43.008 E9.76861
G1 X44.516 Y43.045 E9.80173
G1 X44.8 Y43.1 E9.83362
G1 X45.091 Y43.176 E9.86679
M73 P1
G1 X45.349 Y43.26 E9.89671
G1 X45.628 Y43.371 E9.92982
G1 X45.886 Y43.493 E9.96129
G1 X46.145 Y43.637 E9.99397
G1 X46.364 Y43.776 E10.02258
G1 X46.63 Y43.974 E10.05914
G1 X47.111 Y44.394 E10.12956
G1 X47.47 Y44.796 E10.18899
G1 X47.637 Y45.011 E10.21902
G1 X47.793 Y45.242 E10.24975
G1 X47.951 Y45.51 E10.28406
G1 X48.083 Y45.769 E10.31612
G1 X48.186 Y46.008 E10.34482
G1 X48.291 Y46.3 E10.37903
G1 X48.372 Y46.582 E10.41139
G1 X48.428 Y46.836 E10.44007
G1 X48.477 Y47.166 E10.47686
G1 X48.513 Y47.627 E10.52785
G1 X48.52 Y47.812 E10.54827
G1 X48.52 Y48.594 E10.6345
G1 X48.562 Y49.262 E10.70831
G1 X48.691 Y49.933 E10.78366
G1 X48.904 Y50.582 E10.85898
G1 X49.196 Y51.199 E10.93426
G1 X49.564 Y51.774 E11.00954
G1 X50.002 Y52.298 E11.08485
G1 X50.502 Y52.762 E11.16007
G1 X51.058 Y53.161 E11.23554
G1 X51.658 Y53.485 E11.31073
G1 X52.294 Y53.731 E11.38593
G1 X52.963 Y53.897 E11.46194
G1 X53.901 Y53.981 E11.56579
G1 X59.684 Y53.982 E12.2035
G1 X60.23 Y54.011 E12.2638
G1 X60.504 Y54.045 E12.29425
G1 X60.809 Y54.104 E12.3285
G1 X61.083 Y54.175 E12.35972
G1 X61.349 Y54.262 E12.39058
G1 X61.63 Y54.374 E12.42394
G1 X61.884 Y54.495 E12.45496
G1 X62.14 Y54.636 E12.48719
G1 X62.378 Y54.788 E12.51833
G1 F3600 X62.4 Y54.805
G1 F1200 X62.4 Y76.198 E14.87742
G1 F1680 E11.87742
G1 F3600 X60.8 Y76.898
G1 F1680 E14.87742
G1 F1200 X60.8 Y54.103 E17.39112
G1 F1680 E14.39112
G1 F3600 X59.2 Y53.982
G1 F1680 E17.39112
G1 F1200 X59.2 Y77.019 E19.9315
G1 F1680 E16.9315
G1 F3600 X57.6 Y77.019
G1 F1680 E19.9315
G1 F1200 X57.6 Y53.982 E22.47188
G1 F1680 E19.47188
G1 F3600 X56 Y53.982
G1 F1680 E22.47188
G1 F1200 X56 Y77.019 E25.01226
G1 F1680 E22.01226
G1 F3600 X54.4 Y77.018
G1 F1680 E25.01226
G1 F1200 X54.4 Y53.982 E27.55253
G1 F1680 E24.55253
G1 F3600 X52.8 Y53.857
G1 F1680 E27.55253
G1 F1200 X52.8 Y77.018 E30.10659
G1 F1680 E27.10659
G1 F3600 X51.2 Y77.018
G1 F1680 E30.10659
G1 F1200 X51.2 Y53.238 E32.7289
G1 F1680 E29.7289
G1 F3600 X49.6 Y51.818
G1 F1680 E32.7289
G1 F1200 X49.6 Y77.017 E35.5077
G1 F1680 E32.5077
G1 F3600 X48 Y77.017
G1 F1680 E35.5077
G1 F1200 X48 Y45.607 E38.9714
G1 F1680 E35.9714
G1 F3600 X46.4 Y43.803
G1 F1680 E38.9714
G1 F1200 X46.4 Y77.017 E42.63404
G1 F1680 E39.63404
G1 F3600 X44.8 Y77.016
G1 F1680 E42.63404
G1 F1200 X44.8 Y43.1 E46.3741
G1 F1680 E43.3741
G1 F3600 X43.2 Y42.984
G1 F1680 E46.3741
G1 F1200 X43.2 Y77.016 E50.12694
G1 F1680 E47.12694
G1 F3600 X41.6 Y77.016
G1 F1680 E50.12694
G1 F1200 X41.6 Y42.982 E53.88
G1 F1680 E50.88
G1 F3600 X40 Y42.997
G1 F1680 E53.88
G1 F1200 X40 Y77.005 E57.6302
G1 F1680 E54.6302
G1 F3600 X38.4 Y76.64
G1 F1680 E57.6302
G1 F1200 X38.4 Y43.361 E61.30001
G1 F1680 E58.30001
G1 F3600 X36.8 Y44.496
M104 T0 S200
G1 F1680 E61.30001
G1 F1200 X36.8 Y75.506 E64.71961
G1 F1680 E61.71961
G1 F3600 X64 Y74.399
G1 F1680 E64.71961
G1 F1200 X64 Y56.609 E66.68138
G1 F1680 E63.68138
G1 F3600 X62.407 Y54.747
;TIME_ELAPSED:35.758394
;LAYER:-5
G1 X62.407 Y54.747 Z0.619
;TYPE:SUPPORT
G1 F1680 E66.68138
M73 P2
G1 F1980 X62.66 Y54.934 E66.70483
G1 X63.008 Y55.232 E66.73898
G1 X63.156 Y55.369 E66.75402
G1 X63.493 Y55.748 E66.79182
G1 X63.682 Y55.99 E66.81471
G1 F3600 X63.798 Y56.161
G1 F1980 X62.342 Y54.705 E66.9682
G1 X62.407 Y54.747 E66.97397
G1 F1680 E63.97397
G1 F3600 X63.798 Y56.161
G1 F1680 E66.97397
G1 F1980 X63.836 Y56.217 E66.97901
G1 X64 Y56.496 E67.00313
G1 X64.131 Y56.755 E67.02477
G1 X64.233 Y56.992 E67.044
G1 X64.344 Y57.303 E67.06862
G1 X64.418 Y57.559 E67.08848
G1 X64.48 Y57.844 E67.11022
G1 X64.527 Y58.155 E67.13367
G1 F3600 X64.527 Y58.163
G1 F1980 X60.336 Y53.972 E67.57547
G1 X60.237 Y53.96 E67.58291
G1 X59.685 Y53.931 E67.62411
G1 X59.022 Y53.931 E67.67353
G1 X64.57 Y59.478 E68.25834
G1 X64.57 Y60.751 E68.35323
G1 X57.749 Y53.931 E69.07223
G1 X56.475 Y53.93 E69.1672
G1 X64.569 Y62.023 E70.02039
G1 X64.569 Y63.296 E70.11529
G1 X55.203 Y53.93 E71.10263
G1 X53.93 Y53.93 E71.19752
G1 X64.568 Y64.568 E72.31895
G1 X64.568 Y65.841 E72.41384
G1 X52.441 Y53.714 E73.69225
G1 F3600 X52.309 Y53.681
G1 F1980 X51.68 Y53.438 E73.74251
G1 X51.084 Y53.117 E73.79297
G1 X50.534 Y52.722 E73.84345
G1 X50.039 Y52.262 E73.89382
G1 X49.604 Y51.743 E73.94429
G1 X49.241 Y51.173 E73.99467
G1 X48.951 Y50.562 E74.04508
G1 X48.785 Y50.058 E74.08464
G1 X48.739 Y49.92 E74.09548
G1 X48.612 Y49.254 E74.14602
G1 X48.571 Y48.59 E74.19561
G1 X48.571 Y48.571 E74.19703
G1 X42.931 Y42.931 E74.79158
G1 X43.842 Y42.932 E74.85949
G1 X44.225 Y42.956 E74.88809
G1 F3600 X44.23 Y42.957
G1 F1980 X48.535 Y47.263 E75.34197
G1 X48.527 Y47.155 E75.35004
G1 X48.478 Y46.83 E75.37454
G1 X48.417 Y46.558 E75.39532
G1 X48.344 Y46.3 E75.41531
G1 X48.233 Y45.99 E75.43985
G1 X48.131 Y45.752 E75.45915
G1 X47.999 Y45.493 E75.48082
G1 X47.943 Y45.398 E75.48904
G1 X46.098 Y43.552 E75.68359
G1 X46.167 Y43.591 E75.6895
G1 X46.393 Y43.734 E75.70944
G1 X46.665 Y43.936 E75.73469
G1 X47.148 Y44.359 E75.78255
G1 X47.494 Y44.746 E75.82125
G1 X47.682 Y44.988 E75.84409
G1 X47.836 Y45.215 E75.86454
G1 F1680 E72.86454
G1 F3600 X48.785 Y50.058
G1 F1680 E75.86454
G1 F1980 X41.657 Y42.93 E76.61595
G1 X40.383 Y42.929 E76.71092
G1 X64.568 Y67.113 E79.26039
G1 X64.568 Y68.386 E79.35528
G1 X39.225 Y43.043 E82.02689
G1 X39.061 Y43.079 E82.0394
G1 X38.791 Y43.156 E82.06033
G1 X38.517 Y43.255 E82.08205
G1 X38.27 Y43.361 E82.10208
G1 X64.567 Y69.658 E84.87425
G1 X64.567 Y70.931 E84.96914
G1 X37.468 Y43.832 E87.82586
G1 X37.246 Y44.004 E87.84679
G1 X36.867 Y44.341 E87.8846
G1 X36.789 Y44.426 E87.8932
G1 X64.567 Y72.204 E90.82149
G1 X64.566 Y72.341 E90.8317
G1 X64.542 Y72.725 E90.86038
G1 X64.507 Y73.013 E90.88201
G1 X64.45 Y73.309 E90.90448
G1 X64.44 Y73.349 E90.90755
G1 X36.22 Y45.129 E93.88244
G1 X36.082 Y45.344 E93.90148
G1 X35.951 Y45.582 E93.92173
G1 X35.822 Y45.852 E93.94404
G1 X35.778 Y45.961 E93.9528
G1 X64.108 Y74.29 E96.93923
G1 X64.048 Y74.415 E96.94957
G1 X63.909 Y74.666 E96.97095
G1 X63.766 Y74.893 E96.99095
G1 X63.626 Y75.081 E97.00842
G1 X35.498 Y46.954 E99.97356
G1 X35.493 Y46.985 E99.9759
G1 X35.457 Y47.272 E99.99746
G1 X35.433 Y47.656 E100.02614
G1 X35.432 Y48.16 E100.06371
G1 X63.023 Y75.751 E102.97229
G1 X62.754 Y75.994 E102.99931
G1 X62.513 Y76.18 E103.02201
G1 X62.314 Y76.315 E103.03993
G1 X35.432 Y49.433 E105.87377
G1 X35.432 Y50.705 E105.96859
G1 X61.472 Y76.745 E108.71366
G1 X61.207 Y76.842 E108.7347
G1 X60.939 Y76.919 E108.75548
G1 X60.657 Y76.979 E108.77698
G1 X60.462 Y77.008 E108.79167
G1 X35.431 Y51.978 E111.43033
M73 P3
G1 X35.431 Y53.25 E111.52515
G1 X59.25 Y77.069 E114.03609
G1 X57.977 Y77.069 E114.13098
G1 X35.431 Y54.523 E116.50773
G1 X35.431 Y55.796 E116.60262
G1 X56.705 Y77.069 E118.84522
G1 X55.431 Y77.068 E118.94019
G1 X35.43 Y57.068 E121.0486
G1 X35.43 Y58.341 E121.14349
G1 X54.158 Y77.068 E123.1177
G1 X52.885 Y77.068 E123.21259
G1 X35.43 Y59.614 E125.0526
G1 X35.43 Y60.886 E125.14742
G1 X51.612 Y77.068 E126.85329
G1 X50.339 Y77.068 E126.94818
G1 X35.43 Y62.158 E128.51991
G1 X35.43 Y63.431 E128.6148
G1 X49.066 Y77.067 E130.05227
G1 X47.793 Y77.067 E130.14717
G1 X35.429 Y64.703 E131.45055
G1 X35.429 Y65.976 E131.54544
G1 X46.519 Y77.066 E132.71452
G1 X45.247 Y77.066 E132.80934
G1 X35.429 Y67.249 E133.84428
G1 X35.428 Y68.521 E133.9391
G1 X43.974 Y77.066 E134.83994
G1 X42.7 Y77.066 E134.93491
G1 X35.428 Y69.794 E135.70151
G1 X35.428 Y71.067 E135.7964
G1 X41.427 Y77.066 E136.4288
G1 X40.156 Y77.066 E136.52354
G1 F3600 X40.154 Y77.065
G1 F1980 X35.434 Y72.345 E137.02111
G1 X35.435 Y72.358 E137.02208
G1 X35.472 Y72.845 E137.05849
G1 X35.518 Y73.156 E137.08193
G1 X35.58 Y73.438 E137.10345
G1 X35.656 Y73.707 E137.12428
G1 X35.731 Y73.915 E137.14077
G1 X38.584 Y76.768 E137.44152
G1 X38.359 Y76.678 E137.45959
G1 X38.081 Y76.546 E137.48253
G1 X37.831 Y76.408 E137.50381
G1 X37.606 Y76.265 E137.52369
G1 X37.333 Y76.063 E137.549
G1 X36.851 Y75.639 E137.59685
G1 X36.505 Y75.253 E137.63549
G1 X36.317 Y75.011 E137.65834
G1 X36.16 Y74.777 E137.67934
G1 X35.998 Y74.505 E137.70294
G1 X35.873 Y74.259 E137.72351
G1 X35.756 Y73.982 E137.74592
G1 F1680 E134.74592
G1 F3600 X62.484 Y54.618
;TIME_ELAPSED:66.140933
;LAYER:-4
M106 S255
G1 X62.484 Y54.618 Z0.869
G1 F1680 E137.74592
G1 F2400 X62.248 Y54.467 E137.75699
G1 X62.127 Y54.4 E137.76245
G1 X35.282 Y54.4 E138.82273
G1 X35.282 Y54 E138.83853
G1 X61.193 Y54 E139.86192
G1 X61.14 Y53.983 E139.86412
G1 X60.844 Y53.906 E139.8762
G1 X60.532 Y53.846 E139.88875
G1 X60.259 Y53.812 E139.89962
G1 X59.69 Y53.781 E139.92212
G1 X53.909 Y53.78 E140.15045
G1 X52.995 Y53.698 E140.1867
G1 X52.6 Y53.6 E140.20277
G1 X35.283 Y53.6 E140.88673
G1 X35.283 Y53.2 E140.90253
G1 X51.553 Y53.2 E141.54513
G1 X51.163 Y52.99 E141.56263
G1 X50.899 Y52.8 E141.57548
G1 X35.283 Y52.8 E142.19225
G1 X35.283 Y52.4 E142.20805
G1 X50.407 Y52.4 E142.80539
G1 X50.147 Y52.159 E142.8194
G1 X50.014 Y52 E142.82758
G1 X35.283 Y52 E143.4094
G1 X35.283 Y51.6 E143.4252
G1 X49.689 Y51.6 E143.99419
G1 X49.435 Y51.2 E144.0129
G1 X35.283 Y51.2 E144.57186
G1 X35.283 Y50.8 E144.58765
G1 X49.229 Y50.8 E145.13847
G1 X49.089 Y50.506 E145.15133
G1 X49.055 Y50.4 E145.15573
G1 X35.283 Y50.4 E145.69967
G1 X35.283 Y50 E145.71547
G1 X48.923 Y50 E146.2542
G1 X48.884 Y49.882 E146.25911
G1 X48.83 Y49.6 E146.27045
G1 X35.283 Y49.6 E146.80551
G1 X35.283 Y49.2 E146.82131
G1 X48.758 Y49.2 E147.35352
G1 X48.733 Y48.8 E147.36935
G1 X35.283 Y48.8 E147.90058
G1 X35.283 Y48.4 E147.91638
G1 X48.719 Y48.4 E148.44705
G1 X48.719 Y48 E148.46285
G1 X35.283 Y48 E148.99352
G1 X35.283 Y47.658 E149.00703
G1 X35.287 Y47.6 E149.00933
G1 X48.711 Y47.6 E149.53953
G1 X48.68 Y47.2 E149.55537
G1 X35.316 Y47.2 E150.0832
G1 X35.345 Y46.957 E150.09287
G1 X35.376 Y46.8 E150.09919
G1 X48.625 Y46.8 E150.62248
G1 F3600 X48.623 Y46.793
G1 F2400 X48.564 Y46.525 E150.63332
G1 X48.528 Y46.4 E150.63845
G1 X35.47 Y46.4 E151.1542
G1 X35.48 Y46.361 E151.15579
G1 X35.573 Y46.076 E151.16763
G1 X35.604 Y46 E151.17087
M73 P4
G1 X48.396 Y46 E151.67611
G1 X48.378 Y45.951 E151.67817
G1 X48.258 Y45.673 E151.69013
G1 X48.222 Y45.6 E151.69335
G1 X35.778 Y45.6 E152.18484
G1 X35.823 Y45.505 E152.18899
G1 X35.963 Y45.253 E152.20038
G1 X35.997 Y45.2 E152.20286
G1 X48.001 Y45.2 E152.67698
G1 X47.971 Y45.15 E152.67928
G1 X47.796 Y44.89 E152.69166
G1 X47.726 Y44.8 E152.69616
G1 X36.276 Y44.8 E153.1484
G1 X36.325 Y44.733 E153.15168
G1 X36.617 Y44.4 E153.16917
G1 X47.386 Y44.4 E153.5945
G1 X47.257 Y44.256 E153.60214
G1 X47.114 Y44.125 E153.6098
G1 X46.969 Y44 E153.61736
G1 X37.027 Y44 E154.01004
G1 X37.154 Y43.886 E154.01678
G1 X37.39 Y43.702 E154.02859
G1 X37.542 Y43.6 E154.03582
G1 X46.46 Y43.6 E154.38805
G1 X46.241 Y43.461 E154.3983
G1 X45.993 Y43.323 E154.40951
G1 X45.735 Y43.2 E154.4208
G1 X38.267 Y43.2 E154.71576
G1 X38.458 Y43.118 E154.72397
G1 X38.746 Y43.014 E154.73606
G1 X39.031 Y42.933 E154.74776
G1 X39.305 Y42.873 E154.75884
G1 X39.647 Y42.822 E154.7725
G1 X39.936 Y42.8 E154.78395
G1 X40.119 Y42.786 E154.79119
G1 X40.318 Y42.779 E154.79906
G1 X43.84 Y42.783 E154.93817
G1 F3600 X44.105 Y42.8
G1 F2400 X39.936 Y42.8 E155.10283
G1 F1680 E152.10283
G1 F3600 X35.282 Y54.8
G1 F1680 E155.10283
G1 F2400 X62.73 Y54.8 E156.18692
G1 X62.484 Y54.618 E156.19901
G1 F1680 E153.19901
G1 F3600 X63.194 Y55.2
G1 F1680 E156.19901
G1 F2400 X63.257 Y55.258 E156.20239
G1 X63.563 Y55.6 E156.22052
G1 X35.282 Y55.6 E157.33751
G1 X35.282 Y56 E157.35331
G1 X63.869 Y56 E158.4824
G1 X63.971 Y56.152 E158.48963
G1 X64.118 Y56.4 E158.50101
G1 X35.282 Y56.4 E159.63993
G1 X35.282 Y56.8 E159.65573
G1 X64.312 Y56.8 E160.80231
G1 X64.378 Y56.953 E160.80889
G1 X64.467 Y57.2 E160.81926
G1 X35.282 Y57.2 E161.97197
G1 X35.282 Y57.6 E161.98776
G1 X64.58 Y57.6 E163.14493
G1 X64.625 Y57.807 E163.1533
G1 X64.654 Y58 E163.161
G1 X35.282 Y58 E164.32109
G1 X35.282 Y58.4 E164.33689
G1 X64.696 Y58.4 E165.49864
G1 X64.712 Y58.621 E165.50739
G1 X64.719 Y58.8 E165.51447
G1 X35.282 Y58.8 E166.67712
G1 X35.282 Y59.2 E166.69292
G1 X64.718 Y59.2 E167.85554
G1 X64.718 Y59.6 E167.87134
G1 X35.282 Y59.6 E169.03395
G1 X35.281 Y60 E169.04975
G1 X64.718 Y60 E170.21241
G1 X64.718 Y60.4 E170.2282
G1 X35.281 Y60.4 E171.39086
G1 X35.281 Y60.8 E171.40666
G1 X64.718 Y60.8 E172.56931
G1 X64.718 Y61.2 E172.58511
G1 X35.281 Y61.2 E173.74777
G1 X35.281 Y61.6 E173.76357
G1 X64.718 Y61.6 E174.92622
G1 X64.718 Y62 E174.94202
G1 X35.281 Y62 E176.10468
G1 X35.281 Y62.4 E176.12048
G1 X64.717 Y62.4 E177.28309
G1 X64.717 Y62.8 E177.29889
G1 X35.281 Y62.8 E178.46151
G1 X35.281 Y63.2 E178.47731
G1 X64.717 Y63.2 E179.63992
G1 X64.717 Y63.6 E179.65572
G1 X35.281 Y63.6 E180.81834
G1 X35.281 Y64 E180.83414
G1 X64.717 Y64 E181.99675
G1 X64.717 Y64.4 E182.01255
G1 X35.281 Y64.4 E183.17517
G1 X35.281 Y64.8 E183.19097
G1 X64.717 Y64.8 E184.35358
G1 X64.717 Y65.2 E184.36938
G1 X35.281 Y65.2 E185.532
G1 X35.281 Y65.6 E185.5478
G1 X64.716 Y65.6 E186.71037
G1 X64.716 Y66 E186.72617
G1 X35.281 Y66 E187.88875
G1 X35.28 Y66.4 E187.90455
