M73 P0
;MINX:35.0
;MAXX:65.0
;MINY:40.0
;MAXY:80.0
;MINZ:0.0
;MAXZ:28.8
;MachineType:ENTINA TINA2
;FilamentType:PLA
;Extruder0Temperature:200
;InfillDensity:10
;FLAVOR:Marlin
;TIME:2650
;FilamentUsed:2144.8
;Layer height: 0.2

;Generated with Cura_SteamEngine 3.1
M104 T0 S215
M82 ; absolute extrusion mode
;(**** start.gcode for tina2****)
M104 S150
G28 Z
G28 X Y; Home extruder
G1 X55 Y55 F1000
G1 Z10 F200
G29
G1 Z15 F100
M107 ; Turn off fan
G90 ; Absolute positioning
M82 ; Extruder in absolute mode
M109 S215.0
G92 E0 ; Reset extruder position
G1 X90 Y6 Z0.27 F2000
G1 X20 Y6 Z0.27 E15 F1000
G92 E0 ; Reset extruder position

;LAYER_COUNT:138
;LAYER:-6
M107
M203 Z5
G1 F3600 X63.111 Y41.894 Z0.349
G1 F1200 X63.47 Y42.296 E0.05943
G1 X63.637 Y42.511 E0.08945
G1 X63.793 Y42.742 E0.12019
G1 X63.951 Y43.01 E0.1545
G1 X64.083 Y43.269 E0.18656
G1 X64.186 Y43.508 E0.21526
G1 X64.291 Y43.8 E0.24947
G1 X64.372 Y44.082 E0.28183
G1 X64.428 Y44.336 E0.31051
G1 X64.477 Y44.666 E0.3473
G1 X64.513 Y45.127 E0.39829
G1 X64.52 Y45.312 E0.41871
G1 X64.516 Y54.881 E1.47392
G1 X64.492 Y55.258 E1.51558
G1 X64.455 Y55.556 E1.54869
G1 X64.4 Y55.84 E1.58059
G1 X64.324 Y56.131 E1.61376
G1 X64.24 Y56.389 E1.64368
G1 X64.132 Y56.661 E1.67595
G1 X64.007 Y56.926 E1.70826
G1 X63.596 Y57.668 E1.8018
G1 X63.601 Y57.671 E1.80244
G1 X63.348 Y58.292 E1.87638
G1 X63.173 Y58.953 E1.95179
G1 X63.083 Y59.629 E2.02699
G1 X63.079 Y60.312 E2.10231
G1 X63.161 Y60.99 E2.17762
G1 X63.328 Y61.653 E2.25301
G1 X63.577 Y62.285 E2.32792
G1 X63.812 Y62.733 E2.38371
G1 X63.948 Y62.964 E2.41327
G1 X64.083 Y63.228 E2.44597
G1 X64.186 Y63.467 E2.47466
G1 X64.291 Y63.76 E2.50899
G1 X64.373 Y64.044 E2.54158
G1 X64.429 Y64.304 E2.57091
G1 X64.477 Y64.625 E2.6067
G1 X64.513 Y65.086 E2.6577
G1 X64.52 Y65.271 E2.67811
G1 X64.516 Y74.841 E3.73343
G1 X64.492 Y75.218 E3.77509
G1 X64.455 Y75.516 E3.8082
G1 X64.4 Y75.8 E3.8401
G1 X64.324 Y76.091 E3.87327
G1 X64.24 Y76.349 E3.90319
G1 X64.129 Y76.628 E3.9363
G1 X64.007 Y76.886 E3.96777
G1 X63.863 Y77.145 E4.00045
G1 X63.724 Y77.364 E4.02906
G1 X63.526 Y77.63 E4.06562
G1 X63.106 Y78.111 E4.13604
G1 X62.706 Y78.468 E4.19516
G1 X62.489 Y78.637 E4.22549
G1 X62.258 Y78.793 E4.25623
G1 X61.99 Y78.951 E4.29054
G1 X61.733 Y79.081 E4.3223
G1 X61.464 Y79.196 E4.35456
G1 X61.207 Y79.289 E4.3847
G1 X60.915 Y79.373 E4.4182
G1 X60.654 Y79.429 E4.44764
G1 X60.334 Y79.477 E4.48332
G1 X59.866 Y79.513 E4.53508
G1 X59.674 Y79.52 E4.55627
G1 X40.159 Y79.516 E6.70827
G1 X39.782 Y79.492 E6.74992
G1 X39.484 Y79.455 E6.78304
G1 X39.2 Y79.4 E6.81494
G1 X38.909 Y79.324 E6.8481
G1 X38.649 Y79.239 E6.87827
G1 X38.372 Y79.129 E6.91113
G1 X38.111 Y79.005 E6.943
G1 X37.856 Y78.864 E6.97513
G1 X37.636 Y78.724 E7.00389
G1 X37.37 Y78.526 E7.04045
G1 X36.887 Y78.104 E7.11118
G1 X36.53 Y77.704 E7.1703
G1 X36.363 Y77.489 E7.20033
G1 X36.204 Y77.253 E7.23171
G1 X36.049 Y76.99 E7.26537
G1 X35.919 Y76.733 E7.29713
G1 X35.803 Y76.463 E7.32954
G1 X35.711 Y76.207 E7.35953
G1 X35.627 Y75.915 E7.39304
G1 X35.571 Y75.654 E7.42248
G1 X35.523 Y75.334 E7.45816
G1 X35.486 Y74.856 E7.51103
G1 X35.48 Y74.688 E7.52956
G1 X35.484 Y65.119 E8.58478
G1 X35.508 Y64.742 E8.62643
G1 X35.545 Y64.447 E8.65922
G1 X35.602 Y64.149 E8.69268
G1 X35.676 Y63.869 E8.72461
G1 X35.76 Y63.611 E8.75453
G1 X35.871 Y63.332 E8.78765
G1 X35.993 Y63.074 E8.81912
G1 X36.404 Y62.332 E8.91265
G1 X36.399 Y62.329 E8.9133
G1 X36.652 Y61.708 E8.98724
G1 X36.827 Y61.047 E9.06265
G1 X36.917 Y60.371 E9.13785
G1 X36.921 Y59.688 E9.21317
G1 X36.839 Y59.01 E9.28848
G1 X36.672 Y58.347 E9.36387
M73 P1
G1 X36.423 Y57.715 E9.43878
G1 X36.187 Y57.267 E9.49462
G1 X36.051 Y57.038 E9.52399
G1 X35.922 Y56.781 E9.5557
G1 X35.803 Y56.504 E9.58894
G1 X35.711 Y56.248 E9.61894
G1 X35.627 Y55.956 E9.65245
G1 X35.571 Y55.695 E9.68188
G1 X35.523 Y55.375 E9.71757
G1 X35.486 Y54.897 E9.77044
G1 X35.48 Y54.729 E9.78897
G1 X35.484 Y45.159 E10.8443
G1 X35.508 Y44.782 E10.88595
G1 X35.545 Y44.484 E10.91907
G1 X35.6 Y44.2 E10.95097
G1 X35.676 Y43.909 E10.98413
G1 X35.76 Y43.651 E11.01405
G1 X35.871 Y43.372 E11.04716
G1 X35.993 Y43.114 E11.07864
G1 X36.132 Y42.864 E11.11018
G1 X36.284 Y42.626 E11.14132
G1 X36.474 Y42.37 E11.17648
G1 X36.894 Y41.889 E11.24689
G1 X37.296 Y41.53 E11.30633
G1 X37.511 Y41.363 E11.33635
G1 X37.742 Y41.207 E11.36709
G1 X38.01 Y41.049 E11.40139
G1 X38.267 Y40.919 E11.43315
G1 X38.537 Y40.803 E11.46556
G1 X38.793 Y40.711 E11.49556
G1 X39.085 Y40.627 E11.52906
G1 X39.346 Y40.571 E11.5585
G1 X39.666 Y40.523 E11.59418
G1 X40.134 Y40.487 E11.64594
G1 X40.326 Y40.48 E11.66713
G1 X59.841 Y40.484 E13.81912
G1 X60.218 Y40.508 E13.86078
G1 X60.516 Y40.545 E13.8939
G1 X60.8 Y40.6 E13.9258
G1 X61.091 Y40.676 E13.95896
G1 X61.349 Y40.76 E13.98888
G1 X61.628 Y40.871 E14.02199
G1 X61.886 Y40.993 E14.05347
G1 X62.145 Y41.137 E14.08614
G1 X62.364 Y41.276 E14.11475
G1 X62.63 Y41.474 E14.15132
G1 X63.111 Y41.894 E14.22173
G1 F1680 E11.22173
G1 F3600 X62.4 Y41.303
G1 F1680 E14.22173
G1 F1200 X62.4 Y78.698 E18.34543
G1 F1680 E15.34543
G1 F3600 X60.8 Y79.398
G1 F1680 E18.34543
G1 F1200 X60.8 Y40.6 E22.62384
G1 F1680 E19.62384
G1 F3600 X59.2 Y40.484
G1 F1680 E22.62384
G1 F1200 X59.2 Y79.519 E26.92838
G1 F1680 E23.92838
G1 F3600 X57.6 Y79.519
G1 F1680 E26.92838
G1 F1200 X57.6 Y40.484 E31.23293
G1 F1680 E28.23293
G1 F3600 X56 Y40.484
G1 F1680 E31.23293
G1 F1200 X56 Y79.519 E35.53747
G1 F1680 E32.53747
G1 F3600 X54.4 Y79.518
G1 F1680 E35.53747
G1 F1200 X54.4 Y40.483 E39.84202
G1 F1680 E36.84202
G1 F3600 X52.8 Y40.483
G1 F1680 E39.84202
G1 F1200 X52.8 Y79.518 E44.14656
G1 F1680 E41.14656
G1 F3600 X51.2 Y79.518
G1 F1680 E44.14656
G1 F1200 X51.2 Y40.483 E48.45111
G1 F1680 E45.45111
G1 F3600 X49.6 Y40.482
G1 F1680 E48.45111
G1 F1200 X49.6 Y79.517 E52.75565
G1 F1680 E49.75565
G1 F3600 X48 Y79.517
G1 F1680 E52.75565
G1 F1200 X48 Y40.482 E57.06019
G1 F1680 E54.06019
G1 F3600 X46.4 Y40.482
G1 F1680 E57.06019
G1 F1200 X46.4 Y79.517 E61.36474
G1 F1680 E58.36474
G1 F3600 X44.8 Y79.516
G1 F1680 E61.36474
G1 F1200 X44.8 Y40.481 E65.66928
G1 F1680 E62.66928
G1 F3600 X43.2 Y40.481
G1 F1680 E65.66928
G1 F1200 X43.2 Y79.516 E69.97383
G1 F1680 E66.97383
G1 F3600 X41.6 Y79.516
G1 F1680 E69.97383
G1 F1200 X41.6 Y40.481 E74.27837
G1 F1680 E71.27837
G1 F3600 X40 Y40.497
G1 F1680 E74.27837
G1 F1200 X40 Y79.505 E78.57994
G1 F1680 E75.57994
G1 F3600 X38.4 Y79.14
G1 F1680 E78.57994
G1 F1200 X38.4 Y40.861 E82.80112
G1 F1680 E79.80112
G1 F3600 X36.8 Y41.996
G1 F1680 E82.80112
G1 F1200 X36.8 Y58.855 E84.66023
G1 F1680 E81.66023
G1 F3600 X36.8 Y61.148
M104 T0 S200
G1 F1680 E84.66023
G1 F1200 X36.8 Y78.006 E86.51923
G1 F1680 E83.51923
G1 F3600 X64 Y76.899
G1 F1680 E86.51923
G1 F1200 X64 Y63.066 E88.04465
G1 F1680 E85.04465
G1 F3600 X64 Y56.939
G1 F1680 E88.04465
G1 F1200 X64 Y43.107 E89.56996
G1 F1680 E86.56996
G1 F3600 X63.148 Y41.86
;TIME_ELAPSED:46.677561
;LAYER:-5
M73 P2
G1 X63.148 Y41.86 Z0.619
;TYPE:SUPPORT
G1 F1680 E89.56996
G1 F1980 X63.494 Y42.246 E89.6086
G1 X63.682 Y42.487 E89.63138
G1 X63.836 Y42.716 E89.65195
G1 X64 Y42.993 E89.67595
G1 X64.131 Y43.253 E89.69765
G1 X64.233 Y43.491 E89.71695
G1 X64.343 Y43.801 E89.74147
G1 F3600 X64.416 Y44.052
G1 F1980 X60.952 Y40.587 E90.10669
G1 X61.103 Y40.626 E90.11831
G1 X61.383 Y40.718 E90.14028
G1 X61.639 Y40.821 E90.16085
G1 X61.916 Y40.952 E90.18369
G1 X62.167 Y41.091 E90.20508
G1 X62.393 Y41.234 E90.22502
G1 X62.665 Y41.436 E90.25027
G1 X63.148 Y41.86 E90.29818
G1 F1680 E87.29818
G1 F3600 X64.416 Y44.052
G1 F1680 E90.29818
G1 F1980 X64.478 Y44.331 E90.31948
G1 X64.527 Y44.655 E90.34391
G1 X64.563 Y45.124 E90.37897
G1 X64.57 Y45.312 E90.393
G1 X64.57 Y45.478 E90.40537
G1 X59.524 Y40.433 E90.93726
G1 X58.252 Y40.433 E91.03207
G1 X64.57 Y46.751 E91.6981
G1 X64.57 Y48.023 E91.79292
G1 X56.978 Y40.432 E92.5932
G1 X55.705 Y40.432 E92.68809
G1 X64.569 Y49.295 E93.62246
G1 X64.568 Y50.568 E93.71735
G1 X54.433 Y40.432 E94.78581
G1 X53.159 Y40.431 E94.88078
G1 X64.568 Y51.84 E96.08349
G1 X64.567 Y53.112 E96.1783
G1 X51.886 Y40.431 E97.51511
G1 X50.613 Y40.43 E97.61
G1 X64.566 Y54.384 E99.08094
G1 X64.565 Y54.882 E99.11807
G1 X64.541 Y55.266 E99.14675
G1 X64.505 Y55.553 E99.16831
G1 X64.499 Y55.589 E99.17103
G1 X49.34 Y40.43 E100.76905
G1 X48.066 Y40.43 E100.86402
G1 X64.218 Y56.581 E102.56667
G1 X64.177 Y56.68 E102.57466
G1 X64.047 Y56.956 E102.5974
G1 X63.79 Y57.426 E102.63733
G1 X46.794 Y40.43 E104.42901
G1 X45.52 Y40.429 E104.52398
G1 X63.396 Y58.305 E106.40843
G1 X63.222 Y58.962 E106.45909
G1 X63.17 Y59.352 E106.48842
G1 X44.247 Y40.429 E108.48324
G1 X42.974 Y40.428 E108.57813
G1 X63.167 Y60.621 E110.70683
G1 X63.21 Y60.981 E110.73385
G1 X63.376 Y61.637 E110.78429
G1 X63.621 Y62.264 E110.83447
G1 X63.717 Y62.444 E110.84968
G1 X41.701 Y40.428 E113.17055
G1 X40.428 Y40.428 E113.26545
G1 X64.512 Y64.512 E115.80433
G1 X64.527 Y64.612 E115.81186
G1 X64.563 Y65.082 E115.847
G1 X64.571 Y65.27 E115.86103
G1 X64.571 Y65.844 E115.90381
G1 X39.262 Y40.535 E118.57183
G1 X39.06 Y40.579 E118.58724
G1 X38.791 Y40.655 E118.60808
G1 X38.516 Y40.755 E118.62989
G1 X38.301 Y40.847 E118.64732
G1 X64.57 Y67.116 E121.41654
G1 X64.57 Y68.388 E121.51136
G1 X37.494 Y41.312 E124.36565
G1 F3600 X37.487 Y41.316
G1 F1980 X37.246 Y41.504 E124.38843
G1 X36.868 Y41.842 E124.42623
G1 X36.811 Y41.902 E124.4324
G1 X64.569 Y69.66 E127.35858
G1 X64.568 Y70.932 E127.4534
G1 X36.237 Y42.601 E130.43999
G1 X36.082 Y42.844 E130.46147
G1 X35.952 Y43.082 E130.48169
G1 X35.822 Y43.352 E130.50403
G1 X35.791 Y43.428 E130.51014
G1 X64.568 Y72.204 E133.5437
G1 X64.567 Y73.476 E133.63851
G1 X35.505 Y44.415 E136.70211
G1 X35.492 Y44.485 E136.70742
G1 X35.456 Y44.773 E136.72905
G1 X35.433 Y45.155 E136.75758
G1 X35.432 Y45.614 E136.79179
G1 X64.567 Y74.749 E139.86314
G1 X64.566 Y74.842 E139.87007
G1 X64.542 Y75.225 E139.89868
G1 X64.506 Y75.513 E139.92031
G1 X64.449 Y75.808 E139.94271
G1 X64.43 Y75.885 E139.94862
G1 X35.431 Y46.886 E143.00563
G1 X35.431 Y48.159 E143.10052
G1 X64.093 Y76.821 E146.122
G1 X64.048 Y76.916 E146.12984
G1 X63.909 Y77.167 E146.15122
G1 X63.766 Y77.393 E146.17116
G1 X63.607 Y77.607 E146.19103
G1 X35.43 Y49.431 E149.16134
G1 X35.43 Y50.703 E149.25615
G1 X62.999 Y78.273 E152.16247
G1 X62.754 Y78.494 E152.18706
G1 X62.513 Y78.681 E152.2098
G1 X62.286 Y78.833 E152.23016
G1 X35.429 Y51.975 E155.06142
G1 X35.428 Y53.247 E155.15624
G1 X61.439 Y79.258 E157.89826
G1 X61.207 Y79.342 E157.91665
G1 X60.938 Y79.419 E157.93751
G1 X60.657 Y79.48 E157.95894
G1 X60.422 Y79.514 E157.97664
G1 X35.428 Y54.52 E160.61145
G1 X35.428 Y54.728 E160.62695
G1 X35.435 Y54.9 E160.63979
G1 X35.472 Y55.386 E160.67612
G1 X35.519 Y55.697 E160.69956
G1 X35.57 Y55.934 E160.71763
G1 X59.204 Y79.569 E163.20913
G1 X57.931 Y79.569 E163.30402
M73 P3
G1 X36.556 Y58.194 E165.55732
G1 X36.623 Y58.362 E165.57081
G1 X36.789 Y59.017 E165.62117
G1 X36.869 Y59.689 E165.67162
G1 X36.869 Y59.779 E165.67833
G1 X56.659 Y79.569 E167.76454
G1 X55.385 Y79.568 E167.85951
G1 X36.785 Y60.968 E169.82028
G1 X36.776 Y61.036 E169.82539
G1 X36.604 Y61.69 E169.8758
G1 X36.495 Y61.951 E169.89688
G1 X54.112 Y79.568 E171.75403
G1 X52.839 Y79.568 E171.84892
G1 X36.079 Y62.808 E173.61572
G1 X35.952 Y63.042 E173.63557
G1 X35.822 Y63.312 E173.6579
G1 X35.72 Y63.57 E173.67858
G1 X35.682 Y63.684 E173.68754
G1 X51.566 Y79.567 E175.36194
G1 X50.293 Y79.567 E175.45684
G1 X35.457 Y64.731 E177.02081
G1 F3600 X35.457 Y64.732
G1 F1980 X35.433 Y65.116 E177.04949
G1 X35.432 Y65.979 E177.11382
G1 X49.02 Y79.567 E178.54624
G1 X47.747 Y79.567 E178.64113
G1 X35.431 Y67.251 E179.93945
G1 X35.43 Y68.523 E180.03427
G1 X46.474 Y79.567 E181.1985
G1 X45.201 Y79.567 E181.2934
G1 X35.43 Y69.796 E182.32343
G1 X35.43 Y71.068 E182.41825
G1 X43.928 Y79.566 E183.31409
G1 X42.655 Y79.566 E183.40898
G1 X35.429 Y72.34 E184.17073
G1 X35.428 Y73.612 E184.26554
G1 X41.382 Y79.566 E184.8932
G1 X40.156 Y79.566 E184.98459
G1 X40.106 Y79.562 E184.98833
G1 X35.437 Y74.893 E185.48052
G1 X35.472 Y75.345 E185.51432
G1 X35.519 Y75.656 E185.53776
G1 X35.579 Y75.938 E185.55925
G1 X35.657 Y76.207 E185.58013
G1 X35.757 Y76.487 E185.6023
G1 X38.509 Y79.238 E185.89235
G1 X38.358 Y79.178 E185.90446
G1 X38.081 Y79.046 E185.92734
G1 X37.832 Y78.908 E185.94856
G1 X37.606 Y78.765 E185.96849
G1 X37.333 Y78.563 E185.99381
G1 X36.85 Y78.138 E186.04176
G1 X36.505 Y77.753 E186.0803
G1 X36.317 Y77.511 E186.10314
G1 X36.16 Y77.278 E186.12409
G1 X35.998 Y77.005 E186.14775
G1 X35.874 Y76.759 E186.16828
G1 F1680 E183.16828
G1 F3600 X63.114 Y41.625
;TIME_ELAPSED:87.405728
;LAYER:-4
M106 S255
G1 X63.114 Y41.625 Z0.869
G1 F1680 E186.16828
G1 F2400 X63.085 Y41.6 E186.1698
G1 X36.915 Y41.6 E187.20342
G1 X37.154 Y41.386 E187.21609
G1 X37.39 Y41.202 E187.22791
G1 F3600 X37.393 Y41.2
G1 F2400 X62.599 Y41.2 E188.22345
G1 X62.488 Y41.118 E188.2289
G1 X62.241 Y40.961 E188.24046
G1 X61.993 Y40.823 E188.25167
G1 X61.945 Y40.8 E188.25378
G1 X38.055 Y40.8 E189.19735
G1 X38.173 Y40.74 E189.20257
G1 X38.458 Y40.618 E189.21482
G1 X38.746 Y40.514 E189.22691
G1 X39.031 Y40.433 E189.23861
G1 X39.182 Y40.4 E189.24472
G1 X39.305 Y40.373 E189.24969
G1 X39.647 Y40.322 E189.26335
G1 X40.119 Y40.286 E189.28205
G1 X40.318 Y40.279 E189.28991
G1 X59.84 Y40.283 E190.06096
G1 X60.244 Y40.309 E190.07695
G1 X60.547 Y40.346 E190.08901
G1 F3600 X60.827 Y40.4
G1 F2400 X39.182 Y40.4 E190.94391
G1 F1680 E187.94391
G1 F3600 X36.529 Y42
G1 F1680 E190.94391
G1 F2400 X63.475 Y42 E192.00818
G1 X63.257 Y41.756 E192.0211
G1 X63.114 Y41.625 E192.02876
G1 F1680 E189.02876
G1 F3600 X63.803 Y42.4
G1 F1680 E192.02876
G1 F2400 X63.971 Y42.65 E192.04066
G1 X64.06 Y42.8 E192.04754
G1 X35.937 Y42.8 E193.1583
G1 X35.823 Y43.005 E193.16757
G1 X35.731 Y43.2 E193.17608
G1 X64.27 Y43.2 E194.30327
G1 X64.378 Y43.451 E194.31406
G1 X64.432 Y43.6 E194.32032
G1 X35.566 Y43.6 E195.46043
G1 X35.48 Y43.861 E195.47128
G1 X35.444 Y44 E195.47695
G1 X64.557 Y44 E196.62681
G1 X64.564 Y44.025 E196.62783
G1 X64.623 Y44.293 E196.63867
G1 X64.639 Y44.4 E196.64295
G1 X35.356 Y44.4 E197.79952
G1 X35.345 Y44.457 E197.80181
G1 X35.309 Y44.754 E197.81363
G1 X35.307 Y44.8 E197.81545
G1 X64.688 Y44.8 E198.97589
G1 X64.712 Y45.119 E198.98853
G1 X64.715 Y45.2 E198.99173
G1 X35.283 Y45.2 E200.15419
G1 X35.283 Y45.6 E200.16998
G1 X64.718 Y45.6 E201.33256
G1 X64.718 Y46 E201.34836
G1 X35.283 Y46 E202.51094
G1 X35.283 Y46.4 E202.52674
G1 X64.718 Y46.4 E203.68931
G1 X64.718 Y46.8 E203.70511
G1 X35.283 Y46.8 E204.86769
G1 X35.283 Y47.2 E204.88349
G1 X64.718 Y47.2 E206.04606
G1 X64.718 Y47.6 E206.06186
M73 P4
G1 X35.282 Y47.6 E207.22448
G1 X35.282 Y48 E207.24028
G1 X64.717 Y48 E208.40285
G1 X64.717 Y48.4 E208.41865
G1 X35.282 Y48.4 E209.58123
G1 X35.282 Y48.8 E209.59703
G1 X64.717 Y48.8 E210.7596
G1 X64.717 Y49.2 E210.7754
G1 X35.282 Y49.2 E211.93798
G1 X35.282 Y49.6 E211.95378
G1 X64.717 Y49.6 E213.11635
G1 X64.717 Y50 E213.13215
G1 X35.281 Y50 E214.29477
G1 X35.281 Y50.4 E214.31057
G1 X64.716 Y50.4 E215.47315
G1 X64.716 Y50.8 E215.48894
G1 X35.281 Y50.8 E216.65152
G1 X35.281 Y51.2 E216.66732
G1 X64.716 Y51.2 E217.8299
G1 X64.716 Y51.6 E217.84569
G1 X35.281 Y51.6 E219.00827
G1 X35.281 Y52 E219.02407
G1 X64.716 Y52 E220.18665
G1 X64.716 Y52.4 E220.20245
G1 X35.28 Y52.4 E221.36506
G1 X35.28 Y52.8 E221.38086
G1 X64.715 Y52.8 E222.54344
G1 X64.715 Y53.2 E222.55924
G1 X35.28 Y53.2 E223.72181
G1 X35.28 Y53.6 E223.73761
G1 X64.715 Y53.6 E224.90019
G1 X64.715 Y54 E224.91599
G1 X35.28 Y54 E226.07856
G1 X35.28 Y54.4 E226.09436
G1 X64.715 Y54.4 E227.25694
G1 X64.715 Y54.8 E227.27274
G1 X35.281 Y54.8 E228.43527
G1 X35.286 Y54.92 E228.44002
G1 X35.307 Y55.2 E228.45111
G1 X64.694 Y55.2 E229.61179
G1 X64.689 Y55.284 E229.61511
G1 X64.653 Y55.581 E229.62693
G1 X64.649 Y55.6 E229.6277
G1 X35.353 Y55.6 E230.78478
G1 X35.373 Y55.733 E230.7901
G1 X35.43 Y56 E230.80088
G1 X64.564 Y56 E231.95157
G1 X64.518 Y56.177 E231.95879
G1 X64.445 Y56.4 E231.96806
G1 X35.552 Y56.4 E233.10923
G1 X35.618 Y56.581 E233.11684
G1 X35.711 Y56.8 E233.12623
G1 X64.285 Y56.8 E234.2548
G1 X64.176 Y57.032 E234.26493
G1 X64.082 Y57.2 E234.27253
G1 X35.915 Y57.2 E235.38503
G1 X36.012 Y57.364 E235.39255
