M73 P0
;MINX:35.0
;MAXX:65.0
;MINY:42.5
;MAXY:77.5
;MINZ:0.0
;MAXZ:29.3
;MachineType:ENTINA TINA2
;FilamentType:PLA
;Extruder0Temperature:200
;InfillDensity:10
;FLAVOR:Marlin
;TIME:2238
;FilamentUsed:1657.7
;Layer height: 0.2

;Generated with Cura_SteamEngine 3.1
M104 T0 S215
M82 ; absolute extrusion mode
;(**** start.gcode for tina2****)
M104 S150
G28 Z
G28 X Y; Home extruder
G1 X55 Y55 F1000
G1 Z10 F200
G29
G1 Z15 F100
M107 ; Turn off fan
G90 ; Absolute positioning
M82 ; Extruder in absolute mode
M109 S215.0
G92 E0 ; Reset extruder position
G1 X90 Y6 Z0.27 F2000
G1 X20 Y6 Z0.27 E15 F1000
G92 E0 ; Reset extruder position

;LAYER_COUNT:140
;LAYER:-6
M107
M203 Z5
G1 F3600 X62.63 Y43.974 Z0.349
G1 F1200 X63.111 Y44.394 E0.07042
G1 X63.47 Y44.796 E0.12985
G1 X63.637 Y45.011 E0.15987
G1 X63.793 Y45.242 E0.19061
G1 X63.951 Y45.51 E0.22492
G1 X64.083 Y45.769 E0.25697
G1 X64.186 Y46.008 E0.28567
G1 X64.291 Y46.3 E0.31989
G1 X64.372 Y46.582 E0.35224
G1 X64.428 Y46.836 E0.38093
G1 X64.477 Y47.166 E0.41772
G1 X64.513 Y47.627 E0.46871
G1 X64.52 Y47.812 E0.48912
G1 X64.516 Y72.341 E3.19403
G1 X64.492 Y72.718 E3.23569
G1 X64.455 Y73.016 E3.2688
G1 X64.4 Y73.3 E3.3007
G1 X64.324 Y73.591 E3.33387
G1 X64.24 Y73.849 E3.36379
G1 X64.129 Y74.128 E3.3969
G1 X64.007 Y74.386 E3.42837
G1 X63.863 Y74.645 E3.46105
G1 X63.724 Y74.864 E3.48966
G1 X63.526 Y75.13 E3.52622
G1 X63.106 Y75.611 E3.59664
G1 X62.706 Y75.968 E3.65576
G1 X62.489 Y76.137 E3.68609
G1 X62.258 Y76.293 E3.71683
G1 X61.99 Y76.451 E3.75114
G1 X61.733 Y76.581 E3.7829
G1 X61.464 Y76.696 E3.81516
G1 X61.207 Y76.789 E3.8453
G1 X60.915 Y76.873 E3.8788
G1 X60.654 Y76.929 E3.90824
G1 X60.334 Y76.977 E3.94392
G1 X59.866 Y77.013 E3.99568
G1 X59.674 Y77.02 E4.01687
G1 X40.159 Y77.016 E6.16887
G1 X39.782 Y76.992 E6.21052
G1 X39.484 Y76.955 E6.24364
G1 X39.2 Y76.9 E6.27554
G1 X38.909 Y76.824 E6.3087
G1 X38.649 Y76.739 E6.33887
G1 X38.372 Y76.629 E6.37173
G1 X38.111 Y76.505 E6.4036
G1 X37.856 Y76.364 E6.43573
G1 X37.636 Y76.224 E6.46449
G1 X37.37 Y76.026 E6.50105
G1 X36.887 Y75.604 E6.57178
G1 X36.53 Y75.204 E6.63091
G1 X36.363 Y74.989 E6.66093
G1 X36.204 Y74.753 E6.69231
G1 X36.049 Y74.49 E6.72597
G1 X35.919 Y74.233 E6.75773
G1 X35.803 Y73.963 E6.79014
G1 X35.711 Y73.707 E6.82013
G1 X35.627 Y73.415 E6.85364
G1 X35.571 Y73.154 E6.88308
G1 X35.523 Y72.834 E6.91876
G1 X35.486 Y72.356 E6.97163
G1 X35.48 Y72.188 E6.99016
G1 X35.484 Y61.661 E8.15102
G1 X35.508 Y61.284 E8.19268
G1 X35.545 Y60.986 E8.22579
G1 X35.6 Y60.702 E8.25769
G1 X35.676 Y60.411 E8.29086
G1 X35.76 Y60.153 E8.32078
G1 X35.871 Y59.874 E8.35389
G1 X35.993 Y59.616 E8.38536
G1 X36.139 Y59.353 E8.41853
G1 X36.276 Y59.138 E8.44664
G1 X36.474 Y58.872 E8.48321
G1 X36.894 Y58.391 E8.55363
M73 P1
G1 X37.296 Y58.032 E8.61306
G1 X37.511 Y57.865 E8.64308
G1 X37.742 Y57.709 E8.67382
G1 X38.01 Y57.551 E8.70813
G1 X38.267 Y57.421 E8.73989
G1 X38.537 Y57.305 E8.77229
G1 X38.793 Y57.213 E8.80229
G1 X39.085 Y57.129 E8.8358
G1 X39.346 Y57.073 E8.86523
G1 X39.666 Y57.025 E8.90092
G1 X40.134 Y56.989 E8.95268
G1 X40.326 Y56.982 E8.97386
G1 X46.093 Y56.982 E9.60981
G1 X46.761 Y56.94 E9.68362
G1 X47.432 Y56.811 E9.75897
G1 X48.081 Y56.598 E9.83429
G1 X48.698 Y56.306 E9.90957
G1 X49.273 Y55.938 E9.98485
G1 X49.797 Y55.5 E10.06016
G1 X50.261 Y55 E10.13538
G1 X50.66 Y54.444 E10.21085
G1 X50.984 Y53.844 E10.28604
G1 X51.23 Y53.208 E10.36124
G1 X51.396 Y52.539 E10.43725
G1 X51.48 Y51.6 E10.54121
G1 X51.484 Y47.659 E10.9758
G1 X51.508 Y47.282 E11.01746
G1 X51.545 Y46.984 E11.05057
G1 X51.6 Y46.7 E11.08247
G1 X51.676 Y46.409 E11.11564
G1 X51.76 Y46.151 E11.14556
G1 X51.871 Y45.872 E11.17867
G1 X51.993 Y45.614 E11.21014
G1 X52.132 Y45.364 E11.24169
G1 X52.284 Y45.126 E11.27283
G1 X52.474 Y44.87 E11.30798
G1 X52.894 Y44.389 E11.3784
G1 X53.296 Y44.03 E11.43783
G1 X53.511 Y43.863 E11.46786
G1 X53.742 Y43.707 E11.49859
G1 X54.01 Y43.549 E11.5329
G1 X54.267 Y43.419 E11.56466
G1 X54.537 Y43.303 E11.59707
G1 X54.793 Y43.211 E11.62706
G1 X55.085 Y43.127 E11.66057
G1 X55.346 Y43.071 E11.69001
G1 X55.666 Y43.023 E11.72569
G1 X56.134 Y42.987 E11.77745
G1 X56.326 Y42.98 E11.79864
G1 X59.841 Y42.984 E12.18625
G1 X60.218 Y43.008 E12.22791
G1 X60.516 Y43.045 E12.26102
G1 X60.8 Y43.1 E12.29292
G1 X61.091 Y43.176 E12.32609
G1 X61.349 Y43.26 E12.35601
G1 X61.628 Y43.371 E12.38912
G1 X61.886 Y43.493 E12.42059
G1 X62.145 Y43.637 E12.45327
G1 X62.364 Y43.776 E12.48187
G1 X62.63 Y43.974 E12.51844
G1 F3600 X62.4 Y43.803
G1 F1200 X62.4 Y76.198 E16.09076
G1 F1680 E13.09076
G1 F3600 X60.8 Y76.898
G1 F1680 E16.09076
G1 F1200 X60.8 Y43.1 E19.8178
G1 F1680 E16.8178
G1 F3600 X59.2 Y42.984
G1 F1680 E19.8178
G1 F1200 X59.2 Y77.019 E23.57098
G1 F1680 E20.57098
G1 F3600 X57.6 Y77.019
G1 F1680 E23.57098
G1 F1200 X57.6 Y42.982 E27.32437
G1 F1680 E24.32437
G1 F3600 X56 Y42.997
G1 F1680 E27.32437
G1 F1200 X56 Y77.019 E31.07612
G1 F1680 E28.07612
G1 F3600 X54.4 Y77.018
G1 F1680 E31.07612
G1 F1200 X54.4 Y43.361 E34.78761
G1 F1680 E31.78761
G1 F3600 X52.8 Y44.496
G1 F1680 E34.78761
G1 F1200 X52.8 Y77.018 E38.37394
G1 F1680 E35.37394
G1 F3600 X51.2 Y77.018
G1 F1680 E38.37394
G1 F1200 X51.2 Y53.285 E40.99107
G1 F1680 E37.99107
G1 F3600 X49.6 Y55.664
G1 F1680 E40.99107
G1 F1200 X49.6 Y77.017 E43.34575
G1 F1680 E40.34575
G1 F3600 X48 Y77.017
G1 F1680 E43.34575
G1 F1200 X48 Y56.624 E45.59457
G1 F1680 E42.59457
G1 F3600 X46.4 Y56.962
G1 F1680 E45.59457
G1 F1200 X46.4 Y77.017 E47.80611
M73 P2
G1 F1680 E44.80611
G1 F3600 X44.8 Y77.016
G1 F1680 E47.80611
G1 F1200 X44.8 Y56.982 E50.01534
G1 F1680 E47.01534
G1 F3600 X43.2 Y56.982
G1 F1680 E50.01534
G1 F1200 X43.2 Y77.016 E52.22457
G1 F1680 E49.22457
G1 F3600 X41.6 Y77.016
G1 F1680 E52.22457
G1 F1200 X41.6 Y56.982 E54.4338
G1 F1680 E51.4338
G1 F3600 X40 Y56.999
G1 F1680 E54.4338
G1 F1200 X40 Y77.005 E56.63994
G1 F1680 E53.63994
G1 F3600 X38.4 Y76.64
G1 F1680 E56.63994
G1 F1200 X38.4 Y57.363 E58.76569
G1 F1680 E55.76569
G1 F3600 X36.8 Y58.498
M104 T0 S200
G1 F1680 E58.76569
G1 F1200 X36.8 Y75.506 E60.64123
G1 F1680 E57.64123
G1 F3600 X64 Y74.399
G1 F1680 E60.64123
G1 F1200 X64 Y45.607 E63.81624
G1 F1680 E60.81624
G1 F3600 X62.665 Y43.935
;TIME_ELAPSED:34.361926
;LAYER:-5
G1 X62.665 Y43.935 Z0.619
;TYPE:SUPPORT
G1 F1680 E63.81624
G1 F1980 X62.392 Y43.733 E63.84155
G1 X62.166 Y43.591 E63.86145
G1 X61.916 Y43.452 E63.88277
G1 X61.64 Y43.32 E63.90558
G1 X61.383 Y43.217 E63.92622
G1 X61.103 Y43.127 E63.94814
G1 X60.89 Y43.071 E63.96456
G1 X64.43 Y46.611 E64.33773
G1 X64.478 Y46.83 E64.35445
G1 X64.527 Y47.156 E64.37902
G1 X64.563 Y47.625 E64.41408
G1 X64.57 Y47.811 E64.42796
G1 X64.57 Y48.023 E64.44376
G1 X59.478 Y42.932 E64.98049
G1 X58.204 Y42.931 E65.07546
G1 X64.57 Y49.296 E65.7465
G1 X64.57 Y50.569 E65.84139
G1 X56.93 Y42.929 E66.64678
G1 X56.323 Y42.929 E66.69203
G1 X56.128 Y42.936 E66.70657
G1 X55.697 Y42.969 E66.73879
G1 X64.57 Y51.842 E67.67416
G1 X64.569 Y53.114 E67.76898
G1 X54.66 Y43.204 E68.81362
G1 X54.515 Y43.255 E68.82508
G1 X54.239 Y43.373 E68.84745
G1 X53.989 Y43.501 E68.86839
G1 X53.797 Y43.615 E68.88503
G1 X64.569 Y54.387 E70.02059
G1 X64.569 Y55.659 E70.11541
G1 X53.071 Y44.161 E71.3275
G1 X52.867 Y44.342 E71.34783
G1 X52.73 Y44.491 E71.36292
G1 X52.451 Y44.815 E71.39479
G1 X64.569 Y56.932 E72.67219
G1 X64.568 Y58.204 E72.76701
G1 X51.949 Y45.585 E74.09727
G1 X51.822 Y45.853 E74.11938
G1 X51.719 Y46.11 E74.14002
G1 X51.625 Y46.396 E74.16246
G1 X51.596 Y46.505 E74.17087
G1 X64.568 Y59.477 E75.53834
G1 X64.568 Y60.75 E75.63324
G1 X51.434 Y47.616 E77.01779
G1 X51.432 Y47.656 E77.02078
G1 X51.431 Y48.885 E77.11239
G1 X64.568 Y62.023 E78.49731
G1 X64.568 Y63.295 E78.59213
G1 X51.429 Y50.157 E79.97716
G1 X51.429 Y51.429 E80.07198
G1 X64.568 Y64.568 E81.45706
G1 X64.568 Y65.84 E81.55188
G1 X51.327 Y52.6 E82.94766
G1 X51.181 Y53.19 E82.99297
G1 X51.031 Y53.577 E83.02391
G1 X64.568 Y67.113 E84.45089
G1 X64.567 Y68.385 E84.54571
G1 X50.609 Y54.427 E86.01713
G1 X50.221 Y54.966 E86.06663
G1 X50.054 Y55.145 E86.08488
G1 X64.567 Y69.658 E87.61481
G1 X64.567 Y70.931 E87.7097
G1 X49.401 Y55.765 E89.30847
G1 X49.242 Y55.896 E89.32382
G1 X48.672 Y56.26 E89.37424
G1 X48.639 Y56.276 E89.37697
M73 P3
G1 X64.567 Y72.204 E91.05606
G1 X64.566 Y72.341 E91.06628
G1 X64.542 Y72.725 E91.09496
G1 X64.507 Y73.013 E91.11658
G1 X64.45 Y73.309 E91.13905
G1 X64.44 Y73.349 E91.14212
G1 X47.745 Y56.654 E92.90207
G1 X47.419 Y56.76 E92.92763
G1 X46.755 Y56.888 E92.97803
G1 X46.709 Y56.891 E92.98147
G1 X64.108 Y74.29 E94.81563
G1 X64.048 Y74.415 E94.82597
G1 X63.909 Y74.666 E94.84735
G1 X63.766 Y74.893 E94.86735
G1 X63.626 Y75.081 E94.88483
G1 X45.475 Y56.93 E96.79826
G1 X44.202 Y56.93 E96.89315
G1 X63.023 Y75.751 E98.87722
G1 X62.754 Y75.994 E98.90424
G1 X62.513 Y76.18 E98.92694
G1 X62.314 Y76.315 E98.94486
G1 X42.929 Y56.93 E100.98838
G1 X41.657 Y56.93 E101.0832
G1 X61.472 Y76.745 E103.17205
G1 X61.207 Y76.842 E103.19309
G1 X60.939 Y76.919 E103.21387
G1 X60.657 Y76.979 E103.23536
G1 X60.462 Y77.008 E103.25006
G1 X40.384 Y56.93 E105.36664
G1 X40.324 Y56.929 E105.37111
G1 X40.129 Y56.936 E105.38565
G1 X39.653 Y56.973 E105.42124
G1 X39.342 Y57.02 E105.44469
G1 X39.226 Y57.045 E105.45353
G1 X59.25 Y77.069 E107.56442
G1 X57.977 Y77.069 E107.65931
G1 X38.27 Y57.362 E109.73678
G1 X38.239 Y57.375 E109.73928
G1 X37.99 Y57.503 E109.76015
G1 X37.715 Y57.664 E109.7839
G1 X37.487 Y57.818 E109.80441
G1 X37.468 Y57.833 E109.80622
G1 X56.705 Y77.069 E111.83409
G1 X55.431 Y77.068 E111.92905
G1 X36.791 Y58.428 E113.89404
G1 X36.435 Y58.835 E113.93434
G1 X36.233 Y59.107 E113.9596
G1 X36.218 Y59.128 E113.96152
G1 X54.158 Y77.068 E115.85272
G1 X52.885 Y77.068 E115.94761
G1 X35.779 Y59.962 E117.75088
G1 X35.72 Y60.112 E117.7629
G1 X35.626 Y60.396 E117.7852
G1 X35.549 Y60.691 E117.80792
G1 X35.498 Y60.954 E117.82789
G1 X51.612 Y77.068 E119.5266
G1 X50.339 Y77.068 E119.62149
G1 X35.432 Y62.161 E121.19295
G1 X35.431 Y63.433 E121.28777
G1 X49.066 Y77.067 E122.72508
G1 X47.793 Y77.067 E122.81997
G1 X35.431 Y64.705 E124.12315
G1 X35.43 Y65.978 E124.21804
G1 X46.519 Y77.066 E125.38696
G1 X45.247 Y77.066 E125.48178
G1 X35.43 Y67.25 E126.51661
G1 X35.43 Y68.522 E126.61143
G1 X43.974 Y77.066 E127.51212
G1 X42.7 Y77.066 E127.60709
G1 X35.429 Y69.794 E128.37363
G1 X35.428 Y71.067 E128.46852
G1 X41.427 Y77.066 E129.10092
G1 X40.156 Y77.066 E129.19566
G1 F3600 X40.154 Y77.065
G1 F1980 X35.434 Y72.345 E129.69324
G1 X35.435 Y72.358 E129.69421
G1 X35.472 Y72.845 E129.73061
G1 X35.518 Y73.156 E129.75405
G1 X35.58 Y73.438 E129.77557
G1 X35.656 Y73.707 E129.79641
G1 X35.731 Y73.915 E129.81289
G1 X38.584 Y76.768 E130.11365
G1 X38.359 Y76.678 E130.13171
G1 X38.081 Y76.546 E130.15465
G1 X37.831 Y76.408 E130.17594
G1 X37.606 Y76.265 E130.19581
G1 X37.333 Y76.063 E130.22112
G1 X36.851 Y75.639 E130.26898
G1 X36.505 Y75.253 E130.30762
G1 X36.317 Y75.011 E130.33046
G1 X36.16 Y74.777 E130.35146
G1 X35.998 Y74.505 E130.37506
G1 X35.873 Y74.259 E130.39563
G1 X35.756 Y73.982 E130.41805
G1 F1680 E127.41805
G1 F3600 X64.418 Y46.558
G1 F1680 E130.41805
G1 F1980 X64.344 Y46.3 E130.43805
G1 X64.232 Y45.99 E130.46262
G1 X64.131 Y45.753 E130.48183
G1 X64 Y45.493 E130.50353
G1 X63.836 Y45.215 E130.52759
M73 P4
G1 X63.682 Y44.988 E130.54804
G1 X63.493 Y44.745 E130.57098
G1 X63.148 Y44.36 E130.60952
G1 X62.665 Y43.935 E130.65748
G1 F3600 X62.969 Y44
;TIME_ELAPSED:62.794253
;LAYER:-4
M106 S255
G1 X62.969 Y44 Z0.869
G1 F2400 X53.027 Y44 E131.05015
G1 X53.154 Y43.886 E131.05689
G1 X53.39 Y43.702 E131.06871
G1 X53.542 Y43.6 E131.07594
G1 X62.46 Y43.6 E131.42817
G1 X62.241 Y43.461 E131.43841
G1 X61.993 Y43.323 E131.44962
G1 X61.735 Y43.2 E131.46091
G1 X54.267 Y43.2 E131.75587
G1 X54.458 Y43.118 E131.76408
G1 X54.746 Y43.014 E131.77617
G1 X55.031 Y42.933 E131.78788
G1 X55.305 Y42.873 E131.79895
G1 X55.647 Y42.822 E131.81261
G1 X55.936 Y42.8 E131.82406
G1 X56.119 Y42.786 E131.83131
G1 X56.318 Y42.779 E131.83917
G1 X59.84 Y42.783 E131.97828
G1 F3600 X60.105 Y42.8
G1 F2400 X55.936 Y42.8 E132.14294
G1 F1680 E129.14294
G1 F3600 X52.617 Y44.4
G1 F1680 E132.14294
G1 F2400 X63.386 Y44.4 E132.56828
G1 X63.257 Y44.256 E132.57591
G1 X63.114 Y44.125 E132.58357
G1 X62.969 Y44 E132.59113
G1 F1680 E129.59113
G1 F3600 X63.726 Y44.8
G1 F1680 E132.59113
G1 F2400 X63.796 Y44.89 E132.59564
G1 X63.971 Y45.15 E132.60802
G1 X64.001 Y45.2 E132.61032
G1 X51.997 Y45.2 E133.08443
G1 X51.963 Y45.253 E133.08692
G1 X51.823 Y45.505 E133.09831
G1 X51.778 Y45.6 E133.10246
G1 X64.222 Y45.6 E133.59395
G1 X64.258 Y45.673 E133.59717
G1 X64.378 Y45.951 E133.60913
G1 X64.396 Y46 E133.61119
G1 X51.604 Y46 E134.11643
G1 X51.573 Y46.076 E134.11967
G1 X51.48 Y46.361 E134.13151
G1 X51.47 Y46.4 E134.1331
G1 X64.528 Y46.4 E134.64884
G1 X64.564 Y46.525 E134.65398
G1 X64.623 Y46.793 E134.66482
G1 F3600 X64.625 Y46.8
G1 F2400 X51.376 Y46.8 E135.18811
G1 X51.345 Y46.957 E135.19443
G1 X51.316 Y47.2 E135.20409
G1 X64.68 Y47.2 E135.73192
G1 X64.711 Y47.6 E135.74777
G1 X51.287 Y47.6 E136.27797
G1 X51.283 Y47.658 E136.28026
G1 X51.283 Y48 E136.29377
G1 X64.718 Y48 E136.82441
G1 X64.718 Y48.4 E136.84021
G1 X51.283 Y48.4 E137.37084
G1 X51.282 Y48.8 E137.38664
G1 X64.718 Y48.8 E137.91731
G1 X64.718 Y49.2 E137.93311
G1 X51.282 Y49.2 E138.46378
G1 X51.282 Y49.6 E138.47958
G1 X64.718 Y49.6 E139.01026
G1 X64.718 Y50 E139.02606
G1 X51.281 Y50 E139.55677
G1 X51.281 Y50.4 E139.57257
G1 X64.718 Y50.4 E140.10328
G1 X64.718 Y50.8 E140.11908
G1 X51.28 Y50.8 E140.64983
G1 X51.28 Y51.2 E140.66563
G1 X64.718 Y51.2 E141.19638
G1 X64.718 Y51.6 E141.21218
G1 X51.279 Y51.6 E141.74297
G1 X51.243 Y52 E141.75884
G1 X64.718 Y52 E142.29105
G1 X64.718 Y52.4 E142.30685
G1 X51.207 Y52.4 E142.84048
G1 X51.197 Y52.505 E142.84465
G1 X51.124 Y52.8 E142.85665
G1 X64.718 Y52.8 E143.39357
G1 X64.718 Y53.2 E143.40937
G1 X51.018 Y53.2 E143.95047
G1 X50.863 Y53.6 E143.96741
G1 X64.718 Y53.6 E144.51463
G1 X64.717 Y54 E144.53043
G1 X50.671 Y54 E145.0852
G1 X50.489 Y54.337 E145.10033
G1 X50.444 Y54.4 E145.10338
G1 X64.717 Y54.4 E145.66712
G1 X64.717 Y54.8 E145.68291
M73 P5
G1 X50.157 Y54.8 E146.25798
G1 X50.105 Y54.872 E146.26149
G1 X49.801 Y55.2 E146.27915
G1 X64.717 Y55.2 E146.86828
G1 X64.717 Y55.6 E146.88408
G1 X49.364 Y55.6 E147.49047
G1 X49.154 Y55.776 E147.50129
G1 X48.803 Y56 E147.51774
G1 X64.717 Y56 E148.14628
G1 X64.717 Y56.4 E148.16208
G1 X48.029 Y56.4 E148.8212
G1 X48.005 Y56.411 E148.82224
G1 X47.381 Y56.616 E148.84818
G1 X46.735 Y56.74 E148.87416
G1 X46.085 Y56.781 E148.89989
G1 X40.318 Y56.781 E149.12766
G1 X40.119 Y56.788 E149.13553
G1 X39.962 Y56.8 E149.14175
G1 X64.717 Y56.8 E150.11948
G1 X64.717 Y57.2 E150.13528
G1 X38.272 Y57.2 E151.17976
G1 X38.173 Y57.242 E151.18401
G1 X37.918 Y57.371 E151.19529
G1 X37.65 Y57.529 E151.20758
G1 X37.545 Y57.6 E151.21259
G1 X64.717 Y57.6 E152.28578
G1 X64.717 Y58 E152.30158
G1 X37.029 Y58 E153.39516
G1 X36.753 Y58.246 E153.40976
G1 X36.619 Y58.4 E153.41783
G1 X64.717 Y58.4 E154.5276
G1 X64.717 Y58.8 E154.54339
G1 X36.276 Y58.8 E155.66671
G1 X36.118 Y59.012 E155.67715
G1 X35.999 Y59.2 E155.68594
G1 X64.717 Y59.2 E156.8202
G1 X64.717 Y59.6 E156.836
G1 X35.779 Y59.6 E157.97895
G1 X35.679 Y59.811 E157.98817
G1 X35.604 Y60 E157.9962
G1 X64.717 Y60 E159.14606
G1 X64.716 Y60.4 E159.16186
G1 X35.471 Y60.4 E160.31693
G1 X35.404 Y60.652 E160.32723
G1 X35.376 Y60.8 E160.33318
G1 X64.716 Y60.8 E161.492
G1 X64.716 Y61.2 E161.5078
G1 X35.316 Y61.2 E162.66899
G1 X35.309 Y61.256 E162.67122
G1 X35.287 Y61.6 E162.68484
G1 X64.716 Y61.6 E163.84718
G1 X64.716 Y62 E163.86298
G1 X35.283 Y62 E165.02547
G1 X35.283 Y62.4 E165.04127
G1 X64.716 Y62.4 E166.20377
G1 X64.716 Y62.8 E166.21957
G1 X35.283 Y62.8 E167.38207
G1 X35.283 Y63.2 E167.39787
G1 X64.716 Y63.2 E168.56036
G1 X64.716 Y63.6 E168.57616
G1 X35.283 Y63.6 E169.73866
G1 X35.283 Y64 E169.75446
G1 X64.716 Y64 E170.91696
G1 X64.716 Y64.4 E170.93276
G1 X35.282 Y64.4 E172.09529
G1 X35.282 Y64.8 E172.11109
G1 X64.716 Y64.8 E173.27363
G1 X64.716 Y65.2 E173.28943
G1 X35.282 Y65.2 E174.45196
G1 X35.282 Y65.6 E174.46776
G1 X64.716 Y65.6 E175.6303
G1 X64.716 Y66 E175.6461
G1 X35.282 Y66 E176.80864
G1 X35.282 Y66.4 E176.82443
