M73 P0
;MINX:38.5
;MAXX:56.5
;MINY:56.0
;MAXY:74.0
;MINZ:0.0
;MAXZ:16.3
;MachineType:ENTINA TINA2
;FilamentType:PLA
;Extruder0Temperature:205
;InfillDensity:75
;FLAVOR:Marlin
;TIME:227
;FilamentUsed:206.4
;Layer height: 0.35

;Generated with Cura_SteamEngine 3.1
M104 T0 S220
M82 ; absolute extrusion mode
;(**** start.gcode for tina2****)
M104 S150
G28 Z
G28 X Y; Home extruder
G1 X55 Y55 F1000
G1 Z10 F200
G29
G1 Z15 F100
M107 ; Turn off fan
G90 ; Absolute positioning
M82 ; Extruder in absolute mode
M109 S220.0
G92 E0 ; Reset extruder position
G1 X90 Y6 Z0.27 F2000
G1 X20 Y6 Z0.27 E15 F1000
G92 E0 ; Reset extruder position

;LAYER_COUNT:44
;LAYER:-5
M107
M203 Z5
G1 F3600 X52.808 Y58.239 Z0.349
G1 F1200 X53.176 Y58.544 E0.05271
G1 X53.387 Y58.737 E0.08424
G1 X53.72 Y59.067 E0.13594
G1 X53.949 Y59.316 E0.17324
G1 X54.261 Y59.692 E0.22712
G1 X54.481 Y59.984 E0.26744
G1 X54.752 Y60.384 E0.32072
G1 X54.929 Y60.676 E0.35837
G1 X55.218 Y61.214 E0.42572
G1 X55.32 Y61.43 E0.45206
G1 X55.549 Y61.983 E0.51806
G1 X55.642 Y62.24 E0.5482
G1 X55.765 Y62.641 E0.59445
G1 X55.868 Y63.033 E0.63915
G1 X55.962 Y63.487 E0.69028
G1 X56.022 Y63.872 E0.73324
G1 X56.07 Y64.333 E0.78435
G1 X56.092 Y64.733 E0.82853
G1 X56.094 Y65.19 E0.87893
G1 X56.078 Y65.547 E0.91833
G1 X56.033 Y66.039 E0.97281
G1 X55.981 Y66.4 E1.01303
G1 X55.898 Y66.833 E1.06165
G1 X55.813 Y67.186 E1.10169
G1 X55.655 Y67.713 E1.16236
G1 X55.518 Y68.092 E1.2068
G1 X55.327 Y68.549 E1.26142
G1 X55.16 Y68.897 E1.30399
G1 X54.939 Y69.302 E1.35486
G1 X54.698 Y69.694 E1.40561
G1 X54.448 Y70.06 E1.45449
G1 X54.267 Y70.301 E1.48772
G1 X53.948 Y70.685 E1.54277
G1 X53.72 Y70.933 E1.57992
G1 X53.441 Y71.212 E1.62343
G1 X53.11 Y71.513 E1.67277
G1 X52.73 Y71.822 E1.72678
G1 X52.431 Y72.041 E1.76765
G1 X52.055 Y72.29 E1.81738
G1 X51.717 Y72.49 E1.86069
G1 X51.286 Y72.717 E1.9144
G1 X50.946 Y72.875 E1.95575
G1 X50.517 Y73.049 E2.0068
G1 X50.26 Y73.142 E2.03694
G1 X49.859 Y73.265 E2.08319
G1 X49.467 Y73.368 E2.12789
G1 X49.006 Y73.463 E2.17979
G1 X48.618 Y73.523 E2.22309
G1 X48.16 Y73.57 E2.27386
G1 X47.767 Y73.592 E2.31726
G1 X47.31 Y73.594 E2.36766
G1 X46.953 Y73.578 E2.40706
M73 P1
G1 X46.457 Y73.532 E2.46199
G1 X46.1 Y73.481 E2.50176
G1 X45.659 Y73.396 E2.55129
G1 X45.331 Y73.317 E2.58849
G1 X44.74 Y73.142 E2.65646
G1 X44.483 Y73.049 E2.6866
G1 X43.93 Y72.819 E2.75265
G1 X43.612 Y72.666 E2.79156
G1 X43.176 Y72.429 E2.84628
G1 X42.891 Y72.257 E2.88299
G1 X42.476 Y71.975 E2.93832
G1 X42.192 Y71.761 E2.97754
G1 X41.824 Y71.456 E3.03024
G1 X41.608 Y71.258 E3.06255
G1 X41.28 Y70.933 E3.11347
G1 X40.987 Y70.61 E3.16156
G1 X40.676 Y70.227 E3.21597
G1 X40.45 Y69.918 E3.25818
G1 X40.207 Y69.55 E3.30681
G1 X40.005 Y69.208 E3.35062
G1 X39.783 Y68.786 E3.4032
G1 X39.625 Y68.446 E3.44454
G1 X39.447 Y68.008 E3.49668
G1 X39.326 Y67.66 E3.53731
G1 X39.183 Y67.169 E3.5937
G1 X39.102 Y66.833 E3.63181
G1 X39.019 Y66.4 E3.68043
G1 X38.967 Y66.039 E3.72065
G1 X38.922 Y65.547 E3.77513
G1 X38.906 Y65.199 E3.81355
G1 X38.908 Y64.733 E3.86494
G1 X38.929 Y64.345 E3.90779
G1 X38.977 Y63.882 E3.95912
G1 X39.036 Y63.498 E4.00196
G1 X39.132 Y63.033 E4.05432
G1 X39.232 Y62.651 E4.09786
G1 X39.358 Y62.24 E4.14527
G1 X39.451 Y61.983 E4.1754
G1 X39.681 Y61.43 E4.24145
G1 X39.834 Y61.112 E4.28037
G1 X40.066 Y60.684 E4.33405
G1 X40.248 Y60.384 E4.37274
G1 X40.519 Y59.984 E4.42602
G1 X40.739 Y59.692 E4.46634
G1 X41.044 Y59.324 E4.51905
G1 X41.28 Y59.067 E4.55752
G1 X41.608 Y58.742 E4.60844
G1 X41.824 Y58.544 E4.64075
G1 X42.192 Y58.239 E4.69346
G1 X42.484 Y58.019 E4.73378
G1 X42.884 Y57.748 E4.78706
G1 X43.176 Y57.571 E4.82471
G1 X43.714 Y57.282 E4.89206
G1 X43.93 Y57.18 E4.9184
G1 X44.483 Y56.951 E4.9844
G1 X44.74 Y56.858 E5.01454
G1 X45.141 Y56.735 E5.06079
G1 X45.533 Y56.632 E5.10549
G1 X45.994 Y56.537 E5.15739
G1 X46.382 Y56.477 E5.20069
G1 X46.84 Y56.43 E5.25146
G1 X47.233 Y56.408 E5.29486
G1 X47.69 Y56.406 E5.34526
G1 X48.047 Y56.422 E5.38467
G1 X48.543 Y56.468 E5.4396
G1 X48.9 Y56.519 E5.47937
G1 X49.341 Y56.604 E5.52889
G1 X49.669 Y56.683 E5.5661
G1 X50.26 Y56.858 E5.63406
G1 X50.517 Y56.951 E5.6642
G1 X51.07 Y57.181 E5.73025
G1 X51.388 Y57.334 E5.76916
G1 X51.824 Y57.571 E5.82389
G1 X52.116 Y57.748 E5.86154
G1 X52.516 Y58.019 E5.91482
G1 X52.808 Y58.239 E5.95514
G1 F3600 X52.8 Y58.233
G1 F1200 X52.8 Y71.766 E7.44748
G1 F1680 E4.44748
G1 F3600 X51.2 Y72.757
G1 F1680 E7.44748
M73 P2
G1 F1200 X51.2 Y57.244 E9.15816
G1 F1680 E6.15816
G1 F3600 X49.6 Y56.667
G1 F1680 E9.15816
G1 F1200 X49.6 Y73.334 E10.99609
G1 F1680 E7.99609
G1 F3600 X48 Y73.579
G1 F1680 E10.99609
G1 F1200 X48 Y56.42 E12.88828
G1 F1680 E9.88828
G1 F3600 X46.4 Y56.475
G1 F1680 E12.88828
G1 F1200 X46.4 Y73.523 E14.76823
G1 F1680 E11.76823
G1 F3600 X44.8 Y73.159
G1 F1680 E14.76823
G1 F1200 X44.8 Y56.839 E16.5679
G1 F1680 E13.5679
G1 F3600 X43.2 Y57.558
M104 T0 S205
G1 F1680 E16.5679
G1 F1200 X43.2 Y72.442 E18.20922
G1 F1680 E15.20922
G1 F3600 X41.6 Y71.25
G1 F1680 E18.20922
G1 F1200 X41.6 Y58.749 E19.58776
G1 F1680 E16.58776
G1 F3600 X40 Y60.805
G1 F1680 E19.58776
G1 F1200 X40 Y69.198 E20.51329
G1 F1680 E17.51329
G1 F3600 X54.4 Y70.124
G1 F1680 E20.51329
G1 F1200 X54.4 Y59.877 E21.64326
G1 F1680 E18.64326
G1 F3600 X56 Y63.731
G1 F1680 E21.64326
G1 F1200 X56 Y66.269 E21.92314
G1 F1680 E18.92314
G1 F3600 X52.832 Y58.191
;TIME_ELAPSED:13.862198
;LAYER:-4
M106 S46
G1 X52.832 Y58.191 Z0.619
;TYPE:SUPPORT
G1 F1680 E21.92314
G1 F1980 X52.554 Y57.982 E21.94907
G1 X52.08 Y57.665 E21.99157
G1 X51.741 Y57.464 E22.02095
G1 X51.309 Y57.236 E22.05736
G1 X51.09 Y57.133 E22.0754
G1 X50.541 Y56.905 E22.11971
G1 X55.596 Y61.96 E22.6526
G1 F3600 X55.365 Y61.408
G1 F1980 X55.263 Y61.19 E22.67054
G1 X55.034 Y60.758 E22.70699
G1 X54.834 Y60.418 E22.73639
G1 X54.517 Y59.944 E22.7789
G1 X54.36 Y59.734 E22.79844
G1 X53.986 Y59.281 E22.84223
G1 X53.756 Y59.029 E22.86766
G1 X53.421 Y58.699 E22.90271
G1 X53.142 Y58.447 E22.93074
G1 X52.832 Y58.191 E22.96071
G1 F1680 E19.96071
G1 F3600 X50.534 Y56.902
G1 F1680 E22.96071
G1 F1980 X50.276 Y56.81 E22.98113
G1 X49.872 Y56.685 E23.01265
G1 X49.487 Y56.584 E23.04232
G1 X49.021 Y56.487 E23.0778
G1 X48.818 Y56.455 E23.09312
G1 X56.045 Y63.682 E23.85497
G1 X56.083 Y63.945 E23.87478
G1 X56.129 Y64.449 E23.91251
G1 X56.142 Y64.72 E23.93273
G1 X56.144 Y65.054 E23.95763
G1 X47.446 Y56.355 E24.8746
G1 X47.23 Y56.356 E24.8907
G1 X46.95 Y56.369 E24.9116
G1 X46.45 Y56.416 E24.94903
M73 P3
G1 X46.261 Y56.443 E24.96326
G1 X56.056 Y66.238 E25.99583
G1 X56.013 Y66.511 E26.01643
G1 X55.916 Y66.978 E26.05199
G1 X55.86 Y67.206 E26.06949
G1 X55.834 Y67.289 E26.07597
G1 X45.209 Y56.664 E27.19603
G1 X44.723 Y56.81 E27.23386
G1 X44.466 Y56.901 E27.25418
G1 X44.259 Y56.987 E27.27089
G1 X55.513 Y68.241 E28.45726
G1 X55.332 Y68.66 E28.49128
G1 X55.179 Y68.971 E28.51712
G1 X55.105 Y69.106 E28.5286
G1 X43.393 Y57.393 E29.7633
G1 X43.258 Y57.464 E29.77467
G1 X42.919 Y57.665 E29.80405
G1 X42.603 Y57.877 E29.83241
G1 X54.622 Y69.896 E31.09943
G1 X54.493 Y70.082 E31.1163
G1 X54.298 Y70.341 E31.14047
G1 X54.072 Y70.618 E31.16712
G1 X41.883 Y58.429 E32.45205
G1 X41.782 Y58.512 E32.4618
G1 X41.524 Y58.75 E32.48796
G1 X41.227 Y59.046 E32.51922
G1 X53.45 Y71.269 E33.80774
G1 X53.217 Y71.486 E33.83147
G1 X52.766 Y71.858 E33.87505
G1 X40.641 Y59.733 E35.15324
G1 X40.483 Y59.945 E35.17295
G1 X40.165 Y60.418 E35.21544
G1 X40.124 Y60.488 E35.22148
G1 X52.009 Y72.374 E36.47443
G1 X51.741 Y72.534 E36.49769
G1 X51.309 Y72.762 E36.5341
G1 X51.183 Y72.821 E36.54447
G1 X39.677 Y61.314 E37.75746
G1 X39.634 Y61.408 E37.76517
G1 X39.402 Y61.965 E37.81015
G1 X39.31 Y62.221 E37.83042
G1 X50.277 Y73.187 E38.98649
G1 X49.682 Y73.366 E39.0328
G1 X49.488 Y73.415 E39.04772
G1 X49.274 Y73.457 E39.06397
G1 X39.04 Y63.223 E40.14282
G1 X38.986 Y63.487 E40.16291
G1 X38.926 Y63.872 E40.19195
G1 X38.878 Y64.333 E40.2265
G1 X48.162 Y73.618 E41.20525
G1 X48.05 Y73.628 E41.21363
G1 X47.77 Y73.641 E41.23453
G1 X47.308 Y73.644 E41.26897
G1 X46.894 Y73.623 E41.29987
G1 X38.875 Y65.603 E42.14526
G1 X38.915 Y66.044 E42.17827
G1 X38.966 Y66.399 E42.205
G1 X39.083 Y66.987 E42.24969
G1 X39.116 Y67.117 E42.25969
G1 X45.377 Y73.379 E42.91976
G1 X45.126 Y73.313 E42.93911
G1 X44.72 Y73.187 E42.9708
G1 X44.465 Y73.096 E42.99098
G1 X43.909 Y72.865 E43.03586
G1 X43.69 Y72.762 E43.0539
G1 X43.261 Y72.535 E43.09008
G1 X39.962 Y69.237 E43.4378
G1 F3600 X39.964 Y69.24
G1 F1980 X40.165 Y69.58 E43.46724
G1 X40.401 Y69.937 E43.49914
G1 X40.639 Y70.264 E43.52929
G1 X41.007 Y70.709 E43.57233
G1 X41.244 Y70.968 E43.5985
G1 X41.577 Y71.298 E43.63345
G1 X41.857 Y71.55 E43.66153
G1 X42.166 Y71.807 E43.69149
G1 X42.54 Y72.083 E43.72614
G1 X42.919 Y72.333 E43.75998
G1 X43.261 Y72.535 E43.78959
G1 F1680 E40.78959
G1 F3600 X52.824 Y58
M73 P4
;TIME_ELAPSED:23.647948
;LAYER:-3
M106 S255
G1 X52.824 Y58 Z0.869
G1 F1680 E43.78959
G1 F2400 X42.175 Y58 E44.21019
G1 X42.068 Y58.08 E44.21546
G1 X41.684 Y58.4 E44.2352
G1 X53.315 Y58.4 E44.69459
G1 X53.527 Y58.592 E44.70588
G1 X53.734 Y58.8 E44.71747
G1 X41.263 Y58.8 E45.21003
G1 X41.142 Y58.92 E45.21676
G1 X40.896 Y59.188 E45.23113
G1 X40.887 Y59.2 E45.23173
G1 X54.111 Y59.2 E45.75403
G1 X54.167 Y59.262 E45.75733
G1 X54.442 Y59.6 E45.77454
G1 X40.556 Y59.6 E46.32298
G1 X40.358 Y59.863 E46.33599
G1 X40.267 Y60 E46.34248
G1 X54.735 Y60 E46.91392
G1 X54.962 Y60.344 E46.93019
G1 X54.996 Y60.4 E46.93278
G1 X40.002 Y60.4 E47.52499
G1 X39.829 Y60.692 E47.5384
G1 X39.772 Y60.8 E47.54322
G1 X55.226 Y60.8 E48.1536
G1 X55.339 Y61.011 E48.16305
G1 X55.429 Y61.2 E48.17132
G1 X39.569 Y61.2 E48.79773
G1 X39.496 Y61.35 E48.80432
G1 X39.392 Y61.6 E48.81501
G1 X55.61 Y61.6 E49.45557
G1 X55.737 Y61.914 E49.46894
G1 X55.768 Y62 E49.47256
G1 X39.231 Y62 E50.12571
G1 X39.135 Y62.276 E50.13725
G1 X39.099 Y62.4 E50.14235
G1 X55.9 Y62.4 E50.80593
G1 X56.008 Y62.773 E50.82127
G1 X56.015 Y62.8 E50.82237
G1 X38.984 Y62.8 E51.49503
G1 X38.906 Y63.122 E51.50812
G1 X38.891 Y63.2 E51.51125
G1 X56.107 Y63.2 E52.19122
G1 X56.178 Y63.569 E52.20606
G1 X56.183 Y63.6 E52.2073
G1 X38.816 Y63.6 E52.89324
G1 X38.768 Y63.931 E52.90645
G1 X38.762 Y64 E52.90918
G1 X56.237 Y64 E53.59938
G1 X56.274 Y64.4 E53.61525
G1 X38.726 Y64.4 E54.30833
G1 X38.721 Y64.446 E54.31016
G1 X38.706 Y64.8 E54.32416
G1 X56.293 Y64.8 E55.01878
G1 X56.291 Y65.2 E55.03458
G1 X38.706 Y65.2 E55.72912
G1 X38.707 Y65.276 E55.73212
G1 X38.725 Y65.6 E55.74494
G1 X56.272 Y65.6 E56.43798
G1 X56.268 Y65.68 E56.44115
G1 X56.235 Y66 E56.45385
G1 X38.762 Y66 E57.14397
G1 X38.778 Y66.147 E57.14981
G1 X38.817 Y66.4 E57.15993
G1 X56.18 Y66.4 E57.8457
G1 X56.159 Y66.541 E57.85133
G1 X56.105 Y66.8 E57.86178
G1 X38.892 Y66.8 E58.54163
G1 X38.937 Y67.014 E58.55027
G1 X38.985 Y67.2 E58.55786
G1 X56.012 Y67.2 E59.23036
G1 X55.967 Y67.377 E59.23758
G1 X55.896 Y67.6 E59.24682
G1 X39.099 Y67.6 E59.91024
G1 X39.171 Y67.83 E59.91976
G1 X39.231 Y68 E59.92688
G1 X55.763 Y68 E60.57983
G1 X55.703 Y68.165 E60.58677
M73 P5
G1 X55.603 Y68.4 E60.59686
G1 X39.389 Y68.4 E61.23725
G1 X39.444 Y68.534 E61.24297
G1 X39.569 Y68.8 E61.25458
G1 X55.428 Y68.8 E61.88095
G1 X55.309 Y69.043 E61.89164
G1 X55.221 Y69.2 E61.89875
G1 X39.773 Y69.2 E62.50889
G1 X39.83 Y69.306 E62.51364
G1 X40.003 Y69.6 E62.52712
G1 X54.991 Y69.6 E63.11909
G1 X54.863 Y69.805 E63.12863
G1 X54.729 Y70 E63.13798
G1 X40.267 Y70 E63.70918
G1 X40.358 Y70.135 E63.71561
G1 X40.557 Y70.4 E63.72869
G1 X54.441 Y70.4 E64.27706
G1 X54.421 Y70.427 E64.27839
G1 X54.171 Y70.729 E64.29387
G1 X54.107 Y70.8 E64.29765
G1 X40.887 Y70.8 E64.81979
G1 X40.896 Y70.81 E64.82032
G1 X41.092 Y71.027 E64.83187
G1 X41.263 Y71.2 E64.84148
G1 X53.734 Y71.2 E65.33404
G1 X53.527 Y71.406 E65.34557
G1 X53.312 Y71.6 E65.35701
G1 X41.688 Y71.6 E65.81612
G1 X41.766 Y71.67 E65.82026
G1 X42.145 Y71.978 E65.83955
G1 X42.174 Y72 E65.84098
G1 X52.819 Y72 E66.26142
G1 X52.541 Y72.207 E66.27511
G1 X52.248 Y72.4 E66.28897
G1 X42.749 Y72.4 E66.66415
G1 X42.844 Y72.463 E66.66865
G1 X43.076 Y72.602 E66.67933
G1 X43.446 Y72.8 E66.69591
G1 X51.559 Y72.8 E67.01634
G1 X51.487 Y72.839 E67.01957
G1 X51.034 Y73.054 E67.03938
G1 X50.674 Y73.2 E67.05472
G1 X44.32 Y73.2 E67.30568
G1 X44.666 Y73.327 E67.32024
G1 X45.087 Y73.457 E67.33764
G1 X45.484 Y73.561 E67.35385
G1 X45.672 Y73.6 E67.36144
G1 X49.333 Y73.6 E67.50603
G1 X48.929 Y73.678 E67.52228
G1 X48.567 Y73.73 E67.53673
G1 X48.052 Y73.777 E67.55715
G1 X47.693 Y73.793 E67.57135
G1 X47.222 Y73.791 E67.58995
G1 X46.818 Y73.768 E67.60593
G1 X46.351 Y73.72 E67.62447
G1 X45.952 Y73.658 E67.64042
G1 F1680 E64.64042
G1 F3600 X42.748 Y57.6
G1 F1680 E67.64042
G1 F2400 X52.251 Y57.6 E68.01576
G1 X52.635 Y57.858 E68.03403
G1 X52.824 Y58 E68.04336
G1 F1680 E65.04336
G1 F3600 X51.556 Y57.2
G1 F1680 E68.04336
G1 F2400 X43.435 Y57.2 E68.36412
G1 X43.192 Y57.33 E68.375
G1 X42.844 Y57.535 E68.39095
G1 X42.748 Y57.6 E68.39553
G1 F1680 E65.39553
G1 F3600 X44.319 Y56.8
G1 F1680 E68.39553
G1 F2400 X50.684 Y56.8 E68.64693
G1 X51.148 Y56.995 E68.6668
G1 X51.378 Y57.105 E68.67687
G1 X51.556 Y57.2 E68.68484
G1 F1680 E65.68484
G1 F3600 X49.336 Y56.4
G1 F1680 E68.68484
G1 F2400 X45.655 Y56.4 E68.83023
G1 X45.618 Y56.407 E68.83172
M73 P6
G1 X45.273 Y56.49 E68.84573
G1 X44.776 Y56.635 E68.86618
G1 X44.414 Y56.761 E68.88132
G1 X44.319 Y56.8 E68.88538
G1 F1680 E65.88538
G1 F3600 X45.655 Y56.4
G1 F1680 E68.88538
G1 F2400 X46.069 Y56.32 E68.90203
G1 X46.431 Y56.268 E68.91647
G1 X46.946 Y56.221 E68.9369
G1 X47.305 Y56.205 E68.95109
G1 X47.776 Y56.207 E68.9697
G1 X48.18 Y56.23 E68.98568
G1 X48.647 Y56.278 E69.00422
G1 X49.046 Y56.34 E69.02017
G1 F1680 E66.02017
G1 F3600 X52.93 Y58.08
;TIME_ELAPSED:41.566373
;LAYER:-2
G1 X52.93 Y58.08 Z1.119
G1 F1680 E69.02017
G1 F2400 X52.799 Y57.982 E69.02663
G1 X52.799 Y72.016 E69.58092
G1 X52.541 Y72.207 E69.5936
G1 X52.399 Y72.301 E69.60033
G1 X52.399 Y57.7 E70.17701
G1 X52.154 Y57.535 E70.18868
G1 X51.999 Y57.443 E70.1958
G1 X51.999 Y72.554 E70.79263
G1 X51.806 Y72.668 E70.80148
G1 X51.599 Y72.779 E70.81076
G1 X51.599 Y57.224 E71.42513
G1 X51.378 Y57.105 E71.43504
G1 X51.199 Y57.02 E71.44287
G1 X51.199 Y72.976 E72.07307
G1 X51.034 Y73.054 E72.08028
G1 X50.799 Y73.15 E72.09031
G1 X50.799 Y56.849 E72.73414
G1 X50.686 Y56.801 E72.73899
G1 X50.399 Y56.696 E72.75106
G1 X50.399 Y73.302 E73.40693
G1 X50.222 Y73.363 E73.41433
G1 X49.999 Y73.429 E73.42351
G1 X49.999 Y56.569 E74.08942
G1 X49.911 Y56.541 E74.09307
G1 X49.599 Y56.46 E74.1058
G1 X49.599 Y73.539 E74.78036
G1 X49.38 Y73.591 E74.78925
G1 X49.199 Y73.626 E74.79653
G1 X49.199 Y56.372 E75.478
G1 X49.046 Y56.34 E75.48418
G1 X48.799 Y56.302 E75.49405
G1 X48.799 Y73.697 E76.18109
G1 X48.567 Y73.73 E76.19034
G1 X48.399 Y73.746 E76.19701
G1 X48.399 Y56.253 E76.88792
G1 X48.18 Y56.23 E76.89662
G1 X47.999 Y56.22 E76.90378
G1 X47.999 Y73.78 E77.59733
G1 X47.693 Y73.793 E77.60943
G1 X47.599 Y73.792 E77.61314
G1 X47.599 Y56.207 E78.30769
G1 X47.305 Y56.205 E78.3193
G1 X47.199 Y56.209 E78.32349
G1 X47.199 Y73.789 E79.01784
G1 X46.818 Y73.768 E79.03291
G1 X46.799 Y73.766 E79.03366
G1 X46.799 Y56.234 E79.72611
G1 X46.431 Y56.268 E79.74071
G1 X46.399 Y56.272 E79.74198
G1 X46.399 Y73.724 E80.43127
G1 X46.351 Y73.72 E80.43318
G1 X45.999 Y73.665 E80.44725
G1 X45.999 Y56.333 E81.1318
G1 X45.618 Y56.407 E81.14713
G1 X45.599 Y56.411 E81.1479
G1 X45.599 Y73.584 E81.82617
G1 X45.484 Y73.561 E81.8308
G1 X45.199 Y73.486 E81.84244
G1 X45.199 Y56.511 E82.51289
G1 X44.799 Y56.628 E82.52935
M73 P7
G1 X44.799 Y73.368 E83.19052
G1 X44.666 Y73.327 E83.19602
G1 X44.399 Y73.228 E83.20727
G1 X44.399 Y56.767 E83.85742
G1 X43.999 Y56.929 E83.87446
G1 X43.999 Y73.065 E84.51178
G1 X43.85 Y73.003 E84.51815
G1 X43.62 Y72.893 E84.52822
G1 X43.599 Y72.881 E84.52917
G1 X43.599 Y57.117 E85.1518
G1 X43.511 Y57.159 E85.15565
G1 X43.199 Y57.326 E85.16962
G1 X43.199 Y72.667 E85.77554
G1 X43.076 Y72.602 E85.78103
G1 X42.844 Y72.463 E85.79172
G1 X42.799 Y72.432 E85.79387
G1 X42.799 Y57.565 E86.38107
G1 X42.399 Y57.834 E86.40011
G1 X42.399 Y72.165 E86.96613
G1 X42.363 Y72.141 E86.96784
G1 X42.145 Y71.978 E86.97859
G1 X41.999 Y71.859 E86.98603
G1 X41.999 Y58.137 E87.528
G1 X41.688 Y58.396 E87.54398
