M73 P0
;MINX:28.3
;MAXX:71.7
;MINY:46.6
;MAXY:73.4
;MINZ:0.0
;MAXZ:19.5
;MachineType:ENTINA TINA2
;FilamentType:PLA
;Extruder0Temperature:200
;InfillDensity:10
;FLAVOR:Marlin
;TIME:1702
;FilamentUsed:1088.6
;Layer height: 0.2

;Generated with Cura_SteamEngine 3.1
M104 T0 S215
M82 ; absolute extrusion mode
;(**** start.gcode for tina2****)
M104 S150
G28 Z
G28 X Y; Home extruder
G1 X55 Y55 F1000
G1 Z10 F200
G29
G1 Z15 F100
M107 ; Turn off fan
G90 ; Absolute positioning
M82 ; Extruder in absolute mode
M109 S215.0
G92 E0 ; Reset extruder position
G1 X90 Y6 Z0.27 F2000
G1 X20 Y6 Z0.27 E15 F1000
G92 E0 ; Reset extruder position

;LAYER_COUNT:91
;LAYER:-6
M107
M203 Z5
G1 F3600 X66.203 Y55.988 Z0.349
G1 F1200 X66.583 Y56.248 E0.05077
G1 X67.091 Y56.646 E0.12194
G1 X67.474 Y56.993 E0.17893
G1 X67.873 Y57.399 E0.2417
G1 X68.167 Y57.741 E0.29144
G1 X68.451 Y58.112 E0.34296
G1 X68.547 Y58.246 E0.36114
G1 X68.798 Y58.632 E0.41191
G1 X69.105 Y59.174 E0.4806
G1 X69.307 Y59.595 E0.53209
G1 X69.538 Y60.164 E0.59981
G1 X69.633 Y60.44 E0.632
G1 X69.689 Y60.624 E0.65321
G1 X69.842 Y61.214 E0.72042
G1 X69.93 Y61.688 E0.77359
G1 X69.992 Y62.146 E0.82455
G1 X70.032 Y62.736 E0.88976
G1 X70.028 Y63.377 E0.96045
G1 X69.992 Y63.855 E1.01331
G1 X69.901 Y64.492 E1.08427
G1 X69.801 Y64.96 E1.13704
G1 X69.633 Y65.558 E1.20554
G1 X69.486 Y65.973 E1.25409
G1 X69.241 Y66.55 E1.32321
G1 X69.036 Y66.955 E1.37327
G1 X68.713 Y67.504 E1.44351
G1 X68.451 Y67.888 E1.49477
G1 X68.078 Y68.367 E1.56172
G1 X67.794 Y68.686 E1.60882
G1 X67.374 Y69.104 E1.67416
G1 X66.991 Y69.439 E1.73028
G1 X66.597 Y69.744 E1.78522
G1 X66.212 Y70.008 E1.8367
G1 X66.068 Y70.098 E1.85542
G1 X65.526 Y70.405 E1.92411
G1 X65.099 Y70.61 E1.97635
G1 X64.536 Y70.838 E2.04333
G1 X64.254 Y70.935 E2.07621
G1 X64.076 Y70.989 E2.09673
G1 X63.486 Y71.142 E2.16394
G1 X62.997 Y71.232 E2.21877
G1 X62.384 Y71.307 E2.28687
G1 X61.932 Y71.331 E2.33679
G1 X61.302 Y71.325 E2.40626
G1 X60.863 Y71.292 E2.45481
G1 X60.217 Y71.202 E2.52673
G1 X59.909 Y71.141 E2.56136
G1 X59.318 Y70.987 E2.62871
G1 X58.865 Y70.838 E2.68129
G1 X58.309 Y70.612 E2.74748
G1 X57.896 Y70.416 E2.79789
G1 X57.31 Y70.085 E2.87211
G1 X56.92 Y69.828 E2.92361
G1 X56.441 Y69.461 E2.99015
G1 X56.149 Y69.211 E3.03254
G1 X55.621 Y68.8 E3.10633
G1 X55.033 Y68.452 E3.18167
G1 X54.406 Y68.181 E3.257
G1 X53.75 Y67.991 E3.33231
G1 X53.076 Y67.885 E3.40755
G1 X52.393 Y67.865 E3.4829
G1 X51.714 Y67.932 E3.55814
G1 X51.048 Y68.084 E3.63347
G1 X50.407 Y68.318 E3.70872
G1 X49.798 Y68.633 E3.78433
G1 X49.168 Y69.076 E3.86925
G1 X48.67 Y69.485 E3.94032
G1 X48.225 Y69.808 E4.00095
G1 X48.031 Y69.934 E4.02646
G1 X47.842 Y70.043 E4.05052
G1 X46.707 Y70.649 E4.19241
G1 X46.17 Y70.899 E4.25773
G1 X45.744 Y71.053 E4.30768
G1 X44.398 Y71.46 E4.46274
G1 X43.968 Y71.562 E4.51148
G1 X43.771 Y71.598 E4.53356
G1 X43.476 Y71.635 E4.56635
G1 X42.248 Y71.756 E4.70242
G1 X41.657 Y71.781 E4.76765
G1 X41.252 Y71.765 E4.81235
G1 X39.941 Y71.636 E4.95761
G1 X39.369 Y71.548 E5.02143
G1 X39.021 Y71.466 E5.06086
G1 X37.664 Y71.056 E5.21718
G1 X37.158 Y70.869 E5.27667
G1 X36.975 Y70.79 E5.29865
G1 X36.772 Y70.691 E5.32355
G1 X35.501 Y70.009 E5.48261
G1 X35.142 Y69.787 E5.52916
G1 X34.944 Y69.65 E5.55571
G1 X34.771 Y69.518 E5.57971
G1 X33.666 Y68.606 E5.7377
G1 X33.358 Y68.318 E5.7842
G1 X33.187 Y68.142 E5.81126
G1 X33.05 Y67.987 E5.83408
G1 X32.137 Y66.868 E5.99333
G1 X31.886 Y66.517 E6.04092
G1 X31.773 Y66.343 E6.0638
G1 X31.621 Y66.073 E6.09796
G1 X30.978 Y64.862 E6.24916
G1 X30.809 Y64.493 E6.29392
G1 X30.722 Y64.273 E6.32001
G1 X30.646 Y64.05 E6.34599
G1 X30.235 Y62.681 E6.50361
G1 X30.134 Y62.251 E6.55232
G1 X30.104 Y62.085 E6.57092
G1 X30.077 Y61.88 E6.59372
G1 X29.943 Y60.525 E6.74387
G1 X29.919 Y59.941 E6.80833
G1 X29.935 Y59.549 E6.85159
G1 X30.082 Y58.098 E7.01242
G1 X30.153 Y57.663 E7.06102
G1 X30.234 Y57.321 E7.09978
G1 X30.64 Y55.976 E7.25471
G1 X30.833 Y55.452 E7.31628
G1 X31.009 Y55.072 E7.36246
G1 X31.696 Y53.793 E7.52256
G1 X31.912 Y53.443 E7.56792
G1 X32.038 Y53.259 E7.59251
G1 X32.184 Y53.07 E7.61885
G1 X33.001 Y52.072 E7.76107
G1 X33.397 Y51.64 E7.8257
G1 X33.535 Y51.506 E7.84691
G1 X33.733 Y51.333 E7.8759
G1 X34.734 Y50.512 E8.01867
G1 X35.175 Y50.192 E8.07875
G1 X35.369 Y50.066 E8.10426
G1 X35.569 Y49.951 E8.1297
G1 X36.707 Y49.344 E8.27193
G1 X37.23 Y49.101 E8.33552
G1 X37.656 Y48.947 E8.38548
G1 X39.002 Y48.54 E8.54054
G1 X39.432 Y48.438 E8.58927
G1 X39.629 Y48.402 E8.61136
G1 X39.922 Y48.365 E8.64393
G1 X41.152 Y48.244 E8.78022
G1 X41.743 Y48.219 E8.84545
G1 X42.148 Y48.235 E8.89014
G1 X43.459 Y48.364 E9.03541
G1 X44.031 Y48.452 E9.09923
G1 X44.379 Y48.534 E9.13866
G1 X45.736 Y48.944 E9.29498
G1 X46.242 Y49.131 E9.35447
G1 X46.425 Y49.21 E9.37645
G1 X46.628 Y49.309 E9.40135
G1 X47.896 Y49.99 E9.56007
G1 X48.258 Y50.213 E9.60695
G1 X48.456 Y50.35 E9.63351
G1 X48.625 Y50.479 E9.65695
G1 X49.734 Y51.394 E9.8155
G1 X50.037 Y51.677 E9.86122
G1 X50.213 Y51.858 E9.88906
G1 X50.338 Y51.999 E9.90984
G1 X51.255 Y53.121 E10.06963
G1 X51.823 Y53.912 E10.17702
G1 X51.832 Y53.905 E10.17827
G1 X51.889 Y53.982 E10.18884
G1 X52.362 Y54.476 E10.26426
G1 X52.893 Y54.905 E10.33953
G1 X53.473 Y55.264 E10.41475
G1 X54.096 Y55.547 E10.49021
G1 X54.748 Y55.748 E10.56545
G1 X55.421 Y55.866 E10.6408
G1 X56.103 Y55.898 E10.71608
G1 X56.783 Y55.844 E10.79131
G1 X57.454 Y55.704 E10.86689
G1 X58.225 Y55.425 E10.95731
G1 X58.721 Y55.216 E11.01666
G1 X59.156 Y55.062 E11.06755
G1 X59.772 Y54.891 E11.13805
G1 X60.199 Y54.801 E11.18617
G1 X60.403 Y54.768 E11.20896
G1 X61.016 Y54.693 E11.27706
G1 X61.468 Y54.669 E11.32697
G1 X62.098 Y54.675 E11.39645
G1 X62.537 Y54.708 E11.445
G1 X63.183 Y54.798 E11.51692
G1 X63.491 Y54.859 E11.55155
G1 X64.082 Y55.013 E11.61889
G1 X64.672 Y55.214 E11.68763
G1 X65.249 Y55.46 E11.7568
G1 X65.654 Y55.665 E11.80685
G1 X66.203 Y55.988 E11.87709
G1 F3600 X65.6 Y55.638
G1 F1200 X65.6 Y70.364 E13.50099
G1 F1680 E10.50099
G1 F3600 X64 Y71.009
G1 F1680 E13.50099
G1 F1200 X64 Y54.992 E15.26725
G1 F1680 E12.26725
G1 F3600 X62.4 Y54.698
G1 F1680 E15.26725
G1 F1200 X62.4 Y71.306 E17.09868
G1 F1680 E14.09868
G1 F3600 X60.8 Y71.283
G1 F1680 E17.09868
G1 F1200 X60.8 Y54.719 E18.92526
G1 F1680 E15.92526
G1 F3600 X59.2 Y55.049
G1 F1680 E18.92526
G1 F1200 X59.2 Y70.948 E20.6785
G1 F1680 E17.6785
G1 F3600 X57.6 Y70.248
G1 F1680 E20.6785
G1 F1200 X57.6 Y55.651 E22.28817
G1 F1680 E19.28817
G1 F3600 X56 Y55.894
G1 F1680 E22.28817
G1 F1200 X56 Y69.095 E23.7439
G1 F1680 E20.7439
G1 F3600 X54.4 Y68.179
G1 F1680 E23.7439
G1 F1200 X54.4 Y55.641 E25.12651
G1 F1680 E22.12651
G1 F3600 X52.8 Y54.83
G1 F1680 E25.12651
G1 F1200 X52.8 Y67.876 E26.56515
G1 F1680 E23.56515
G1 F3600 X51.2 Y68.05
G1 F1680 E26.56515
G1 F1200 X51.2 Y53.054 E28.21882
G1 F1680 E25.21882
G1 F3600 X49.6 Y51.284
G1 F1680 E28.21882
G1 F1200 X49.6 Y68.773 E30.1474
G1 F1680 E27.1474
G1 F3600 X48 Y69.952
G1 F1680 E30.1474
G1 F1200 X48 Y50.055 E32.34152
G1 F1680 E29.34152
G1 F3600 X46.4 Y49.2
G1 F1680 E32.34152
G1 F1200 X46.4 Y70.792 E34.72255
G1 F1680 E31.72255
G1 F3600 X44.8 Y71.339
G1 F1680 E34.72255
G1 F1200 X44.8 Y48.662 E37.22324
G1 F1680 E34.22324
G1 F3600 X43.2 Y48.339
G1 F1680 E37.22324
G1 F1200 X43.2 Y71.663 E39.79527
G1 F1680 E36.79527
G1 F3600 X41.6 Y71.778
G1 F1680 E39.79527
G1 F1200 X41.6 Y48.225 E42.39255
G1 F1680 E39.39255
G1 F3600 X40 Y48.357
G1 F1680 E42.39255
G1 F1200 X40 Y71.641 E44.96017
G1 F1680 E41.96017
G1 F3600 X38.4 Y71.278
G1 F1680 E44.96017
G1 F1200 X38.4 Y48.722 E47.44751
G1 F1680 E44.44751
G1 F3600 X36.8 Y49.3
G1 F1680 E47.44751
G1 F1200 X36.8 Y70.704 E49.80781
G1 F1680 E46.80781
G1 F3600 X35.2 Y69.822
G1 F1680 E49.80781
G1 F1200 X35.2 Y50.175 E51.97437
G1 F1680 E48.97437
G1 F3600 X33.6 Y51.449
G1 F1680 E51.97437
G1 F1200 X33.6 Y68.544 E53.8595
G1 F1680 E50.8595
G1 F3600 X32 Y66.676
M104 T0 S200
G1 F1680 E53.8595
G1 F1200 X32 Y53.314 E55.33298
G1 F1680 E52.33298
G1 F3600 X30.4 Y56.771
G1 F1680 E55.33298
G1 F1200 X30.4 Y63.23 E56.04524
G1 F1680 E53.04524
G1 F3600 X67.2 Y69.257
G1 F1680 E56.04524
G1 F1200 X67.2 Y56.745 E57.42499
G1 F1680 E54.42499
G1 F3600 X68.8 Y58.636
G1 F1680 E57.42499
G1 F1200 X68.8 Y67.357 E58.38669
G1 F1680 E55.38669
G1 F3600 X66.239 Y55.951
;TIME_ELAPSED:33.950916
;LAYER:-5
G1 X66.239 Y55.951 Z0.619
;TYPE:SUPPORT
G1 F1680 E58.38669
G1 F1980 X66.613 Y56.207 E58.42047
G1 X67.132 Y56.615 E58.46968
G1 X67.508 Y56.955 E58.50747
G1 X67.911 Y57.365 E58.55032
G1 X68.207 Y57.709 E58.58415
G1 X68.588 Y58.216 E58.63143
G1 X68.848 Y58.617 E58.66705
G1 F3600 X68.913 Y58.731
G1 F1980 X65.98 Y55.798 E58.97624
G1 X66.239 Y55.951 E58.99866
G1 F1680 E55.99866
G1 F3600 X63.795 Y54.885
G1 F1680 E58.99866
G1 F1980 X63.626 Y54.838 E59.01174
G1 X63.184 Y54.746 E59.04539
G1 X62.542 Y54.657 E59.09371
G1 X62.274 Y54.637 E59.11374
G1 X70.062 Y62.425 E59.93473
G1 X70.082 Y62.735 E59.95789
G1 X70.078 Y63.379 E60.00589
G1 X70.055 Y63.691 E60.02921
G1 X61.01 Y54.646 E60.98272
G1 X60.831 Y54.66 E60.9961
G1 X60.391 Y54.717 E61.02917
G1 X59.913 Y54.806 E61.06542
G1 X59.9 Y54.809 E61.06641
G1 X69.887 Y64.796 E62.11922
G1 X69.848 Y64.973 E62.13273
G1 X69.68 Y65.573 E62.17917
G1 X69.605 Y65.787 E62.19608
G1 X58.911 Y55.092 E63.32347
G1 X58.819 Y55.123 E63.3307
G1 X58.274 Y55.345 E63.37457
G1 X57.995 Y55.449 E63.39676
G1 X69.229 Y66.684 E64.58108
G1 X69.074 Y66.991 E64.60672
G1 X68.773 Y67.501 E64.65086
G1 X57.016 Y55.743 E65.89031
G1 X56.775 Y55.792 E65.90864
G1 X56.101 Y55.846 E65.95904
G1 X55.834 Y55.834 E65.97896
G1 X68.241 Y68.241 E67.28688
G1 X68.117 Y68.399 E67.30185
G1 X67.829 Y68.72 E67.334
G1 X67.638 Y68.911 E67.35413
G1 X54.276 Y55.548 E68.76278
G1 X54.114 Y55.498 E68.77542
G1 X53.496 Y55.217 E68.82602
G1 X52.923 Y54.862 E68.87627
G1 X52.395 Y54.438 E68.92674
G1 X51.927 Y53.948 E68.97725
G1 X51.842 Y53.832 E68.98797
G1 F3600 X51.835 Y53.839
G1 F1980 X51.297 Y53.091 E69.05665
G1 X50.377 Y51.965 E69.16504
G1 X50.249 Y51.821 E69.1794
G1 X50.085 Y51.652 E69.19696
G1 X49.683 Y51.28 E69.23778
G1 X48.621 Y50.41 E69.34012
G1 X48.279 Y50.164 E69.37152
G1 X47.931 Y49.951 E69.40194
G1 X46.794 Y49.339 E69.49819
G1 X66.97 Y69.516 E71.62515
G1 X66.47 Y69.896 E71.67196
G1 X66.232 Y70.05 E71.69309
G1 X44.784 Y48.602 E73.95409
G1 X44.392 Y48.484 E73.98461
G1 X44.032 Y48.399 E74.01218
G1 X43.465 Y48.312 E74.05494
G1 X43.195 Y48.286 E74.07516
G1 X65.42 Y70.511 E76.41807
G1 X65.131 Y70.651 E76.442
G1 X64.553 Y70.885 E76.48849
G1 X64.529 Y70.893 E76.49037
G1 X41.806 Y48.17 E78.88578
G1 X41.741 Y48.167 E78.89063
G1 X41.143 Y48.192 E78.93524
G1 X40.609 Y48.245 E78.97524
G1 X63.542 Y71.178 E81.39279
G1 X63.484 Y71.194 E81.39727
G1 X63.008 Y71.282 E81.43336
G1 X62.566 Y71.339 E81.46658
G1 X62.438 Y71.348 E81.47614
G1 X39.469 Y48.379 E83.89748
G1 X39.422 Y48.387 E83.90104
G1 X38.86 Y48.525 E83.94417
G1 X38.464 Y48.646 E83.97504
G1 X61.183 Y71.366 E86.37008
G1 X60.855 Y71.342 E86.39459
G1 X60.213 Y71.253 E86.4429
G1 X59.771 Y71.16 E86.47657
G1 X59.679 Y71.134 E86.4837
G1 X37.492 Y48.948 E88.82255
G1 X37.205 Y49.054 E88.84535
G1 X36.817 Y49.231 E88.87714
G1 X36.612 Y49.34 E88.89445
G1 X57.55 Y70.277 E91.10163
G1 X57.276 Y70.123 E91.12506
G1 X56.892 Y69.869 E91.15938
G1 X56.415 Y69.507 E91.20402
G1 X56.115 Y69.249 E91.23351
G1 X55.592 Y68.841 E91.28296
G1 X55.01 Y68.496 E91.33339
G1 X54.387 Y68.228 E91.38395
G1 X54.162 Y68.162 E91.40142
G1 X35.78 Y49.781 E93.33916
G1 X35.537 Y49.909 E93.35963
G1 X35.337 Y50.024 E93.37683
G1 X35.154 Y50.142 E93.39306
G1 X34.989 Y50.262 E93.40827
G1 X52.649 Y67.923 E95.27
G1 X52.395 Y67.916 E95.28894
G1 X51.722 Y67.982 E95.33935
G1 X51.488 Y68.034 E95.35721
G1 X34.277 Y50.824 E97.17151
G1 X33.695 Y51.297 E97.22741
G1 X33.579 Y51.398 E97.23887
G1 X50.513 Y68.332 E99.02402
G1 X50.426 Y68.364 E99.03093
G1 X49.824 Y68.676 E99.08147
G1 X49.683 Y68.775 E99.09431
G1 X32.957 Y52.049 E100.85753
G1 X32.382 Y52.747 E100.92494
G1 X48.951 Y69.316 E102.67161
G1 X48.604 Y69.598 E102.70494
G1 X48.248 Y69.853 E102.73758
G1 X48.228 Y69.866 E102.73936
G1 X31.833 Y53.471 E104.46768
G1 X31.652 Y53.767 E104.49354
G1 X31.373 Y54.283 E104.53727
G1 X47.416 Y70.326 E106.22848
G1 X46.722 Y70.698 E106.28718
G1 X46.58 Y70.763 E106.29882
G1 X30.932 Y55.115 E107.9484
G1 X30.786 Y55.432 E107.97441
G1 X30.591 Y55.958 E108.01623
G1 X30.57 Y56.026 E108.02153
G1 X45.67 Y71.126 E109.61334
G1 X44.696 Y71.424 E109.68927
G1 X30.275 Y57.004 E111.20944
G1 X30.184 Y57.306 E111.23295
G1 X30.098 Y57.671 E111.26091
G1 X30.038 Y58.04 E111.28877
G1 X43.66 Y71.661 E112.72472
G1 X43.475 Y71.685 E112.73863
G1 X42.506 Y71.78 E112.8112
G1 X29.919 Y59.193 E114.1381
G1 X29.884 Y59.543 E114.16432
G1 X29.867 Y59.942 E114.19409
G1 X29.887 Y60.435 E114.23087
G1 X41.266 Y71.813 E115.43036
G1 X41.225 Y71.811 E115.43342
G1 X39.933 Y71.686 E115.53018
G1 X39.853 Y71.673 E115.53622
G1 X30.02 Y61.84 E116.57279
G1 X30.052 Y62.087 E116.59136
G1 X30.084 Y62.262 E116.60462
G1 X30.221 Y62.827 E116.64795
G1 X30.435 Y63.527 E116.70252
G1 X38.168 Y71.26 E117.51771
G1 X37.659 Y71.107 E117.55733
G1 X37.133 Y70.913 E117.59912
G1 X36.749 Y70.736 E117.63064
M73 P1
G1 X35.932 Y70.297 E117.69978
G1 X31.399 Y65.765 E118.17758
G1 F3600 X31.644 Y66.22
G1 F1980 X31.838 Y66.537 E118.20529
G1 X32.104 Y66.907 E118.23925
G1 X33.01 Y68.019 E118.34617
G1 X33.149 Y68.177 E118.36186
G1 X33.313 Y68.346 E118.37941
G1 X33.716 Y68.718 E118.4203
G1 X34.779 Y69.588 E118.52269
G1 X35.119 Y69.833 E118.55393
G1 X35.472 Y70.05 E118.58481
G1 X35.932 Y70.297 E118.62373
G1 F1680 E115.62373
G1 F3600 X51.835 Y53.839
G1 F1680 E118.62373
G1 F1980 X51.842 Y53.832 E118.62447
G1 F1680 E115.62447
G1 F3600 X63.795 Y54.885
G1 F1680 E118.62447
G1 F1980 X69.813 Y60.903 E119.25888
G1 X69.736 Y60.609 E119.28153
G1 X69.582 Y60.136 E119.31861
G1 X69.348 Y59.561 E119.36488
G1 X69.15 Y59.15 E119.39889
G1 X68.913 Y58.731 E119.43477
G1 F1680 E116.43477
G1 F3600 X65.94 Y55.6
;TIME_ELAPSED:60.478621
;LAYER:-4
M106 S255
G1 X65.94 Y55.6 Z0.869
G1 F1680 E119.43477
G1 F2400 X56.966 Y55.6 E119.78921
G1 F3600 X56.753 Y55.644
G1 F2400 X56.098 Y55.696 E119.81517
G1 X55.442 Y55.666 E119.8411
G1 X55.067 Y55.6 E119.85614
G1 X54.794 Y55.552 E119.86709
G1 X54.166 Y55.358 E119.89305
G1 X53.819 Y55.2 E119.90811
G1 X30.729 Y55.2 E120.82008
G1 X30.828 Y54.984 E120.82947
G1 X30.927 Y54.8 E120.83772
G1 X53.104 Y54.8 E121.71363
G1 X53.008 Y54.741 E121.71808
G1 X52.586 Y54.4 E121.73951
G1 X31.14 Y54.4 E122.58655
G1 X31.353 Y54 E122.60445
G1 X52.183 Y54 E123.42716
G1 X52.041 Y53.852 E123.43526
G1 X51.866 Y53.628 E123.44649
G1 X51.846 Y53.6 E123.44785
G1 X31.582 Y53.6 E124.2482
G1 X31.746 Y53.329 E124.26071
G1 X31.835 Y53.2 E124.2669
G1 X51.556 Y53.2 E125.04581
G1 X51.347 Y52.913 E125.05983
G1 X51.255 Y52.8 E125.06559
G1 X32.146 Y52.8 E125.82033
G1 X32.473 Y52.4 E125.84073
G1 X50.926 Y52.4 E126.56956
G1 X50.597 Y52 E126.59001
G1 X32.801 Y52 E127.29289
G1 X32.854 Y51.934 E127.29624
G1 X33.161 Y51.6 E127.31415
G1 X50.242 Y51.6 E127.98879
G1 X50.186 Y51.543 E127.99195
G1 X49.816 Y51.2 E128.01187
G1 X33.578 Y51.2 E128.65322
G1 X33.599 Y51.181 E128.65434
G1 X34.066 Y50.8 E128.67814
G1 X49.332 Y50.8 E129.28109
G1 X48.844 Y50.4 E129.30601
G1 X34.555 Y50.4 E129.87038
G1 X34.618 Y50.348 E129.87361
G1 X35.059 Y50.027 E129.89515
G1 X35.101 Y50 E129.89712
G1 X48.294 Y50 E130.4182
G1 X47.885 Y49.752 E130.43709
G1 X47.6 Y49.6 E130.44985
G1 X35.798 Y49.6 E130.91598
G1 X36.548 Y49.2 E130.94955
G1 X46.85 Y49.2 E131.35645
G1 X46.714 Y49.128 E131.36252
G1 X46.309 Y48.942 E131.38013
G1 X45.925 Y48.8 E131.3963
G1 X37.462 Y48.8 E131.73056
G1 X37.51 Y48.782 E131.73258
G1 X38.759 Y48.4 E131.78417
G1 X38.821 Y48.381 E131.78673
G1 X39.384 Y48.243 E131.80962
G1 X39.601 Y48.203 E131.81834
G1 X39.783 Y48.178 E131.82559
G1 X41.13 Y48.045 E131.87905
G1 X41.737 Y48.018 E131.90305
G1 X41.942 Y48.021 E131.91115
G1 X42.16 Y48.034 E131.91978
G1 X43.489 Y48.165 E131.97252
G1 X44.058 Y48.252 E131.99525
G1 X44.296 Y48.304 E132.00488
G1 X44.552 Y48.374 E132.01536
G1 F3600 X44.638 Y48.4
G1 F2400 X38.759 Y48.4 E132.24756
G1 F1680 E129.24756
G1 F3600 X30.563 Y55.6
G1 F1680 E132.24756
G1 F2400 X55.067 Y55.6 E133.21538
G1 F1680 E130.21538
