M73 P0
;MINX:5.0
;MAXX:95.0
;MINY:15.0
;MAXY:105.0
;MINZ:0.0
;MAXZ:20.0
;MachineType:ENTINA TINA2
;FilamentType:PLA
;Extruder0Temperature:205
;InfillDensity:20
;FLAVOR:Marlin
;TIME:7042
;FilamentUsed:9969.0
;Layer height: 0.35

;Generated with Cura_SteamEngine 3.1
M104 T0 S220
M82 ; absolute extrusion mode
;(**** start.gcode for tina2****)
M104 S150
G28 Z
G28 X Y; Home extruder
G1 X55 Y55 F1000
G1 Z10 F200
G29
G1 Z15 F100
M107 ; Turn off fan
G90 ; Absolute positioning
M82 ; Extruder in absolute mode
M109 S220.0
G92 E0 ; Reset extruder position
G1 X90 Y6 Z0.27 F2000
G1 X20 Y6 Z0.27 E15 F1000
G92 E0 ; Reset extruder position

;LAYER_COUNT:58
;LAYER:0
M106 S255
M203 Z5
G1 F3600 X78.133 Y25.73 Z0.299
;TYPE:WALL-INNER
G1 F1320 X81.353 Y28.647 E0.22652
G1 X84.27 Y31.867 E0.45303
G1 X86.87 Y35.372 E0.68056
G1 X89.106 Y39.102 E0.90729
G1 X90.964 Y43.03 E1.13383
G1 X92.428 Y47.124 E1.36051
G1 X93.487 Y51.347 E1.58749
G1 X94.125 Y55.647 E1.81413
G1 X94.338 Y60 E2.04134
G1 X94.125 Y64.353 E2.26856
G1 X93.487 Y68.653 E2.49519
G1 X92.428 Y72.876 E2.72218
G1 X90.964 Y76.97 E2.94886
G1 X89.106 Y80.898 E3.1754
G1 X86.87 Y84.628 E3.40213
G1 X84.27 Y88.133 E3.62965
G1 X81.353 Y91.353 E3.85617
G1 X78.133 Y94.27 E4.08268
G1 X74.628 Y96.87 E4.3102
G1 X70.898 Y99.106 E4.53693
G1 X66.97 Y100.964 E4.76347
G1 X62.876 Y102.428 E4.99015
G1 X58.653 Y103.487 E5.21714
G1 X54.353 Y104.125 E5.44377
G1 X50 Y104.338 E5.67099
G1 X45.647 Y104.125 E5.89821
G1 X41.347 Y103.487 E6.12484
G1 X37.124 Y102.428 E6.35183
G1 X33.03 Y100.964 E6.5785
G1 X29.102 Y99.106 E6.80505
G1 X25.372 Y96.87 E7.03178
G1 X21.867 Y94.27 E7.2593
G1 X18.647 Y91.353 E7.48581
G1 X15.73 Y88.133 E7.71233
G1 X13.13 Y84.628 E7.93985
G1 X10.894 Y80.898 E8.16658
G1 X9.036 Y76.97 E8.39312
G1 X7.572 Y72.876 E8.6198
G1 X6.513 Y68.653 E8.84679
G1 X5.875 Y64.353 E9.07342
G1 X5.662 Y60 E9.30064
G1 X5.875 Y55.647 E9.52785
G1 X6.513 Y51.347 E9.75449
G1 X7.572 Y47.124 E9.98147
G1 X9.036 Y43.03 E10.20815
G1 X10.894 Y39.102 E10.43469
G1 X13.13 Y35.372 E10.66142
G1 X15.73 Y31.867 E10.88894
G1 X18.647 Y28.647 E11.11546
G1 X21.867 Y25.73 E11.34198
G1 X25.372 Y23.13 E11.5695
G1 X29.102 Y20.894 E11.79623
G1 X33.03 Y19.036 E12.02277
G1 X37.124 Y17.572 E12.24945
G1 X41.347 Y16.513 E12.47643
G1 X45.647 Y15.875 E12.70307
G1 X50 Y15.662 E12.93029
G1 X54.353 Y15.875 E13.1575
G1 X58.653 Y16.513 E13.38414
G1 X62.876 Y17.572 E13.61112
G1 X66.97 Y19.036 E13.8378
G1 X70.898 Y20.894 E14.06434
G1 X74.628 Y23.13 E14.29107
G1 X78.133 Y25.73 E14.51859
G1 F3600 X78.363 Y25.452
;TYPE:WALL-OUTER
G1 F1320 X81.608 Y28.392 E14.74688
G1 X84.548 Y31.637 E14.97517
G1 X87.17 Y35.171 E15.20459
G1 X89.421 Y38.928 E15.43293
G1 X91.298 Y42.895 E15.66173
G1 X92.773 Y47.019 E15.89007
G1 X93.84 Y51.277 E16.11893
G1 X94.484 Y55.617 E16.34767
G1 X94.699 Y60 E16.57646
G1 X94.484 Y64.383 E16.80524
G1 X93.84 Y68.723 E17.03399
G1 X92.773 Y72.981 E17.26284
G1 X91.298 Y77.105 E17.49119
G1 X89.421 Y81.072 E17.71999
G1 X87.17 Y84.829 E17.94833
G1 X84.548 Y88.363 E18.17775
G1 X81.608 Y91.608 E18.40604
G1 X78.363 Y94.548 E18.63432
G1 X74.829 Y97.17 E18.86374
G1 X71.072 Y99.421 E19.09208
G1 X67.105 Y101.298 E19.32088
G1 X62.981 Y102.773 E19.54923
G1 X58.723 Y103.84 E19.77808
G1 X54.383 Y104.484 E20.00683
G1 X50 Y104.699 E20.23561
G1 X45.617 Y104.484 E20.4644
G1 X41.277 Y103.84 E20.69314
G1 X37.019 Y102.773 E20.922
G1 X32.895 Y101.298 E21.15034
G1 X28.928 Y99.421 E21.37914
G1 X25.171 Y97.17 E21.60748
G1 X21.637 Y94.548 E21.8369
G1 X18.392 Y91.608 E22.06519
G1 X15.452 Y88.363 E22.29348
G1 X12.83 Y84.829 E22.5229
G1 X10.579 Y81.072 E22.75124
G1 X8.702 Y77.105 E22.98004
G1 X7.227 Y72.981 E23.20838
G1 X6.16 Y68.723 E23.43724
G1 X5.516 Y64.383 E23.66598
G1 X5.301 Y60 E23.89477
G1 X5.516 Y55.617 E24.12355
G1 X6.16 Y51.277 E24.35229
G1 X7.227 Y47.019 E24.58115
G1 X8.702 Y42.895 E24.80949
G1 X10.579 Y38.928 E25.0383
G1 X12.83 Y35.171 E25.26664
G1 X15.452 Y31.637 E25.49606
G1 X18.392 Y28.392 E25.72434
G1 X21.637 Y25.452 E25.95263
G1 X25.171 Y22.83 E26.18205
G1 X28.928 Y20.579 E26.41039
G1 X32.895 Y18.702 E26.63919
G1 X37.019 Y17.227 E26.86754
G1 X41.277 Y16.16 E27.09639
G1 X45.617 Y15.516 E27.32514
G1 X50 Y15.301 E27.55392
G1 X54.383 Y15.516 E27.7827
G1 X58.723 Y16.16 E28.01145
G1 X62.981 Y17.227 E28.2403
G1 X67.105 Y18.702 E28.46865
G1 X71.072 Y20.579 E28.69745
G1 X74.829 Y22.83 E28.92579
G1 X78.363 Y25.452 E29.15521
G1 F3600 X77.859 Y26.063
;TYPE:SKIN
G1 F1320 X81.048 Y28.952 E29.37955
G1 X83.937 Y32.141 E29.60389
G1 X86.514 Y35.614 E29.82936
G1 X88.725 Y39.303 E30.05358
G1 X90.567 Y43.197 E30.27816
G1 X92.017 Y47.251 E30.50263
G1 X93.063 Y51.425 E30.72697
G1 X93.697 Y55.69 E30.95177
G1 X93.907 Y60 E31.17674
G1 X93.697 Y64.31 E31.40171
G1 X93.063 Y68.575 E31.62651
G1 X92.017 Y72.749 E31.85086
G1 X90.567 Y76.803 E32.07532
G1 X88.725 Y80.697 E32.29991
G1 X86.514 Y84.386 E32.52413
G1 X83.937 Y87.859 E32.7496
G1 X81.048 Y91.048 E32.97394
G1 X77.859 Y93.937 E33.19828
G1 X74.386 Y96.514 E33.42375
G1 X70.697 Y98.725 E33.64797
G1 X66.803 Y100.567 E33.87255
G1 X62.749 Y102.017 E34.09702
G1 X58.575 Y103.063 E34.32136
G1 X54.31 Y103.697 E34.54616
G1 X50 Y103.907 E34.77113
G1 X45.69 Y103.697 E34.9961
G1 X41.425 Y103.063 E35.2209
G1 X37.251 Y102.017 E35.44524
G1 X33.197 Y100.567 E35.66971
G1 X29.303 Y98.725 E35.8943
G1 X25.614 Y96.514 E36.11852
G1 X22.141 Y93.937 E36.34399
G1 X18.952 Y91.048 E36.56833
G1 X16.063 Y87.859 E36.79267
G1 X13.486 Y84.386 E37.01814
G1 X11.275 Y80.697 E37.24236
G1 X9.433 Y76.803 E37.46694
G1 X7.983 Y72.749 E37.69141
G1 X6.937 Y68.575 E37.91575
G1 X6.303 Y64.31 E38.14055
G1 X6.093 Y60 E38.36552
G1 X6.303 Y55.69 E38.59049
G1 X6.937 Y51.425 E38.81529
G1 X7.983 Y47.251 E39.03963
G1 X9.433 Y43.197 E39.2641
G1 X11.275 Y39.303 E39.48869
G1 X13.486 Y35.614 E39.71291
G1 X16.063 Y32.141 E39.93838
G1 X18.952 Y28.952 E40.16272
G1 X22.141 Y26.063 E40.38706
G1 X25.614 Y23.486 E40.61252
G1 X29.303 Y21.275 E40.83675
G1 X33.197 Y19.433 E41.06133
G1 X37.251 Y17.983 E41.2858
G1 X41.425 Y16.937 E41.51014
G1 X45.69 Y16.303 E41.73494
G1 X50 Y16.093 E41.95991
G1 X54.31 Y16.303 E42.18488
G1 X58.575 Y16.937 E42.40968
G1 X62.749 Y17.983 E42.63402
G1 X66.803 Y19.433 E42.85849
G1 X70.697 Y21.275 E43.08308
G1 X74.386 Y23.486 E43.3073
G1 X77.859 Y26.063 E43.53277
G1 F1680 E40.53277
G1 F3600 X82.486 Y30.839
G1 F1680 E43.53277
G1 F1320 X79.16 Y27.513 E43.778
G1 X79.132 Y27.485
G1 F1680 E40.778
G1 F3600 X75.838 Y24.813
G1 F1680 E43.778
G1 F1320 X85.186 Y34.161 E44.46723
G1 X85.214 Y34.189
G1 F1680 E41.46723
G1 F3600 X86.675 Y36.273
G1 F1680 E44.46723
G1 F1320 X73.727 Y23.324 E45.42193
G1 X73.699 Y23.296
G1 F1680 E42.42193
G1 F3600 X72.174 Y22.394
G1 F1680 E45.42193
G1 F1320 X87.605 Y37.825 E46.55966
G1 X87.633 Y37.853
G1 F1680 E43.55966
G1 F3600 X88.536 Y39.378
G1 F1680 E46.55966
G1 F1320 X70.621 Y21.463 E47.88054
G1 X70.593 Y21.435
G1 F1680 E44.88054
G1 F3600 X69.436 Y20.9
G1 F1680 E47.88054
G1 F1320 X89.099 Y40.563 E49.3303
G1 X89.127 Y40.591
G1 F1680 E46.3303
G1 F3600 X89.657 Y41.744
G1 F1680 E49.3303
G1 F1320 X68.255 Y20.342 E50.90828
G1 X68.227 Y20.314
G1 F1680 E47.90828
G1 F3600 X67.075 Y19.784
G1 F1680 E50.90828
G1 F1320 X90.216 Y42.924 E52.61444
G1 X90.244 Y42.952
G1 F1680 E49.61444
G1 F3600 X90.626 Y43.957
G1 F1680 E52.61444
G1 F1320 X66.043 Y19.374 E54.42695
G1 X66.015 Y19.346
G1 F1680 E51.42695
G1 F3600 X65.074 Y19.027
G1 F1680 E54.42695
G1 F1320 X90.972 Y44.926 E56.33646
G1 X91 Y44.954
G1 F1680 E53.33646
G1 F3600 X91.319 Y45.894
G1 F1680 E56.33646
G1 F1320 X64.105 Y18.681 E58.34292
G1 X64.077 Y18.653
G1 F1680 E55.34292
G1 F3600 X63.136 Y18.334
G1 F1680 E58.34292
G1 F1320 X91.665 Y46.863 E60.44637
G1 X91.693 Y46.891
G1 F1680 E57.44637
G1 F3600 X91.938 Y47.757
G1 F1680 E60.44637
G1 F1320 X62.242 Y18.062 E62.63583
G1 X62.214 Y18.034
G1 F1680 E59.63583
G1 F3600 X61.412 Y17.854
G1 F1680 E62.63583
G1 F1320 X92.146 Y48.588 E64.90186
G1 X92.174 Y48.616
G1 F1680 E61.90186
G1 F3600 X92.354 Y49.418
G1 F1680 E64.90186
G1 F1320 X60.581 Y17.645 E67.2445
G1 X60.553 Y17.617
G1 F1680 E64.2445
G1 F3600 X59.751 Y17.437
G1 F1680 E67.2445
G1 F1320 X92.563 Y50.249 E69.66374
G1 X92.591 Y50.277
G1 F1680 E66.66374
G1 F3600 X92.77 Y51.079
G1 F1680 E69.66374
G1 F1320 X58.921 Y17.23 E72.15944
G1 X58.893 Y17.202
G1 F3600 X58.144 Y17.075
G1 F1320 X92.924 Y51.855 E74.72379
G1 X92.952 Y51.883
G1 F3600 X93.033 Y52.586
G1 F1320 X57.413 Y16.967 E77.35002
G1 X57.385 Y16.939
G1 F3600 X56.682 Y16.858
G1 F1320 X93.141 Y53.317 E80.03816
G1 X93.169 Y53.345
G1 F3600 X93.25 Y54.048
G1 F1320 X55.951 Y16.749 E82.78823
G1 X55.923 Y16.721
G1 F3600 X55.22 Y16.64
G1 F1320 X93.359 Y54.779 E85.60023
G1 X93.387 Y54.807
G1 F3600 X93.468 Y55.51
G1 F1320 X54.488 Y16.531 E88.47421
G1 X54.46 Y16.503
G1 F3600 X53.814 Y16.479
G1 F1320 X93.52 Y56.185 E91.40175
G1 X93.548 Y56.213
G1 F3600 X93.552 Y56.839
G1 F1320 X53.16 Y16.447 E94.37987
G1 X53.132 Y16.419
G1 F3600 X52.506 Y16.415
G1 F1320 X93.584 Y57.493 E97.40856
G1 X93.612 Y57.521
G1 F3600 X93.615 Y58.147
G1 F1320 X51.852 Y16.383 E100.4878
G1 X51.824 Y16.355
G1 F3600 X51.198 Y16.352
G1 F1320 X93.647 Y58.8 E103.61755
G1 X93.675 Y58.828
G1 F3600 X93.678 Y59.454
G1 F1320 X50.544 Y16.32 E106.79783
G1 X50.516 Y16.292
G1 F3600 X49.9 Y16.298
G1 F1320 X93.7 Y60.099 E110.02726
G1 X93.728 Y60.127
G1 F3600 X93.671 Y60.692
G1 F1320 X49.307 Y16.327 E113.29827
G1 X49.279 Y16.299
G1 F3600 X48.714 Y16.356
G1 F1320 X93.642 Y61.285 E116.61087
G1 X93.67 Y61.313
G1 F3600 X93.614 Y61.879
G1 F1320 X48.12 Y16.385 E119.96516
G1 X48.092 Y16.357
G1 F3600 X47.526 Y16.414
G1 F1320 X93.585 Y62.472 E123.36107
G1 X93.613 Y62.5
G1 F3600 X93.556 Y63.066
G1 F1320 X46.933 Y16.443 E126.7986
G1 X46.905 Y16.415
G1 F3600 X46.339 Y16.471
G1 F1320 X93.528 Y63.66 E130.27787
G1 X93.556 Y63.688
G1 F3600 X93.499 Y64.253
G1 F1320 X45.746 Y16.5 E133.79872
G1 X45.718 Y16.472
G1 F3600 X45.201 Y16.578
G1 F1320 X93.422 Y64.798 E137.35403
G1 X93.45 Y64.826
G1 F3600 X93.341 Y65.34
G1 F1320 X44.66 Y16.658 E140.94334
G1 X44.632 Y16.63
G1 F3600 X44.118 Y16.739
G1 F1320 X93.261 Y65.881 E144.56663
G1 X93.289 Y65.909
G1 F3600 X93.18 Y66.423
G1 F1320 X43.576 Y16.819 E148.22396
G1 X43.548 Y16.791
G1 F3600 X43.035 Y16.9
G1 F1320 X93.099 Y66.965 E151.91523
G1 X93.127 Y66.993
G1 F3600 X93.019 Y67.506
G1 F1320 X42.493 Y16.981 E155.6405
G1 X42.465 Y16.953
G1 F3600 X41.951 Y17.061
G1 F1320 X92.938 Y68.048 E159.39979
G1 X92.966 Y68.076
G1 F3600 X92.854 Y68.586
G1 F1320 X41.413 Y17.145 E163.19255
G1 X41.385 Y17.117
G1 F3600 X40.916 Y17.27
G1 F1320 X92.729 Y69.083 E167.01275
G1 X92.757 Y69.111
G1 F3600 X92.604 Y69.581
G1 F1320 X40.418 Y17.395 E170.86044
G1 X40.39 Y17.367
G1 F3600 X39.921 Y17.519
M73 P1
G1 F1320 X92.48 Y70.079 E174.73567
G1 X92.508 Y70.107
G1 F3600 X92.355 Y70.577
G1 F1320 X39.423 Y17.644 E178.63841
G1 X39.395 Y17.616
G1 F3600 X38.925 Y17.768
G1 F1320 X92.23 Y71.074 E182.56864
G1 X92.258 Y71.102
G1 F3600 X92.106 Y71.571
G1 F1320 X38.427 Y17.893 E186.52638
G1 X38.399 Y17.865
G1 F3600 X37.929 Y18.017
G1 F1320 X91.981 Y72.069 E190.51166
G1 X92.009 Y72.097
G1 F3600 X91.856 Y72.566
G1 F1320 X37.432 Y18.142 E194.52436
G1 X37.404 Y18.114
G1 F3600 X36.964 Y18.297
G1 F1320 X91.702 Y73.034 E198.56018
G1 X91.73 Y73.062
G1 F3600 X91.538 Y73.493
G1 F1320 X36.506 Y18.461 E202.61771
G1 X36.478 Y18.433
G1 F3600 X36.048 Y18.625
G1 F1320 X91.374 Y73.951 E206.69691
G1 X91.402 Y73.979
G1 F3600 X91.21 Y74.409
G1 F1320 X35.59 Y18.789 E210.7978
G1 X35.562 Y18.761
G1 F3600 X35.131 Y18.952
G1 F1320 X91.047 Y74.868 E214.92051
G1 X91.075 Y74.896
G1 F3600 X90.883 Y75.326
G1 F1320 X34.672 Y19.116 E219.06493
G1 X34.644 Y19.088
G1 F3600 X34.214 Y19.28
G1 F1320 X90.718 Y75.784 E223.23099
G1 X90.746 Y75.812
G1 F3600 X90.554 Y76.243
G1 F1320 X33.756 Y19.444 E227.41877
G1 X33.728 Y19.416
G1 F3600 X33.298 Y19.608
G1 F1320 X90.39 Y76.701 E231.62822
G1 X90.418 Y76.729
G1 F3600 X90.192 Y77.125
G1 F1320 X32.874 Y19.806 E235.85434
G1 X32.846 Y19.778
G1 F3600 X32.451 Y20.006
G1 F1320 X89.993 Y77.548 E240.09693
G1 X90.021 Y77.576
G1 F3600 X89.793 Y77.97
G1 F1320 X32.029 Y20.206 E244.35589
G1 X32.001 Y20.178
G1 F3600 X31.606 Y20.406
G1 F1320 X89.593 Y78.392 E248.63126
G1 X89.621 Y78.42
G1 F3600 X89.393 Y78.815
G1 F1320 X31.184 Y20.606 E252.92303
G1 X31.156 Y20.578
G1 F3600 X30.761 Y20.805
G1 F1320 X89.193 Y79.237 E257.23125
G1 X89.221 Y79.265
G1 F3600 X88.994 Y79.66
G1 F1320 X30.339 Y21.006 E261.55587
G1 X30.311 Y20.978
G1 F3600 X29.917 Y21.206
G1 F1320 X88.794 Y80.082 E265.89685
G1 X88.822 Y80.11
G1 F3600 X88.594 Y80.505
G1 F1320 X29.494 Y21.405 E270.25432
G1 X29.466 Y21.377
G1 F3600 X29.098 Y21.631
G1 F1320 X88.369 Y80.902 E274.62439
G1 X88.397 Y80.93
G1 F3600 X88.135 Y81.291
G1 F1320 X28.709 Y21.864 E279.00593
G1 X28.681 Y21.836
G1 F3600 X28.32 Y22.097
G1 F1320 X87.902 Y81.68 E283.39898
G1 X87.93 Y81.708
G1 F3600 X87.669 Y82.068
G1 F1320 X27.931 Y22.331 E287.80344
G1 X27.903 Y22.303
G1 F3600 X27.541 Y22.563
G1 F1320 X87.435 Y82.457 E292.21945
G1 X87.463 Y82.485
G1 F3600 X87.202 Y82.846
G1 F1320 X27.152 Y22.797 E296.64693
G1 X27.124 Y22.769
G1 F3600 X26.763 Y23.03
G1 F1320 X86.969 Y83.236 E301.08594
G1 X86.997 Y83.264
G1 F3600 X86.736 Y83.625
G1 F1320 X26.374 Y23.263 E305.53645
G1 X26.346 Y23.235
G1 F3600 X25.985 Y23.496
G1 F1320 X86.503 Y84.014 E309.99847
G1 X86.531 Y84.042
G1 F3600 X86.259 Y84.392
G1 F1320 X25.607 Y23.74 E314.47036
G1 X25.579 Y23.712
G1 F3600 X25.25 Y24.005
G1 F1320 X85.994 Y84.749 E318.94904
G1 X86.022 Y84.777
G1 F3600 X85.729 Y85.107
G1 F1320 X24.892 Y24.27 E323.43458
G1 X24.864 Y24.242
G1 F3600 X24.535 Y24.535
G1 F1320 X85.464 Y85.464 E327.9269
G1 X85.492 Y85.492
G1 F3600 X85.199 Y85.821
G1 F1320 X24.178 Y24.801 E332.42596
G1 X24.15 Y24.773
G1 F3600 X23.821 Y25.065
G1 F1320 X84.934 Y86.178 E336.93185
G1 X84.962 Y86.206
G1 F3600 X84.668 Y86.535
G1 F1320 X23.463 Y25.33 E341.44452
G1 X23.435 Y25.302
G1 F3600 X23.106 Y25.595
G1 F1320 X84.403 Y86.892 E345.96397
G1 X84.431 Y86.92
G1 F3600 X84.139 Y87.25
G1 F1320 X22.749 Y25.861 E350.49024
G1 X22.721 Y25.833
G1 F3600 X22.392 Y26.126
G1 F1320 X83.874 Y87.607 E355.0233
G1 X83.902 Y87.635
G1 F3600 X83.589 Y87.944
G1 F1320 X22.055 Y26.411 E359.56019
G1 X22.027 Y26.383
G1 F3600 X21.729 Y26.707
G1 F1320 X83.292 Y88.27 E364.09925
G1 X83.32 Y88.298
G1 F3600 X82.997 Y88.597
G1 F1320 X21.402 Y27.002 E368.64067
G1 X21.374 Y26.974
G1 F3600 X21.076 Y27.298
G1 F1320 X82.701 Y88.924 E373.18435
G1 X82.729 Y88.952
G1 F3600 X82.405 Y89.25
G1 F1320 X20.75 Y27.594 E377.73023
G1 X20.722 Y27.566
G1 F3600 X20.423 Y27.89
G1 F1320 X82.109 Y89.576 E382.27836
G1 X82.137 Y89.604
G1 F3600 X81.814 Y89.903
G1 F1320 X20.096 Y28.185 E386.82886
G1 X20.068 Y28.157
G1 F3600 X19.769 Y28.481
G1 F1320 X81.518 Y90.23 E391.38163
G1 X81.546 Y90.258
G1 F3600 X81.222 Y90.556
G1 F1320 X19.444 Y28.777 E395.93659
G1 X19.416 Y28.749
G1 F3600 X19.117 Y29.073
G1 F1320 X80.926 Y90.883 E400.49383
G1 X80.954 Y90.911
G1 F3600 X80.601 Y91.18
G1 F1320 X18.818 Y29.397 E405.04911
G1 X18.79 Y29.369
G1 F3600 X18.522 Y29.723
G1 F1320 X80.275 Y91.476 E409.60218
G1 X80.303 Y91.504
G1 F3600 X79.949 Y91.771
G1 F1320 X18.227 Y30.049 E414.15297
G1 X18.199 Y30.021
G1 F3600 X17.931 Y30.376
G1 F1320 X79.622 Y92.067 E418.70147
G1 X79.65 Y92.095
G1 F3600 X79.295 Y92.362
G1 F1320 X17.635 Y30.703 E423.24765
G1 X17.607 Y30.675
G1 F3600 X17.339 Y31.029
G1 F1320 X78.969 Y92.659 E427.79166
G1 X78.997 Y92.687
G1 F3600 X78.643 Y92.954
G1 F1320 X17.044 Y31.355 E432.33338
G1 X17.016 Y31.327
G1 F3600 X16.748 Y31.682
G1 F1320 X78.316 Y93.25 E436.87281
G1 X78.344 Y93.278
G1 F3600 X77.99 Y93.546
G1 F1320 X16.452 Y32.008 E441.41003
G1 X16.424 Y31.98
G1 F3600 X16.163 Y32.341
G1 F1320 X77.657 Y93.835 E445.94401
G1 X77.685 Y93.863
G1 F3600 X77.3 Y94.101
G1 F1320 X15.897 Y32.698 E450.47127
G1 X15.869 Y32.67
G1 F3600 X15.632 Y33.055
G1 F1320 X76.943 Y94.366 E454.99176
G1 X76.971 Y94.394
G1 F3600 X76.585 Y94.63
G1 F1320 X15.367 Y33.412 E459.50539
G1 X15.339 Y33.384
G1 F3600 X15.102 Y33.77
G1 F1320 X76.228 Y94.895 E464.01219
G1 X76.256 Y94.923
G1 F3600 X75.871 Y95.161
G1 F1320 X14.837 Y34.127 E468.51225
G1 X14.809 Y34.099
G1 F3600 X14.572 Y34.484
