M73 P0
;MINX:0.0
;MAXX:100.0
;MINY:10.0
;MAXY:110.0
;MINZ:0.0
;MAXZ:11.3
;MachineType:ENTINA TINA2
;FilamentType:PLA
;Extruder0Temperature:205
;InfillDensity:20
;FLAVOR:Marlin
;TIME:6201
;FilamentUsed:9742.2
;Layer height: 0.35

;Generated with Cura_SteamEngine 3.1
M104 T0 S220
M82 ; absolute extrusion mode
;(**** start.gcode for tina2****)
M104 S150
G28 Z
G28 X Y; Home extruder
G1 X55 Y55 F1000
G1 Z10 F200
G29
G1 Z15 F100
M107 ; Turn off fan
G90 ; Absolute positioning
M82 ; Extruder in absolute mode
M109 S220.0
G92 E0 ; Reset extruder position
G1 X90 Y6 Z0.27 F2000
G1 X20 Y6 Z0.27 E15 F1000
G92 E0 ; Reset extruder position

;LAYER_COUNT:29
;LAYER:-5
M107
M203 Z5
G1 F3600 X81.685 Y21.85 Z0.349
G1 F1200 X84.943 Y24.807 E0.48519
G1 X85.303 Y25.174 E0.54188
G1 X88.217 Y28.393 E1.02069
G1 X88.514 Y28.759 E1.07267
G1 X91.074 Y32.208 E1.54632
G1 X91.35 Y32.617 E1.60073
G1 X93.598 Y36.365 E2.08268
G1 X93.829 Y36.792 E2.13622
G1 X95.714 Y40.771 E2.62175
G1 X95.882 Y41.172 E2.66969
G1 X97.405 Y45.425 E3.16785
G1 X97.503 Y45.751 E3.20539
G1 X98.604 Y50.143 E3.7047
G1 X98.672 Y50.481 E3.74272
G1 X99.324 Y54.853 E4.23017
G1 X99.379 Y55.408 E4.29167
G1 X99.594 Y59.835 E4.78043
G1 X99.59 Y60.306 E4.83237
G1 X99.38 Y64.592 E5.30557
G1 X99.338 Y65.033 E5.35442
G1 X98.695 Y69.387 E5.83976
G1 X98.582 Y69.957 E5.90384
G1 X97.503 Y74.249 E6.39186
G1 X97.404 Y74.575 E6.42943
G1 X95.931 Y78.701 E6.91255
G1 X95.747 Y79.155 E6.96657
G1 X93.863 Y83.142 E7.45284
G1 X93.603 Y83.626 E7.51343
G1 X91.357 Y87.372 E7.99508
G1 X91.08 Y87.784 E8.04982
G1 X88.514 Y91.241 E8.52458
G1 X88.223 Y91.6 E8.57554
G1 X85.303 Y94.826 E9.05537
G1 X84.943 Y95.193 E9.11206
G1 X81.693 Y98.143 E9.59608
G1 X81.241 Y98.515 E9.66063
G1 X77.716 Y101.127 E10.14443
G1 X77.338 Y101.378 E10.19447
G1 X73.544 Y103.649 E10.68207
G1 X73.142 Y103.863 E10.73229
G1 X69.155 Y105.747 E11.21857
G1 X68.701 Y105.931 E11.27259
G1 X64.658 Y107.376 E11.74605
G1 X64.249 Y107.503 E11.79328
G1 X59.857 Y108.604 E12.29258
G1 X59.519 Y108.672 E12.3306
G1 X55.147 Y109.324 E12.81805
G1 X54.672 Y109.373 E12.87071
G1 X50.306 Y109.59 E13.35276
G1 X49.845 Y109.594 E13.4036
G1 X45.408 Y109.379 E13.89346
G1 X44.959 Y109.337 E13.94319
G1 X40.613 Y108.695 E14.42764
G1 X40.043 Y108.582 E14.49172
G1 X35.751 Y107.503 E14.97974
G1 X35.425 Y107.404 E15.01731
G1 X31.299 Y105.931 E15.50043
G1 X30.845 Y105.747 E15.55445
G1 X26.858 Y103.863 E16.04073
G1 X26.456 Y103.649 E16.09095
G1 X22.662 Y101.378 E16.57855
G1 X22.284 Y101.127 E16.62859
G1 X18.678 Y98.451 E17.12377
G1 X18.307 Y98.143 E17.17694
G1 X15.057 Y95.193 E17.66095
G1 X14.697 Y94.826 E17.71765
G1 X11.777 Y91.6 E18.19748
G1 X11.486 Y91.241 E18.24844
G1 X8.92 Y87.784 E18.72319
G1 X8.643 Y87.372 E18.77794
G1 X6.397 Y83.626 E19.25959
G1 X6.171 Y83.208 E19.31199
G1 X4.286 Y79.229 E19.79751
G1 X4.118 Y78.828 E19.84546
G1 X2.595 Y74.575 E20.34362
G1 X2.453 Y74.092 E20.39913
G1 X1.396 Y69.857 E20.88047
G1 X1.326 Y69.51 E20.91951
G1 X0.676 Y65.147 E21.40594
G1 X0.621 Y64.592 E21.46744
G1 X0.406 Y60.165 E21.9562
G1 X0.41 Y59.694 E22.00814
G1 X0.62 Y55.408 E22.48134
G1 X0.662 Y54.967 E22.5302
G1 X1.305 Y50.613 E23.01554
G1 X1.418 Y50.043 E23.07962
G1 X2.497 Y45.751 E23.56764
G1 X2.596 Y45.425 E23.60521
G1 X4.069 Y41.299 E24.08832
G1 X4.253 Y40.845 E24.14234
G1 X6.137 Y36.858 E24.62862
G1 X6.351 Y36.456 E24.67884
G1 X8.619 Y32.667 E25.1658
G1 X8.873 Y32.284 E25.21648
G1 X11.549 Y28.678 E25.71166
G1 X11.85 Y28.315 E25.76366
G1 X14.807 Y25.057 E26.24885
G1 X15.174 Y24.697 E26.30554
G1 X18.402 Y21.775 E26.78568
G1 X18.759 Y21.486 E26.83633
G1 X22.208 Y18.926 E27.30999
G1 X22.628 Y18.643 E27.36583
G1 X26.374 Y16.397 E27.84748
G1 X26.792 Y16.171 E27.89988
G1 X30.771 Y14.286 E28.38541
G1 X31.172 Y14.118 E28.43335
G1 X35.425 Y12.595 E28.93151
G1 X35.751 Y12.497 E28.96905
G1 X40.143 Y11.396 E29.46836
G1 X40.481 Y11.328 E29.50638
G1 X44.853 Y10.676 E29.99383
G1 X45.328 Y10.627 E30.04649
G1 X49.694 Y10.41 E30.52854
G1 X50.155 Y10.406 E30.57938
G1 X54.592 Y10.621 E31.06924
G1 X55.041 Y10.663 E31.11896
G1 X59.387 Y11.305 E31.60342
G1 X59.957 Y11.418 E31.6675
G1 X64.249 Y12.497 E32.15552
G1 X64.575 Y12.596 E32.19309
G1 X68.701 Y14.069 E32.67621
G1 X69.155 Y14.253 E32.73023
G1 X73.142 Y16.137 E33.2165
G1 X73.544 Y16.351 E33.26672
G1 X77.333 Y18.619 E33.75368
G1 X77.716 Y18.873 E33.80436
G1 X81.322 Y21.549 E34.29954
G1 X81.685 Y21.85 E34.35154
G1 F3600 X81.6 Y21.78
G1 F1200 X81.6 Y98.22 E42.78089
G1 F1680 E39.78089
G1 F3600 X80 Y99.435
G1 F1680 E42.78089
G1 F1200 X80 Y20.568 E51.47786
G1 F1680 E48.47786
G1 F3600 X78.4 Y19.381
G1 F1680 E51.47786
G1 F1200 X78.4 Y100.621 E60.43652
G1 F1680 E57.43652
G1 F3600 X76.8 Y101.701
G1 F1680 E60.43652
G1 F1200 X76.8 Y18.3 E69.63348
G1 F1680 E66.63348
G1 F3600 X75.2 Y17.343
G1 F1680 E69.63348
G1 F1200 X75.2 Y102.658 E79.04151
G1 F1680 E76.04151
G1 F3600 X73.6 Y103.616
G1 F1680 E79.04151
G1 F1200 X73.6 Y16.385 E88.66082
G1 F1680 E85.66082
G1 F3600 X72 Y15.598
G1 F1680 E88.66082
G1 F1200 X72 Y104.403 E98.4537
G1 F1680 E95.4537
G1 F3600 X70.4 Y105.159
G1 F1680 E98.4537
G1 F1200 X70.4 Y14.842 E108.41331
G1 F1680 E105.41331
G1 F3600 X68.8 Y14.11
G1 F1680 E108.41331
G1 F1200 X68.8 Y105.891 E118.53437
G1 F1680 E115.53437
G1 F3600 X67.2 Y106.468
G1 F1680 E118.53437
G1 F1200 X67.2 Y13.534 E128.78257
G1 F1680 E125.78257
G1 F3600 X65.6 Y12.962
G1 F1680 E128.78257
G1 F1200 X65.6 Y107.04 E139.15692
G1 F1680 E136.15692
G1 F3600 X64 Y107.566
G1 F1680 E139.15692
G1 F1200 X64 Y12.435 E149.6474
G1 F1680 E146.6474
G1 F3600 X62.4 Y12.033
G1 F1680 E149.6474
G1 F1200 X62.4 Y107.967 E160.22642
G1 F1680 E157.22642
G1 F3600 X60.8 Y108.368
G1 F1680 E160.22642
G1 F1200 X60.8 Y11.63 E170.89411
G1 F1680 E167.89411
G1 F3600 X59.2 Y11.278
G1 F1680 E170.89411
G1 F1200 X59.2 Y108.72 E181.63942
G1 F1680 E178.63942
G1 F3600 X57.6 Y108.959
G1 F1680 E181.63942
G1 F1200 X57.6 Y11.042 E192.43712
G1 F1680 E189.43712
G1 F3600 X56 Y10.805
G1 F1680 E192.43712
G1 F1200 X56 Y109.197 E203.2872
G1 F1680 E200.2872
G1 F3600 X54.4 Y109.387
G1 F1680 E203.2872
G1 F1200 X54.4 Y10.612 E214.17951
G1 F1680 E211.17951
G1 F3600 X52.8 Y10.535
G1 F1680 E214.17951
G1 F1200 X52.8 Y109.467 E225.08913
G1 F1680 E222.08913
G1 F3600 X51.2 Y109.546
G1 F1680 E225.08913
G1 F1200 X51.2 Y10.457 E236.01607
G1 F1680 E233.01607
G1 F3600 X49.6 Y10.414
G1 F1680 E236.01607
G1 F1200 X49.6 Y109.582 E246.95172
G1 F1680 E243.95172
G1 F3600 X48 Y109.504
G1 F1680 E246.95172
G1 F1200 X48 Y10.494 E257.86995
G1 F1680 E254.86995
G1 F3600 X46.4 Y10.573
G1 F1680 E257.86995
G1 F1200 X46.4 Y109.427 E268.77097
G1 F1680 E265.77097
G1 F3600 X44.8 Y109.313
G1 F1680 E268.77097
G1 F1200 X44.8 Y10.683 E279.6473
G1 F1680 E276.6473
G1 F3600 X43.2 Y10.922
G1 F1680 E279.6473
G1 F1200 X43.2 Y109.077 E290.47124
G1 F1680 E287.47124
G1 F3600 X41.6 Y108.84
G1 F1680 E290.47124
G1 F1200 X41.6 Y11.161 E301.24269
G1 F1680 E298.24269
G1 F3600 X40 Y11.431
G1 F1680 E301.24269
G1 F1200 X40 Y108.571 E311.9547
G1 F1680 E308.9547
G1 F3600 X38.4 Y108.168
G1 F1680 E311.9547
G1 F1200 X38.4 Y11.832 E322.57806
G1 F1680 E319.57806
G1 F3600 X36.8 Y12.234
G1 F1680 E322.57806
G1 F1200 X36.8 Y107.766 E333.11275
G1 F1680 E330.11275
G1 F3600 X35.2 Y107.323
G1 F1680 E333.11275
G1 F1200 X35.2 Y12.675 E343.54996
G1 F1680 E340.54996
G1 F3600 X33.6 Y13.248
G1 F1680 E343.54996
G1 F1200 X33.6 Y106.752 E353.86102
G1 F1680 E350.86102
G1 F3600 X32 Y106.181
G1 F1680 E353.86102
G1 F1200 X32 Y13.821 E364.04593
G1 F1680 E361.04593
G1 F3600 X30.4 Y14.461
G1 F1680 E364.04593
G1 F1200 X30.4 Y105.536 E374.08913
G1 F1680 E371.08913
G1 F3600 X28.8 Y104.78
G1 F1680 E374.08913
G1 F1200 X28.8 Y15.219 E383.96538
G1 F1680 E380.96538
G1 F3600 X27.2 Y15.977
G1 F1680 E383.96538
G1 F1200 X27.2 Y104.024 E393.67467
G1 F1680 E390.67467
G1 F3600 X25.6 Y103.136
G1 F1680 E393.67467
G1 F1200 X25.6 Y16.861 E403.18856
G1 F1680 E400.18856
G1 F3600 X24 Y17.82
G1 F1680 E403.18856
G1 F1200 X24 Y102.178 E412.49105
G1 F1680 E409.49105
G1 F3600 X22.4 Y101.204
G1 F1680 E412.49105
G1 F1200 X22.4 Y18.796 E421.57851
G1 F1680 E418.57851
G1 F3600 X20.8 Y19.971
G1 F1680 E421.57851
G1 F1200 X20.8 Y100.025 E430.40638
G1 F1680 E427.40638
G1 F3600 X19.2 Y98.838
G1 F1680 E430.40638
G1 F1200 X19.2 Y21.158 E438.97246
G1 F1680 E435.97246
G1 F3600 X17.6 Y22.5
G1 F1680 E438.97246
G1 F1200 X17.6 Y97.501 E447.24312
G1 F1680 E444.24312
G1 F3600 X16 Y96.048
G1 F1680 E447.24312
G1 F1200 X16 Y23.949 E455.19376
G1 F1680 E452.19376
G1 F3600 X14.4 Y25.505
G1 F1680 E455.19376
G1 F1200 X14.4 Y94.497 E462.80179
G1 F1680 E459.80179
G1 F3600 X12.8 Y92.73
G1 F1680 E462.80179
G1 F1200 X12.8 Y27.268 E470.02054
G1 F1680 E467.02054
G1 F3600 X11.2 Y29.148
G1 F1680 E470.02054
G1 F1200 X11.2 Y90.855 E476.82522
G1 F1680 E473.82522
G1 F3600 X9.6 Y88.7
G1 F1680 E476.82522
G1 F1200 X9.6 Y31.304 E483.1545
M73 P1
G1 F1680 E480.1545
G1 F3600 X8 Y33.701
G1 F1680 E483.1545
G1 F1200 X8 Y86.299 E488.95469
G1 F1680 E485.95469
G1 F3600 X6.4 Y83.631
G1 F1680 E488.95469
G1 F1200 X6.4 Y36.374 E494.16591
G1 F1680 E491.16591
G1 F3600 X4.8 Y39.687
G1 F1680 E494.16591
G1 F1200 X4.8 Y80.313 E498.6459
G1 F1680 E495.6459
G1 F3600 X3.2 Y76.264
G1 F1680 E498.6459
G1 F1200 X3.2 Y43.733 E502.23322
G1 F1680 E499.23322
G1 F3600 X1.6 Y49.319
G1 F1680 E502.23322
G1 F1200 X1.6 Y70.674 E504.58813
G1 F1680 E501.58813
G1 F3600 X83.2 Y96.776
G1 F1680 E504.58813
G1 F1200 X83.2 Y23.226 E512.69878
G1 F1680 E509.69878
G1 F3600 X84.8 Y24.678
G1 F1680 E512.69878
G1 F1200 X84.8 Y95.323 E520.48908
G1 F1680 E517.48908
G1 F3600 X86.4 Y93.615
G1 F1680 E520.48908
G1 F1200 X86.4 Y26.386 E527.90269
G1 F1680 E524.90269
G1 F3600 X88 Y28.154
G1 F1680 E527.90269
G1 F1200 X88 Y91.847 E534.92637
G1 F1680 E531.92637
G1 F3600 X89.6 Y89.778
G1 F1680 E534.92637
G1 F1200 X89.6 Y30.223 E541.49374
G1 F1680 E538.49374
G1 F3600 X91.2 Y32.395
G1 F1680 E541.49374
G1 F1200 X91.2 Y87.606 E547.58207
G1 F1680 E544.58207
G1 F3600 X92.8 Y84.966
G1 F1680 E547.58207
G1 F1200 X92.8 Y35.035 E553.08816
G1 F1680 E550.08816
G1 F3600 X94.4 Y37.998
G1 F1680 E553.08816
G1 F1200 X94.4 Y82.006 E557.9411
G1 F1680 E554.9411
G1 F3600 X96 Y78.508
M104 T0 S205
G1 F1680 E557.9411
G1 F1200 X96 Y41.502 E562.0219
G1 F1680 E559.0219
G1 F3600 X97.6 Y46.138
G1 F1680 E562.0219
G1 F1200 X97.6 Y73.864 E565.07936
G1 F1680 E562.07936
G1 F3600 X99.2 Y65.968
G1 F1680 E565.07936
G1 F1200 X99.2 Y54.022 E566.39669
G1 F1680 E563.39669
G1 F3600 X81.623 Y21.73
;TIME_ELAPSED:273.761315
;LAYER:-4
G1 X81.623 Y21.73 Z0.619
;TYPE:SUPPORT
G1 F1680 E566.39669
G1 F1980 X81.278 Y21.45 E566.42981
G1 X81.251 Y21.43 E566.43232
G1 X88.57 Y28.748 E567.20381
G1 F3600 X88.549 Y28.721
G1 F1980 X88.18 Y28.274 E567.24702
G1 X85.221 Y25.013 E567.57526
G1 X84.86 Y24.66 E567.61289
G1 X81.623 Y21.73 E567.93835
G1 F3600 X81.251 Y21.43
G1 F1980 X77.82 Y18.884 E568.25683
G1 X77.409 Y18.606 E568.29381
G1 X76.774 Y18.226 E568.34898
G1 X91.773 Y33.225 E569.93014
G1 X93.672 Y36.396 E570.20565
G1 X73.604 Y16.328 E572.32117
G1 X73.231 Y16.125 E572.35283
G1 X71.136 Y15.133 E572.52562
G1 X94.866 Y38.864 E575.02723
G1 X95.793 Y40.825 E575.18892
G1 X95.956 Y41.226 E575.22118
G1 X68.774 Y14.044 E578.08665
G1 X68.709 Y14.017 E578.09189
G1 X66.79 Y13.333 E578.24375
G1 X96.667 Y43.209 E581.39327
G1 X97.372 Y45.188 E581.54986
G1 X64.811 Y12.627 E584.98237
G1 X64.589 Y12.547 E584.99996
G1 X64.113 Y12.405 E585.03699
G1 X63.052 Y12.14 E585.11851
G1 X97.859 Y46.947 E588.78778
G1 X98.283 Y48.644 E588.91817
G1 X61.354 Y11.716 E592.81108
G1 X59.956 Y11.366 E592.91851
G1 X59.676 Y11.31 E592.93979
G1 X98.688 Y50.322 E597.05235
G1 X98.746 Y50.614 E597.07454
G1 X98.926 Y51.833 E597.16639
G1 X58.166 Y11.073 E601.46322
G1 X56.673 Y10.852 E601.57572
G1 X99.146 Y53.326 E606.05318
G1 X99.367 Y54.819 E606.16568
G1 X55.179 Y10.632 E610.82383
G1 X55.038 Y10.61 E610.83447
G1 X54.675 Y10.576 E610.86164
G1 X53.808 Y10.533 E610.92635
G1 X99.469 Y56.194 E615.73983
G1 X99.535 Y57.533 E615.83976
G1 X52.468 Y10.466 E620.80145
G1 X51.129 Y10.4 E620.90139
G1 X99.6 Y58.871 E626.01109
G1 X99.64 Y59.683 E626.07169
G1 X99.644 Y60.156 E626.10695
G1 X99.642 Y60.186 E626.10919
G1 X49.814 Y10.357 E631.362
G1 X48.599 Y10.415 E631.45267
G1 X99.583 Y61.4 E636.82734
G1 X99.525 Y62.614 E636.91793
G1 X47.385 Y10.474 E642.41441
G1 X46.171 Y10.533 E642.50501
G1 X99.465 Y63.827 E648.12314
G1 X99.424 Y64.667 E648.18583
G1 X99.39 Y65.024 E648.21257
G1 X44.975 Y10.61 E653.94882
G1 X44.96 Y10.61 E653.94994
G1 X43.865 Y10.772 E654.03245
G1 X99.227 Y66.134 E659.86858
G1 X99.063 Y67.243 E659.95215
G1 X42.756 Y10.936 E665.8879
G1 X41.647 Y11.1 E665.97147
G1 X98.899 Y68.352 E672.00684
G1 X98.746 Y69.384 E672.08461
G1 X98.732 Y69.458 E672.09022
G1 X40.541 Y11.267 E678.22459
G1 X40.04 Y11.366 E678.26265
G1 X39.502 Y11.501 E678.304
G1 X98.498 Y70.497 E684.52322
G1 X98.244 Y71.515 E684.60143
G1 X38.484 Y11.755 E690.9012
G1 X37.466 Y12.01 E690.97942
G1 X97.988 Y72.532 E697.35951
G1 X97.734 Y73.551 E697.4378
G1 X36.448 Y12.265 E703.89843
G1 X35.884 Y12.406 E703.94176
G1 X35.446 Y12.536 E703.97582
G1 X97.464 Y74.553 E710.51356
G1 X97.455 Y74.58 E710.51568
G1 X97.13 Y75.492 E710.58785
G1 X34.506 Y12.869 E717.18948
G1 X33.569 Y13.204 E717.26365
G1 X96.795 Y76.43 E723.92879
G1 X96.46 Y77.368 E724.00304
G1 X32.63 Y13.538 E730.73185
G1 X31.693 Y13.874 E730.80605
G1 X96.125 Y78.306 E737.59832
G1 X95.981 Y78.709 E737.63022
G1 X95.77 Y79.224 E737.67171
G1 X30.775 Y14.229 E744.52333
G1 X29.911 Y14.637 E744.59456
G1 X95.363 Y80.089 E751.49436
G1 X94.953 Y80.953 E751.56564
G1 X29.046 Y15.045 E758.51346
G1 X28.182 Y15.454 E758.58472
G1 X94.544 Y81.816 E765.58045
G1 X94.135 Y82.679 E765.65164
G1 X27.318 Y15.863 E772.69528
G1 X26.845 Y16.085 E772.73423
G1 X26.469 Y16.286 E772.76601
G1 X93.712 Y83.529 E779.85461
G1 X93.641 Y83.659 E779.86565
G1 X93.239 Y84.33 E779.92396
G1 X25.671 Y16.761 E787.04687
G1 X24.875 Y17.238 E787.11605
G1 X92.762 Y85.125 E794.27254
G1 X92.285 Y85.921 E794.34171
G1 X24.079 Y17.715 E801.53183
G1 X23.282 Y18.191 E801.60103
G1 X91.807 Y86.716 E808.82478
G1 X91.392 Y87.409 E808.88499
G1 X91.326 Y87.507 E808.8938
G1 X22.492 Y18.673 E816.15012
G1 X22.262 Y18.826 E816.17071
G1 X21.751 Y19.205 E816.21814
G1 X90.796 Y88.25 E823.4967
G1 X90.253 Y88.98 E823.56452
G1 X21.02 Y19.747 E830.8629
G1 X20.289 Y20.289 E830.93074
G1 X89.711 Y89.711 E838.24905
G1 X89.169 Y90.442 E838.31688
G1 X19.558 Y20.831 E845.65511
G1 X18.827 Y21.373 E845.72295
G1 X88.627 Y91.172 E853.08105
G1 X88.497 Y91.346 E853.09724
G1 X88.261 Y91.632 E853.12488
G1 X88.048 Y91.867 E853.14852
G1 X18.13 Y21.948 E860.51917
G1 X17.463 Y22.554 E860.58635
G1 X87.444 Y92.535 E867.96358
G1 X86.839 Y93.203 E868.03076
G1 X16.795 Y23.159 E875.41464
G1 X16.129 Y23.765 E875.48176
G1 X86.235 Y93.871 E882.87217
G1 X85.63 Y94.54 E882.93941
G1 X15.462 Y24.371 E890.33641
G1 X15.013 Y24.777 E890.38154
G1 X14.806 Y24.988 E890.40357
G1 X85.012 Y95.194 E897.80452
G1 X84.979 Y95.228 E897.80806
G1 X84.346 Y95.801 E897.8717
G1 X14.195 Y25.651 E905.26681
G1 X13.591 Y26.319 E905.33394
G1 X83.679 Y96.406 E912.7224
G1 X83.012 Y97.012 E912.78958
G1 X12.986 Y26.987 E920.1715
G1 X12.382 Y27.655 E920.23863
G1 X82.344 Y97.618 E927.61392
G1 X81.725 Y98.18 E927.67624
G1 X81.675 Y98.221 E927.68106
G1 X11.777 Y28.323 E935.04955
G1 X11.739 Y28.366 E935.05383
G1 X11.501 Y28.651 E935.0815
G1 X11.216 Y29.035 E935.11715
G1 X80.963 Y98.782 E942.46972
G1 X80.233 Y99.325 E942.53754
G1 X10.674 Y29.766 E949.87029
G1 X10.132 Y30.496 E949.93806
G1 X79.502 Y99.866 E957.25089
G1 X78.771 Y100.409 E957.31877
G1 X9.589 Y31.227 E964.61177
G1 X9.047 Y31.957 E964.67955
G1 X78.041 Y100.951 E971.95274
G1 X77.82 Y101.115 E971.97325
G1 X77.36 Y101.423 E972.01452
G1 X77.284 Y101.467 E972.02106
G1 X8.531 Y32.714 E979.26885
G1 X8.053 Y33.509 E979.33799
G1 X76.488 Y101.944 E986.55225
G1 X75.692 Y102.42 E986.62139
G1 X7.577 Y34.305 E993.80192
G1 X7.1 Y35.101 E993.87109
G1 X74.896 Y102.897 E1001.01799
G1 X74.1 Y103.374 E1001.08716
G1 X6.622 Y35.896 E1008.20054
G1 X6.358 Y36.339 E1008.23898
G1 X6.158 Y36.705 E1008.27007
G1 X73.292 Y103.839 E1015.34718
G1 X73.153 Y103.912 E1015.35888
G1 X72.433 Y104.252 E1015.41824
