M73 P0
;MINX:5.0
;MAXX:95.0
;MINY:15.0
;MAXY:105.0
;MINZ:0.0
;MAXZ:19.2
;MachineType:ENTINA TINA2
;FilamentType:PLA
;Extruder0Temperature:205
;InfillDensity:20
;FLAVOR:Marlin
;TIME:7094
;FilamentUsed:10150.2
;Layer height: 0.35

;Generated with Cura_SteamEngine 3.1
M104 T0 S220
M82 ; absolute extrusion mode
;(**** start.gcode for tina2****)
M104 S150
G28 Z
G28 X Y; Home extruder
G1 X55 Y55 F1000
G1 Z10 F200
G29
G1 Z15 F100
M107 ; Turn off fan
G90 ; Absolute positioning
M82 ; Extruder in absolute mode
M109 S220.0
G92 E0 ; Reset extruder position
G1 X90 Y6 Z0.27 F2000
G1 X20 Y6 Z0.27 E15 F1000
G92 E0 ; Reset extruder position

;LAYER_COUNT:56
;LAYER:0
M106 S255
M203 Z5
G1 F3600 X73.216 Y31.721 Z0.299
;TYPE:WALL-INNER
G1 F1320 X75.872 Y34.128 E0.18687
G1 X78.279 Y36.784 E0.37375
G1 X80.426 Y39.678 E0.56161
G1 X82.271 Y42.756 E0.74871
G1 X83.803 Y45.996 E0.93556
G1 X85.011 Y49.374 E1.12259
G1 X85.885 Y52.858 E1.30986
G1 X86.412 Y56.406 E1.49687
G1 X86.587 Y60 E1.68446
G1 X86.412 Y63.594 E1.87206
G1 X85.885 Y67.142 E2.05906
G1 X85.011 Y70.626 E2.24633
G1 X83.803 Y74.004 E2.43337
G1 X82.271 Y77.244 E2.62022
G1 X80.426 Y80.322 E2.80731
G1 X78.279 Y83.216 E2.99518
G1 X75.872 Y85.872 E3.18205
G1 X73.216 Y88.279 E3.36892
G1 X70.322 Y90.426 E3.55679
G1 X67.244 Y92.271 E3.74388
G1 X64.004 Y93.803 E3.93073
G1 X60.626 Y95.011 E4.11777
G1 X57.142 Y95.885 E4.30504
G1 X53.594 Y96.412 E4.49204
G1 X50 Y96.587 E4.67964
G1 X46.406 Y96.412 E4.86723
G1 X42.858 Y95.885 E5.05424
G1 X39.374 Y95.011 E5.24151
G1 X35.996 Y93.803 E5.42854
G1 X32.756 Y92.271 E5.61539
G1 X29.678 Y90.426 E5.80248
G1 X26.784 Y88.279 E5.99035
G1 X24.128 Y85.872 E6.17722
G1 X21.721 Y83.216 E6.3641
G1 X19.574 Y80.322 E6.55197
G1 X17.729 Y77.244 E6.73906
G1 X16.197 Y74.004 E6.92591
G1 X14.989 Y70.626 E7.11294
G1 X14.115 Y67.142 E7.30021
G1 X13.588 Y63.594 E7.48722
G1 X13.413 Y60 E7.67481
G1 X13.588 Y56.406 E7.86241
G1 X14.115 Y52.858 E8.04941
G1 X14.989 Y49.374 E8.23668
G1 X16.197 Y45.996 E8.42372
G1 X17.729 Y42.756 E8.61057
G1 X19.574 Y39.678 E8.79766
G1 X21.721 Y36.784 E8.98553
G1 X24.128 Y34.128 E9.1724
G1 X26.784 Y31.721 E9.35927
G1 X29.678 Y29.574 E9.54714
G1 X32.756 Y27.729 E9.73423
G1 X35.996 Y26.197 E9.92108
G1 X39.374 Y24.989 E10.10812
G1 X42.858 Y24.115 E10.29539
G1 X46.406 Y23.588 E10.48239
G1 X50 Y23.413 E10.66999
G1 X53.594 Y23.588 E10.85758
G1 X57.142 Y24.115 E11.04459
G1 X60.626 Y24.989 E11.23186
G1 X64.004 Y26.197 E11.41889
G1 X67.244 Y27.729 E11.60574
G1 X70.322 Y29.574 E11.79283
G1 X73.216 Y31.721 E11.9807
G1 F3600 X73.446 Y31.443
;TYPE:WALL-OUTER
G1 F1320 X76.127 Y33.873 E12.16935
G1 X78.557 Y36.554 E12.35799
G1 X80.726 Y39.477 E12.54776
G1 X82.586 Y42.582 E12.73646
G1 X84.137 Y45.861 E12.92557
G1 X85.356 Y49.269 E13.11427
G1 X86.238 Y52.788 E13.30341
G1 X86.771 Y56.376 E13.49252
G1 X86.948 Y60 E13.68169
G1 X86.771 Y63.624 E13.87085
G1 X86.238 Y67.212 E14.05996
G1 X85.356 Y70.731 E14.2491
G1 X84.137 Y74.139 E14.4378
G1 X82.586 Y77.418 E14.62691
G1 X80.726 Y80.523 E14.81562
G1 X78.557 Y83.446 E15.00538
G1 X76.127 Y86.127 E15.19403
G1 X73.446 Y88.557 E15.38267
G1 X70.523 Y90.726 E15.57244
G1 X67.418 Y92.586 E15.76114
G1 X64.139 Y94.137 E15.95025
G1 X60.731 Y95.356 E16.13895
G1 X57.212 Y96.238 E16.32809
G1 X53.624 Y96.771 E16.5172
G1 X50 Y96.948 E16.70637
G1 X46.376 Y96.771 E16.89553
G1 X42.788 Y96.238 E17.08464
G1 X39.269 Y95.356 E17.27378
G1 X35.861 Y94.137 E17.46248
G1 X32.582 Y92.586 E17.6516
G1 X29.477 Y90.726 E17.8403
G1 X26.554 Y88.557 E18.03006
G1 X23.873 Y86.127 E18.21871
G1 X21.443 Y83.446 E18.40735
G1 X19.274 Y80.523 E18.59712
G1 X17.414 Y77.418 E18.78582
G1 X15.863 Y74.139 E18.97493
G1 X14.644 Y70.731 E19.16363
G1 X13.762 Y67.212 E19.35277
G1 X13.229 Y63.624 E19.54188
G1 X13.052 Y60 E19.73105
G1 X13.229 Y56.376 E19.92021
G1 X13.762 Y52.788 E20.10933
G1 X14.644 Y49.269 E20.29846
G1 X15.863 Y45.861 E20.48717
G1 X17.414 Y42.582 E20.67628
G1 X19.274 Y39.477 E20.86498
G1 X21.443 Y36.554 E21.05474
G1 X23.873 Y33.873 E21.24339
G1 X26.554 Y31.443 E21.43203
G1 X29.477 Y29.274 E21.6218
G1 X32.582 Y27.414 E21.8105
G1 X35.861 Y25.863 E21.99961
G1 X39.269 Y24.644 E22.18831
G1 X42.788 Y23.762 E22.37745
G1 X46.376 Y23.229 E22.56657
G1 X50 Y23.052 E22.75573
G1 X53.624 Y23.229 E22.94489
G1 X57.212 Y23.762 E23.13401
G1 X60.731 Y24.644 E23.32315
G1 X64.139 Y25.863 E23.51185
G1 X67.418 Y27.414 E23.70096
G1 X70.523 Y29.274 E23.88966
G1 X73.446 Y31.443 E24.07942
G1 F3600 X72.942 Y32.054
;TYPE:SKIN
G1 F1320 X75.567 Y34.433 E24.26412
G1 X77.946 Y37.058 E24.44882
G1 X80.07 Y39.92 E24.63463
G1 X81.89 Y42.957 E24.81922
G1 X83.406 Y46.163 E25.00411
G1 X84.6 Y49.501 E25.18893
G1 X85.461 Y52.936 E25.37356
G1 X85.984 Y56.449 E25.55873
G1 X86.156 Y60 E25.74408
G1 X85.984 Y63.551 E25.92943
G1 X85.461 Y67.064 E26.1146
G1 X84.6 Y70.499 E26.29922
G1 X83.406 Y73.837 E26.48405
G1 X81.89 Y77.043 E26.66894
G1 X80.07 Y80.08 E26.85353
G1 X77.946 Y82.942 E27.03934
G1 X75.567 Y85.567 E27.22404
G1 X72.942 Y87.946 E27.40873
G1 X70.08 Y90.07 E27.59455
G1 X67.043 Y91.89 E27.77914
G1 X63.837 Y93.406 E27.96403
G1 X60.499 Y94.6 E28.14885
G1 X57.064 Y95.461 E28.33348
G1 X53.551 Y95.984 E28.51865
G1 X50 Y96.156 E28.704
G1 X46.449 Y95.984 E28.88934
G1 X42.936 Y95.461 E29.07451
G1 X39.501 Y94.6 E29.25914
G1 X36.163 Y93.406 E29.44396
G1 X32.957 Y91.89 E29.62886
G1 X29.92 Y90.07 E29.81345
G1 X27.058 Y87.946 E29.99926
G1 X24.433 Y85.567 E30.18395
G1 X22.054 Y82.942 E30.36865
G1 X19.93 Y80.08 E30.55446
G1 X18.11 Y77.043 E30.73905
G1 X16.594 Y73.837 E30.92394
G1 X15.4 Y70.499 E31.10877
G1 X14.539 Y67.064 E31.29339
G1 X14.016 Y63.551 E31.47856
G1 X13.844 Y60 E31.66391
G1 X14.016 Y56.449 E31.84926
G1 X14.539 Y52.936 E32.03443
G1 X15.4 Y49.501 E32.21906
G1 X16.594 Y46.163 E32.40388
G1 X18.11 Y42.957 E32.58877
G1 X19.93 Y39.92 E32.77336
G1 X22.054 Y37.058 E32.95917
G1 X24.433 Y34.433 E33.14387
G1 X27.058 Y32.054 E33.32857
G1 X29.92 Y29.93 E33.51438
G1 X32.957 Y28.11 E33.69897
G1 X36.163 Y26.594 E33.88386
G1 X39.501 Y25.4 E34.06868
G1 X42.936 Y24.539 E34.25331
G1 X46.449 Y24.016 E34.43848
G1 X50 Y23.844 E34.62383
G1 X53.551 Y24.016 E34.80918
G1 X57.064 Y24.539 E34.99435
G1 X60.499 Y25.4 E35.17897
G1 X63.837 Y26.594 E35.3638
G1 X67.043 Y28.11 E35.54869
G1 X70.08 Y29.93 E35.73328
G1 X72.942 Y32.054 E35.91909
G1 F1680 E32.91909
G1 F3600 X78.246 Y37.799
G1 F1680 E35.91909
G1 F1320 X72.199 Y31.753 E36.3649
G1 X72.171 Y31.725
G1 F1680 E33.3649
G1 F3600 X69.85 Y30.026
G1 F1680 E36.3649
G1 F1320 X79.973 Y40.148 E37.11124
G1 X80.001 Y40.176
G1 F1680 E34.11124
G1 F3600 X80.903 Y41.701
G1 F1680 E37.11124
G1 F1320 X68.298 Y29.096 E38.04061
G1 X68.27 Y29.068
G1 F1680 E35.04061
G1 F3600 X66.793 Y28.213
G1 F1680 E38.04061
G1 F1320 X81.786 Y43.206 E39.14605
G1 X81.814 Y43.234
G1 F1680 E36.14605
G1 F3600 X82.343 Y44.386
G1 F1680 E39.14605
G1 F1320 X65.613 Y27.655 E40.3796
G1 X65.585 Y27.627
G1 F1680 E37.3796
G1 F3600 X64.432 Y27.097
G1 F1680 E40.3796
G1 F1320 X82.901 Y45.566 E41.74132
G1 X82.929 Y45.594
G1 F1680 E38.74132
G1 F3600 X83.369 Y46.656
G1 F1680 E41.74132
G1 F1320 X63.343 Y26.63 E43.21785
G1 X63.315 Y26.602
G1 F1680 E40.21785
G1 F3600 X62.373 Y26.283
G1 F1680 E43.21785
G1 F1320 X83.716 Y47.625 E44.79144
G1 X83.744 Y47.653
G1 F1680 E41.79144
G1 F3600 X84.063 Y48.595
G1 F1680 E44.79144
G1 F1320 X61.404 Y25.935 E46.46213
G1 X61.376 Y25.907
G1 F1680 E43.46213
G1 F3600 X60.435 Y25.589
G1 F1680 E46.46213
G1 F1320 X84.41 Y49.563 E48.22978
G1 X84.438 Y49.591
G1 F1680 E45.22978
G1 F3600 X84.618 Y50.394
G1 F1680 E48.22978
G1 F1320 X59.605 Y25.381 E50.074
G1 X59.577 Y25.353
G1 F1680 E47.074
G1 F3600 X58.775 Y25.173
G1 F1680 E50.074
G1 F1320 X84.826 Y51.224 E51.99475
G1 X84.854 Y51.252
G1 F1680 E48.99475
G1 F3600 X85.034 Y52.055
G1 F1680 E51.99475
G1 F1320 X57.945 Y24.966 E53.99203
G1 X57.917 Y24.938
G1 F1680 E50.99203
G1 F3600 X57.115 Y24.758
G1 F1680 E53.99203
G1 F1320 X85.242 Y52.885 E56.06585
G1 X85.27 Y52.913
G1 F3600 X85.361 Y53.626
G1 F1320 X56.374 Y24.639 E58.20307
G1 X56.346 Y24.611
G1 F3600 X55.642 Y24.53
G1 F1320 X85.47 Y54.357 E60.40226
G1 X85.498 Y54.385
G1 F3600 X85.579 Y55.088
G1 F1320 X54.911 Y24.421 E62.66339
G1 X54.883 Y24.393
G1 F3600 X54.18 Y24.312
G1 F1320 X85.687 Y55.819 E64.98641
G1 X85.715 Y55.847
G1 F3600 X85.787 Y56.541
G1 F1320 X53.457 Y24.212 E67.37008
G1 X53.429 Y24.184
G1 F3600 X52.803 Y24.18
G1 F1320 X85.819 Y57.195 E69.80433
G1 X85.847 Y57.223
G1 F3600 X85.85 Y57.849
G1 F1320 X52.15 Y24.149 E72.28904
G1 X52.122 Y24.121
G1 F3600 X51.496 Y24.117
G1 F1320 X85.882 Y58.503 E74.82433
G1 X85.91 Y58.531
G1 F3600 X85.913 Y59.156
G1 F1320 X50.843 Y24.086 E77.41006
G1 X50.815 Y24.058
G1 F3600 X50.189 Y24.054
G1 F1320 X85.945 Y59.81 E80.04636
G1 X85.973 Y59.838
G1 F3600 X85.933 Y60.421
G1 F1320 X49.578 Y24.065 E82.72687
G1 X49.55 Y24.037
G1 F3600 X48.984 Y24.094
G1 F1320 X85.905 Y61.015 E85.44907
G1 X85.933 Y61.043
G1 F3600 X85.876 Y61.608
G1 F1320 X48.39 Y24.122 E88.21293
G1 X48.362 Y24.094
G1 F3600 X47.797 Y24.151
G1 F1320 X85.848 Y62.202 E91.01844
G1 X85.876 Y62.23
G1 F3600 X85.819 Y62.796
G1 F1320 X47.203 Y24.18 E93.86561
G1 X47.175 Y24.152
G1 F3600 X46.61 Y24.209
G1 F1320 X85.791 Y63.39 E96.75444
G1 X85.819 Y63.418
G1 F3600 X85.723 Y63.944
G1 F1320 X46.055 Y24.277 E99.67915
G1 X46.027 Y24.249
G1 F3600 X45.514 Y24.357
G1 F1320 X85.641 Y64.485 E102.63776
G1 X85.669 Y64.513
G1 F3600 X85.561 Y65.026
G1 F1320 X44.972 Y24.438 E105.63037
G1 X44.944 Y24.41
G1 F3600 X44.431 Y24.518
G1 F1320 X85.48 Y65.568 E108.65696
G1 X85.508 Y65.596
G1 F3600 X85.4 Y66.11
G1 F1320 X43.889 Y24.599 E111.71759
G1 X43.861 Y24.571
G1 F3600 X43.347 Y24.68
G1 F1320 X85.319 Y66.651 E114.81216
G1 X85.347 Y66.679
G1 F3600 X85.225 Y67.18
G1 F1320 X42.819 Y24.774 E117.93877
G1 X42.791 Y24.746
G1 F3600 X42.321 Y24.898
G1 F1320 X85.101 Y67.677 E121.09292
G1 X85.129 Y67.705
G1 F3600 X84.976 Y68.175
G1 F1320 X41.823 Y25.023 E124.27457
G1 X41.795 Y24.995
G1 F3600 X41.326 Y25.148
G1 F1320 X84.852 Y68.673 E127.48372
G1 X84.88 Y68.701
G1 F3600 X84.726 Y69.17
G1 F1320 X40.829 Y25.272 E130.7203
G1 X40.801 Y25.244
G1 F3600 X40.331 Y25.397
G1 F1320 X84.602 Y69.668 E133.98442
G1 X84.63 Y69.696
G1 F3600 X84.478 Y70.166
G1 F1320 X39.834 Y25.522 E137.27604
G1 X39.806 Y25.494
G1 F3600 X39.354 Y25.664
G1 F1320 X84.335 Y70.646 E140.59255
G1 X84.363 Y70.674
G1 F3600 X84.171 Y71.104
G1 F1320 X38.895 Y25.828 E143.93076
G1 X38.867 Y25.8
G1 F3600 X38.437 Y25.992
G1 F1320 X84.007 Y71.562 E147.29066
G1 X84.035 Y71.59
G1 F3600 X83.843 Y72.02
G1 F1320 X37.979 Y26.156 E150.67223
G1 X37.951 Y26.128
G1 F3600 X37.521 Y26.32
G1 F1320 X83.679 Y72.479 E154.07551
G1 X83.707 Y72.507
G1 F3600 X83.515 Y72.937
G1 F1320 X37.062 Y26.483 E157.50055
G1 X37.034 Y26.455
G1 F3600 X36.604 Y26.648
G1 F1320 X83.351 Y73.395 E160.94722
G1 X83.379 Y73.423
G1 F3600 X83.179 Y73.845
G1 F1320 X36.153 Y26.819 E164.41447
G1 X36.125 Y26.791
G1 F3600 X35.73 Y27.019
G1 F1320 X82.98 Y74.268 E167.89819
G1 X83.008 Y74.296
G1 F3600 X82.78 Y74.69
G1 F1320 X35.308 Y27.219 E171.39828
G1 X35.28 Y27.191
G1 F3600 X34.886 Y27.419
G1 F1320 X82.58 Y75.113 E174.91478
G1 X82.608 Y75.141
G1 F3600 X82.38 Y75.535
G1 F1320 X34.463 Y27.618 E178.44772
G1 X34.435 Y27.59
G1 F3600 X34.041 Y27.818
G1 F1320 X82.181 Y75.958 E181.9971
G1 X82.209 Y75.986
G1 F3600 X81.981 Y76.38
G1 F1320 X33.618 Y28.018 E185.56289
G1 X33.59 Y27.99
G1 F3600 X33.196 Y28.218
G1 F1320 X81.781 Y76.803 E189.14508
G1 X81.809 Y76.831
G1 F3600 X81.559 Y77.204
G1 F1320 X32.796 Y28.44 E192.74043
G1 X32.768 Y28.412
G1 F3600 X32.406 Y28.673
G1 F1320 X81.326 Y77.592 E196.34729
G1 X81.354 Y77.62
G1 F3600 X81.093 Y77.982
G1 F1320 X32.017 Y28.906 E199.96568
G1 X31.989 Y28.878
G1 F3600 X31.628 Y29.139
G1 F1320 X80.86 Y78.371 E203.59557
G1 X80.888 Y78.399
G1 F3600 X80.627 Y78.76
G1 F1320 X31.239 Y29.372 E207.23697
G1 X31.211 Y29.344
G1 F3600 X30.85 Y29.605
G1 F1320 X80.394 Y79.149 E210.88987
G1 X80.422 Y79.177
G1 F3600 X80.161 Y79.538
G1 F1320 X30.46 Y29.838 E214.55431
G1 X30.432 Y29.81
G1 F3600 X30.071 Y30.071
G1 F1320 X79.927 Y79.927 E218.23021
G1 X79.955 Y79.955
G1 F3600 X79.666 Y80.288
G1 F1320 X29.711 Y30.333 E221.91341
G1 X29.683 Y30.305
G1 F3600 X29.354 Y30.598
G1 F1320 X79.401 Y80.645 E225.6034
G1 X79.429 Y80.673
G1 F3600 X79.135 Y81.002
G1 F1320 X28.997 Y30.863 E229.30013
G1 X28.969 Y30.835
G1 F3600 X28.639 Y31.128
G1 F1320 X78.87 Y81.359 E233.00368
G1 X78.898 Y81.387
G1 F3600 X78.605 Y81.716
G1 F1320 X28.282 Y31.394 E236.71398
G1 X28.254 Y31.366
G1 F3600 X27.925 Y31.659
G1 F1320 X78.34 Y82.073 E240.43106
G1 X78.368 Y82.101
G1 F3600 X78.075 Y82.43
G1 F1320 X27.568 Y31.924 E244.15492
G1 X27.54 Y31.896
G1 F3600 X27.211 Y32.189
G1 F1320 X77.81 Y82.788 E247.88561
G1 X77.838 Y82.816
G1 F3600 X77.516 Y83.116
G1 F1320 X26.882 Y32.483 E251.61883
G1 X26.854 Y32.455
G1 F3600 X26.556 Y32.779
G1 F1320 X77.22 Y83.442 E255.35427
G1 X77.248 Y83.47
G1 F3600 X76.924 Y83.769
G1 F1320 X26.23 Y33.074 E259.092
G1 X26.202 Y33.046
G1 F3600 X25.904 Y33.371
G1 F1320 X76.629 Y84.096 E262.83197
G1 X76.657 Y84.124
G1 F3600 X76.333 Y84.422
G1 F1320 X25.577 Y33.666 E266.57423
G1 X25.549 Y33.638
G1 F3600 X25.25 Y33.962
G1 F1320 X76.037 Y84.748 E270.31874
G1 X76.065 Y84.776
G1 F3600 X75.741 Y85.075
G1 F1320 X24.924 Y34.258 E274.0655
G1 X24.896 Y34.23
G1 F3600 X24.598 Y34.554
G1 F1320 X75.446 Y85.402 E277.81454
G1 X75.474 Y85.43
G1 F3600 X75.12 Y85.699
G1 F1320 X24.299 Y34.878 E281.56159
G1 X24.271 Y34.85
M73 P1
G1 F3600 X24.003 Y35.204
G1 F1320 X74.794 Y85.994 E285.3064
G1 X74.822 Y86.022
G1 F3600 X74.468 Y86.291
G1 F1320 X23.707 Y35.53 E289.04903
G1 X23.679 Y35.502
G1 F3600 X23.412 Y35.857
G1 F1320 X74.141 Y86.586 E292.7893
G1 X74.169 Y86.614
G1 F3600 X73.814 Y86.882
G1 F1320 X23.116 Y36.183 E296.52732
G1 X23.088 Y36.155
G1 F3600 X22.82 Y36.51
G1 F1320 X73.488 Y87.177 E300.26305
G1 X73.516 Y87.205
G1 F3600 X73.162 Y87.474
G1 F1320 X22.524 Y36.836 E303.99661
G1 X22.496 Y36.808
G1 F3600 X22.228 Y37.162
G1 F1320 X72.835 Y87.769 E307.72788
G1 X72.863 Y87.797
G1 F3600 X72.48 Y88.036
G1 F1320 X21.961 Y37.517 E311.45267
G1 X21.933 Y37.489
G1 F3600 X21.696 Y37.874
G1 F1320 X72.123 Y88.302 E315.17071
G1 X72.151 Y88.33
G1 F3600 X71.766 Y88.567
G1 F1320 X21.43 Y38.231 E318.882
G1 X21.402 Y38.203
G1 F3600 X21.165 Y38.588
G1 F1320 X71.409 Y88.832 E322.58651
G1 X71.437 Y88.86
G1 F3600 X71.052 Y89.097
G1 F1320 X20.9 Y38.946 E326.2842
G1 X20.872 Y38.918
G1 F3600 X20.635 Y39.303
G1 F1320 X70.695 Y89.362 E329.97511
G1 X70.723 Y89.39
G1 F3600 X70.338 Y89.627
G1 F1320 X20.37 Y39.66 E333.65923
G1 X20.342 Y39.632
G1 F3600 X20.105 Y40.017
G1 F1320 X69.98 Y89.893 E337.33657
G1 X70.008 Y89.921
G1 F3600 X69.592 Y90.127
G1 F1320 X19.871 Y40.405 E341.00256
G1 X19.843 Y40.377
G1 F3600 X19.637 Y40.794
G1 F1320 X69.203 Y90.36 E344.65708
G1 X69.231 Y90.388
G1 F3600 X68.814 Y90.593
G1 F1320 X19.405 Y41.184 E348.30002
G1 X19.377 Y41.156
G1 F3600 X19.171 Y41.572
G1 F1320 X68.425 Y90.826 E351.93154
G1 X68.453 Y90.854
G1 F3600 X68.036 Y91.059
G1 F1320 X18.938 Y41.961 E355.55156
G1 X18.91 Y41.933
G1 F3600 X18.705 Y42.351
G1 F1320 X67.647 Y91.293 E359.16007
G1 X67.675 Y91.321
G1 F3600 X67.258 Y91.526
G1 F1320 X18.472 Y42.74 E362.75708
G1 X18.444 Y42.712
G1 F3600 X18.246 Y43.136
G1 F1320 X66.862 Y91.752 E366.34156
G1 X66.89 Y91.78
G1 F3600 X66.44 Y91.952
G1 F1320 X18.046 Y43.558 E369.90967
G1 X18.018 Y43.53
G1 F3600 X17.846 Y43.981
G1 F1320 X66.017 Y92.152 E373.46133
G1 X66.045 Y92.18
G1 F3600 X65.595 Y92.352
G1 F1320 X17.646 Y44.403 E376.99663
G1 X17.618 Y44.375
G1 F3600 X17.446 Y44.825
G1 F1320 X65.172 Y92.551 E380.51549
G1 X65.2 Y92.579
G1 F3600 X64.75 Y92.751
G1 F1320 X17.247 Y45.248 E384.0179
G1 X17.219 Y45.22
G1 F3600 X17.046 Y45.67
G1 F1320 X64.327 Y92.951 E387.50395
G1 X64.355 Y92.979
G1 F3600 X63.905 Y93.151
G1 F1320 X16.846 Y46.092 E390.97363
G1 X16.818 Y46.064
G1 F3600 X16.67 Y46.538
G1 F1320 X63.459 Y93.327 E394.4234
G1 X63.487 Y93.355
G1 F3600 X63.001 Y93.491
G1 F1320 X16.506 Y46.997 E397.85146
G1 X16.478 Y46.969
G1 F3600 X16.342 Y47.455
G1 F1320 X62.542 Y93.655 E401.2578
G1 X62.57 Y93.683
G1 F3600 X62.084 Y93.819
G1 F1320 X16.178 Y47.913 E404.64247
G1 X16.15 Y47.885
