M73 P0
;MINX:20.0
;MAXX:80.0
;MINY:33.3
;MAXY:86.7
;MINZ:0.0
;MAXZ:61.1
;MachineType:ENTINA TINA2
;FilamentType:PLA
;Extruder0Temperature:200
;InfillDensity:10
;FLAVOR:Marlin
;TIME:4544
;FilamentUsed:3111.2
;Layer height: 0.2

;Generated with Cura_SteamEngine 3.1
M104 T0 S215
M82 ; absolute extrusion mode
;(**** start.gcode for tina2****)
M104 S150
G28 Z
G28 X Y; Home extruder
G1 X55 Y55 F1000
G1 Z10 F200
G29
G1 Z15 F100
M107 ; Turn off fan
G90 ; Absolute positioning
M82 ; Extruder in absolute mode
M109 S215.0
G92 E0 ; Reset extruder position
G1 X90 Y6 Z0.27 F2000
G1 X20 Y6 Z0.27 E15 F1000
G92 E0 ; Reset extruder position

;LAYER_COUNT:299
;LAYER:-6
M107
M203 Z5
G1 F3600 X68.424 Y38.288 Z0.349
G1 F1200 X68.809 Y38.658 E0.05888
G1 X69.178 Y39.056 E0.11873
G1 X69.363 Y39.266 E0.14959
G1 X69.65 Y39.618 E0.19968
G1 X70.014 Y40.124 E0.26841
G1 X70.426 Y40.652 E0.34227
G1 X70.909 Y41.133 E0.41744
G1 X71.427 Y41.531 E0.48947
G1 X71.862 Y41.907 E0.55288
G1 X71.95 Y41.992 E0.56637
G1 X72.305 Y42.393 E0.62543
G1 X72.938 Y43.174 E0.73629
G1 X73.15 Y43.472 E0.77662
G1 X73.245 Y43.624 E0.79638
G1 X73.516 Y44.115 E0.85823
G1 X73.85 Y44.766 E0.93891
G1 X74.239 Y45.328 E1.01428
G1 X74.693 Y45.832 E1.08909
G1 X75.065 Y46.164 E1.14407
G1 X75.603 Y46.603 E1.22064
G1 X75.855 Y46.835 E1.25841
G1 X76.284 Y47.297 E1.32794
G1 X76.381 Y47.421 E1.3453
G1 X76.696 Y47.881 E1.40678
G1 X76.789 Y48.029 E1.42605
G1 X78.615 Y51.204 E1.82995
G1 X78.782 Y51.528 E1.87014
G1 X78.931 Y51.879 E1.91219
G1 X79.085 Y52.317 E1.96339
G1 X79.192 Y52.694 E2.0066
G1 X79.332 Y53.331 E2.07853
G1 X79.346 Y53.44 E2.09064
G1 X79.383 Y53.901 E2.14164
G1 X79.394 Y54.402 E2.1969
G1 X79.382 Y54.723 E2.23233
G1 X79.329 Y55.562 E2.32503
G1 X79.291 Y55.996 E2.37307
G1 X79.155 Y57.021 E2.4871
G1 X78.799 Y59.285 E2.73982
G1 X78.753 Y59.5 E2.76407
G1 X78.607 Y60.045 E2.82629
G1 X78.539 Y60.237 E2.84875
G1 X78.306 Y60.759 E2.91179
G1 X78.176 Y61.012 E2.94315
G1 X77.677 Y61.864 E3.05203
G1 X77.491 Y62.159 E3.09049
G1 X77.327 Y62.391 E3.12182
G1 X77.12 Y62.657 E3.15899
G1 X76.936 Y62.864 E3.18953
G1 X75.086 Y64.785 E3.48363
G1 X74.653 Y65.296 E3.55749
G1 X74.28 Y65.868 E3.63279
G1 X73.983 Y66.48 E3.70781
G1 X73.808 Y66.977 E3.76591
G1 X73.475 Y68.097 E3.89476
G1 X73.308 Y68.578 E3.95091
G1 X73.26 Y68.694 E3.96475
G1 X72.986 Y69.241 E4.03222
G1 X72.713 Y69.692 E4.09035
G1 X71.225 Y71.9 E4.38397
G1 X70.935 Y72.258 E4.43477
G1 X70.576 Y72.65 E4.49339
G1 X70.379 Y72.836 E4.52327
G1 X69.916 Y73.32 E4.59713
G1 X69.511 Y73.87 E4.67245
G1 X69.178 Y74.466 E4.74773
G1 X68.924 Y75.097 E4.82274
G1 X68.72 Y75.849 E4.90866
G1 X68.146 Y77.629 E5.11491
G1 X67.974 Y78.097 E5.16989
G1 X67.755 Y78.584 E5.22877
G1 X67.512 Y78.997 E5.28161
G1 X66.07 Y81.146 E5.567
G1 X65.617 Y81.756 E5.65079
G1 X65.336 Y82.069 E5.69717
G1 X65.048 Y82.349 E5.74147
G1 X63.689 Y83.526 E5.93972
G1 X63.41 Y83.75 E5.97917
G1 X63.198 Y83.901 E6.00788
G1 X62.855 Y84.124 E6.05299
G1 X62.204 Y84.435 E6.13255
G1 X62.027 Y84.51 E6.15375
G1 X58.978 Y85.629 E6.5119
G1 X58.645 Y85.739 E6.55058
G1 X57.939 Y85.889 E6.63017
G1 X57.502 Y85.943 E6.67872
G1 X56.957 Y85.985 E6.739
G1 X56.541 Y86.007 E6.78494
G1 X55.915 Y85.988 E6.854
G1 X55.78 Y85.974 E6.86897
G1 X55.287 Y85.892 E6.92408
G1 X53.026 Y85.358 E7.18027
G1 X52.297 Y85.151 E7.26384
G1 X50.534 Y84.56 E7.46888
G1 X50.034 Y84.359 E7.52831
G1 X49.814 Y84.255 E7.55514
G1 X49.609 Y84.145 E7.5808
G1 X49.485 Y84.063 E7.59719
G1 X48.952 Y83.679 E7.66963
G1 X48.809 Y83.566 E7.68973
G1 X48.623 Y83.405 E7.71686
G1 X48.088 Y83 E7.79085
G1 X47.496 Y82.66 E7.86614
G1 X46.867 Y82.397 E7.94132
G1 X46.203 Y82.214 E8.01727
G1 X45.234 Y82.103 E8.12482
G1 X44.927 Y82.094 E8.15869
G1 X44.844 Y82.083 E8.16793
G1 X44.199 Y81.969 E8.24016
G1 X42.822 Y81.644 E8.39617
G1 X41.564 Y81.273 E8.54081
G1 X39.62 Y80.617 E8.76706
G1 X39.371 Y80.522 E8.79644
G1 X39.1 Y80.399 E8.82926
G1 X38.494 Y80.072 E8.9052
G1 X38.018 Y79.719 E8.97055
G1 X37.624 Y79.385 E9.0275
G1 X37.164 Y78.983 E9.09487
G1 X36.947 Y78.77 E9.1284
G1 X36.598 Y78.381 E9.18603
G1 X36.45 Y78.189 E9.21277
G1 X34.584 Y75.634 E9.56166
G1 X34.159 Y75.112 E9.63589
G1 X33.659 Y74.639 E9.71179
G1 X32.904 Y74.112 E9.81332
G1 X32.389 Y73.798 E9.87983
G1 X31.031 Y72.85 E10.06246
G1 X30.879 Y72.731 E10.08375
G1 X30.36 Y72.284 E10.15928
G1 X29.927 Y71.78 E10.23256
G1 X29.826 Y71.652 E10.25054
G1 X29.037 Y70.556 E10.39946
G1 X28.733 Y70.06 E10.46361
G1 X28.666 Y69.926 E10.48013
G1 X28.43 Y69.364 E10.54735
G1 X28.336 Y69.097 E10.57856
G1 X28.271 Y68.889 E10.60259
G1 X28.167 Y68.622 E10.63419
G1 X28.029 Y68.263 E10.6766
G1 X27.705 Y67.663 E10.7518
G1 X27.308 Y67.108 E10.82705
G1 X26.842 Y66.604 E10.90274
G1 X26.201 Y66.085 E10.99369
G1 X25.786 Y65.794 E11.04958
G1 X24.738 Y64.979 E11.19598
G1 X24.337 Y64.646 E11.25346
G1 X24.2 Y64.521 E11.27391
G1 X24.025 Y64.346 E11.30121
G1 X23.656 Y63.901 E11.36495
G1 X23.452 Y63.62 E11.40325
G1 X23.321 Y63.41 E11.43054
G1 X21.487 Y60.251 E11.83335
G1 X21.331 Y59.951 E11.87063
G1 X21.09 Y59.44 E11.93294
G1 X20.955 Y59.111 E11.97215
G1 X20.758 Y58.548 E12.03793
G1 X20.719 Y58.405 E12.05427
G1 X20.643 Y58.065 E12.09269
G1 X20.567 Y57.49 E12.15665
G1 X20.546 Y57.092 E12.2006
G1 X20.547 Y56.674 E12.24669
G1 X20.589 Y56.243 E12.29445
G1 X21.165 Y52.393 E12.72373
G1 X21.205 Y52.186 E12.74698
G1 X21.351 Y51.577 E12.81604
G1 X21.401 Y51.415 E12.83473
G1 X21.561 Y51.018 E12.88193
G1 X21.663 Y50.799 E12.90857
G1 X21.786 Y50.571 E12.93714
G1 X22.815 Y48.803 E13.16272
G1 X23.031 Y48.47 E13.20649
G1 X23.283 Y48.132 E13.25298
G1 X23.52 Y47.848 E13.29377
G1 X25.079 Y46.221 E13.54226
G1 X25.464 Y45.866 E13.60001
G1 X25.844 Y45.557 E13.65402
G1 X26.309 Y45.26 E13.71486
G1 X26.779 Y44.999 E13.77415
G1 X26.997 Y44.867 E13.80225
G1 X28.881 Y43.819 E14.03999
G1 X29.035 Y43.741 E14.05902
G1 X29.668 Y43.458 E14.13549
G1 X30.304 Y43.28 E14.20832
G1 X30.478 Y43.239 E14.22803
G1 X31.246 Y43.094 E14.31421
G1 X31.901 Y42.959 E14.38796
G1 X32.547 Y42.738 E14.46325
G1 X33.161 Y42.437 E14.53866
G1 X33.731 Y42.061 E14.61396
G1 X34.252 Y41.613 E14.68973
G1 X34.584 Y41.23 E14.74563
G1 X34.6 Y41.238 E14.7476
G1 X35.026 Y40.693 E14.82388
G1 X36.197 Y39.264 E15.02761
G1 X38.015 Y37.133 E15.3365
G1 X38.161 Y36.974 E15.36031
G1 X38.602 Y36.537 E15.42877
G1 X38.702 Y36.459 E15.44275
G1 X39.247 Y36.072 E15.51646
G1 X39.42 Y35.96 E15.53919
G1 X39.514 Y35.908 E15.55104
G1 X40.03 Y35.636 E15.61536
G1 X40.493 Y35.418 E15.67179
G1 X40.96 Y35.229 E15.72735
G1 X41.223 Y35.147 E15.75773
G1 X44.448 Y34.234 E16.12734
G1 X44.62 Y34.192 E16.14686
G1 X45.26 Y34.067 E16.21877
G1 X45.808 Y34.033 E16.27932
G1 X46.424 Y34.038 E16.34725
G1 X49.431 Y34.161 E16.67912
G1 X49.698 Y34.185 E16.70868
G1 X50.019 Y34.23 E16.74443
G1 X50.671 Y34.355 E16.81763
G1 X51.837 Y34.614 E16.94935
G1 X52.298 Y34.745 E17.0022
G1 X52.829 Y34.968 E17.06571
G1 X53.135 Y35.123 E17.10353
G1 X53.484 Y35.341 E17.14891
G1 X53.965 Y35.661 E17.21262
G1 X53.973 Y35.647 E17.21439
G1 X54.559 Y35.934 E17.28635
G1 X55.205 Y36.153 E17.36157
G1 X55.875 Y36.289 E17.43696
G1 X56.556 Y36.34 E17.51226
G1 X57.238 Y36.304 E17.58758
G1 X57.889 Y36.186 E17.66053
G1 X58.325 Y36.084 E17.70991
G1 X60.787 Y35.646 E17.98567
G1 X61.089 Y35.602 E18.01932
G1 X61.64 Y35.549 E18.08037
G1 X62.069 Y35.548 E18.12767
G1 X62.643 Y35.574 E18.19104
G1 X63.043 Y35.614 E18.23536
G1 X63.459 Y35.685 E18.2819
G1 X63.984 Y35.841 E18.3423
G1 X64.179 Y35.911 E18.36514
G1 X64.426 Y36.017 E18.39478
G1 X65.324 Y36.43 E18.50378
G1 X65.789 Y36.658 E18.56089
G1 X66.299 Y36.943 E18.62532
G1 X67.692 Y37.773 E18.80413
G1 X67.862 Y37.884 E18.82652
G1 X68.424 Y38.288 E18.90284
G1 F3600 X68.8 Y38.65
G1 F1200 X68.8 Y75.555 E22.9725
G1 F1680 E19.9725
G1 F3600 X70.4 Y72.817
G1 F1680 E22.9725
G1 F1200 X70.4 Y40.619 E26.52311
G1 F1680 E23.52311
G1 F3600 X72 Y42.049
G1 F1680 E26.52311
G1 F1200 X72 Y70.75 E29.68808
G1 F1680 E26.68808
G1 F3600 X73.6 Y67.677
G1 F1680 E29.68808
G1 F1200 X73.6 Y44.279 E32.26827
G1 F1680 E29.26827
G1 F3600 X75.2 Y46.275
G1 F1680 E32.26827
G1 F1200 X75.2 Y64.667 E34.29643
G1 F1680 E31.29643
G1 F3600 X76.8 Y63.006
G1 F1680 E34.29643
G1 F1200 X76.8 Y48.049 E35.9458
G1 F1680 E32.9458
G1 F3600 X78.4 Y50.831
G1 F1680 E35.9458
G1 F1200 X78.4 Y60.549 E37.01744
G1 F1680 E34.01744
G1 F3600 X67.2 Y79.462
G1 F1680 E37.01744
G1 F1200 X67.2 Y37.48 E41.64696
G1 F1680 E38.64696
G1 F3600 X65.6 Y36.566
G1 F1680 E41.64696
G1 F1200 X65.6 Y81.775 E46.63234
G1 F1680 E43.63234
G1 F3600 X64 Y83.257
G1 F1680 E46.63234
G1 F1200 X64 Y35.847 E51.86043
G1 F1680 E48.86043
G1 F3600 X62.4 Y35.563
G1 F1680 E51.86043
G1 F1200 X62.4 Y84.342 E57.23948
G1 F1680 E54.23948
G1 F3600 X60.8 Y84.961
G1 F1680 E57.23948
G1 F1200 X60.8 Y35.644 E62.67786
G1 F1680 E59.67786
G1 F3600 X59.2 Y35.928
G1 F1680 E62.67786
G1 F1200 X59.2 Y85.548 E68.14966
G1 F1680 E65.14966
G1 F3600 X57.6 Y85.931
G1 F1680 E68.14966
G1 F1200 X57.6 Y36.238 E73.6295
G1 F1680 E70.6295
G1 F3600 X56 Y36.299
G1 F1680 E73.6295
G1 F1200 X56 Y85.99 E79.10913
G1 F1680 E76.10913
G1 F3600 X54.4 Y85.682
G1 F1680 E79.10913
G1 F1200 X54.4 Y35.857 E84.60353
G1 F1680 E81.60353
G1 F3600 X52.8 Y34.956
G1 F1680 E84.60353
G1 F1200 X52.8 Y85.293 E90.15439
G1 F1680 E87.15439
G1 F3600 X51.2 Y84.783
G1 F1680 E90.15439
G1 F1200 X51.2 Y34.473 E95.70227
G1 F1680 E92.70227
G1 F3600 X49.6 Y34.177
G1 F1680 E95.70227
G1 F1200 X49.6 Y84.139 E101.21178
G1 F1680 E98.21178
G1 F3600 X48 Y82.949
G1 F1680 E101.21178
G1 F1200 X48 Y34.103 E106.59822
G1 F1680 E103.59822
G1 F3600 X46.4 Y34.038
G1 F1680 E106.59822
G1 F1200 X46.4 Y82.268 E111.91674
G1 F1680 E108.91674
G1 F3600 X44.8 Y82.075
G1 F1680 E111.91674
G1 F1200 X44.8 Y34.156 E117.20096
G1 F1680 E114.20096
G1 F3600 X43.2 Y34.587
G1 F1680 E117.20096
G1 F1200 X43.2 Y81.733 E122.39993
G1 F1680 E119.39993
G1 F3600 X41.6 Y81.283
G1 F1680 E122.39993
G1 F1200 X41.6 Y35.04 E127.49933
G1 F1680 E124.49933
G1 F3600 X40 Y35.651
G1 F1680 E127.49933
G1 F1200 X40 Y80.745 E132.47203
G1 F1680 E129.47203
G1 F3600 X38.4 Y80.002
G1 F1680 E132.47203
G1 F1200 X38.4 Y36.737 E137.24303
G1 F1680 E134.24303
G1 F3600 X36.8 Y38.557
G1 F1680 E137.24303
G1 F1200 X36.8 Y78.606 E141.65939
G1 F1680 E138.65939
G1 F3600 X35.2 Y76.477
G1 F1680 E141.65939
G1 F1200 X35.2 Y40.48 E145.62893
G1 F1680 E142.62893
G1 F3600 X33.6 Y42.147
G1 F1680 E145.62893
G1 F1200 X33.6 Y74.597 E149.20732
G1 F1680 E146.20732
G1 F3600 X32 Y73.526
G1 F1680 E149.20732
G1 F1200 X32 Y42.925 E152.58181
G1 F1680 E149.58181
G1 F3600 X30.4 Y43.257
G1 F1680 E152.58181
G1 F1200 X30.4 Y72.318 E155.78648
G1 F1680 E152.78648
G1 F3600 X28.8 Y70.169
G1 F1680 E155.78648
G1 F1200 X28.8 Y43.864 E158.68724
G1 F1680 E155.68724
G1 F3600 X27.2 Y44.754
G1 F1680 E158.68724
G1 F1200 X27.2 Y66.991 E161.1394
G1 F1680 E158.1394
G1 F3600 X25.6 Y65.649
M104 T0 S200
G1 F1680 E161.1394
G1 F1200 X25.6 Y45.755 E163.33319
G1 F1680 E160.33319
G1 F3600 X24 Y47.347
G1 F1680 E163.33319
G1 F1200 X24 Y64.315 E165.20432
G1 F1680 E162.20432
G1 F3600 X22.4 Y61.823
G1 F1680 E165.20432
G1 F1200 X22.4 Y49.516 E166.56146
G1 F1680 E163.56146
G1 F3600 X20.8 Y54.832
G1 F1680 E166.56146
G1 F1200 X20.8 Y58.668 E166.98447
G1 F1680 E163.98447
G1 F3600 X68.459 Y38.251
;TIME_ELAPSED:86.189125
;LAYER:-5
G1 X68.459 Y38.251 Z0.619
;TYPE:SUPPORT
G1 F1680 E166.98447
G1 F1980 X68.845 Y38.622 E167.02438
G1 X69.216 Y39.023 E167.0651
G1 X69.593 Y39.463 E167.1083
G1 X69.964 Y39.962 E167.15465
G1 X70.054 Y40.094 E167.16656
G1 X70.463 Y40.617 E167.21605
G1 X70.942 Y41.094 E167.26644
G1 X71.458 Y41.49 E167.31492
G1 X71.903 Y41.876 E167.35883
G1 X71.987 Y41.957 E167.36753
G1 X72.343 Y42.36 E167.40761
G1 X72.951 Y43.108 E167.47947
G1 X73.191 Y43.443 E167.51018
G1 X73.237 Y43.513 E167.51643
G1 X73.51 Y43.992 E167.55753
G1 F3600 X73.765 Y44.491
G1 F1980 X65.981 Y36.707 E168.3781
G1 X65.812 Y36.613 E168.39251
G1 X65.352 Y36.387 E168.43072
G1 X64.446 Y35.971 E168.50503
G1 X64.198 Y35.865 E168.52513
G1 X63.997 Y35.792 E168.54107
G1 X63.706 Y35.705 E168.56371
G1 X77.954 Y49.953 E170.06571
G1 X78.654 Y51.17 E170.17036
G1 X78.857 Y51.574 E170.20406
G1 X78.963 Y51.823 E170.22423
G1 X79.13 Y52.294 E170.26148
G1 X79.174 Y52.445 E170.27321
G1 X62.233 Y35.504 E172.05909
G1 X61.948 Y35.495 E172.08035
G1 X61.599 Y35.498 E172.10636
G1 X61.168 Y35.539 E172.13863
G1 X61.017 Y35.561 E172.15001
G1 X79.434 Y53.979 E174.09154
G1 X79.444 Y54.402 E174.12308
G1 X79.432 Y54.725 E174.14717
G1 X79.401 Y55.217 E174.18392
G1 X59.93 Y35.747 E176.23645
G1 X58.848 Y35.938 E176.31836
G1 X79.29 Y56.38 E178.4733
G1 X79.203 Y57.033 E178.52241
G1 X79.132 Y57.494 E178.55718
G1 X57.79 Y36.152 E180.807
G1 X57.231 Y36.252 E180.84933
G1 X56.649 Y36.284 E180.89278
G1 X78.961 Y58.597 E183.24492
G1 X78.899 Y59 E183.27531
G1 X78.842 Y59.334 E183.30057
G1 X78.805 Y59.498 E183.3131
G1 X78.759 Y59.667 E183.32615
G1 X55.184 Y36.092 E185.81138
G1 X54.578 Y35.886 E185.85909
G1 X53.955 Y35.58 E185.91083
G1 F3600 X53.949 Y35.588
G1 F1980 X53.504 Y35.293 E185.95062
G1 X53.159 Y35.078 E185.98093
G1 X52.849 Y34.921 E186.00683
G1 X52.662 Y34.843 E186.02193
G1 X78.427 Y60.608 E188.73802
G1 X78.344 Y60.794 E188.7532
G1 X78.259 Y60.963 E188.7673
G1 X78.025 Y61.376 E188.80269
G1 X77.986 Y61.44 E188.80827
G1 X50.898 Y34.352 E191.66383
G1 X50.686 Y34.305 E191.68001
G1 X50.026 Y34.18 E191.73009
G1 X49.711 Y34.134 E191.75382
G1 X49.425 Y34.109 E191.77522
G1 X49.381 Y34.108 E191.7785
G1 X77.503 Y62.229 E194.743
G1 X77.369 Y62.418 E194.76027
G1 X77.105 Y62.75 E194.79189
G1 X76.938 Y62.937 E194.81058
G1 X48.054 Y34.053 E197.85546
G1 X46.727 Y33.999 E197.95446
G1 X76.314 Y63.586 E201.07345
G1 X75.689 Y64.234 E201.14056
G1 X45.458 Y34.003 E204.32745
G1 X45.247 Y34.016 E204.3432
G1 X44.597 Y34.144 E204.39259
G1 X44.442 Y34.182 E204.40448
G1 X44.382 Y34.199 E204.40913
G1 X75.068 Y64.886 E207.64403
G1 X74.693 Y65.326 E207.68713
G1 X74.513 Y65.603 E207.71175
G1 X43.39 Y34.48 E210.99267
G1 X42.397 Y34.76 E211.06957
G1 X74.065 Y66.428 E214.40794
G1 X74.029 Y66.499 E214.41387
G1 X73.856 Y66.992 E214.45282
G1 X73.741 Y67.377 E214.48277
G1 X41.405 Y35.041 E217.89156
G1 X41.167 Y35.108 E217.90999
G1 X40.81 Y35.23 E217.93811
G1 X40.465 Y35.374 E217.96598
G1 X73.442 Y68.351 E221.44234
G1 X73.331 Y68.655 E221.46646
G1 X73.083 Y69.165 E221.50873
G1 X73.047 Y69.229 E221.51421
G1 X39.614 Y35.796 E225.03864
G1 X39.484 Y35.865 E225.04961
G1 X39.216 Y36.031 E225.07311
G1 X38.844 Y36.298 E225.10724
G1 X72.557 Y70.012 E228.66124
G1 X72.046 Y70.773 E228.72957
G1 X38.167 Y36.894 E232.30102
G1 X38.122 Y36.938 E232.30571
G1 X37.976 Y37.098 E232.32185
G1 X37.572 Y37.572 E232.36828
G1 X71.535 Y71.535 E235.94858
G1 X71.298 Y71.886 E235.98015
G1 X70.991 Y72.264 E236.01645
G1 X36.985 Y38.258 E239.60128
G1 X36.4 Y38.946 E239.6686
G1 X70.371 Y72.917 E243.24975
G1 X69.955 Y73.352 E243.29461
G1 X69.776 Y73.594 E243.31705
G1 X35.822 Y39.64 E246.8964
G1 X35.249 Y40.34 E246.96383
G1 X69.285 Y74.377 E250.55188
G1 X69.223 Y74.487 E250.5613
G1 X68.973 Y75.112 E250.61147
G1 X68.925 Y75.289 E250.62514
G1 X34.683 Y41.047 E254.23486
G1 X34.586 Y41.173 E254.24671
G1 X34.571 Y41.165 E254.24798
G1 X34.215 Y41.576 E254.28851
G1 X34.067 Y41.704 E254.30309
G1 X68.637 Y76.274 E257.94738
G1 X68.327 Y77.236 E258.02272
G1 X33.345 Y42.254 E261.71045
G1 X33.136 Y42.392 E261.72912
G1 X32.527 Y42.69 E261.77966
G1 X32.513 Y42.695 E261.78076
G1 X67.993 Y78.176 E265.52104
G1 X67.793 Y78.618 E265.5572
G1 X67.56 Y79.015 E265.59151
G1 X31.528 Y42.983 E269.38992
G1 X31.237 Y43.043 E269.41207
G1 X30.479 Y43.186 E269.46957
G1 X30.462 Y43.19 E269.47087
G1 X67.049 Y79.777 E273.32779
G1 X66.538 Y80.538 E273.39612
G1 X29.48 Y43.481 E277.30264
G1 X29.011 Y43.694 E277.34103
G1 X28.87 Y43.766 E277.35283
G1 X28.627 Y43.901 E277.37355
G1 X66.021 Y81.295 E281.31554
G1 X65.659 Y81.783 E281.36084
G1 X65.46 Y82.006 E281.38312
G1 X27.81 Y44.356 E285.35209
G1 X26.992 Y44.811 E285.42186
G1 X64.807 Y82.626 E289.40824
G1 X64.124 Y83.216 E289.47551
G1 X26.187 Y45.279 E293.47474
G1 X25.877 Y45.471 E293.50193
G1 X25.774 Y45.544 E293.51134
G1 X25.449 Y45.814 E293.54283
G1 X63.431 Y83.796 E297.54681
G1 X63.225 Y83.942 E297.56563
G1 X62.882 Y84.166 E297.59616
