M73 P0
;MINX:25.0
;MAXX:65.0
;MINY:26.0
;MAXY:54.0
;MINZ:0.0
;MAXZ:31.3
;MachineType:ENTINA TINA2
;FilamentType:PLA
;Extruder0Temperature:205
;InfillDensity:10
;FLAVOR:Marlin
;TIME:3108
;FilamentUsed:1858.7
;Layer height: 0.2

;Generated with Cura_SteamEngine 3.1
M104 T0 S220
M82 ; absolute extrusion mode
;(**** start.gcode for tina2****)
M104 S150
G28 Z
G28 X Y; Home extruder
G1 X55 Y55 F1000
G1 Z10 F200
G29
G1 Z15 F100
M107 ; Turn off fan
G90 ; Absolute positioning
M82 ; Extruder in absolute mode
M109 S220.0
G92 E0 ; Reset extruder position
G1 X90 Y6 Z0.27 F2000
G1 X20 Y6 Z0.27 E15 F1000
G92 E0 ; Reset extruder position

;LAYER_COUNT:150
;LAYER:-6
M107
M203 Z5
G1 F3600 X62.644 Y28.211 Z0.349
G1 F1200 X62.808 Y28.439 E0.03097
G1 X62.97 Y28.698 E0.06466
G1 X63.098 Y28.937 E0.09456
G1 X63.225 Y29.212 E0.12796
G1 X63.327 Y29.473 E0.15886
G1 X63.422 Y29.776 E0.19388
G1 X63.476 Y29.997 E0.21896
G1 X63.536 Y30.353 E0.25878
G1 X63.586 Y30.907 E0.32012
G1 X63.596 Y31.129 E0.34462
G1 X63.592 Y34.05 E0.66673
G1 X63.568 Y34.427 E0.70839
G1 X63.531 Y34.725 E0.7415
G1 X63.476 Y35.009 E0.7734
G1 X63.4 Y35.3 E0.80657
G1 X63.316 Y35.558 E0.83649
G1 X63.205 Y35.837 E0.8696
G1 X63.083 Y36.095 E0.90107
G1 X62.564 Y37.018 E1.01784
G1 X62.311 Y37.652 E1.09312
G1 X62.139 Y38.313 E1.16844
G1 X62.053 Y38.991 E1.2438
G1 X62.053 Y39.673 E1.31901
G1 X62.138 Y40.35 E1.39425
G1 X62.309 Y41.011 E1.46954
G1 X62.562 Y41.647 E1.54502
G1 X62.896 Y42.249 E1.62094
G1 X63.111 Y42.526 E1.65961
G1 X63.097 Y42.537 E1.66157
G1 X63.648 Y43.211 E1.75757
G1 X63.812 Y43.439 E1.78854
G1 X63.974 Y43.698 E1.82223
G1 X64.102 Y43.937 E1.85213
G1 X64.229 Y44.212 E1.88553
G1 X64.331 Y44.473 E1.91643
G1 X64.426 Y44.776 E1.95145
G1 X64.48 Y44.997 E1.97653
G1 X64.54 Y45.353 E2.01635
G1 X64.59 Y45.907 E2.07769
G1 X64.6 Y46.129 E2.10219
G1 X64.596 Y49.05 E2.4243
G1 X64.572 Y49.427 E2.46596
G1 X64.535 Y49.725 E2.49907
G1 X64.48 Y50.009 E2.53097
G1 X64.404 Y50.3 E2.56414
G1 X64.32 Y50.558 E2.59406
G1 X64.209 Y50.837 E2.62717
G1 X64.087 Y51.095 E2.65864
G1 X63.944 Y51.353 E2.69117
G1 X63.792 Y51.592 E2.72241
G1 X63.619 Y51.827 E2.75458
G1 X63.438 Y52.044 E2.78575
G1 X63.224 Y52.27 E2.82007
G1 X63.019 Y52.46 E2.85089
G1 X62.789 Y52.648 E2.88365
G1 X62.561 Y52.812 E2.91462
G1 X62.302 Y52.974 E2.94831
G1 X62.063 Y53.102 E2.9782
G1 X61.788 Y53.229 E3.01161
G1 X61.527 Y53.331 E3.04251
G1 X61.224 Y53.426 E3.07752
G1 X61.003 Y53.48 E3.10261
G1 X60.647 Y53.54 E3.14242
G1 X60.093 Y53.59 E3.20376
G1 X59.871 Y53.6 E3.22827
G1 X30.076 Y53.6 E6.51388
G1 X29.573 Y53.572 E6.56944
G1 X29.275 Y53.535 E6.60255
G1 X28.991 Y53.48 E6.63445
G1 X28.7 Y53.404 E6.66762
G1 X28.44 Y53.319 E6.69778
G1 X28.163 Y53.209 E6.73065
G1 X27.904 Y53.086 E6.76226
G1 X27.647 Y52.944 E6.79464
G1 X27.408 Y52.792 E6.82588
G1 X27.161 Y52.61 E6.85971
G1 X26.96 Y52.441 E6.88867
G1 X26.727 Y52.221 E6.92401
G1 X26.54 Y52.019 E6.95436
G1 X26.348 Y51.784 E6.98783
G1 X26.188 Y51.561 E7.01809
G1 X26.026 Y51.302 E7.05178
G1 X25.898 Y51.063 E7.08168
G1 X25.771 Y50.788 E7.11508
G1 X25.669 Y50.527 E7.14598
G1 X25.574 Y50.224 E7.181
G1 X25.518 Y49.995 E7.20699
G1 X25.46 Y49.647 E7.2459
G1 X25.41 Y49.093 E7.30724
G1 X25.4 Y48.871 E7.33175
G1 X25.404 Y45.95 E7.65386
G1 X25.428 Y45.573 E7.69551
G1 X25.465 Y45.275 E7.72863
G1 X25.52 Y44.991 E7.76053
G1 X25.596 Y44.7 E7.79369
G1 X25.68 Y44.442 E7.82361
G1 X25.791 Y44.163 E7.85673
G1 X25.913 Y43.905 E7.8882
G1 X26.059 Y43.642 E7.92137
G1 X26.208 Y43.408 E7.95196
G1 X26.381 Y43.173 E7.98414
G1 X26.942 Y42.502 E8.08059
G1 X26.927 Y42.49 E8.0827
G1 X27.207 Y42.077 E8.13773
G1 X27.516 Y41.467 E8.21313
G1 X27.745 Y40.825 E8.2883
G1 X27.892 Y40.157 E8.36372
G1 X27.953 Y39.478 E8.4389
G1 X27.928 Y38.795 E8.51427
G1 X27.817 Y38.121 E8.58959
G1 X27.621 Y37.466 E8.66499
G1 X27.347 Y36.846 E8.73974
G1 X27.033 Y36.313 E8.80795
G1 X26.898 Y36.063 E8.83929
G1 X26.771 Y35.788 E8.87269
G1 X26.669 Y35.527 E8.90359
G1 X26.574 Y35.224 E8.93861
G1 X26.518 Y34.995 E8.9646
G1 X26.46 Y34.647 E9.00351
G1 X26.41 Y34.093 E9.06485
G1 X26.4 Y33.871 E9.08935
G1 X26.404 Y30.95 E9.41146
G1 X26.428 Y30.573 E9.45312
G1 X26.465 Y30.275 E9.48624
G1 X26.52 Y29.991 E9.51814
G1 X26.596 Y29.7 E9.5513
G1 X26.68 Y29.442 E9.58122
G1 X26.791 Y29.163 E9.61433
G1 X26.913 Y28.905 E9.64581
G1 X27.059 Y28.642 E9.67898
G1 X27.208 Y28.408 E9.70957
G1 X27.39 Y28.161 E9.7434
G1 X27.559 Y27.96 E9.77236
G1 X27.779 Y27.727 E9.8077
G1 X27.981 Y27.54 E9.83805
G1 X28.211 Y27.352 E9.87081
G1 X28.439 Y27.188 E9.90178
G1 X28.698 Y27.026 E9.93547
G1 X28.937 Y26.898 E9.96537
G1 X29.212 Y26.771 E9.99877
G1 X29.473 Y26.669 E10.02967
G1 X29.776 Y26.574 E10.06469
G1 X29.997 Y26.52 E10.08977
G1 X30.353 Y26.46 E10.12959
G1 X30.907 Y26.41 E10.19093
G1 X31.129 Y26.4 E10.21543
G1 X59.046 Y26.404 E13.29395
G1 X59.423 Y26.428 E13.33561
G1 X59.721 Y26.465 E13.36872
G1 X60.005 Y26.52 E13.40062
G1 X60.296 Y26.596 E13.43379
G1 X60.554 Y26.68 E13.46371
G1 X60.833 Y26.791 E13.49682
G1 X61.091 Y26.913 E13.52829
G1 X61.349 Y27.056 E13.56082
G1 X61.588 Y27.208 E13.59205
G1 X61.835 Y27.39 E13.62589
G1 X62.036 Y27.559 E13.65485
G1 X62.269 Y27.779 E13.69018
G1 X62.456 Y27.981 E13.72054
G1 X62.644 Y28.211 E13.7533
G1 F3600 X62.4 Y27.921
G1 F1200 X62.4 Y37.429 E14.80178
G1 F1680 E11.80178
G1 F3600 X62.4 Y41.24
G1 F1680 E14.80178
G1 F1200 X62.4 Y52.913 E16.08901
G1 F1680 E13.08901
G1 F3600 X60.8 Y53.515
G1 F1680 E16.08901
G1 F1200 X60.8 Y26.778 E19.0374
G1 F1680 E16.0374
G1 F3600 X59.2 Y26.414
G1 F1680 E19.0374
G1 F1200 X59.2 Y53.6 E22.03531
G1 F1680 E19.03531
G1 F3600 X57.6 Y53.6
G1 F1680 E22.03531
G1 F1200 X57.6 Y26.404 E25.03432
G1 F1680 E22.03432
G1 F3600 X56 Y26.404
G1 F1680 E25.03432
G1 F1200 X56 Y53.6 E28.03334
G1 F1680 E25.03334
G1 F3600 X54.4 Y53.6
G1 F1680 E28.03334
G1 F1200 X54.4 Y26.404 E31.03235
G1 F1680 E28.03235
G1 F3600 X52.8 Y26.404
G1 F1680 E31.03235
G1 F1200 X52.8 Y53.6 E34.03136
G1 F1680 E31.03136
G1 F3600 X51.2 Y53.6
G1 F1680 E34.03136
G1 F1200 X51.2 Y26.403 E37.03048
G1 F1680 E34.03048
G1 F3600 X49.6 Y26.403
G1 F1680 E37.03048
G1 F1200 X49.6 Y53.6 E40.0296
G1 F1680 E37.0296
G1 F3600 X48 Y53.6
G1 F1680 E40.0296
G1 F1200 X48 Y26.403 E43.02872
G1 F1680 E40.02872
G1 F3600 X46.4 Y26.403
G1 F1680 E43.02872
G1 F1200 X46.4 Y53.6 E46.02784
G1 F1680 E43.02784
G1 F3600 X44.8 Y53.6
G1 F1680 E46.02784
G1 F1200 X44.8 Y26.402 E49.02707
G1 F1680 E46.02707
G1 F3600 X43.2 Y26.402
G1 F1680 E49.02707
G1 F1200 X43.2 Y53.6 E52.02631
G1 F1680 E49.02631
G1 F3600 X41.6 Y53.6
G1 F1680 E52.02631
G1 F1200 X41.6 Y26.402 E55.02554
G1 F1680 E52.02554
G1 F3600 X40 Y26.402
G1 F1680 E55.02554
G1 F1200 X40 Y53.6 E58.02477
G1 F1680 E55.02477
G1 F3600 X38.4 Y53.6
G1 F1680 E58.02477
G1 F1200 X38.4 Y26.402 E61.024
G1 F1680 E58.024
G1 F3600 X36.8 Y26.401
G1 F1680 E61.024
G1 F1200 X36.8 Y53.6 E64.02334
G1 F1680 E61.02334
G1 F3600 X35.2 Y53.6
G1 F1680 E64.02334
G1 F1200 X35.2 Y26.401 E67.02269
G1 F1680 E64.02269
G1 F3600 X33.6 Y26.401
G1 F1680 E67.02269
G1 F1200 X33.6 Y53.6 E70.02203
G1 F1680 E67.02203
G1 F3600 X32 Y53.6
G1 F1680 E70.02203
G1 F1200 X32 Y26.401 E73.02137
G1 F1680 E70.02137
G1 F3600 X30.4 Y26.455
G1 F1680 E73.02137
G1 F1200 X30.4 Y53.6 E76.01476
G1 F1680 E73.01476
G1 F3600 X28.8 Y53.43
G1 F1680 E76.01476
G1 F1200 X28.8 Y26.971 E78.9325
M104 T0 S205
G1 F1680 E75.9325
G1 F3600 X27.2 Y28.42
G1 F1680 E78.9325
G1 F1200 X27.2 Y36.596 E79.8341
G1 F1680 E76.8341
G1 F3600 X27.2 Y42.087
G1 F1680 E79.8341
G1 F1200 X27.2 Y52.638 E80.9976
G1 F1680 E77.9976
G1 F3600 X25.6 Y50.306
G1 F1680 E80.9976
G1 F1200 X25.6 Y44.687 E81.61723
G1 F1680 E78.61723
G1 F3600 X64 Y43.747
G1 F1680 E81.61723
G1 F1200 X64 Y51.252 E82.44483
G1 F1680 E79.44483
G1 F3600 X62.682 Y28.176
;TIME_ELAPSED:45.197062
;LAYER:-5
G1 X62.682 Y28.176 Z0.619
;TYPE:SUPPORT
G1 F1680 E82.44483
G1 F1980 X62.496 Y27.951 E82.46659
G1 X62.303 Y27.741 E82.48785
G1 X62.069 Y27.522 E82.51174
G1 X61.871 Y27.355 E82.53105
G1 X61.607 Y27.159 E82.55556
G1 X61.383 Y27.018 E82.57529
G1 X62.969 Y28.604 E82.74248
G1 F3600 X62.846 Y28.408
G1 F1980 X62.682 Y28.176 E82.76366
G1 F1680 E79.76366
G1 F3600 X61.383 Y27.018
G1 F1680 E82.76366
G1 F1980 X61.371 Y27.01 E82.76474
G1 X61.121 Y26.872 E82.78602
G1 X60.845 Y26.741 E82.8088
G1 X60.587 Y26.638 E82.8295
G1 X60.308 Y26.546 E82.8514
G1 X60.014 Y26.47 E82.87404
G1 X59.72 Y26.412 E82.89638
G1 X59.475 Y26.382 E82.91477
G1 X63.601 Y30.508 E83.34973
G1 X63.636 Y30.904 E83.37936
G1 X63.646 Y31.126 E83.39593
G1 X63.645 Y31.826 E83.44811
G1 X58.172 Y26.353 E84.02506
G1 X56.9 Y26.353 E84.11987
G1 X63.643 Y33.096 E84.8307
G1 X63.641 Y34.052 E84.90197
G1 X63.624 Y34.349 E84.92414
G1 X55.627 Y26.353 E85.76711
G1 X54.353 Y26.352 E85.86208
G1 X63.416 Y35.414 E86.81743
G1 X63.356 Y35.592 E86.83143
G1 X63.254 Y35.849 E86.85204
G1 X63.127 Y36.119 E86.87428
G1 X63.027 Y36.298 E86.88957
G1 X53.081 Y26.352 E87.93805
G1 X51.808 Y26.352 E88.03294
G1 X62.577 Y37.121 E89.16819
G1 X62.359 Y37.668 E89.21208
G1 X62.255 Y38.072 E89.24318
G1 X50.535 Y26.352 E90.47867
G1 X49.262 Y26.351 E90.57356
G1 X62.103 Y39.193 E91.92728
G1 X62.103 Y39.67 E91.96284
G1 X62.187 Y40.341 E92.01325
G1 X62.261 Y40.623 E92.03498
G1 X47.989 Y26.351 E93.5395
G1 X46.716 Y26.351 E93.63439
G1 X63.981 Y43.616 E95.45443
G1 X64.017 Y43.675 E95.45958
G1 X64.142 Y43.904 E95.47903
G1 X64.28 Y44.204 E95.50364
G1 X64.376 Y44.448 E95.52319
G1 X64.471 Y44.752 E95.54693
G1 X64.529 Y44.99 E95.56519
G1 X64.589 Y45.341 E95.59174
G1 X64.604 Y45.512 E95.60453
G1 X45.443 Y26.351 E97.62444
G1 X44.17 Y26.351 E97.71933
G1 X64.649 Y46.83 E99.87818
G1 X64.647 Y48.101 E99.97292
G1 X42.897 Y26.351 E102.26576
G1 X41.624 Y26.351 E102.36065
G1 X64.628 Y49.354 E104.78563
G1 X64.622 Y49.435 E104.79168
G1 X64.586 Y49.723 E104.81331
G1 X64.529 Y50.019 E104.83578
G1 X64.452 Y50.312 E104.85837
G1 X64.418 Y50.418 E104.86666
G1 X40.351 Y26.35 E107.40381
G1 X39.078 Y26.35 E107.4987
G1 X64.03 Y51.302 E110.12908
G1 X63.988 Y51.376 E110.13542
G1 X63.839 Y51.611 E110.15616
G1 X63.657 Y51.859 E110.17909
G1 X63.502 Y52.047 E110.19726
G1 X37.805 Y26.35 E112.90618
G1 X36.532 Y26.35 E113.00107
G1 X62.847 Y52.665 E115.77513
G1 X62.822 Y52.686 E115.77757
G1 X62.591 Y52.851 E115.79873
G1 X62.322 Y53.018 E115.82233
G1 X62.094 Y53.142 E115.84168
G1 X62.065 Y53.156 E115.84408
G1 X35.259 Y26.349 E118.66996
G1 X33.986 Y26.349 E118.76485
G1 X61.135 Y53.498 E121.62683
G1 X61.009 Y53.53 E121.63652
G1 X60.657 Y53.59 E121.66314
G1 X60.086 Y53.64 E121.70587
G1 X60.007 Y53.643 E121.71176
G1 X32.713 Y26.349 E124.58903
G1 X31.44 Y26.349 E124.68392
G1 X58.741 Y53.65 E127.56193
G1 X57.468 Y53.65 E127.65682
G1 X30.245 Y26.426 E130.52666
G1 X29.989 Y26.469 E130.54601
G1 X29.75 Y26.527 E130.56434
G1 X29.448 Y26.622 E130.58794
G1 X29.247 Y26.701 E130.60404
G1 X56.195 Y53.65 E133.44489
G1 X54.922 Y53.649 E133.53978
G1 X28.416 Y27.143 E136.33398
G1 X28.407 Y27.148 E136.33475
G1 X28.176 Y27.313 E136.35591
G1 X27.95 Y27.499 E136.37773
G1 X27.741 Y27.691 E136.39888
G1 X27.716 Y27.716 E136.40152
G1 X53.649 Y53.649 E139.13532
G1 X52.376 Y53.649 E139.23021
G1 X27.142 Y28.415 E141.89032
G1 X27.014 Y28.616 E141.90808
G1 X26.872 Y28.873 E141.92997
G1 X26.743 Y29.143 E141.95227
G1 X26.701 Y29.246 E141.96057
G1 X51.103 Y53.648 E144.53297
G1 X49.83 Y53.648 E144.62786
G1 X26.419 Y30.238 E147.09574
G1 X26.412 Y30.276 E147.09862
G1 X26.377 Y30.564 E147.12025
G1 X26.352 Y30.947 E147.14886
G1 X26.351 Y31.442 E147.18576
G1 X48.557 Y53.648 E149.52666
G1 X47.284 Y53.648 E149.62155
G1 X26.349 Y32.713 E151.82847
G1 X26.348 Y33.872 E151.91487
G1 X26.353 Y33.99 E151.92367
G1 X46.011 Y53.648 E153.99597
G1 X44.738 Y53.648 E154.09086
G1 X26.614 Y35.523 E156.00151
G1 X26.621 Y35.548 E156.00344
G1 X26.718 Y35.794 E156.02315
G1 X26.855 Y36.09 E156.04747
G1 X26.986 Y36.334 E156.06811
G1 X27.302 Y36.867 E156.1143
G1 X27.572 Y37.483 E156.16443
G1 X27.688 Y37.87 E156.19455
G1 X43.465 Y53.648 E157.85778
G1 X42.192 Y53.647 E157.95267
G1 X27.896 Y39.351 E159.45972
G1 X27.901 Y39.475 E159.46897
G1 X27.841 Y40.148 E159.51934
G1 X27.765 Y40.493 E159.54567
G1 X40.919 Y53.647 E160.93233
G1 X39.646 Y53.647 E161.02722
G1 X27.46 Y41.461 E162.31184
G1 X27.162 Y42.05 E162.36105
G1 X27.006 Y42.28 E162.38177
G1 X38.373 Y53.646 E163.58
G1 X37.1 Y53.646 E163.67489
G1 X26.456 Y43.002 E164.79695
G1 X26.342 Y43.139 E164.81024
G1 X26.159 Y43.387 E164.83321
G1 X26.013 Y43.616 E164.85346
G1 X25.935 Y43.755 E164.86534
G1 X35.827 Y53.646 E165.90808
G1 X34.554 Y53.646 E166.00297
G1 X25.557 Y44.649 E166.95141
G1 X25.546 Y44.686 E166.95429
G1 X25.47 Y44.974 E166.97649
G1 X25.413 Y45.276 E166.9994
G1 X25.376 Y45.564 E167.02105
G1 X25.366 Y45.73 E167.03344
G1 X33.281 Y53.646 E167.86788
G1 X32.008 Y53.646 E167.96277
G1 X25.351 Y46.988 E168.66459
G1 X25.349 Y48.26 E168.7594
G1 X30.735 Y53.646 E169.32718
G1 X29.948 Y53.646 E169.38585
G1 X29.564 Y53.622 E169.41453
G1 X29.421 Y53.604 E169.42527
G1 X25.404 Y49.587 E169.84873
G1 X25.41 Y49.657 E169.85397
G1 X25.469 Y50.007 E169.88043
G1 X25.527 Y50.247 E169.89883
G1 X25.622 Y50.548 E169.92236
G1 X25.717 Y50.794 E169.94202
G1 X25.856 Y51.091 E169.96646
G1 X25.98 Y51.323 E169.98607
G1 X26.148 Y51.591 E170.00965
G1 X26.179 Y51.635 E170.01366
G1 X27.369 Y52.825 E170.13911
G1 X27.123 Y52.644 E170.16187
G1 X26.925 Y52.477 E170.18118
G1 X26.692 Y52.257 E170.20507
G1 X26.498 Y52.048 E170.22632
G1 X26.312 Y51.822 E170.24814
G1 F1680 E167.24814
G1 F3600 X62.803 Y28.09
;TIME_ELAPSED:82.317419
;LAYER:-4
M106 S255
G1 X62.803 Y28.09 Z0.869
G1 F1680 E170.24814
G1 F2400 X62.73 Y28 E170.25272
G1 X27.263 Y28 E171.65354
G1 X27.42 Y27.813 E171.66318
G1 X27.622 Y27.6 E171.67478
G1 X62.372 Y27.6 E173.04728
G1 X62.181 Y27.42 E173.05764
G1 X61.96 Y27.234 E173.06905
G1 X61.914 Y27.2 E173.07131
G1 X28.079 Y27.2 E174.40767
G1 X28.09 Y27.191 E174.40823
G1 X28.321 Y27.025 E174.41947
G1 X28.605 Y26.848 E174.43269
G1 X28.695 Y26.8 E174.43671
G1 X61.301 Y26.8 E175.72453
G1 X61.198 Y26.743 E175.72918
G1 X60.897 Y26.6 E175.74235
G1 X60.627 Y26.493 E175.75382
G1 X60.342 Y26.4 E175.76566
G1 X60.047 Y26.323 E175.7777
G1 X59.752 Y26.266 E175.78957
G1 X59.449 Y26.229 E175.80162
G1 X59.045 Y26.203 E175.81761
G1 X31.119 Y26.199 E176.92059
G1 X30.897 Y26.209 E176.92937
G1 X30.328 Y26.26 E176.95193
G1 X29.958 Y26.323 E176.96675
G1 X29.715 Y26.382 E176.97663
G1 X29.658 Y26.4 E176.97899
G1 X60.342 Y26.4 E178.1909
G1 F1680 E175.1909
G1 F3600 X62.803 Y28.09
G1 F1680 E178.1909
G1 F2400 X62.969 Y28.321 E178.20213
G1 X63.019 Y28.4 E178.20583
G1 X26.975 Y28.4 E179.62943
G1 X26.877 Y28.554 E179.63664
G1 X26.742 Y28.8 E179.64773
G1 X63.251 Y28.8 E181.0897
G1 X63.279 Y28.852 E181.09203
G1 X63.413 Y29.141 E181.10462
G1 X63.436 Y29.2 E181.10712
G1 X26.56 Y29.2 E182.56359
G1 X26.493 Y29.367 E182.57069
G1 X26.417 Y29.6 E182.58037
G1 X63.576 Y29.6 E184.04802
G1 X63.612 Y29.715 E184.05278
G1 X63.673 Y29.964 E184.06291
G1 X63.68 Y30 E184.06435
G1 X26.313 Y30 E185.54022
G1 X26.265 Y30.248 E185.55019
G1 X26.247 Y30.4 E185.55624
G1 X63.741 Y30.4 E187.03712
G1 X63.777 Y30.8 E187.05298
G1 X26.213 Y30.8 E188.53662
G1 X26.203 Y30.949 E188.54252
G1 X26.203 Y31.2 E188.55243
G1 X63.794 Y31.2 E190.03714
G1 X63.794 Y31.6 E190.05294
G1 X26.203 Y31.6 E191.53765
G1 X26.202 Y32 E191.55345
M73 P1
G1 X63.793 Y32 E193.03816
G1 X63.793 Y32.4 E193.05396
G1 X26.202 Y32.4 E194.53867
G1 X26.201 Y32.8 E194.55447
G1 X63.792 Y32.8 E196.03918
G1 X63.792 Y33.2 E196.05498
G1 X26.2 Y33.2 E197.53972
G1 X26.2 Y33.6 E197.55552
G1 X63.791 Y33.6 E199.04023
G1 X63.791 Y34 E199.05603
G1 X26.204 Y34 E200.54058
G1 X26.209 Y34.101 E200.54458
G1 X26.235 Y34.4 E200.55643
G1 X63.768 Y34.4 E202.03885
G1 X63.765 Y34.453 E202.04095
G1 X63.729 Y34.75 E202.05276
G1 X63.719 Y34.8 E202.05478
G1 X26.281 Y34.8 E203.53344
G1 X26.321 Y35.034 E203.54282
G1 X26.361 Y35.2 E203.54956
G1 X63.632 Y35.2 E205.02163
G1 X63.594 Y35.346 E205.02759
G1 X63.511 Y35.6 E205.03815
G1 X26.481 Y35.6 E206.5007
G1 X26.581 Y35.857 E206.51159
G1 X26.647 Y36 E206.51781
G1 X63.346 Y36 E207.96729
G1 X63.252 Y36.201 E207.97605
G1 X63.139 Y36.4 E207.98509
G1 X26.851 Y36.4 E209.41834
G1 F3600 X26.854 Y36.404
G1 F2400 X26.967 Y36.585 E209.42677
