M73 P0
;MINX:31.0
;MAXX:69.0
;MINY:53.5
;MAXY:66.5
;MINZ:0.0
;MAXZ:31.3
;MachineType:ENTINA TINA2
;FilamentType:PLA
;Extruder0Temperature:205
;InfillDensity:10
;FLAVOR:Marlin
;TIME:1496
;FilamentUsed:905.4
;Layer height: 0.2

;Generated with Cura_SteamEngine 3.1
M104 T0 S220
M82 ; absolute extrusion mode
;(**** start.gcode for tina2****)
M104 S150
G28 Z
G28 X Y; Home extruder
G1 X55 Y55 F1000
G1 Z10 F200
G29
G1 Z15 F100
M107 ; Turn off fan
G90 ; Absolute positioning
M82 ; Extruder in absolute mode
M109 S220.0
G92 E0 ; Reset extruder position
G1 X90 Y6 Z0.27 F2000
G1 X20 Y6 Z0.27 E15 F1000
G92 E0 ; Reset extruder position

;LAYER_COUNT:150
;LAYER:-6
M107
M203 Z5
G1 F3600 X66.351 Y54.556 Z0.349
G1 F1200 X66.59 Y54.708 E0.03123
G1 X66.837 Y54.89 E0.06507
G1 X67.038 Y55.059 E0.09403
G1 X67.271 Y55.279 E0.12936
G1 X67.458 Y55.481 E0.15972
G1 X67.646 Y55.711 E0.19248
G1 X67.81 Y55.939 E0.22345
G1 X67.972 Y56.198 E0.25714
G1 X68.1 Y56.437 E0.28703
G1 X68.227 Y56.712 E0.32044
G1 X68.329 Y56.973 E0.35134
G1 X68.424 Y57.276 E0.38635
G1 X68.478 Y57.497 E0.41144
G1 X68.538 Y57.853 E0.45125
G1 X68.588 Y58.407 E0.51259
G1 X68.598 Y58.629 E0.5371
G1 X68.594 Y61.55 E0.85921
G1 X68.57 Y61.927 E0.90087
G1 X68.533 Y62.225 E0.93398
G1 X68.478 Y62.509 E0.96588
G1 X68.402 Y62.8 E0.99905
G1 X68.318 Y63.058 E1.02897
G1 X68.207 Y63.337 E1.06208
G1 X68.085 Y63.595 E1.09355
G1 X67.942 Y63.853 E1.12608
G1 X67.79 Y64.092 E1.15731
G1 X67.617 Y64.327 E1.18949
G1 X67.436 Y64.544 E1.22065
G1 X67.222 Y64.77 E1.25497
G1 X67.017 Y64.96 E1.2858
G1 X66.787 Y65.148 E1.31855
G1 X66.559 Y65.312 E1.34953
G1 X66.3 Y65.474 E1.38321
G1 X66.061 Y65.602 E1.41311
G1 X65.786 Y65.729 E1.44651
G1 X65.525 Y65.831 E1.47742
G1 X65.222 Y65.926 E1.51243
G1 X65.001 Y65.98 E1.53752
G1 X64.645 Y66.04 E1.57733
G1 X64.091 Y66.09 E1.63867
G1 X63.869 Y66.1 E1.66318
G1 X36.078 Y66.1 E4.7278
G1 X35.575 Y66.072 E4.78335
G1 X35.277 Y66.035 E4.81647
G1 X34.993 Y65.98 E4.84837
G1 X34.702 Y65.904 E4.88153
G1 X34.442 Y65.819 E4.9117
G1 X34.165 Y65.709 E4.94456
G1 X33.906 Y65.586 E4.97618
G1 X33.649 Y65.444 E5.00856
G1 X33.41 Y65.292 E5.0398
G1 X33.163 Y65.11 E5.07363
G1 X32.962 Y64.941 E5.10259
G1 X32.729 Y64.721 E5.13792
G1 X32.542 Y64.519 E5.16828
G1 X32.35 Y64.284 E5.20174
G1 X32.19 Y64.061 E5.23201
G1 X32.028 Y63.802 E5.2657
G1 X31.9 Y63.563 E5.29559
G1 X31.773 Y63.288 E5.329
G1 X31.671 Y63.027 E5.3599
G1 X31.576 Y62.724 E5.39492
G1 X31.52 Y62.495 E5.42091
G1 X31.462 Y62.147 E5.45982
G1 X31.412 Y61.593 E5.52116
G1 X31.402 Y61.371 E5.54566
G1 X31.406 Y58.45 E5.86777
G1 X31.43 Y58.073 E5.90943
G1 X31.467 Y57.775 E5.94255
G1 X31.522 Y57.491 E5.97444
G1 X31.598 Y57.2 E6.00761
G1 X31.682 Y56.942 E6.03753
G1 X31.793 Y56.663 E6.07064
G1 X31.915 Y56.405 E6.10211
G1 X32.061 Y56.142 E6.13529
G1 X32.21 Y55.908 E6.16588
G1 X32.392 Y55.661 E6.19971
G1 X32.561 Y55.46 E6.22867
G1 X32.781 Y55.227 E6.26401
G1 X32.983 Y55.04 E6.29436
G1 X33.213 Y54.852 E6.32712
G1 X33.441 Y54.688 E6.35809
G1 X33.7 Y54.526 E6.39178
G1 X33.939 Y54.398 E6.42168
G1 X34.214 Y54.271 E6.45508
G1 X34.475 Y54.169 E6.48598
G1 X34.778 Y54.074 E6.521
G1 X34.999 Y54.02 E6.54608
G1 X35.355 Y53.96 E6.5859
G1 X35.909 Y53.91 E6.64724
G1 X36.131 Y53.9 E6.67174
G1 X64.048 Y53.904 E9.75026
G1 X64.425 Y53.928 E9.79192
G1 X64.723 Y53.965 E9.82503
G1 X65.007 Y54.02 E9.85693
G1 X65.298 Y54.096 E9.8901
G1 X65.556 Y54.18 E9.92002
G1 X65.835 Y54.291 E9.95313
G1 X66.093 Y54.413 E9.9846
G1 X66.351 Y54.556 E10.01713
G1 F1680 E7.01713
G1 F3600 X65.6 Y54.198
G1 F1680 E10.01713
G1 F1200 X65.6 Y65.802 E11.29675
G1 F1680 E8.29675
G1 F3600 X64 Y66.095
G1 F1680 E11.29675
G1 F1200 X64 Y53.904 E12.6411
G1 F1680 E9.6411
G1 F3600 X62.4 Y53.904
G1 F1680 E12.6411
G1 F1200 X62.4 Y66.1 E13.986
G1 F1680 E10.986
G1 F3600 X60.8 Y66.1
G1 F1680 E13.986
G1 F1200 X60.8 Y53.904 E15.3309
G1 F1680 E12.3309
G1 F3600 X59.2 Y53.904
G1 F1680 E15.3309
G1 F1200 X59.2 Y66.1 E16.6758
G1 F1680 E13.6758
G1 F3600 X57.6 Y66.1
G1 F1680 E16.6758
G1 F1200 X57.6 Y53.904 E18.0207
G1 F1680 E15.0207
G1 F3600 X56 Y53.903
G1 F1680 E18.0207
G1 F1200 X56 Y66.1 E19.36572
G1 F1680 E16.36572
G1 F3600 X54.4 Y66.1
G1 F1680 E19.36572
G1 F1200 X54.4 Y53.903 E20.71073
G1 F1680 E17.71073
G1 F3600 X52.8 Y53.903
G1 F1680 E20.71073
G1 F1200 X52.8 Y66.1 E22.05574
G1 F1680 E19.05574
G1 F3600 X51.2 Y66.1
G1 F1680 E22.05574
G1 F1200 X51.2 Y53.903 E23.40075
G1 F1680 E20.40075
G1 F3600 X49.6 Y53.902
G1 F1680 E23.40075
G1 F1200 X49.6 Y66.1 E24.74587
G1 F1680 E21.74587
G1 F3600 X48 Y66.1
G1 F1680 E24.74587
G1 F1200 X48 Y53.902 E26.09099
G1 F1680 E23.09099
G1 F3600 X46.4 Y53.902
G1 F1680 E26.09099
G1 F1200 X46.4 Y66.1 E27.43612
G1 F1680 E24.43612
G1 F3600 X44.8 Y66.1
G1 F1680 E27.43612
G1 F1200 X44.8 Y53.902 E28.78124
G1 F1680 E25.78124
G1 F3600 X43.2 Y53.902
G1 F1680 E28.78124
G1 F1200 X43.2 Y66.1 E30.12636
G1 F1680 E27.12636
G1 F3600 X41.6 Y66.1
G1 F1680 E30.12636
G1 F1200 X41.6 Y53.901 E31.47159
G1 F1680 E28.47159
G1 F3600 X40 Y53.901
G1 F1680 E31.47159
G1 F1200 X40 Y66.1 E32.81683
G1 F1680 E29.81683
G1 F3600 X38.4 Y66.1
G1 F1680 E32.81683
G1 F1200 X38.4 Y53.901 E34.16206
G1 F1680 E31.16206
G1 F3600 X36.8 Y53.901
G1 F1680 E34.16206
G1 F1200 X36.8 Y66.1 E35.50729
G1 F1680 E32.50729
G1 F3600 X35.2 Y66.02
M104 T0 S205
G1 F1680 E35.50729
G1 F1200 X35.2 Y53.986 E36.83433
G1 F1680 E33.83433
G1 F3600 X33.6 Y54.588
G1 F1680 E36.83433
G1 F1200 X33.6 Y65.412 E38.02793
G1 F1680 E35.02793
G1 F3600 X32 Y63.749
G1 F1680 E38.02793
G1 F1200 X32 Y56.251 E38.85477
G1 F1680 E35.85477
G1 F3600 X67.2 Y55.212
G1 F1680 E38.85477
G1 F1200 X67.2 Y64.791 E39.91108
G1 F1680 E36.91108
G1 F3600 X66.374 Y54.51
;TIME_ELAPSED:25.153130
;LAYER:-5
G1 X66.374 Y54.51 Z0.619
;TYPE:SUPPORT
G1 F1680 E39.91108
G1 F1980 X66.608 Y54.66 E39.9318
G1 X66.874 Y54.855 E39.95639
G1 X67.072 Y55.022 E39.97569
G1 X67.305 Y55.242 E39.99958
G1 X67.498 Y55.45 E40.02073
G1 X67.684 Y55.677 E40.04261
G1 X67.849 Y55.908 E40.06377
G1 X68.015 Y56.176 E40.08727
G1 X68.14 Y56.405 E40.10671
G1 X68.278 Y56.705 E40.13133
G1 F3600 X68.355 Y56.9
G1 F1980 X65.595 Y54.14 E40.42228
G1 X65.847 Y54.24 E40.44249
G1 X66.122 Y54.372 E40.46523
G1 X66.374 Y54.51 E40.48665
G1 F1680 E37.48665
G1 F3600 X65.59 Y54.138
G1 F1680 E40.48665
G1 F1980 X65.309 Y54.046 E40.50869
G1 X65.016 Y53.969 E40.53127
G1 X64.722 Y53.913 E40.55358
G1 X64.432 Y53.876 E40.57537
G1 X64.049 Y53.853 E40.60397
G1 X64.035 Y53.853 E40.60501
G1 X68.64 Y58.458 E41.09046
G1 X68.648 Y58.626 E41.103
G1 X68.647 Y59.737 E41.18582
G1 X62.762 Y53.853 E41.80615
G1 X61.49 Y53.853 E41.90096
G1 X68.645 Y61.008 E42.65523
G1 X68.644 Y61.552 E42.69578
G1 X68.62 Y61.935 E42.72438
G1 X68.585 Y62.221 E42.74586
G1 X60.217 Y53.853 E43.628
G1 X58.943 Y53.852 E43.72296
G1 X68.31 Y63.218 E44.71036
G1 X68.256 Y63.35 E44.72099
G1 X68.124 Y63.626 E44.74379
G1 X67.986 Y63.876 E44.76508
G1 X67.873 Y64.055 E44.78086
G1 X57.67 Y53.852 E45.85644
G1 X56.398 Y53.852 E45.95125
G1 X67.303 Y64.758 E47.10089
G1 X67.257 Y64.806 E47.10584
M73 P1
G1 X67.046 Y65.001 E47.12726
G1 X66.82 Y65.186 E47.14903
G1 X66.61 Y65.337 E47.16831
G1 X55.124 Y53.851 E48.37914
G1 X53.851 Y53.851 E48.47403
G1 X65.784 Y65.784 E49.73198
G1 X65.549 Y65.876 E49.75079
G1 X65.246 Y65.971 E49.77446
G1 X65.007 Y66.028 E49.79277
G1 X64.792 Y66.064 E49.80902
G1 X52.579 Y53.851 E51.09649
G1 X51.305 Y53.851 E51.19146
G1 X63.604 Y66.149 E52.48794
G1 X62.331 Y66.149 E52.58283
G1 X50.032 Y53.851 E53.87931
G1 X48.759 Y53.851 E53.9742
G1 X61.058 Y66.149 E55.27068
G1 X59.785 Y66.149 E55.36557
G1 X47.486 Y53.85 E56.6621
G1 X46.213 Y53.85 E56.75699
G1 X58.512 Y66.149 E58.05353
G1 X57.239 Y66.149 E58.14842
G1 X44.94 Y53.85 E59.44495
G1 X43.667 Y53.849 E59.53984
G1 X55.966 Y66.149 E60.83643
G1 X54.694 Y66.149 E60.93124
G1 X42.394 Y53.849 E62.22788
G1 X41.121 Y53.849 E62.32277
G1 X53.42 Y66.148 E63.61931
G1 X52.147 Y66.148 E63.7142
G1 X39.848 Y53.849 E65.01073
G1 X38.575 Y53.849 E65.10562
G1 X50.874 Y66.148 E66.40215
G1 X49.601 Y66.147 E66.49704
G1 X37.302 Y53.849 E67.79352
G1 X36.129 Y53.848 E67.88096
G1 X36.034 Y53.853 E67.88805
G1 X48.328 Y66.147 E69.18406
G1 X47.055 Y66.147 E69.27895
G1 X34.899 Y53.991 E70.56041
G1 X34.754 Y54.027 E70.57154
G1 X34.45 Y54.122 E70.59528
G1 X34.206 Y54.216 E70.61478
G1 X33.965 Y54.329 E70.63462
G1 X45.783 Y66.147 E71.88044
G1 X44.509 Y66.147 E71.97541
G1 X33.176 Y54.814 E73.17011
G1 X32.953 Y54.998 E73.19166
G1 X32.743 Y55.191 E73.21292
G1 X32.519 Y55.429 E73.23728
G1 X43.236 Y66.147 E74.3671
G1 X41.963 Y66.147 E74.46199
G1 X31.985 Y56.169 E75.51385
G1 X31.873 Y56.373 E75.53119
G1 X31.744 Y56.643 E75.5535
G1 X31.642 Y56.901 E75.57418
G1 X31.593 Y57.049 E75.5858
G1 X40.691 Y66.147 E76.54489
G1 X39.417 Y66.146 E76.63986
G1 X31.376 Y58.105 E77.48752
G1 X31.355 Y58.447 E77.51306
G1 X31.353 Y59.355 E77.58075
G1 X38.144 Y66.146 E78.29664
G1 X36.872 Y66.146 E78.39145
G1 X31.351 Y60.625 E78.97347
G1 X31.35 Y61.371 E79.02907
G1 X31.36 Y61.579 E79.0446
G1 X31.392 Y61.939 E79.07154
G1 X35.575 Y66.122 E79.5125
G1 X35.277 Y66.086 E79.53487
G1 X34.982 Y66.028 E79.55728
G1 X34.689 Y65.951 E79.57987
G1 X34.409 Y65.861 E79.60179
G1 X34.151 Y65.758 E79.6225
G1 X33.875 Y65.627 E79.64527
G1 X33.722 Y65.542 E79.65832
G1 X31.959 Y63.778 E79.84422
G1 F3600 X31.983 Y63.822
G1 F1980 X32.15 Y64.091 E79.86782
G1 X32.314 Y64.322 E79.88894
G1 X32.5 Y64.548 E79.91076
G1 X32.693 Y64.756 E79.93191
G1 X32.927 Y64.977 E79.9559
G1 X33.125 Y65.144 E79.97521
G1 X33.387 Y65.337 E79.99947
G1 X33.625 Y65.488 E80.02048
G1 X33.722 Y65.542 E80.02875
G1 F1680 E77.02875
G1 F3600 X66.478 Y54.4
;TIME_ELAPSED:42.669631
;LAYER:-4
M106 S255
G1 X66.478 Y54.4 Z0.869
G1 F1680 E80.02875
G1 F2400 X33.524 Y54.4 E81.33032
G1 X33.607 Y54.348 E81.33419
G1 X33.854 Y54.215 E81.34527
G1 X34.138 Y54.083 E81.35764
G1 X34.354 Y54 E81.36677
G1 X34.405 Y53.98 E81.36894
G1 X34.717 Y53.882 E81.38185
G1 X34.96 Y53.823 E81.39173
G1 X35.33 Y53.76 E81.40656
G1 X35.899 Y53.709 E81.42912
G1 X36.121 Y53.699 E81.4379
G1 X64.047 Y53.703 E82.54087
G1 X64.451 Y53.729 E82.55686
G1 X64.754 Y53.766 E82.56892
G1 X65.049 Y53.823 E82.58079
G1 X65.344 Y53.9 E82.59283
G1 X65.629 Y53.993 E82.60467
G1 F3600 X65.647 Y54
G1 F2400 X34.354 Y54 E83.84063
G1 F1680 E80.84063
G1 F3600 X32.959 Y54.8
G1 F1680 E83.84063
G1 F2400 X67.041 Y54.8 E85.18675
G1 X66.962 Y54.734 E85.19081
G1 X66.701 Y54.542 E85.20361
G1 X66.478 Y54.4 E85.21405
G1 F1680 E82.21405
G1 F3600 X67.47 Y55.2
G1 F1680 E85.21405
G1 F2400 X67.607 Y55.348 E85.22202
G1 X67.805 Y55.59 E85.23437
G1 X67.813 Y55.6 E85.23487
G1 X32.188 Y55.6 E86.64193
G1 X32.041 Y55.799 E86.6517
G1 X31.914 Y56 E86.66109
G1 X68.083 Y56 E88.08964
G1 X68.148 Y56.105 E88.09452
G1 X68.281 Y56.352 E88.1056
G1 X68.304 Y56.4 E88.1077
G1 X31.696 Y56.4 E89.55358
G1 X31.601 Y56.6 E89.56233
G1 X31.522 Y56.8 E89.57082
G1 X68.477 Y56.8 E91.03041
G1 X68.516 Y56.903 E91.03476
G1 X68.61 Y57.2 E91.04707
G1 X31.39 Y57.2 E92.51712
G1 X31.326 Y57.441 E92.52697
G1 X31.296 Y57.6 E92.53336
G1 X68.698 Y57.6 E94.01061
G1 X68.736 Y57.828 E94.01974
G1 X68.752 Y58 E94.02656
G1 X31.237 Y58 E95.50827
G1 X31.231 Y58.045 E95.51006
G1 X31.209 Y58.4 E95.52411
G1 X68.788 Y58.4 E97.00834
G1 X68.797 Y58.61 E97.01664
G1 X68.796 Y58.8 E97.02415
G1 X31.205 Y58.8 E98.50886
G1 X31.204 Y59.2 E98.52466
G1 X68.796 Y59.2 E100.00941
G1 X68.795 Y59.6 E100.0252
G1 X31.204 Y59.6 E101.50991
G1 X31.203 Y60 E101.52571
G1 X68.795 Y60 E103.01046
G1 X68.794 Y60.4 E103.02626
G1 X31.203 Y60.4 E104.51097
G1 X31.202 Y60.8 E104.52677
G1 X68.794 Y60.8 E106.01152
G1 X68.793 Y61.2 E106.02732
G1 X31.202 Y61.2 E107.51203
G1 X31.201 Y61.388 E107.51945
G1 X31.21 Y61.6 E107.52783
G1 X68.789 Y61.6 E109.01207
G1 X68.767 Y61.953 E109.02604
G1 X68.761 Y62 E109.02791
G1 X31.246 Y62 E110.50962
G1 X31.262 Y62.17 E110.51636
G1 X31.3 Y62.4 E110.52557
G1 X68.702 Y62.4 E112.00281
G1 X68.674 Y62.549 E112.0088
G1 X68.608 Y62.8 E112.01905
G1 X31.389 Y62.8 E113.48907
G1 X31.482 Y63.095 E113.50128
G1 X31.522 Y63.2 E113.50572
G1 X68.475 Y63.2 E114.96523
G1 X68.397 Y63.398 E114.97364
G1 X68.301 Y63.6 E114.98247
G1 X31.695 Y63.6 E116.42828
G1 X31.717 Y63.646 E116.43029
G1 X31.85 Y63.893 E116.44137
G1 X31.916 Y64 E116.44634
G1 X68.083 Y64 E117.8748
G1 X67.957 Y64.199 E117.88411
G1 X67.809 Y64.4 E117.89397
G1 X32.187 Y64.4 E119.30091
G1 X32.193 Y64.408 E119.3013
G1 X32.388 Y64.647 E119.31348
G1 X32.53 Y64.8 E119.32173
G1 X67.467 Y64.8 E120.70161
G1 X67.373 Y64.9 E120.70704
G1 X67.148 Y65.109 E120.71916
G1 X67.036 Y65.2 E120.72486
G1 X32.959 Y65.2 E122.07078
G1 X33.036 Y65.264 E122.07474
G1 X33.297 Y65.456 E122.08754
G1 X33.523 Y65.6 E122.09812
G1 X66.47 Y65.6 E123.39941
G1 X66.392 Y65.649 E123.40305
G1 X66.144 Y65.783 E123.41418
G1 X65.86 Y65.915 E123.42655
G1 X65.639 Y66 E123.4359
G1 X34.355 Y66 E124.67151
G1 F3600 X34.368 Y66.005
G1 F2400 X34.652 Y66.097 E124.6833
G1 X34.949 Y66.175 E124.69543
G1 X35.244 Y66.232 E124.70729
G1 X35.547 Y66.269 E124.71935
G1 X35.951 Y66.295 E124.73534
G1 X63.877 Y66.299 E125.83832
G1 X64.099 Y66.289 E125.84709
G1 X64.668 Y66.238 E125.86966
G1 X65.038 Y66.175 E125.88448
G1 X65.282 Y66.116 E125.89439
G1 X65.593 Y66.018 E125.90727
G1 X65.639 Y66 E125.90922
G1 F1680 E122.90922
G1 F3600 X67.47 Y55.2
G1 F1680 E125.90922
G1 F2400 X32.529 Y55.2 E127.28927
G1 X32.625 Y55.098 E127.2948
G1 X32.85 Y54.889 E127.30693
G1 X32.959 Y54.8 E127.31249
G1 F1680 E124.31249
G1 F3600 X66.448 Y54.381
;TIME_ELAPSED:74.445288
;LAYER:-3
G1 X66.448 Y54.381 Z1.119
G1 F1680 E127.31249
G1 F2400 X66.399 Y54.354 E127.3147
G1 X66.399 Y65.645 E127.76065
G1 X66.144 Y65.783 E127.7721
G1 X65.999 Y65.851 E127.77843
G1 X65.999 Y54.148 E128.24066
G1 X65.899 Y54.1 E128.24504
G1 X65.629 Y53.993 E128.25651
G1 X65.599 Y53.984 E128.25774
G1 X65.599 Y66.016 E128.73297
G1 X65.282 Y66.116 E128.74609
G1 X65.199 Y66.137 E128.74948
G1 X65.199 Y53.863 E129.23425
G1 X65.049 Y53.823 E129.24039
G1 X64.799 Y53.775 E129.25044
G1 X64.799 Y66.216 E129.74182
G1 X64.668 Y66.238 E129.74706
G1 X64.399 Y66.263 E129.75773
G1 X64.399 Y53.726 E130.2529
G1 X64.047 Y53.703 E130.26683
G1 X63.999 Y53.703 E130.26873
G1 X63.999 Y66.294 E130.76603
G1 X63.877 Y66.299 E130.77085
G1 X63.599 Y66.298 E130.78183
G1 X63.599 Y53.703 E131.27929
G1 X63.199 Y53.703 E131.29508
G1 X63.199 Y66.298 E131.79254
G1 X62.799 Y66.298 E131.80834
G1 X62.799 Y53.703 E132.3058
G1 X62.399 Y53.703 E132.3216
G1 X62.399 Y66.298 E132.81905
G1 X61.999 Y66.298 E132.83485
G1 X61.999 Y53.703 E133.33231
G1 X61.599 Y53.703 E133.34811
G1 X61.599 Y66.298 E133.84557
G1 X61.199 Y66.298 E133.86136
G1 X61.199 Y53.703 E134.35882
G1 X60.799 Y53.703 E134.37462
G1 X60.799 Y66.298 E134.87208
G1 X60.399 Y66.298 E134.88788
G1 X60.399 Y53.703 E135.38533
G1 X59.999 Y53.703 E135.40113
M73 P2
G1 X59.999 Y66.298 E135.89859
G1 X59.599 Y66.298 E135.91439
G1 X59.599 Y53.703 E136.41184
G1 X59.199 Y53.703 E136.42764
G1 X59.199 Y66.298 E136.9251
G1 X58.799 Y66.298 E136.9409
G1 X58.799 Y53.703 E137.43836
G1 X58.399 Y53.703 E137.45415
G1 X58.399 Y66.298 E137.95161
G1 X57.999 Y66.298 E137.96741
G1 X57.999 Y53.703 E138.46487
G1 X57.599 Y53.703 E138.48067
G1 X57.599 Y66.298 E138.97812
G1 X57.199 Y66.298 E138.99392
G1 X57.199 Y53.703 E139.49138
G1 X56.799 Y53.702 E139.50718
G1 X56.799 Y66.297 E140.00464
G1 X56.399 Y66.297 E140.02043
G1 X56.399 Y53.702 E140.51789
G1 X55.999 Y53.702 E140.53369
G1 X55.999 Y66.297 E141.03115
G1 X55.599 Y66.297 E141.04695
G1 X55.599 Y53.702 E141.5444
G1 X55.199 Y53.702 E141.5602
G1 X55.199 Y66.297 E142.05766
G1 X54.799 Y66.297 E142.07346
G1 X54.799 Y53.702 E142.57091
G1 X54.399 Y53.702 E142.58671
G1 X54.399 Y66.297 E143.08417
G1 X53.999 Y66.297 E143.09997
G1 X53.999 Y53.702 E143.59743
G1 X53.599 Y53.702 E143.61322
G1 X53.599 Y66.297 E144.11068
G1 X53.199 Y66.297 E144.12648
G1 X53.199 Y53.702 E144.62394
G1 X52.799 Y53.702 E144.63974
G1 X52.799 Y66.297 E145.13719
G1 X52.399 Y66.297 E145.15299
G1 X52.399 Y53.702 E145.65045
G1 X51.999 Y53.702 E145.66625
G1 X51.999 Y66.297 E146.16371
G1 X51.599 Y66.297 E146.1795
G1 X51.599 Y53.702 E146.67696
G1 X51.199 Y53.702 E146.69276
G1 X51.199 Y66.297 E147.19022
G1 X50.799 Y66.297 E147.20602
G1 X50.799 Y53.702 E147.70347
