M73 P0
;MINX:37.5
;MAXX:62.5
;MINY:35.0
;MAXY:85.0
;MINZ:0.0
;MAXZ:41.3
;MachineType:ENTINA TINA2
;FilamentType:PLA
;Extruder0Temperature:205
;InfillDensity:20
;FLAVOR:Marlin
;TIME:1268
;FilamentUsed:1455.0
;Layer height: 0.35

;Generated with Cura_SteamEngine 3.1
M104 T0 S220
M82 ; absolute extrusion mode
;(**** start.gcode for tina2****)
M104 S150
G28 Z
G28 X Y; Home extruder
G1 X55 Y55 F1000
G1 Z10 F200
G29
G1 Z15 F100
M107 ; Turn off fan
G90 ; Absolute positioning
M82 ; Extruder in absolute mode
M109 S220.0
G92 E0 ; Reset extruder position
G1 X90 Y6 Z0.27 F2000
G1 X20 Y6 Z0.27 E15 F1000
G92 E0 ; Reset extruder position

;LAYER_COUNT:115
;LAYER:-5
M107
M203 Z5
G1 F3600 X60.773 Y36.779 Z0.349
G1 F1200 X60.96 Y36.981 E0.03036
G1 X61.148 Y37.211 E0.06311
G1 X61.312 Y37.439 E0.09408
G1 X61.474 Y37.698 E0.12777
G1 X61.602 Y37.937 E0.15767
G1 X61.729 Y38.212 E0.19107
G1 X61.831 Y38.473 E0.22197
G1 X61.926 Y38.776 E0.25699
G1 X61.98 Y38.997 E0.28208
G1 X62.04 Y39.353 E0.32189
G1 X62.09 Y39.907 E0.38323
G1 X62.1 Y40.129 E0.40773
G1 X62.096 Y80.05 E4.80998
G1 X62.072 Y80.427 E4.85164
G1 X62.035 Y80.725 E4.88475
G1 X61.98 Y81.009 E4.91665
G1 X61.904 Y81.3 E4.94982
G1 X61.82 Y81.558 E4.97974
G1 X61.709 Y81.837 E5.01285
G1 X61.587 Y82.095 E5.04432
G1 X61.444 Y82.353 E5.07685
G1 X61.292 Y82.592 E5.10809
G1 X61.119 Y82.827 E5.14026
G1 X60.938 Y83.044 E5.17143
G1 X60.724 Y83.27 E5.20575
G1 X60.519 Y83.46 E5.23657
G1 X60.289 Y83.648 E5.26933
G1 X60.061 Y83.812 E5.3003
G1 X59.802 Y83.974 E5.33399
G1 X59.563 Y84.102 E5.36388
G1 X59.288 Y84.229 E5.39729
G1 X59.027 Y84.331 E5.42819
G1 X58.724 Y84.426 E5.46321
G1 X58.503 Y84.48 E5.48829
G1 X58.147 Y84.54 E5.5281
G1 X57.593 Y84.59 E5.58944
G1 X57.371 Y84.6 E5.61395
G1 X42.576 Y84.6 E7.24545
G1 X42.073 Y84.572 E7.30101
G1 X41.775 Y84.535 E7.33412
G1 X41.491 Y84.48 E7.36602
G1 X41.2 Y84.404 E7.39919
G1 X40.94 Y84.319 E7.42935
G1 X40.663 Y84.209 E7.46222
G1 X40.404 Y84.086 E7.49384
G1 X40.147 Y83.944 E7.52621
G1 X39.908 Y83.792 E7.55745
G1 X39.661 Y83.61 E7.59128
G1 X39.46 Y83.441 E7.62024
G1 X39.227 Y83.221 E7.65558
G1 X39.04 Y83.019 E7.68593
G1 X38.848 Y82.784 E7.7194
G1 X38.688 Y82.561 E7.74966
G1 X38.526 Y82.302 E7.78335
G1 X38.398 Y82.063 E7.81325
G1 X38.271 Y81.788 E7.84665
G1 X38.169 Y81.527 E7.87755
G1 X38.074 Y81.224 E7.91257
G1 X38.018 Y80.995 E7.93857
G1 X37.96 Y80.647 E7.97747
G1 X37.91 Y80.093 E8.03881
G1 X37.9 Y79.871 E8.06332
G1 X37.904 Y39.95 E12.46556
G1 X37.928 Y39.573 E12.50722
G1 X37.965 Y39.275 E12.54033
G1 X38.02 Y38.991 E12.57223
G1 X38.096 Y38.7 E12.6054
G1 X38.18 Y38.442 E12.63532
G1 X38.291 Y38.163 E12.66843
G1 X38.413 Y37.905 E12.6999
G1 X38.559 Y37.642 E12.73308
G1 X38.708 Y37.408 E12.76367
G1 X38.89 Y37.161 E12.7975
G1 X39.059 Y36.96 E12.82646
G1 X39.279 Y36.727 E12.8618
G1 X39.481 Y36.54 E12.89215
G1 X39.711 Y36.352 E12.92491
G1 X39.939 Y36.188 E12.95588
G1 X40.198 Y36.026 E12.98957
G1 X40.437 Y35.898 E13.01947
G1 X40.712 Y35.771 E13.05287
G1 X40.973 Y35.669 E13.08377
G1 X41.276 Y35.574 E13.11879
G1 X41.497 Y35.52 E13.14387
G1 X41.853 Y35.46 E13.18369
G1 X42.407 Y35.41 E13.24503
G1 X42.629 Y35.4 E13.26953
G1 X57.55 Y35.404 E14.91493
G1 X57.927 Y35.428 E14.95659
G1 X58.225 Y35.465 E14.9897
G1 X58.509 Y35.52 E15.0216
G1 X58.8 Y35.596 E15.05477
G1 X59.058 Y35.68 E15.08469
M73 P1
G1 X59.337 Y35.791 E15.1178
G1 X59.595 Y35.913 E15.14927
G1 X59.853 Y36.056 E15.1818
G1 X60.092 Y36.208 E15.21303
G1 X60.339 Y36.39 E15.24687
G1 X60.54 Y36.559 E15.27582
G1 X60.773 Y36.779 E15.31116
G1 F3600 X60.8 Y36.809
G1 F1200 X60.8 Y83.19 E20.42578
G1 F1680 E17.42578
G1 F3600 X59.2 Y84.264
G1 F1680 E20.42578
G1 F1200 X59.2 Y35.737 E25.77704
G1 F1680 E22.77704
G1 F3600 X57.6 Y35.408
G1 F1680 E25.77704
G1 F1200 X57.6 Y84.59 E31.20054
G1 F1680 E28.20054
G1 F3600 X56 Y84.6
G1 F1680 E31.20054
G1 F1200 X56 Y35.404 E36.62558
G1 F1680 E33.62558
G1 F3600 X54.4 Y35.404
G1 F1680 E36.62558
G1 F1200 X54.4 Y84.6 E42.05062
G1 F1680 E39.05062
G1 F3600 X52.8 Y84.6
G1 F1680 E42.05062
G1 F1200 X52.8 Y35.403 E47.47577
G1 F1680 E44.47577
G1 F3600 X51.2 Y35.403
G1 F1680 E47.47577
G1 F1200 X51.2 Y84.6 E52.90091
G1 F1680 E49.90091
G1 F3600 X49.6 Y84.6
G1 F1680 E52.90091
G1 F1200 X49.6 Y35.402 E58.32617
G1 F1680 E55.32617
G1 F3600 X48 Y35.402
G1 F1680 E58.32617
G1 F1200 X48 Y84.6 E63.75143
G1 F1680 E60.75143
G1 F3600 X46.4 Y84.6
G1 F1680 E63.75143
G1 F1200 X46.4 Y35.402 E69.17669
G1 F1680 E66.17669
G1 F3600 X44.8 Y35.401
G1 F1680 E69.17669
G1 F1200 X44.8 Y84.6 E74.60206
G1 F1680 E71.60206
G1 F3600 X43.2 Y84.6
G1 F1680 E74.60206
G1 F1200 X43.2 Y35.401 E80.02743
G1 F1680 E77.02743
G1 F3600 X41.6 Y35.502
G1 F1680 E80.02743
G1 F1200 X41.6 Y84.501 E85.43075
G1 F1680 E82.43075
G1 F3600 X40 Y83.85
M104 T0 S205
G1 F1680 E85.43075
G1 F1200 X40 Y36.149 E90.69092
G1 F1680 E87.69092
G1 F3600 X38.4 Y37.932
G1 F1680 E90.69092
G1 F1200 X38.4 Y82.066 E95.55776
G1 F1680 E92.55776
G1 F3600 X60.807 Y36.741
;TIME_ELAPSED:48.389337
;LAYER:-4
G1 X60.807 Y36.741 Z0.619
;TYPE:SUPPORT
G1 F1680 E95.55776
G1 F1980 X60.999 Y36.951 E95.57897
G1 X61.185 Y37.176 E95.60073
G1 X61.35 Y37.408 E95.62195
G1 X61.518 Y37.676 E95.64553
G1 X61.642 Y37.905 E95.66494
G1 X61.781 Y38.204 E95.68952
G1 X61.876 Y38.448 E95.70903
G1 X61.971 Y38.751 E95.7327
G1 X62.028 Y38.989 E95.75095
G1 F3600 X62.055 Y39.145
G1 F1980 X58.347 Y35.437 E96.14184
G1 X58.518 Y35.469 E96.1548
G1 X58.812 Y35.546 E96.17746
G1 X59.092 Y35.637 E96.1994
G1 X59.349 Y35.74 E96.22004
G1 X59.625 Y35.872 E96.24285
G1 X59.876 Y36.011 E96.26424
G1 X60.111 Y36.16 E96.28498
G1 X60.376 Y36.354 E96.30946
G1 X60.574 Y36.521 E96.32877
G1 X60.807 Y36.741 E96.35265
G1 F1680 E93.35265
G1 F3600 X62.055 Y39.145
G1 F1680 E96.35265
G1 F1980 X62.089 Y39.342 E96.36756
G1 X62.14 Y39.904 E96.40962
G1 X62.15 Y40.126 E96.42618
G1 X62.15 Y40.512 E96.45496
G1 X56.989 Y35.352 E96.99897
G1 X55.717 Y35.352 E97.09378
G1 X62.15 Y41.785 E97.77193
G1 X62.15 Y43.058 E97.86683
G1 X54.443 Y35.351 E98.67928
G1 X53.17 Y35.351 E98.77417
G1 X62.15 Y44.331 E99.72082
G1 X62.15 Y45.604 E99.81571
G1 X51.898 Y35.351 E100.89651
G1 X50.624 Y35.351 E100.99148
G1 X62.15 Y46.876 E102.20647
G1 X62.149 Y48.149 E102.30136
G1 X49.351 Y35.351 E103.65049
G1 X48.078 Y35.35 E103.74539
G1 X62.149 Y49.421 E105.22872
G1 X62.149 Y50.694 E105.32361
G1 X46.805 Y35.35 E106.94114
G1 X45.532 Y35.349 E107.03603
G1 X62.149 Y51.967 E108.78781
G1 X62.149 Y53.24 E108.8827
G1 X44.259 Y35.349 E110.76868
M73 P2
G1 X42.986 Y35.349 E110.86357
G1 X62.149 Y54.512 E112.88369
G1 X62.149 Y55.785 E112.97858
G1 X41.783 Y35.419 E115.12552
G1 X41.488 Y35.469 E115.14782
G1 X41.251 Y35.527 E115.16601
G1 X40.948 Y35.622 E115.18968
G1 X40.78 Y35.689 E115.20316
G1 X62.149 Y57.057 E117.45578
G1 X62.149 Y58.33 E117.55067
G1 X39.943 Y36.125 E119.89152
G1 X39.906 Y36.148 E119.89477
G1 X39.676 Y36.313 E119.91587
G1 X39.45 Y36.498 E119.93764
G1 X39.239 Y36.693 E119.95906
G1 X62.149 Y59.603 E122.37418
G1 X62.149 Y60.876 E122.46907
G1 X38.659 Y37.386 E124.94533
G1 F3600 X38.659 Y37.388
G1 F1980 X38.513 Y37.616 E124.96551
G1 X38.371 Y37.874 E124.98746
G1 X38.242 Y38.143 E125.0097
G1 X38.214 Y38.214 E125.01539
G1 X62.149 Y62.149 E127.53856
G1 X62.149 Y63.421 E127.63338
G1 X37.927 Y39.199 E130.18681
G1 X37.912 Y39.276 E130.19266
G1 X37.876 Y39.564 E130.21429
G1 X37.852 Y39.947 E130.2429
G1 X37.852 Y40.397 E130.27644
G1 X62.148 Y64.693 E132.83767
G1 X62.148 Y65.966 E132.93256
G1 X37.852 Y41.67 E135.49379
G1 X37.852 Y42.943 E135.58868
G1 X62.148 Y67.239 E138.14991
G1 X62.148 Y68.512 E138.2448
G1 X37.852 Y44.216 E140.80603
G1 X37.852 Y45.488 E140.90084
G1 X62.148 Y69.785 E143.46213
G1 X62.148 Y71.057 E143.55694
G1 X37.852 Y46.761 E146.11817
G1 X37.851 Y48.033 E146.21299
G1 X62.147 Y72.329 E148.77422
G1 X62.147 Y73.602 E148.86911
G1 X37.851 Y49.306 E151.43034
G1 X37.851 Y50.579 E151.52523
G1 X62.147 Y74.875 E154.08646
G1 X62.147 Y76.148 E154.18135
G1 X37.851 Y51.852 E156.74258
G1 X37.851 Y53.124 E156.83739
G1 X62.147 Y77.421 E159.39868
G1 X62.147 Y78.693 E159.49349
G1 X37.851 Y54.397 E162.05472
G1 X37.851 Y55.67 E162.14961
G1 X62.147 Y79.966 E164.71084
G1 X62.146 Y80.05 E164.7171
G1 X62.122 Y80.434 E164.74578
G1 X62.086 Y80.721 E164.76734
G1 X62.029 Y81.018 E164.78989
G1 X62.008 Y81.1 E164.7962
G1 X37.85 Y56.942 E167.34288
G1 X37.85 Y58.215 E167.43777
G1 X61.671 Y82.035 E169.94887
G1 X61.627 Y82.125 E169.95634
G1 X61.488 Y82.376 E169.97773
G1 X61.34 Y82.611 E169.99843
G1 X61.185 Y82.823 E170.018
G1 X37.85 Y59.488 E172.47793
G1 X37.85 Y60.76 E172.57274
G1 X60.57 Y83.48 E174.96783
G1 X60.548 Y83.5 E174.97005
G1 X60.323 Y83.686 E174.99181
G1 X60.092 Y83.85 E175.01293
G1 X59.83 Y84.013 E175.03593
G1 X37.85 Y62.033 E177.35301
G1 X37.85 Y63.306 E177.4479
G1 X58.95 Y84.406 E179.67221
G1 X58.747 Y84.47 E179.68808
G1 X58.51 Y84.528 E179.70627
G1 X58.158 Y84.589 E179.7329
G1 X57.885 Y84.613 E179.75333
G1 X37.85 Y64.578 E181.86537
G1 X37.85 Y65.851 E181.96026
G1 X56.648 Y84.649 E183.9419
G1 X55.375 Y84.649 E184.0368
G1 X37.85 Y67.124 E185.88424
G1 X37.85 Y68.397 E185.97913
G1 X54.102 Y84.649 E187.69238
G1 X52.829 Y84.649 E187.78727
G1 X37.85 Y69.669 E189.36638
G1 X37.85 Y70.942 E189.46127
G1 X51.555 Y84.648 E190.90607
G1 X50.283 Y84.648 E191.00089
G1 X37.849 Y72.214 E192.31165
G1 X37.849 Y73.487 E192.40654
G1 X49.009 Y84.647 E193.583
G1 X47.736 Y84.647 E193.6779
G1 X37.849 Y74.76 E194.72016
G1 X37.849 Y76.033 E194.81505
G1 X46.463 Y84.647 E195.72312
G1 X45.19 Y84.647 E195.81801
G1 X37.849 Y77.305 E196.59194
G1 X37.849 Y78.578 E196.68683
G1 X43.916 Y84.646 E197.32645
G1 X42.644 Y84.646 E197.42127
G1 X37.849 Y79.851 E197.92674
G1 X37.849 Y79.872 E197.92831
G1 X37.857 Y80.079 E197.94375
G1 X37.91 Y80.657 E197.98702
G1 X37.968 Y81.007 E198.01346
G1 X38.027 Y81.247 E198.03188
G1 X38.052 Y81.327 E198.03813
G1 X41.171 Y84.446 E198.36693
G1 X40.906 Y84.361 E198.38767
G1 X40.65 Y84.258 E198.40824
G1 X40.374 Y84.127 E198.43102
G1 X40.123 Y83.988 E198.4524
G1 X39.885 Y83.837 E198.47342
G1 X39.622 Y83.644 E198.49773
G1 X39.424 Y83.477 E198.51704
G1 X39.192 Y83.257 E198.54087
G1 X38.998 Y83.048 E198.56213
M73 P3
G1 X38.813 Y82.822 E198.5839
G1 X38.647 Y82.591 E198.6051
G1 X38.481 Y82.323 E198.6286
G1 X38.355 Y82.091 E198.64828
G1 X38.218 Y81.794 E198.67266
G1 X38.122 Y81.548 E198.69235
G1 F1680 E195.69235
G1 F3600 X61.065 Y36.8
;TIME_ELAPSED:91.886698
;LAYER:-3
M106 S255
G1 X61.065 Y36.8 Z0.869
G1 F1680 E198.69235
G1 F2400 X61.109 Y36.848 E198.69492
G1 X61.307 Y37.09 E198.70727
G1 X61.387 Y37.2 E198.71264
G1 X38.612 Y37.2 E199.61217
G1 X38.539 Y37.299 E199.61703
G1 X38.377 Y37.554 E199.62896
G1 X38.352 Y37.6 E199.63103
G1 X61.647 Y37.6 E200.5511
G1 X61.783 Y37.852 E200.56241
G1 X61.852 Y38 E200.56886
G1 X38.147 Y38 E201.50512
G1 X38.099 Y38.1 E201.5095
G1 X37.993 Y38.367 E201.52085
G1 X37.983 Y38.4 E201.52221
G1 X62.017 Y38.4 E202.47147
G1 X62.116 Y38.715 E202.48451
G1 X62.137 Y38.8 E202.48797
G1 X37.862 Y38.8 E203.44674
G1 X37.824 Y38.941 E203.45251
G1 X37.775 Y39.2 E203.46292
G1 X62.217 Y39.2 E204.42829
G1 X62.238 Y39.328 E204.43341
G1 X62.263 Y39.6 E204.4442
G1 X37.726 Y39.6 E205.41333
G1 X37.703 Y39.949 E205.42714
G1 X37.703 Y40 E205.42915
G1 X62.294 Y40 E206.40041
G1 X62.299 Y40.11 E206.40476
G1 X62.298 Y40.4 E206.41621
G1 X37.703 Y40.4 E207.38763
G1 X37.703 Y40.8 E207.40343
G1 X62.298 Y40.8 E208.37484
G1 X62.298 Y41.2 E208.39064
G1 X37.703 Y41.2 E209.36205
G1 X37.703 Y41.6 E209.37785
G1 X62.298 Y41.6 E210.34927
G1 X62.298 Y42 E210.36507
G1 X37.703 Y42 E211.33648
G1 X37.703 Y42.4 E211.35228
G1 X62.298 Y42.4 E212.32369
G1 X62.298 Y42.8 E212.33949
G1 X37.703 Y42.8 E213.3109
G1 X37.703 Y43.2 E213.3267
G1 X62.298 Y43.2 E214.29812
G1 X62.298 Y43.6 E214.31392
G1 X37.703 Y43.6 E215.28533
G1 X37.703 Y44 E215.30113
G1 X62.298 Y44 E216.27254
G1 X62.298 Y44.4 E216.28834
G1 X37.703 Y44.4 E217.25976
G1 X37.703 Y44.8 E217.27555
G1 X62.298 Y44.8 E218.24697
G1 X62.298 Y45.2 E218.26277
G1 X37.703 Y45.2 E219.23418
G1 X37.703 Y45.6 E219.24998
G1 X62.298 Y45.6 E220.22139
G1 X62.298 Y46 E220.23719
G1 X37.703 Y46 E221.20861
G1 X37.703 Y46.4 E221.22441
G1 X62.298 Y46.4 E222.19582
G1 X62.298 Y46.8 E222.21162
G1 X37.703 Y46.8 E223.18303
G1 X37.703 Y47.2 E223.19883
G1 X62.298 Y47.2 E224.17025
G1 X62.298 Y47.6 E224.18604
G1 X37.703 Y47.6 E225.15746
G1 X37.703 Y48 E225.17326
G1 X62.298 Y48 E226.14467
G1 X62.298 Y48.4 E226.16047
G1 X37.703 Y48.4 E227.13188
G1 X37.703 Y48.8 E227.14768
G1 X62.298 Y48.8 E228.1191
G1 X62.298 Y49.2 E228.1349
G1 X37.703 Y49.2 E229.10631
G1 X37.703 Y49.6 E229.12211
G1 X62.298 Y49.6 E230.09352
G1 X62.298 Y50 E230.10932
G1 X37.702 Y50 E231.08077
G1 X37.702 Y50.4 E231.09657
G1 X62.297 Y50.4 E232.06799
G1 X62.297 Y50.8 E232.08379
G1 X37.702 Y50.8 E233.0552
G1 X37.702 Y51.2 E233.071
G1 X62.297 Y51.2 E234.04241
G1 X62.297 Y51.6 E234.05821
G1 X37.702 Y51.6 E235.02963
G1 X37.702 Y52 E235.04542
G1 X62.297 Y52 E236.01684
G1 X62.297 Y52.4 E236.03264
G1 X37.702 Y52.4 E237.00405
G1 X37.702 Y52.8 E237.01985
G1 X62.297 Y52.8 E237.99126
G1 X62.297 Y53.2 E238.00706
G1 X37.702 Y53.2 E238.97848
G1 X37.702 Y53.6 E238.99428
G1 X62.297 Y53.6 E239.96569
G1 X62.297 Y54 E239.98149
G1 X37.702 Y54 E240.9529
G1 X37.702 Y54.4 E240.9687
G1 X62.297 Y54.4 E241.94011
G1 X62.297 Y54.8 E241.95591
G1 X37.702 Y54.8 E242.92733
G1 X37.702 Y55.2 E242.94313
G1 X62.297 Y55.2 E243.91454
G1 X62.297 Y55.6 E243.93034
G1 X37.702 Y55.6 E244.90175
G1 X37.702 Y56 E244.91755
G1 X62.297 Y56 E245.88897
G1 X62.297 Y56.4 E245.90476
M73 P4
G1 X37.702 Y56.4 E246.87618
G1 X37.702 Y56.8 E246.89198
G1 X62.297 Y56.8 E247.86339
G1 X62.297 Y57.2 E247.87919
G1 X37.702 Y57.2 E248.8506
G1 X37.702 Y57.6 E248.8664
G1 X62.297 Y57.6 E249.83782
G1 X62.297 Y58 E249.85362
G1 X37.702 Y58 E250.82503
G1 X37.702 Y58.4 E250.84083
G1 X62.297 Y58.4 E251.81224
G1 X62.297 Y58.8 E251.82804
G1 X37.702 Y58.8 E252.79946
G1 X37.702 Y59.2 E252.81525
G1 X62.297 Y59.2 E253.78667
G1 X62.297 Y59.6 E253.80247
G1 X37.702 Y59.6 E254.77388
G1 X37.701 Y60 E254.78968
G1 X62.297 Y60 E255.76113
G1 X62.296 Y60.4 E255.77693
G1 X37.701 Y60.4 E256.74835
G1 X37.701 Y60.8 E256.76414
G1 X62.296 Y60.8 E257.73556
G1 X62.296 Y61.2 E257.75136
G1 X37.701 Y61.2 E258.72277
G1 X37.701 Y61.6 E258.73857
G1 X62.296 Y61.6 E259.70998
G1 X62.296 Y62 E259.72578
G1 X37.701 Y62 E260.6972
G1 X37.701 Y62.4 E260.713
G1 X62.296 Y62.4 E261.68441
G1 X62.296 Y62.8 E261.70021
G1 X37.701 Y62.8 E262.67162
G1 X37.701 Y63.2 E262.68742
G1 X62.296 Y63.2 E263.65884
G1 X62.296 Y63.6 E263.67463
G1 X37.701 Y63.6 E264.64605
G1 X37.701 Y64 E264.66185
G1 X62.296 Y64 E265.63326
G1 X62.296 Y64.4 E265.64906
G1 X37.701 Y64.4 E266.62047
G1 X37.701 Y64.8 E266.63627
G1 X62.296 Y64.8 E267.60769
G1 X62.296 Y65.2 E267.62349
G1 X37.701 Y65.2 E268.5949
G1 X37.701 Y65.6 E268.6107
G1 X62.296 Y65.6 E269.58211
G1 X62.296 Y66 E269.59791
G1 X37.701 Y66 E270.56932
G1 X37.701 Y66.4 E270.58512
G1 X62.296 Y66.4 E271.55654
G1 X62.296 Y66.8 E271.57234
G1 X37.701 Y66.8 E272.54375
G1 X37.701 Y67.2 E272.55955
G1 X62.296 Y67.2 E273.53096
G1 X62.296 Y67.6 E273.54676
G1 X37.701 Y67.6 E274.51818
G1 X37.701 Y68 E274.53397
G1 X62.296 Y68 E275.50539
G1 X62.296 Y68.4 E275.52119
G1 X37.701 Y68.4 E276.4926
G1 X37.701 Y68.8 E276.5084
G1 X62.296 Y68.8 E277.47981
G1 X62.296 Y69.2 E277.49561
G1 X37.701 Y69.2 E278.46703
G1 X37.701 Y69.6 E278.48283
G1 X62.296 Y69.6 E279.45424
G1 X62.296 Y70 E279.47004
G1 X37.7 Y70 E280.44149
G1 X37.7 Y70.4 E280.45729
G1 X62.295 Y70.4 E281.42871
G1 X62.295 Y70.8 E281.4445
G1 X37.7 Y70.8 E282.41592
G1 X37.7 Y71.2 E282.43172
G1 X62.295 Y71.2 E283.40313
G1 X62.295 Y71.6 E283.41893
G1 X37.7 Y71.6 E284.39034
G1 X37.7 Y72 E284.40614
G1 X62.295 Y72 E285.37756
G1 X62.295 Y72.4 E285.39335
G1 X37.7 Y72.4 E286.36477
G1 X37.7 Y72.8 E286.38057
G1 X62.295 Y72.8 E287.35198
G1 X62.295 Y73.2 E287.36778
G1 X37.7 Y73.2 E288.33919
G1 X37.7 Y73.6 E288.35499
G1 X62.295 Y73.6 E289.32641
G1 X62.295 Y74 E289.34221
G1 X37.7 Y74 E290.31362
G1 X37.7 Y74.4 E290.32942
G1 X62.295 Y74.4 E291.30083
G1 X62.295 Y74.8 E291.31663
G1 X37.7 Y74.8 E292.28805
G1 X37.7 Y75.2 E292.30384
G1 X62.295 Y75.2 E293.27526
G1 X62.295 Y75.6 E293.29106
G1 X37.7 Y75.6 E294.26247
