M73 P0
;MINX:11.8
;MAXX:88.2
;MINY:15.9
;MAXY:104.1
;MINZ:0.0
;MAXZ:4.8
;MachineType:ENTINA TINA2
;FilamentType:PLA
;Extruder0Temperature:200
;InfillDensity:10
;FLAVOR:Marlin
;TIME:1336
;FilamentUsed:917.8
;Layer height: 0.2

;Generated with Cura_SteamEngine 3.1
M104 T0 S215
M82 ; absolute extrusion mode
;(**** start.gcode for tina2****)
M104 S150
G28 Z
G28 X Y; Home extruder
G1 X55 Y55 F1000
G1 Z10 F200
G29
G1 Z15 F100
M107 ; Turn off fan
G90 ; Absolute positioning
M82 ; Extruder in absolute mode
M109 S215.0
G92 E0 ; Reset extruder position
G1 X90 Y6 Z0.27 F2000
G1 X20 Y6 Z0.27 E15 F1000
G92 E0 ; Reset extruder position

;LAYER_COUNT:24
;LAYER:0
M106 S255
M203 Z5
G1 F3600 X87.127 Y16.307 Z0.299
;TYPE:SKIRT
G1 F1200 X87.51 Y16.638 E0.02639
G1 X87.837 Y17.026 E0.05285
G1 X88.099 Y17.461 E0.07932
G1 X88.289 Y17.931 E0.10575
G1 X88.404 Y18.425 E0.13219
G1 X88.439 Y18.931 E0.15864
G1 X88.399 Y19.407 E0.18354
G1 X86.861 Y29.073 E0.69382
G1 X86.815 Y29.308 E0.7063
G1 X86.436 Y30.911 E0.79218
G1 X86.356 Y31.192 E0.80741
G1 X85.496 Y33.762 E0.9487
G1 X85.367 Y34.087 E0.96693
G1 X84.317 Y36.367 E1.0978
G1 X84.121 Y36.729 E1.11926
G1 X82.308 Y39.624 E1.29735
G1 X82.078 Y39.946 E1.31798
G1 X76.988 Y46.208 E1.7387
G1 X73.819 Y50.66 E2.0236
G1 X70.903 Y55.286 E2.3087
G1 X68.252 Y60.073 E2.59398
G1 X65.874 Y65.006 E2.87949
G1 X63.754 Y70.124 E3.1683
G1 X62.849 Y72.604 E3.30594
G1 X61.182 Y77.851 E3.59296
G1 X59.814 Y83.178 E3.8797
G1 X59.032 Y86.965 E4.0813
G1 X59.014 Y87.048 E4.08573
G1 X58.813 Y87.905 E4.13162
G1 X58.7 Y88.281 E4.15209
G1 X56.972 Y92.982 E4.41321
G1 X55.361 Y98.244 E4.70012
G1 X54.43 Y101.896 E4.8966
G1 X54.267 Y102.376 E4.92303
G1 X54.03 Y102.824 E4.94946
G1 X53.725 Y103.23 E4.97593
G1 X53.361 Y103.582 E5.00233
G1 X52.946 Y103.874 E5.02879
G1 X52.49 Y104.096 E5.05523
G1 X52.005 Y104.244 E5.08166
G1 X51.312 Y104.32 E5.11801
G1 X48.687 Y104.322 E5.25486
G1 X48.182 Y104.282 E5.28128
G1 X47.689 Y104.164 E5.3077
G1 X47.22 Y103.97 E5.33416
G1 X46.939 Y103.808 E5.35108
G1 X43.276 Y101.444 E5.57836
G1 X38.526 Y98.699 E5.86438
G1 X33.288 Y96.006 E6.17145
G1 X32.856 Y95.739 E6.19792
G1 X32.472 Y95.408 E6.22435
G1 X32.145 Y95.021 E6.25077
G1 X31.896 Y94.613 E6.27569
G1 X31.27 Y93.394 E6.34713
G1 X31.017 Y92.729 E6.38423
G1 X29.238 Y85.848 E6.75476
G1 X29.157 Y85.417 E6.77763
G1 X28.311 Y78.206 E7.15615
G1 X28.301 Y78.107 E7.16134
G1 X27.954 Y74.069 E7.37264
G1 X27.204 Y68.632 E7.65878
G1 X26.145 Y63.239 E7.94532
G1 X25.514 Y60.615 E8.08602
G1 X24.801 Y57.982 E8.22824
G1 X23.141 Y52.742 E8.51481
G1 X21.19 Y47.613 E8.8009
G1 X18.967 Y42.637 E9.08504
G1 X15.717 Y36.44 E9.44985
G1 X15.636 Y36.274 E9.45948
G1 X14.559 Y33.897 E9.59554
G1 X14.446 Y33.612 E9.61152
G1 X13.878 Y31.955 E9.70284
G1 X13.799 Y31.689 E9.71731
G1 X13.124 Y28.979 E9.86291
G1 X13.068 Y28.703 E9.8776
G1 X11.601 Y19.401 E10.36855
G1 X11.562 Y18.895 E10.39501
G1 X11.603 Y18.389 E10.42148
G1 X11.722 Y17.897 E10.44787
G1 X11.917 Y17.429 E10.4743
G1 X12.184 Y16.997 E10.50078
G1 X12.515 Y16.613 E10.52721
G1 X12.902 Y16.285 E10.55366
G1 X13.335 Y16.022 E10.58007
G1 X13.805 Y15.831 E10.60652
G1 X14.299 Y15.715 E10.63297
G1 X14.805 Y15.679 E10.65942
G1 X15.284 Y15.718 E10.68448
G1 X32.26 Y18.397 E11.58048
G1 X37.694 Y19.101 E11.86615
G1 X43.159 Y19.496 E12.15181
G1 X53.961 Y19.58 E12.71499
G1 X59.437 Y19.347 E13.00074
G1 X64.878 Y18.806 E13.28581
G1 X84.724 Y15.719 E14.33293
G1 X85.23 Y15.681 E14.35938
G1 X85.735 Y15.723 E14.3858
G1 X86.228 Y15.843 E14.41226
G1 X86.696 Y16.039 E14.43871
M73 P1
G1 X87.127 Y16.307 E14.46517
G1 F1680 E11.46517
G1 F3600 X84.44 Y19.681
;TYPE:WALL-INNER
G1 F1680 E14.46517
G1 F1320 X83.29 Y27.126 E14.85792
G1 X82.905 Y29.101 E14.96282
G1 X82.656 Y30.064 E15.01468
G1 X82.045 Y31.957 E15.11839
G1 X81.693 Y32.855 E15.16867
G1 X80.876 Y34.608 E15.26951
G1 X79.385 Y37.069 E15.41952
G1 X78.793 Y37.876 E15.4717
G1 X76.955 Y39.286 E15.59247
G1 X74.279 Y41.259 E15.76581
G1 X71.581 Y43.17 E15.93818
G1 X68.844 Y45.03 E16.11071
G1 X66.086 Y46.828 E16.28235
G1 X63.309 Y48.559 E16.45295
G1 X60.501 Y50.236 E16.62347
G1 X57.659 Y51.858 E16.79407
G1 X54.817 Y53.406 E16.96279
G1 X51.561 Y55.09 E17.15391
G1 X51.598 Y56.883 E17.24741
G1 X51.647 Y58.585 E17.33618
G1 X51.798 Y61.027 E17.46373
G1 X52.079 Y63.787 E17.60837
G1 X52.473 Y66.531 E17.7529
G1 X52.977 Y69.258 E17.89748
G1 X53.594 Y71.96 E18.04197
G1 X54.318 Y74.635 E18.18645
G1 X55.118 Y77.17 E18.32504
G1 X55.118 Y86.266 E18.79926
G1 X50.413 Y86.266 E19.04456
G1 X50.645 Y100.452 E19.78425
G1 X49.353 Y100.452 E19.85161
G1 X49.589 Y86.266 E20.5913
G1 X44.884 Y86.266 E20.8366
G1 X44.884 Y77.17 E21.31082
G1 X45.684 Y74.635 E21.44941
G1 X46.406 Y71.959 E21.59391
G1 X47.023 Y69.258 E21.73836
G1 X47.527 Y66.531 E21.88294
G1 X47.921 Y63.787 E22.02746
G1 X48.204 Y61.027 E22.17211
G1 X48.353 Y58.585 E22.29966
G1 X48.402 Y56.884 E22.38838
G1 X48.438 Y55.09 E22.48193
G1 X45.186 Y53.406 E22.67286
G1 X42.343 Y51.858 E22.84163
G1 X39.501 Y50.236 E23.01223
G1 X36.693 Y48.559 E23.18274
G1 X33.916 Y46.828 E23.35335
G1 X31.158 Y45.03 E23.52499
G1 X28.421 Y43.17 E23.69752
G1 X25.723 Y41.259 E23.86989
G1 X23.042 Y39.283 E24.04353
G1 X21.209 Y37.878 E24.16393
G1 X20.616 Y37.067 E24.21631
G1 X19.126 Y34.608 E24.36621
G1 X18.309 Y32.855 E24.46704
G1 X17.957 Y31.957 E24.51733
G1 X17.344 Y30.064 E24.62107
G1 X17.096 Y29.095 E24.67321
G1 X16.712 Y27.126 E24.7778
G1 X15.561 Y19.681 E25.17056
G1 X46.63 Y24.6 E26.81053
G1 X47.098 Y34.145 E27.30876
G1 X47.098 Y40.772 E27.65426
G1 X48.9 Y40.772 E27.7482
G1 X49.11 Y34.123 E28.09502
G1 X49.11 Y24.233 E28.61064
G1 X49.118 Y23.832 E28.63155
G1 X49.345 Y23.613 E28.648
G1 X49.772 Y23.44 E28.67202
G1 X50.23 Y23.44 E28.6959
G1 X50.655 Y23.612 E28.7198
G1 X50.883 Y23.832 E28.73632
G1 X50.892 Y24.22 E28.75655
G1 X50.9 Y34.123 E29.27285
G1 X51.108 Y40.772 E29.61966
G1 X52.902 Y40.772 E29.71319
G1 X52.902 Y34.145 E30.05869
G1 X53.37 Y24.6 E30.55692
G1 X84.44 Y19.681 E32.19694
G1 F3600 X84.871 Y19.248
;TYPE:WALL-OUTER
G1 F1320 X83.646 Y27.181 E32.61543
G1 X83.254 Y29.191 E32.7222
G1 X83.002 Y30.167 E32.77475
G1 X82.387 Y32.072 E32.87912
G1 X82.026 Y32.991 E32.93059
G1 X81.191 Y34.783 E33.03366
G1 X79.688 Y37.264 E33.18489
G1 X79.052 Y38.131 E33.24095
G1 X77.169 Y39.576 E33.3647
G1 X74.493 Y41.549 E33.53803
G1 X71.783 Y43.468 E33.71116
G1 X69.041 Y45.332 E33.88401
G1 X66.283 Y47.13 E34.05566
G1 X63.494 Y48.868 E34.22699
G1 X60.679 Y50.549 E34.39792
G1 X57.837 Y52.171 E34.56853
G1 X54.982 Y53.726 E34.73802
G1 X51.926 Y55.307 E34.9174
G1 X51.958 Y56.874 E34.99912
G1 X52.007 Y58.569 E35.08752
G1 X52.157 Y60.998 E35.2144
G1 X52.436 Y63.743 E35.35825
G1 X52.828 Y66.473 E35.50204
G1 X53.33 Y69.185 E35.64583
G1 X53.943 Y71.873 E35.78957
G1 X54.664 Y74.534 E35.9333
G1 X55.478 Y77.116 E36.07445
G1 X55.478 Y86.626 E36.57025
G1 X50.779 Y86.626 E36.81524
G1 X51.011 Y100.812 E37.55493
G1 X48.987 Y100.812 E37.66045
G1 X49.223 Y86.626 E38.40014
G1 X44.524 Y86.626 E38.64512
G1 X44.524 Y77.116 E39.14093
G1 X45.338 Y74.534 E39.28207
G1 X46.057 Y71.872 E39.42583
G1 X46.67 Y69.185 E39.56952
G1 X47.172 Y66.473 E39.71331
G1 X47.564 Y63.743 E39.8571
G1 X47.845 Y60.998 E40.00096
G1 X47.993 Y58.569 E40.12783
G1 X48.042 Y56.875 E40.21618
M73 P2
G1 X48.074 Y55.307 E40.29795
G1 X45.02 Y53.726 E40.47724
G1 X42.165 Y52.171 E40.64673
G1 X39.323 Y50.549 E40.81733
G1 X36.508 Y48.868 E40.98827
G1 X33.719 Y47.13 E41.1596
G1 X30.961 Y45.332 E41.33124
G1 X28.219 Y43.468 E41.5041
G1 X25.509 Y41.549 E41.67723
G1 X22.828 Y39.573 E41.85086
G1 X20.949 Y38.133 E41.97428
G1 X20.314 Y37.264 E42.0304
G1 X18.811 Y34.783 E42.18163
G1 X17.976 Y32.991 E42.2847
G1 X17.615 Y32.072 E42.33618
G1 X17.001 Y30.175 E42.44013
G1 X16.747 Y29.184 E42.49346
G1 X16.356 Y27.181 E42.59986
G1 X15.129 Y19.248 E43.01837
G1 X46.976 Y24.29 E44.6994
G1 X47.458 Y34.127 E45.21287
G1 X47.458 Y40.412 E45.54054
G1 X48.551 Y40.412 E45.59752
G1 X48.75 Y34.117 E45.92588
G1 X48.75 Y24.226 E46.44155
G1 X48.761 Y23.676 E46.47023
G1 X49.146 Y23.305 E46.4981
G1 X49.701 Y23.08 E46.52933
G1 X50.301 Y23.08 E46.56061
G1 X50.855 Y23.304 E46.59176
G1 X51.239 Y23.676 E46.61964
G1 X51.252 Y24.22 E46.64801
G1 X51.26 Y34.117 E47.16399
G1 X51.457 Y40.412 E47.49234
G1 X52.542 Y40.412 E47.54891
G1 X52.542 Y34.127 E47.87658
G1 X53.024 Y24.29 E48.39005
G1 X84.871 Y19.248 E50.07108
G1 F1680 E47.07108
G1 F3600 X83.925 Y20.197
;TYPE:SKIN
G1 F1680 E50.07108
G1 F1320 X82.866 Y27.052 E50.43271
G1 X82.489 Y28.993 E50.53579
G1 X82.244 Y29.941 E50.58684
G1 X81.64 Y31.812 E50.68934
G1 X81.298 Y32.685 E50.73822
G1 X80.5 Y34.399 E50.83679
G1 X79.02 Y36.84 E50.98562
G1 X78.486 Y37.569 E51.03273
G1 X76.699 Y38.94 E51.15016
G1 X74.027 Y40.911 E51.32326
G1 X71.339 Y42.815 E51.495
G1 X68.605 Y44.672 E51.66731
G1 X65.855 Y46.465 E51.83846
G1 X63.088 Y48.19 E52.00846
G1 X60.28 Y49.867 E52.17897
G1 X57.454 Y51.481 E52.34864
G1 X54.62 Y53.025 E52.5169
G1 X51.125 Y54.832 E52.72202
G1 X51.168 Y56.893 E52.8295
G1 X51.217 Y58.605 E52.91879
G1 X51.37 Y61.062 E53.04714
G1 X51.653 Y63.84 E53.19272
G1 X52.049 Y66.601 E53.33814
G1 X52.555 Y69.344 E53.48356
G1 X53.176 Y72.064 E53.62901
G1 X53.905 Y74.756 E53.77442
G1 X54.688 Y77.235 E53.90995
G1 X54.688 Y85.836 E54.35837
G1 X45.314 Y85.836 E54.84708
G1 X45.314 Y77.235 E55.2955
G1 X46.097 Y74.756 E55.43104
G1 X46.824 Y72.063 E55.57646
G1 X47.444 Y69.345 E55.72181
G1 X47.951 Y66.601 E55.86729
G1 X48.347 Y63.84 E56.0127
G1 X48.632 Y61.062 E56.1583
G1 X48.783 Y58.604 E56.28669
G1 X48.832 Y56.894 E56.37587
G1 X48.874 Y54.832 E56.4834
G1 X45.384 Y53.025 E56.68829
G1 X42.548 Y51.481 E56.85664
G1 X39.722 Y49.867 E57.02631
G1 X36.914 Y48.19 E57.19683
G1 X34.147 Y46.465 E57.36682
G1 X31.397 Y44.672 E57.53798
G1 X28.663 Y42.815 E57.71029
G1 X25.975 Y40.91 E57.88205
G1 X23.298 Y38.937 E58.05543
G1 X21.52 Y37.573 E58.17226
G1 X20.971 Y36.822 E58.22076
G1 X19.502 Y34.399 E58.36849
G1 X18.704 Y32.685 E58.46706
G1 X18.362 Y31.812 E58.51594
G1 X17.756 Y29.941 E58.61847
G1 X17.515 Y28.999 E58.66917
G1 X17.136 Y27.052 E58.77258
G1 X16.076 Y20.197 E59.13421
G1 X46.217 Y24.969 E60.72519
G1 X46.668 Y34.156 E61.20474
G1 X46.668 Y41.202 E61.57208
G1 X49.316 Y41.202 E61.71014
G1 X49.54 Y34.129 E62.07908
G1 X49.544 Y24.018 E62.60621
G1 X49.583 Y23.98 E62.60905
G1 X49.857 Y23.87 E62.62445
G1 X50.145 Y23.87 E62.63946
G1 X50.418 Y23.98 E62.65481
G1 X50.457 Y24.018 E62.65765
G1 X50.462 Y24.22 E62.66818
G1 X50.47 Y34.13 E63.18484
G1 X50.691 Y41.202 E63.55372
G1 X53.332 Y41.202 E63.69141
G1 X53.332 Y34.166 E64.05823
G1 X53.783 Y24.969 E64.5383
G1 X83.925 Y20.197 E66.12933
G1 F1680 E63.12933
G1 F3600 X50.001 Y87.382
G1 F1680 E66.12933
G1 F1320 X50.208 Y100.022 E66.78841
G1 X49.791 Y100.022 E66.81015
G1 X50.001 Y87.382 E67.46923
G1 F1680 E64.46923
G1 F3600 X45.81 Y85.634
G1 F1680 E67.46923
G1 F1320 X45.513 Y85.337 E67.49113
G1 F3600 X45.513 Y84.715
G1 F1320 X46.432 Y85.634 E67.55889
M73 P3
G1 X46.46 Y85.662
G1 F3600 X47.055 Y85.634
G1 F1320 X45.513 Y84.093 E67.67254
G1 X45.485 Y84.065
G1 F3600 X45.513 Y83.471
G1 F1320 X47.677 Y85.634 E67.83206
G1 X47.705 Y85.662
G1 F3600 X48.299 Y85.634
G1 F1320 X45.513 Y82.848 E68.03747
G1 X45.485 Y82.82
G1 F3600 X45.513 Y82.226
G1 F1320 X48.921 Y85.634 E68.28874
G1 X48.949 Y85.662
G1 F3600 X49.544 Y85.634
G1 F1320 X45.513 Y81.604 E68.58591
G1 X45.485 Y81.576
G1 F3600 X45.513 Y80.982
G1 F1320 X50.166 Y85.634 E68.92894
G1 X50.194 Y85.662
G1 F3600 X50.788 Y85.634
G1 F1320 X45.513 Y80.359 E69.31787
G1 X45.485 Y80.331
G1 F3600 X45.513 Y79.737
G1 F1320 X51.41 Y85.634 E69.75266
G1 X51.438 Y85.662
G1 F3600 X52.033 Y85.634
G1 F1320 X45.513 Y79.115 E70.23335
G1 X45.485 Y79.087
G1 F3600 X45.513 Y78.493
G1 F1320 X52.655 Y85.634 E70.75989
G1 X52.683 Y85.662
G1 F3600 X53.277 Y85.634
G1 F1320 X45.513 Y77.87 E71.33233
G1 X45.485 Y77.842
G1 F3600 X45.517 Y77.252
G1 F1320 X53.899 Y85.634 E71.95034
G1 X53.927 Y85.662
G1 F3600 X54.488 Y85.6
G1 F1320 X45.667 Y76.779 E72.60072
G1 X45.639 Y76.751
G1 F3600 X45.816 Y76.306
G1 F1320 X54.488 Y84.978 E73.24011
G1 X54.516 Y85.006
G1 F3600 X54.488 Y84.356
G1 F1320 X45.965 Y75.833 E73.86851
G1 X45.937 Y75.805
G1 F3600 X46.115 Y75.361
G1 F1320 X54.488 Y83.734 E74.48586
G1 X54.516 Y83.762
G1 F3600 X54.488 Y83.111
G1 F1320 X46.264 Y74.888 E75.09218
G1 X46.236 Y74.86
G1 F3600 X46.399 Y74.401
G1 F1320 X54.488 Y82.489 E75.68855
G1 X54.516 Y82.517
G1 F3600 X54.488 Y81.867
G1 F1320 X46.531 Y73.911 E76.27518
G1 X46.503 Y73.883
G1 F3600 X46.664 Y73.421
G1 F1320 X54.488 Y81.245 E76.85205
G1 X54.516 Y81.273
G1 F3600 X54.488 Y80.622
G1 F1320 X46.796 Y72.93 E77.41918
G1 X46.768 Y72.902
G1 F3600 X46.928 Y72.44
G1 F1320 X54.488 Y80 E77.97659
G1 X54.516 Y80.028
G1 F3600 X54.488 Y79.378
G1 F1320 X47.055 Y71.945 E78.52462
G1 X47.027 Y71.917
G1 F3600 X47.171 Y71.438
G1 F1320 X54.488 Y78.756 E79.06415
G1 X54.516 Y78.784
G1 F3600 X54.488 Y78.133
G1 F1320 X47.286 Y70.932 E79.59512
G1 X47.258 Y70.904
G1 F3600 X47.402 Y70.425
G1 F1320 X54.488 Y77.511 E80.11757
G1 X54.516 Y77.539
G1 F1680 E77.11757
G1 F3600 X54.314 Y76.716
G1 F1680 E80.11757
G1 F1320 X47.518 Y69.919 E80.61868
G1 X47.49 Y69.891
G1 F3600 X47.633 Y69.412
G1 F1320 X54.027 Y75.806 E81.09011
G1 X54.055 Y75.834
G1 F1680 E78.09011
G1 F3600 X53.74 Y74.896
G1 F1680 E81.09011
G1 F1320 X47.731 Y68.888 E81.53312
G1 X47.703 Y68.86
G1 F3600 X47.828 Y68.363
G1 F1320 X53.503 Y74.037 E81.9515
G1 X53.531 Y74.065
G1 F1680 E78.9515
G1 F3600 X53.272 Y73.184
G1 F1680 E81.9515
G1 F1320 X47.925 Y67.837 E82.34574
G1 X47.897 Y67.809
G1 F3600 X48.023 Y67.313
G1 F1320 X53.04 Y72.329 E82.71561
G1 X53.068 Y72.357
G1 F1680 E79.71561
G1 F3600 X52.845 Y71.513
G1 F1680 E82.71561
G1 F1320 X48.12 Y66.787 E83.06402
G1 X48.092 Y66.759
G1 F3600 X48.202 Y66.248
G1 F1320 X52.661 Y70.707 E83.39278
G1 X52.689 Y70.735
G1 F1680 E80.39278
G1 F3600 X52.477 Y69.9
G1 F1680 E83.39278
G1 F1320 X48.281 Y65.704 E83.70216
G1 X48.253 Y65.676
G1 F3600 X48.359 Y65.159
G1 F1320 X52.308 Y69.109 E83.99335
G1 X52.336 Y69.137
G1 F1680 E80.99335
G1 F3600 X52.168 Y68.346
G1 F1680 E83.99335
G1 F1320 X48.436 Y64.615 E84.26848
G1 X48.408 Y64.587
G1 F3600 X48.514 Y64.07
G1 F1320 X52.028 Y67.584 E84.52757
G1 X52.056 Y67.612
G1 F1680 E81.52757
G1 F3600 X51.887 Y66.821
M73 P4
G1 F1680 E84.52757
G1 F1320 X48.58 Y63.514 E84.77139
G1 X48.552 Y63.486
G1 F3600 X48.638 Y62.95
G1 F1320 X51.774 Y66.086 E85.00261
G1 X51.802 Y66.114
G1 F3600 X51.669 Y65.359
G1 F1320 X48.696 Y62.385 E85.22185
G1 X48.668 Y62.357
G1 F3600 X48.753 Y61.82
G1 F1320 X51.565 Y64.632 E85.42918
G1 X51.593 Y64.66
G1 F3600 X51.461 Y63.906
G1 F1320 X48.811 Y61.256 E85.62457
G1 X48.783 Y61.228
G1 F3600 X48.854 Y60.677
G1 F1320 X51.388 Y63.211 E85.8114
G1 X51.416 Y63.239
G1 F3600 X51.318 Y62.518
G1 F1320 X48.89 Y60.091 E85.99038
G1 X48.862 Y60.063
G1 F3600 X48.927 Y59.505
G1 F1320 X51.247 Y61.825 E86.16143
G1 X51.275 Y61.853
G1 F3600 X51.176 Y61.132
G1 F1320 X48.963 Y58.919 E86.3246
G1 X48.935 Y58.891
G1 F3600 X48.99 Y58.324
G1 F1320 X51.133 Y60.466 E86.48257
G1 X51.161 Y60.494
G1 F3600 X51.092 Y59.803
G1 F1320 X49.007 Y57.719 E86.63626
G1 X48.979 Y57.691
G1 F3600 X49.025 Y57.114
G1 F1320 X51.05 Y59.139 E86.78556
G1 X51.078 Y59.167
G1 F3600 X51.013 Y58.48
G1 F1320 X49.039 Y56.506 E86.93111
G1 X49.011 Y56.478
G1 F3600 X49.051 Y55.896
G1 F1320 X50.995 Y57.839 E87.0744
G1 X51.023 Y57.867
G1 F3600 X50.976 Y57.199
G1 F1320 X49.064 Y55.287 E87.21537
G1 X49.036 Y55.259
G1 F1680 E84.21537
G1 F3600 X47.856 Y54.079
G1 F1680 E87.21537
G1 F1320 X16.697 Y22.92 E89.51274
G1 X16.669 Y22.892
G1 F3600 X16.583 Y22.184
G1 F1320 X50.961 Y56.561 E92.0474
G1 X50.989 Y56.589
G1 F3600 X50.947 Y55.925
G1 F1320 X16.469 Y21.447 E94.58948
G1 X16.441 Y21.419
G1 F3600 X16.356 Y20.711
G1 F1320 X50.934 Y55.29 E97.13897
G1 X50.962 Y55.318
G1 F3600 X50.958 Y54.691
G1 F1320 X16.776 Y20.509 E99.65922
G1 X16.748 Y20.481
G1 F3600 X17.515 Y20.627
G1 F1320 X51.368 Y54.479 E102.15518
G1 X51.396 Y54.507
G1 F3600 X51.778 Y54.267
G1 F1320 X18.254 Y20.743 E104.62692
G1 X18.226 Y20.715
G1 F3600 X18.994 Y20.861
G1 F1320 X52.188 Y54.055 E107.07432
G1 X52.216 Y54.083
G1 F3600 X52.599 Y53.844
G1 F1320 X19.733 Y20.977 E109.49758
G1 X19.705 Y20.949
