M73 P0
;MINX:25.0
;MAXX:71.0
;MINY:15.0
;MAXY:111.0
;MINZ:0.0
;MAXZ:1.0
;MachineType:ENTINA TINA2
;FilamentType:PLA
;Extruder0Temperature:200
;InfillDensity:25
;FLAVOR:Marlin
;TIME:1751
;FilamentUsed:1592.4
;Layer height: 0.2

;Generated with Cura_SteamEngine 3.1
M104 T0 S215
M82 ; absolute extrusion mode
;(**** start.gcode for tina2****)
M104 S150
G28 Z
G28 X Y; Home extruder
G1 X55 Y55 F1000
G1 Z10 F200
G29
G1 Z15 F100
M107 ; Turn off fan
G90 ; Absolute positioning
M82 ; Extruder in absolute mode
M109 S215.0
G92 E0 ; Reset extruder position
G1 X90 Y6 Z0.27 F2000
G1 X20 Y6 Z0.27 E15 F1000
G92 E0 ; Reset extruder position

;LAYER_COUNT:5
;LAYER:0
M106 S255
M203 Z5
G1 F3600 X70.866 Y16.56 Z0.299
;TYPE:SKIRT
G1 F1200 X71.058 Y17.029 E0.02642
G1 X71.174 Y17.523 E0.05288
G1 X71.211 Y18.01 E0.07834
G1 X71.211 Y107.991 E4.76952
G1 X71.171 Y108.497 E4.79599
M73 P1
G1 X71.052 Y108.99 E4.82243
G1 X70.857 Y109.458 E4.84886
G1 X70.592 Y109.89 E4.87528
G1 X70.261 Y110.275 E4.90175
G1 X69.875 Y110.603 E4.92816
G1 X69.441 Y110.866 E4.95462
G1 X68.972 Y111.058 E4.98104
G1 X68.478 Y111.174 E5.00749
G1 X67.991 Y111.211 E5.03296
G1 X28.009 Y111.211 E7.11743
G1 X27.503 Y111.171 E7.14389
G1 X27.01 Y111.052 E7.17033
G1 X26.542 Y110.857 E7.19676
G1 X26.11 Y110.592 E7.22319
G1 X25.725 Y110.261 E7.24966
G1 X25.397 Y109.875 E7.27607
G1 X25.134 Y109.441 E7.30252
G1 X24.942 Y108.972 E7.32894
G1 X24.826 Y108.478 E7.3554
G1 X24.789 Y107.991 E7.38086
G1 X24.789 Y18.009 E12.0721
G1 X24.829 Y17.503 E12.09856
G1 X24.948 Y17.01 E12.125
G1 X25.143 Y16.542 E12.15143
G1 X25.408 Y16.11 E12.17786
G1 X25.739 Y15.725 E12.20433
G1 X26.125 Y15.397 E12.23073
G1 X26.559 Y15.134 E12.25719
G1 X27.028 Y14.942 E12.28361
G1 X27.522 Y14.826 E12.31007
G1 X28.009 Y14.789 E12.33553
G1 X67.991 Y14.79 E14.42
G1 X68.497 Y14.83 E14.44647
G1 X68.99 Y14.949 E14.47291
G1 X69.458 Y15.144 E14.49934
M73 P2
G1 X69.89 Y15.409 E14.52576
G1 X70.275 Y15.74 E14.55223
G1 X70.603 Y16.127 E14.57868
G1 X70.866 Y16.56 E14.60509
G1 F1680 E11.60509
G1 F3600 X67.34 Y18.66
;TYPE:WALL-INNER
G1 F1680 E14.60509
G1 F1320 X67.34 Y107.34 E19.22845
G1 X28.66 Y107.34 E21.24504
G1 X28.66 Y18.66 E25.86839
G1 X67.34 Y18.66 E27.88499
G1 F3600 X67.7 Y18.3
;TYPE:WALL-OUTER
G1 F1320 X67.7 Y107.7 E32.54588
G1 X28.3 Y107.7 E34.60001
G1 X28.3 Y18.3 E39.2609
G1 X67.7 Y18.3 E41.31503
G1 F1680 E38.31503
G1 F3600 X66.91 Y19.09
;TYPE:SKIN
G1 F1680 E41.31503
G1 F1320 X66.91 Y106.91 E45.89355
G1 X29.09 Y106.91 E47.8653
G1 X29.09 Y19.09 E52.44382
G1 X66.91 Y19.09 E54.41558
G1 F3600 X66.709 Y19.418
G1 F1320 X66.581 Y19.289 E54.42505
G1 F3600 X65.958 Y19.289
G1 F1320 X66.709 Y20.04 E54.48042
G1 X66.737 Y20.068
G1 F3600 X66.709 Y20.663
G1 F1320 X65.336 Y19.289 E54.58169
G1 X65.308 Y19.261
G1 F3600 X64.714 Y19.289
M73 P3
G1 F1320 X66.709 Y21.285 E54.72882
G1 X66.737 Y21.313
G1 F3600 X66.709 Y21.907
G1 F1320 X64.092 Y19.289 E54.92181
G1 X64.064 Y19.261
G1 F3600 X63.469 Y19.289
G1 F1320 X66.709 Y22.529 E55.1607
G1 X66.737 Y22.557
G1 F3600 X66.709 Y23.152
G1 F1320 X62.847 Y19.289 E55.44548
G1 X62.819 Y19.261
G1 F3600 X62.225 Y19.289
G1 F1320 X66.709 Y23.774 E55.77613
G1 X66.737 Y23.802
G1 F3600 X66.709 Y24.396
G1 F1320 X61.603 Y19.289 E56.15263
G1 X61.575 Y19.261
G1 F3600 X60.98 Y19.289
G1 F1320 X66.709 Y25.018 E56.57503
G1 X66.737 Y25.046
G1 F3600 X66.709 Y25.641
G1 F1320 X60.358 Y19.289 E57.04333
G1 X60.33 Y19.261
G1 F3600 X59.736 Y19.289
G1 F1320 X66.709 Y26.263 E57.55749
G1 X66.737 Y26.291
G1 F3600 X66.709 Y26.885
G1 F1320 X59.114 Y19.289 E58.11751
G1 X59.086 Y19.261
G1 F3600 X58.491 Y19.289
G1 F1320 X66.709 Y27.507 E58.72342
G1 X66.737 Y27.535
G1 F3600 X66.709 Y28.13
G1 F1320 X57.869 Y19.289 E59.37524
G1 X57.841 Y19.261
M73 P4
G1 F3600 X57.247 Y19.289
G1 F1320 X66.709 Y28.752 E60.07291
G1 X66.737 Y28.78
G1 F3600 X66.709 Y29.374
G1 F1320 X56.625 Y19.289 E60.81645
G1 X56.597 Y19.261
G1 F3600 X56.002 Y19.289
G1 F1320 X66.709 Y29.996 E61.60588
G1 X66.737 Y30.024
G1 F3600 X66.709 Y30.619
G1 F1320 X55.38 Y19.289 E62.44121
G1 X55.352 Y19.261
G1 F3600 X54.758 Y19.289
G1 F1320 X66.709 Y31.241 E63.32239
G1 X66.737 Y31.269
G1 F3600 X66.709 Y31.863
G1 F1320 X54.136 Y19.289 E64.24944
G1 X54.108 Y19.261
G1 F3600 X53.513 Y19.289
G1 F1320 X66.709 Y32.485 E65.22239
G1 X66.737 Y32.513
G1 F3600 X66.709 Y33.108
G1 F1320 X52.891 Y19.289 E66.24123
G1 X52.863 Y19.261
G1 F3600 X52.269 Y19.289
G1 F1320 X66.709 Y33.73 E67.30594
G1 X66.737 Y33.758
G1 F3600 X66.709 Y34.352
G1 F1320 X51.647 Y19.289 E68.4165
G1 X51.619 Y19.261
G1 F3600 X51.024 Y19.289
G1 F1320 X66.709 Y34.974 E69.57296
G1 X66.737 Y35.002
G1 F3600 X66.709 Y35.597
G1 F1320 X50.402 Y19.289 E70.77532
M73 P5
G1 X50.374 Y19.261
G1 F3600 X49.78 Y19.289
G1 F1320 X66.709 Y36.219 E72.02354
G1 X66.737 Y36.247
G1 F3600 X66.709 Y36.841
G1 F1320 X49.158 Y19.289 E73.31762
G1 X49.13 Y19.261
G1 F3600 X48.535 Y19.289
G1 F1320 X66.709 Y37.463 E74.65759
G1 X66.737 Y37.491
G1 F3600 X66.709 Y38.086
G1 F1320 X47.913 Y19.289 E76.04347
G1 X47.885 Y19.261
G1 F3600 X47.291 Y19.289
G1 F1320 X66.709 Y38.708 E77.4752
G1 X66.737 Y38.736
G1 F3600 X66.709 Y39.33
G1 F1320 X46.669 Y19.289 E78.9528
G1 X46.641 Y19.261
G1 F3600 X46.046 Y19.289
G1 F1320 X66.709 Y39.952 E80.47629
G1 X66.737 Y39.98
G1 F3600 X66.709 Y40.575
G1 F1320 X45.424 Y19.289 E82.04568
G1 X45.396 Y19.261
G1 F3600 X44.802 Y19.289
G1 F1320 X66.709 Y41.197 E83.66092
G1 X66.737 Y41.225
G1 F3600 X66.709 Y41.819
G1 F1320 X44.18 Y19.289 E85.32203
G1 X44.152 Y19.261
G1 F3600 X43.557 Y19.289
G1 F1320 X66.709 Y42.441 E87.02904
G1 X66.737 Y42.469
G1 F3600 X66.709 Y43.064
M73 P6
G1 F1320 X42.935 Y19.289 E88.78194
G1 X42.907 Y19.261
G1 F3600 X42.313 Y19.289
G1 F1320 X66.709 Y43.686 E90.58071
G1 X66.737 Y43.714
G1 F3600 X66.709 Y44.308
G1 F1320 X41.691 Y19.289 E92.42533
G1 X41.663 Y19.261
G1 F3600 X41.068 Y19.289
G1 F1320 X66.709 Y44.93 E94.31585
G1 X66.737 Y44.958
G1 F3600 X66.709 Y45.553
G1 F1320 X40.446 Y19.289 E96.25227
G1 X40.418 Y19.261
G1 F3600 X39.824 Y19.289
G1 F1320 X66.709 Y46.175 E98.23455
G1 X66.737 Y46.203
G1 F3600 X66.709 Y46.797
G1 F1320 X39.201 Y19.289 E100.26272
G1 X39.173 Y19.261
G1 F3600 X38.579 Y19.289
G1 F1320 X66.709 Y47.419 E102.33676
G1 X66.737 Y47.447
G1 F3600 X66.709 Y48.042
G1 F1320 X37.957 Y19.289 E104.45669
G1 X37.929 Y19.261
G1 F3600 X37.335 Y19.289
G1 F1320 X66.709 Y48.664 E106.62249
G1 X66.737 Y48.692
G1 F3600 X66.709 Y49.286
G1 F1320 X36.712 Y19.289 E108.83418
G1 X36.684 Y19.261
G1 F3600 X36.09 Y19.289
G1 F1320 X66.709 Y49.909 E111.09176
G1 X66.737 Y49.937
M73 P7
G1 F3600 X66.709 Y50.531
G1 F1320 X35.468 Y19.289 E113.39521
G1 X35.44 Y19.261
G1 F3600 X34.846 Y19.289
G1 F1320 X66.709 Y51.153 E115.74452
G1 X66.737 Y51.181
G1 F3600 X66.709 Y51.775
G1 F1320 X34.223 Y19.289 E118.13973
G1 X34.195 Y19.261
G1 F3600 X33.601 Y19.289
G1 F1320 X66.709 Y52.398 E120.58083
G1 X66.737 Y52.426
G1 F3600 X66.709 Y53.02
G1 F1320 X32.979 Y19.289 E123.06779
G1 X32.951 Y19.261
G1 F3600 X32.357 Y19.289
G1 F1320 X66.709 Y53.642 E125.60062
G1 X66.737 Y53.67
G1 F3600 X66.709 Y54.264
G1 F1320 X31.734 Y19.289 E128.17934
G1 X31.706 Y19.261
G1 F3600 X31.112 Y19.289
G1 F1320 X66.709 Y54.887 E130.80395
G1 X66.737 Y54.915
G1 F3600 X66.709 Y55.509
G1 F1320 X30.49 Y19.289 E133.47443
G1 X30.462 Y19.261
G1 F3600 X29.868 Y19.289
G1 F1320 X66.709 Y56.131 E136.19077
G1 X66.737 Y56.159
G1 F3600 X66.709 Y56.753
G1 F1320 X29.289 Y19.333 E138.94976
G1 X29.261 Y19.305
G1 F3600 X29.289 Y19.955
G1 F1320 X66.709 Y57.376 E141.70879
M73 P8
G1 X66.737 Y57.404
G1 F3600 X66.709 Y57.998
G1 F1320 X29.289 Y20.578 E144.46778
G1 X29.261 Y20.55
G1 F3600 X29.289 Y21.2
G1 F1320 X66.709 Y58.62 E147.22677
G1 X66.737 Y58.648
G1 F3600 X66.709 Y59.242
G1 F1320 X29.289 Y21.822 E149.98576
G1 X29.261 Y21.794
G1 F3600 X29.289 Y22.444
G1 F1320 X66.709 Y59.865 E152.74479
G1 X66.737 Y59.893
G1 F3600 X66.709 Y60.487
G1 F1320 X29.289 Y23.067 E155.50378
G1 X29.261 Y23.039
G1 F3600 X29.289 Y23.689
G1 F1320 X66.709 Y61.109 E158.26277
G1 X66.737 Y61.137
G1 F3600 X66.709 Y61.731
G1 F1320 X29.289 Y24.311 E161.02177
G1 X29.261 Y24.283
G1 F3600 X29.289 Y24.933
G1 F1320 X66.709 Y62.354 E163.78079
G1 X66.737 Y62.382
G1 F3600 X66.709 Y62.976
G1 F1320 X29.289 Y25.556 E166.53979
G1 X29.261 Y25.528
G1 F3600 X29.289 Y26.178
G1 F1320 X66.709 Y63.598 E169.29878
G1 X66.737 Y63.626
G1 F3600 X66.709 Y64.22
G1 F1320 X29.289 Y26.8 E172.05777
G1 X29.261 Y26.772
G1 F3600 X29.289 Y27.423
M73 P9
G1 F1320 X66.709 Y64.843 E174.81676
G1 X66.737 Y64.871
G1 F3600 X66.709 Y65.465
G1 F1320 X29.289 Y28.045 E177.57575
G1 X29.261 Y28.017
G1 F3600 X29.289 Y28.667
G1 F1320 X66.709 Y66.087 E180.33474
G1 X66.737 Y66.115
G1 F3600 X66.709 Y66.709
G1 F1320 X29.289 Y29.289 E183.09373
G1 X29.261 Y29.261
G1 F3600 X29.289 Y29.912
G1 F1320 X66.709 Y67.332 E185.85272
G1 X66.737 Y67.36
G1 F3600 X66.709 Y67.954
G1 F1320 X29.289 Y30.534 E188.61172
G1 X29.261 Y30.506
G1 F3600 X29.289 Y31.156
G1 F1320 X66.709 Y68.576 E191.37071
G1 X66.737 Y68.604
G1 F3600 X66.709 Y69.198
G1 F1320 X29.289 Y31.778 E194.1297
G1 X29.261 Y31.75
G1 F3600 X29.289 Y32.401
G1 F1320 X66.709 Y69.821 E196.88869
G1 X66.737 Y69.849
G1 F3600 X66.709 Y70.443
G1 F1320 X29.289 Y33.023 E199.64768
G1 X29.261 Y32.995
G1 F3600 X29.289 Y33.645
G1 F1320 X66.709 Y71.065 E202.40667
G1 X66.737 Y71.093
G1 F3600 X66.709 Y71.687
G1 F1320 X29.289 Y34.267 E205.16566
G1 X29.261 Y34.239
M73 P10
G1 F3600 X29.289 Y34.89
G1 F1320 X66.709 Y72.31 E207.92466
G1 X66.737 Y72.338
G1 F3600 X66.709 Y72.932
G1 F1320 X29.289 Y35.512 E210.68365
G1 X29.261 Y35.484
G1 F3600 X29.289 Y36.134
G1 F1320 X66.709 Y73.554 E213.44264
G1 X66.737 Y73.582
G1 F3600 X66.709 Y74.176
G1 F1320 X29.289 Y36.756 E216.20163
G1 X29.261 Y36.728
G1 F3600 X29.289 Y37.379
G1 F1320 X66.709 Y74.799 E218.96062
G1 X66.737 Y74.827
G1 F3600 X66.709 Y75.421
G1 F1320 X29.289 Y38.001 E221.71961
G1 X29.261 Y37.973
G1 F3600 X29.289 Y38.623
G1 F1320 X66.709 Y76.043 E224.4786
G1 X66.737 Y76.071
G1 F3600 X66.709 Y76.665
G1 F1320 X29.289 Y39.245 E227.23759
G1 X29.261 Y39.217
G1 F3600 X29.289 Y39.868
G1 F1320 X66.709 Y77.288 E229.99659
G1 X66.737 Y77.316
G1 F3600 X66.709 Y77.91
G1 F1320 X29.289 Y40.49 E232.75558
G1 X29.261 Y40.462
G1 F3600 X29.289 Y41.112
G1 F1320 X66.709 Y78.532 E235.51457
G1 X66.737 Y78.56
G1 F3600 X66.709 Y79.154
G1 F1320 X29.289 Y41.734 E238.27356
M73 P11
G1 X29.261 Y41.706
G1 F3600 X29.289 Y42.357
G1 F1320 X66.709 Y79.777 E241.03255
G1 X66.737 Y79.805
G1 F3600 X66.709 Y80.399
G1 F1320 X29.289 Y42.979 E243.79154
G1 X29.261 Y42.951
G1 F3600 X29.289 Y43.601
G1 F1320 X66.709 Y81.021 E246.55053
G1 X66.737 Y81.049
G1 F3600 X66.709 Y81.643
G1 F1320 X29.289 Y44.223 E249.30953
G1 X29.261 Y44.195
G1 F3600 X29.289 Y44.846
G1 F1320 X66.709 Y82.266 E252.06852
G1 X66.737 Y82.294
G1 F3600 X66.709 Y82.888
G1 F1320 X29.289 Y45.468 E254.82751
G1 X29.261 Y45.44
G1 F3600 X29.289 Y46.09
G1 F1320 X66.709 Y83.51 E257.5865
G1 X66.737 Y83.538
G1 F3600 X66.709 Y84.132
G1 F1320 X29.289 Y46.712 E260.34549
G1 X29.261 Y46.684
G1 F3600 X29.289 Y47.335
G1 F1320 X66.709 Y84.755 E263.10448
G1 X66.737 Y84.783
G1 F3600 X66.709 Y85.377
G1 F1320 X29.289 Y47.957 E265.86347
G1 X29.261 Y47.929
G1 F3600 X29.289 Y48.579
G1 F1320 X66.709 Y85.999 E268.62247
G1 X66.737 Y86.027
G1 F3600 X66.709 Y86.621
M73 P12
G1 F1320 X29.289 Y49.201 E271.38146
G1 X29.261 Y49.173
G1 F3600 X29.289 Y49.824
G1 F1320 X66.709 Y87.244 E274.14045
G1 X66.737 Y87.272
G1 F3600 X66.709 Y87.866
G1 F1320 X29.289 Y50.446 E276.89944
G1 X29.261 Y50.418
G1 F3600 X29.289 Y51.068
G1 F1320 X66.709 Y88.488 E279.65843
G1 X66.737 Y88.516
G1 F3600 X66.709 Y89.111
G1 F1320 X29.289 Y51.69 E282.41746
G1 X29.261 Y51.662
G1 F3600 X29.289 Y52.313
G1 F1320 X66.709 Y89.733 E285.17645
G1 X66.737 Y89.761
G1 F3600 X66.709 Y90.355
G1 F1320 X29.289 Y52.935 E287.93544
G1 X29.261 Y52.907
G1 F3600 X29.289 Y53.557
G1 F1320 X66.709 Y90.977 E290.69443
G1 X66.737 Y91.005
G1 F3600 X66.709 Y91.6
G1 F1320 X29.289 Y54.179 E293.45346
G1 X29.261 Y54.151
G1 F3600 X29.289 Y54.802
G1 F1320 X66.709 Y92.222 E296.21245
G1 X66.737 Y92.25
G1 F3600 X66.709 Y92.844
G1 F1320 X29.289 Y55.424 E298.97144
G1 X29.261 Y55.396
G1 F3600 X29.289 Y56.046
G1 F1320 X66.709 Y93.466 E301.73044
G1 X66.737 Y93.494
M73 P13
G1 F3600 X66.709 Y94.089
G1 F1320 X29.289 Y56.668 E304.48946
G1 X29.261 Y56.64
G1 F3600 X29.289 Y57.291
G1 F1320 X66.709 Y94.711 E307.24845
G1 X66.737 Y94.739
G1 F3600 X66.709 Y95.333
G1 F1320 X29.289 Y57.913 E310.00745
G1 X29.261 Y57.885
G1 F3600 X29.289 Y58.535
G1 F1320 X66.709 Y95.955 E312.76644
G1 X66.737 Y95.983
G1 F3600 X66.709 Y96.578
G1 F1320 X29.289 Y59.157 E315.52547
G1 X29.261 Y59.129
G1 F3600 X29.289 Y59.78
G1 F1320 X66.709 Y97.2 E318.28446
G1 X66.737 Y97.228
G1 F3600 X66.709 Y97.822
G1 F1320 X29.289 Y60.402 E321.04345
G1 X29.261 Y60.374
G1 F3600 X29.289 Y61.024
G1 F1320 X66.709 Y98.444 E323.80244
G1 X66.737 Y98.472
G1 F3600 X66.709 Y99.067
G1 F1320 X29.289 Y61.646 E326.56147
G1 X29.261 Y61.618
G1 F3600 X29.289 Y62.269
G1 F1320 X66.709 Y99.689 E329.32046
G1 X66.737 Y99.717
G1 F3600 X66.709 Y100.311
G1 F1320 X29.289 Y62.891 E332.07945
G1 X29.261 Y62.863
G1 F3600 X29.289 Y63.513
G1 F1320 X66.709 Y100.933 E334.83844
M73 P14
G1 X66.737 Y100.961
G1 F3600 X66.709 Y101.556
G1 F1320 X29.289 Y64.135 E337.59747
G1 X29.261 Y64.107
G1 F3600 X29.289 Y64.758
G1 F1320 X66.709 Y102.178 E340.35646
G1 X66.737 Y102.206
G1 F3600 X66.709 Y102.8
G1 F1320 X29.289 Y65.38 E343.11545
G1 X29.261 Y65.352
G1 F3600 X29.289 Y66.002
G1 F1320 X66.709 Y103.422 E345.87444
G1 X66.737 Y103.45
G1 F3600 X66.709 Y104.045
G1 F1320 X29.289 Y66.625 E348.63344
G1 X29.261 Y66.597
G1 F3600 X29.289 Y67.247
G1 F1320 X66.709 Y104.667 E351.39243
G1 X66.737 Y104.695
G1 F3600 X66.709 Y105.289
G1 F1320 X29.289 Y67.869 E354.15142
G1 X29.261 Y67.841
G1 F3600 X29.289 Y68.491
G1 F1320 X66.709 Y105.911 E356.91041
G1 X66.737 Y105.939
G1 F3600 X66.709 Y106.534
G1 F1320 X29.289 Y69.114 E359.6694
G1 X29.261 Y69.086
G1 F3600 X29.289 Y69.736
G1 F1320 X66.262 Y106.709 E362.39543
G1 X66.29 Y106.737
G1 F3600 X65.64 Y106.709
G1 F1320 X29.289 Y70.358 E365.07561
G1 X29.261 Y70.33
G1 F3600 X29.289 Y70.98
M73 P15
G1 F1320 X65.018 Y106.709 E367.70992
G1 X65.046 Y106.737
G1 F3600 X64.396 Y106.709
G1 F1320 X29.289 Y71.603 E370.29834
G1 X29.261 Y71.575
G1 F3600 X29.289 Y72.225
G1 F1320 X63.773 Y106.709 E372.84086
G1 X63.801 Y106.737
G1 F3600 X63.151 Y106.709
G1 F1320 X29.289 Y72.847 E375.33752
G1 X29.261 Y72.819
G1 F3600 X29.289 Y73.469
G1 F1320 X62.529 Y106.709 E377.78831
G1 X62.557 Y106.737
G1 F3600 X61.907 Y106.709
G1 F1320 X29.289 Y74.092 E380.19321
G1 X29.261 Y74.064
G1 F3600 X29.289 Y74.714
G1 F1320 X61.284 Y106.709 E382.55222
G1 X61.312 Y106.737
G1 F3600 X60.662 Y106.709
G1 F1320 X29.289 Y75.336 E384.86536
G1 X29.261 Y75.308
G1 F3600 X29.289 Y75.958
G1 F1320 X60.04 Y106.709 E387.13265
G1 X60.068 Y106.737
G1 F3600 X59.418 Y106.709
G1 F1320 X29.289 Y76.581 E389.35403
G1 X29.261 Y76.553
G1 F3600 X29.289 Y77.203
G1 F1320 X58.795 Y106.709 E391.52952
G1 X58.823 Y106.737
G1 F3600 X58.173 Y106.709
G1 F1320 X29.289 Y77.825 E393.65915
G1 X29.261 Y77.797
M73 P16
G1 F3600 X29.289 Y78.447
G1 F1320 X57.551 Y106.709 E395.74292
G1 X57.579 Y106.737
G1 F3600 X56.929 Y106.709
G1 F1320 X29.289 Y79.07 E397.78079
G1 X29.261 Y79.042
G1 F3600 X29.289 Y79.692
G1 F1320 X56.306 Y106.709 E399.77276
G1 X56.334 Y106.737
G1 F3600 X55.684 Y106.709
G1 F1320 X29.289 Y80.314 E401.71888
G1 X29.261 Y80.286
G1 F3600 X29.289 Y80.936
G1 F1320 X55.062 Y106.709 E403.61913
G1 X55.09 Y106.737
G1 F3600 X54.44 Y106.709
G1 F1320 X29.289 Y81.559 E405.47349
G1 X29.261 Y81.531
G1 F3600 X29.289 Y82.181
G1 F1320 X53.817 Y106.709 E407.28195
G1 X53.845 Y106.737
G1 F3600 X53.195 Y106.709
G1 F1320 X29.289 Y82.803 E409.04454
G1 X29.261 Y82.775
G1 F3600 X29.289 Y83.425
G1 F1320 X52.573 Y106.709 E410.76128
G1 X52.601 Y106.737
G1 F3600 X51.951 Y106.709
G1 F1320 X29.289 Y84.048 E412.43212
G1 X29.261 Y84.02
G1 F3600 X29.289 Y84.67
G1 F1320 X51.328 Y106.709 E414.05707
G1 X51.356 Y106.737
G1 F3600 X50.706 Y106.709
G1 F1320 X29.289 Y85.292 E415.63615
M73 P17
G1 X29.261 Y85.264
G1 F3600 X29.289 Y85.914
G1 F1320 X50.084 Y106.709 E417.16938
G1 X50.112 Y106.737
