M73 P0
;MINX:40.0
;MAXX:60.0
;MINY:50.0
;MAXY:70.0
;MINZ:0.0
;MAXZ:11.3
;MachineType:ENTINA TINA2
;FilamentType:PLA
;Extruder0Temperature:200
;InfillDensity:10
;FLAVOR:Marlin
;TIME:2768
;FilamentUsed:270.8
;Layer height: 0.02

;Generated with Cura_SteamEngine 3.1
M104 T0 S215
M82 ; absolute extrusion mode
;(**** start.gcode for tina2****)
M104 S150
G28 Z
G28 X Y; Home extruder
G1 X55 Y55 F1000
G1 Z10 F200
G29
G1 Z15 F100
M107 ; Turn off fan
G90 ; Absolute positioning
M82 ; Extruder in absolute mode
M109 S215.0
G92 E0 ; Reset extruder position
G1 X90 Y6 Z0.27 F2000
G1 X20 Y6 Z0.27 E15 F1000
G92 E0 ; Reset extruder position

;LAYER_COUNT:487
;LAYER:-26
M107
M203 Z5
G1 F3600 X55.939 Y53.052 Z0.349
G1 F1200 X56.255 Y53.334 E0.0467
G1 X56.607 Y53.683 E0.10137
G1 X56.89 Y53.993 E0.14765
G1 X57.181 Y54.345 E0.19802
G1 X57.425 Y54.67 E0.24283
G1 X57.701 Y55.076 E0.29697
G1 X57.929 Y55.452 E0.34546
G1 X58.154 Y55.868 E0.39761
G1 X58.337 Y56.252 E0.44452
G1 X58.518 Y56.685 E0.49627
G1 X58.649 Y57.043 E0.53831
G1 X58.831 Y57.64 E0.60714
G1 X58.925 Y58.028 E0.65116
G1 X59.017 Y58.499 E0.70408
G1 X59.065 Y58.823 E0.7402
G1 X59.111 Y59.272 E0.78997
G1 X59.135 Y59.684 E0.83548
G1 X59.139 Y60.155 E0.88742
G1 X59.122 Y60.59 E0.93543
G1 X59.076 Y61.09 E0.9908
G1 X58.995 Y61.626 E1.05058
G1 X58.907 Y62.054 E1.09876
G1 X58.794 Y62.492 E1.14864
G1 X58.691 Y62.83 E1.18761
G1 X58.542 Y63.254 E1.23717
G1 X58.375 Y63.661 E1.28568
G1 X58.192 Y64.055 E1.33359
G1 X57.962 Y64.49 E1.38785
G1 X57.753 Y64.842 E1.43299
G1 X57.502 Y65.221 E1.48312
G1 X57.24 Y65.579 E1.53204
G1 X56.948 Y65.939 E1.58315
G1 X56.666 Y66.255 E1.62986
G1 X56.317 Y66.607 E1.68452
G1 X56.007 Y66.89 E1.73081
G1 X55.655 Y67.181 E1.78117
G1 X55.33 Y67.425 E1.82599
G1 X54.835 Y67.757 E1.89171
G1 X54.499 Y67.957 E1.93483
G1 X54.061 Y68.189 E1.98949
G1 X53.668 Y68.372 E2.0373
G1 X53.262 Y68.539 E2.08571
G1 X52.83 Y68.691 E2.13621
G1 X52.492 Y68.794 E2.17517
G1 X52.054 Y68.907 E2.22505
G1 X51.501 Y69.017 E2.28723
G1 X51.177 Y69.065 E2.32335
G1 X50.728 Y69.111 E2.37312
G1 X50.307 Y69.135 E2.41962
G1 X49.845 Y69.139 E2.47057
G1 X49.397 Y69.121 E2.52001
G1 X48.909 Y69.076 E2.57405
G1 X48.371 Y68.994 E2.63407
G1 X47.946 Y68.907 E2.68191
G1 X47.508 Y68.794 E2.73179
G1 X47.17 Y68.691 E2.77075
G1 X46.738 Y68.539 E2.82125
G1 X46.332 Y68.372 E2.86966
G1 X45.939 Y68.189 E2.91747
G1 X45.501 Y67.957 E2.97213
G1 X45.165 Y67.757 E3.01525
G1 X44.772 Y67.497 E3.06721
G1 X44.421 Y67.24 E3.11518
G1 X44.055 Y66.943 E3.16716
G1 X43.745 Y66.666 E3.213
G1 X43.386 Y66.31 E3.26876
G1 X43.103 Y65.999 E3.31512
G1 X42.819 Y65.655 E3.36432
G1 X42.575 Y65.33 E3.40913
G1 X42.287 Y64.906 E3.46565
G1 X42.066 Y64.54 E3.5128
G1 X41.84 Y64.12 E3.5654
G1 X41.658 Y63.737 E3.61216
G1 X41.482 Y63.315 E3.66258
G1 X41.343 Y62.935 E3.7072
G1 X41.205 Y62.492 E3.75836
G1 X41.073 Y61.964 E3.81838
G1 X40.983 Y61.501 E3.87039
G1 X40.935 Y61.177 E3.90651
G1 X40.888 Y60.721 E3.95706
G1 X40.865 Y60.307 E4.00279
G1 X40.861 Y59.845 E4.05373
G1 X40.878 Y59.41 E4.10174
G1 X40.924 Y58.91 E4.15711
G1 X41.005 Y58.374 E4.21689
G1 X41.093 Y57.946 E4.26507
G1 X41.207 Y57.503 E4.31552
G1 X41.312 Y57.163 E4.35476
G1 X41.458 Y56.746 E4.40348
G1 X41.625 Y56.339 E4.45199
G1 X41.808 Y55.945 E4.4999
G1 X42.038 Y55.51 E4.55416
G1 X42.243 Y55.165 E4.59841
G1 X42.498 Y54.779 E4.64943
G1 X42.76 Y54.421 E4.69835
G1 X43.052 Y54.061 E4.74946
G1 X43.334 Y53.745 E4.79617
G1 X43.683 Y53.393 E4.85083
G1 X43.993 Y53.11 E4.89712
G1 X44.345 Y52.819 E4.94748
G1 X44.67 Y52.575 E4.9923
G1 X45.076 Y52.299 E5.04643
G1 X45.452 Y52.071 E5.09492
G1 X45.88 Y51.84 E5.14856
G1 X46.252 Y51.663 E5.19398
G1 X46.685 Y51.482 E5.24574
G1 X47.065 Y51.343 E5.29036
G1 X47.508 Y51.205 E5.34152
G1 X48.028 Y51.075 E5.40063
G1 X48.499 Y50.983 E5.45355
G1 X48.823 Y50.935 E5.48967
G1 X49.272 Y50.889 E5.53944
G1 X49.693 Y50.865 E5.58594
G1 X50.155 Y50.861 E5.63689
G1 X50.603 Y50.879 E5.68633
G1 X51.09 Y50.924 E5.74027
G1 X51.629 Y51.006 E5.80039
G1 X52.054 Y51.093 E5.84823
G1 X52.492 Y51.206 E5.89811
G1 X52.83 Y51.309 E5.93707
G1 X53.254 Y51.458 E5.98663
G1 X53.661 Y51.625 E6.03514
G1 X54.055 Y51.808 E6.08305
G1 X54.49 Y52.038 E6.13731
G1 X54.835 Y52.243 E6.18157
G1 X55.221 Y52.498 E6.23258
G1 X55.579 Y52.76 E6.2815
G1 X55.939 Y53.052 E6.33262
G1 F3600 X56 Y53.107
G1 F1200 X56 Y66.896 E7.85319
G1 F1680 E4.85319
G1 F3600 X54.4 Y68.01
G1 F1680 E7.85319
G1 F1200 X54.4 Y51.991 E9.61966
G1 F1680 E6.61966
G1 F3600 X52.8 Y51.3
G1 F1680 E9.61966
G1 F1200 X52.8 Y68.701 E11.53854
G1 F1680 E8.53854
G1 F3600 X51.2 Y69.062
G1 F1680 E11.53854
G1 F1200 X51.2 Y50.941 E13.53682
G1 F1680 E10.53682
G1 F3600 X49.6 Y50.87
G1 F1680 E13.53682
G1 F1200 X49.6 Y69.129 E15.55031
G1 F1680 E12.55031
G1 F3600 X48 Y68.918
G1 F1680 E15.55031
G1 F1200 X48 Y51.082 E17.51716
G1 F1680 E14.51716
G1 F3600 X46.4 Y51.601
G1 F1680 E17.51716
G1 F1200 X46.4 Y68.399 E19.36954
G1 F1680 E16.36954
G1 F3600 X44.8 Y67.515
M104 T0 S200
G1 F1680 E19.36954
G1 F1200 X44.8 Y52.486 E21.02685
G1 F1680 E18.02685
G1 F3600 X43.2 Y53.895
G1 F1680 E21.02685
G1 F1200 X43.2 Y66.105 E22.37329
G1 F1680 E19.37329
G1 F3600 X41.6 Y63.597
G1 F1680 E22.37329
G1 F1200 X41.6 Y56.399 E23.16704
G1 F1680 E20.16704
G1 F3600 X57.6 Y54.928
G1 F1680 E23.16704
G1 F1200 X57.6 Y65.074 E24.28588
G1 F1680 E21.28588
G1 F3600 X56.031 Y53.064
;TIME_ELAPSED:14.965111
;LAYER:-25
G1 X56.031 Y53.064 Z0.619
;TYPE:SUPPORT
G1 F1680 E24.28588
G1 F1980 X56.345 Y53.349 E24.31749
G1 X56.702 Y53.709 E24.35529
G1 X56.981 Y54.021 E24.38648
G1 X57.28 Y54.389 E24.42183
G1 X57.539 Y54.743 E24.45453
G1 X57.749 Y55.058 E24.48275
G1 X57.973 Y55.426 E24.51486
G1 F3600 X57.975 Y55.43
G1 F1980 X54.569 Y52.023 E24.87396
G1 X54.941 Y52.25 E24.90645
G1 X55.255 Y52.46 E24.93461
G1 X55.687 Y52.779 E24.97464
G1 X56.031 Y53.064 E25.00794
G1 F1680 E22.00794
G1 F3600 X57.975 Y55.43
G1 F1680 E25.00794
G1 F1980 X58.204 Y55.856 E25.04399
G1 X58.382 Y56.231 E25.07493
G1 X58.589 Y56.728 E25.11506
G1 X58.696 Y57.026 E25.13866
G1 X58.87 Y57.597 E25.18316
G1 X52.404 Y51.131 E25.86479
G1 X52.072 Y51.046 E25.89034
G1 X51.644 Y50.956 E25.92294
G1 X51.183 Y50.884 E25.95772
G1 X50.849 Y50.849 E25.98275
G1 X59.149 Y59.149 E26.85772
G1 X59.172 Y59.392 E26.87591
G1 X59.189 Y59.834 E26.90889
G1 X59.186 Y60.309 E26.94429
G1 X59.178 Y60.451 E26.95489
G1 X49.548 Y50.821 E27.97007
G1 X49.394 Y50.826 E27.98155
G1 X48.895 Y50.873 E28.01891
G1 X48.499 Y50.931 E28.04875
G1 X48.404 Y50.949 E28.05595
G1 X59.051 Y61.596 E29.17834
G1 X59.044 Y61.635 E29.18129
G1 X58.955 Y62.065 E29.21402
G1 X58.846 Y62.494 E29.24702
G1 X58.806 Y62.624 E29.25716
G1 X47.376 Y51.195 E30.46203
G1 X47.148 Y51.262 E30.47974
G1 X46.728 Y51.409 E30.51291
G1 X46.438 Y51.529 E30.53631
G1 X58.469 Y63.561 E31.80464
G1 X58.387 Y63.757 E31.82048
G1 X58.204 Y64.143 E31.85232
G1 X58.056 Y64.42 E31.87573
G1 X45.579 Y51.943 E33.19103
G1 X45.426 Y52.025 E33.20397
G1 X45.058 Y52.249 E33.23608
G1 X44.791 Y52.428 E33.26004
G1 X57.57 Y65.207 E34.60717
G1 X57.465 Y65.36 E34.62101
G1 X57.22 Y65.687 E34.65146
G1 X57.02 Y65.929 E34.67487
G1 X44.069 Y52.979 E36.04008
G1 X44.021 Y53.017 E36.04464
G1 X43.709 Y53.296 E36.07584
G1 X43.411 Y53.593 E36.1072
G1 X56.405 Y66.587 E37.477
G1 X56.289 Y66.702 E37.48918
G1 X55.977 Y66.981 E37.52038
G1 X55.727 Y67.182 E37.54429
G1 X42.813 Y54.269 E38.9056
G1 X42.779 Y54.311 E38.90963
G1 X42.461 Y54.743 E38.94961
G1 X42.281 Y55.009 E38.97355
G1 X54.989 Y67.717 E40.3132
G1 X54.942 Y67.749 E40.31744
G1 X54.573 Y67.972 E40.34958
G1 X54.182 Y68.182 E40.38266
G1 X41.815 Y55.816 E41.68631
G1 X41.794 Y55.855 E41.68961
G1 X41.611 Y56.24 E41.72139
G1 X41.435 Y56.664 E41.75561
G1 X41.423 Y56.696 E41.75816
G1 X53.302 Y68.575 E43.01041
G1 X53.272 Y68.589 E43.01288
G1 X52.851 Y68.736 E43.04612
G1 X52.364 Y68.88 E43.08398
G1 X52.34 Y68.886 E43.08582
G1 X41.112 Y57.658 E44.26945
G1 X41.024 Y58.024 E44.29751
G1 X40.932 Y58.498 E44.3335
G1 X40.899 Y58.718 E44.35008
G1 X51.28 Y69.099 E45.44443
G1 X51.105 Y69.125 E45.45761
G1 X50.605 Y69.171 E45.49504
G1 X50.155 Y69.189 E45.52861
G1 X50.097 Y69.188 E45.53294
G1 X40.809 Y59.901 E46.512
G1 X40.814 Y60.309 E46.54242
G1 X40.837 Y60.731 E46.57392
G1 X40.884 Y61.183 E46.6078
G1 X40.896 Y61.26 E46.61361
G1 X48.737 Y69.102 E47.44024
G1 X48.354 Y69.041 E47.46915
G1 X47.925 Y68.953 E47.50179
G1 X47.493 Y68.842 E47.53504
G1 X47.074 Y68.711 E47.56776
G1 X41.287 Y62.924 E48.17782
G1 X41.299 Y62.962 E48.18079
G1 X41.411 Y63.271 E48.20529
G1 X41.577 Y63.68 E48.23819
G1 X41.764 Y64.082 E48.27124
G1 X41.997 Y64.522 E48.30835
G1 X42.198 Y64.861 E48.33773
G1 X42.456 Y65.248 E48.3724
G1 X42.714 Y65.601 E48.40499
G1 X42.809 Y65.719 E48.41628
G1 X44.297 Y67.207 E48.57314
G1 X43.958 Y66.926 E48.60597
G1 X43.648 Y66.643 E48.63726
G1 X43.296 Y66.289 E48.67447
G1 X43.014 Y65.972 E48.70609
G1 F1680 E45.70609
G1 F3600 X56.132 Y52.954
;TIME_ELAPSED:25.809481
;LAYER:-24
M106 S255
G1 X56.132 Y52.954 Z0.869
G1 F1680 E48.70609
G1 F2400 X55.946 Y52.8 E48.71563
G1 X44.053 Y52.8 E49.18536
G1 X44.3 Y52.599 E49.19794
G1 X44.573 Y52.4 E49.21128
G1 X55.429 Y52.4 E49.64006
G1 X55.024 Y52.125 E49.65939
G1 X54.818 Y52 E49.66891
G1 X45.18 Y52 E50.04958
G1 X45.41 Y51.863 E50.06015
G1 X45.779 Y51.665 E50.07669
G1 X45.916 Y51.6 E50.08268
G1 X54.084 Y51.6 E50.40528
G1 X53.744 Y51.442 E50.42009
G1 X53.325 Y51.271 E50.43797
G1 X53.124 Y51.2 E50.44639
G1 X46.871 Y51.2 E50.69336
G1 X46.99 Y51.156 E50.69837
G1 X47.454 Y51.012 E50.71756
G1 X47.897 Y50.898 E50.73562
G1 X48.334 Y50.808 E50.75325
G1 X48.385 Y50.8 E50.75528
G1 X48.786 Y50.737 E50.77132
G1 X49.258 Y50.688 E50.79006
G1 X49.682 Y50.664 E50.80683
G1 X50.159 Y50.66 E50.82567
G1 X50.612 Y50.678 E50.84358
G1 X51.114 Y50.725 E50.86349
G1 X51.53 Y50.785 E50.88009
G1 F3600 X51.608 Y50.8
G1 F2400 X48.385 Y50.8 E51.00739
G1 F1680 E48.00739
G1 F3600 X43.594 Y53.2
G1 F1680 E51.00739
G1 F2400 X56.403 Y53.2 E51.5133
G1 X56.132 Y52.954 E51.52776
G1 F1680 E48.52776
G1 F3600 X56.805 Y53.6
G1 F1680 E51.52776
G1 F2400 X57.096 Y53.927 E51.54504
G1 X57.156 Y54 E51.54878
G1 X42.844 Y54 E52.11405
G1 X42.664 Y54.217 E52.12519
G1 X42.527 Y54.4 E52.13421
G1 X57.473 Y54.4 E52.72453
G1 X57.662 Y54.66 E52.73722
G1 X57.755 Y54.8 E52.74386
G1 X42.244 Y54.8 E53.35649
G1 X42.125 Y54.974 E53.36482
G1 X41.989 Y55.2 E53.37523
G1 X58.01 Y55.2 E54.00801
G1 X58.135 Y55.41 E54.01766
G1 X58.237 Y55.6 E54.02618
G1 X41.764 Y55.6 E54.6768
G1 X41.627 Y55.856 E54.68827
G1 X41.561 Y56 E54.69452
G1 X58.439 Y56 E55.36114
G1 X58.52 Y56.171 E55.36862
G1 X58.616 Y56.4 E55.37843
G1 X41.383 Y56.4 E56.05907
G1 X41.271 Y56.673 E56.07072
G1 X41.227 Y56.8 E56.07603
G1 X58.773 Y56.8 E56.76903
G1 X58.838 Y56.979 E56.77656
G1 X58.907 Y57.2 E56.7857
G1 X41.091 Y57.2 E57.48937
G1 X40.973 Y57.6 E57.50584
G1 X59.023 Y57.6 E58.21875
G1 X59.099 Y57.892 E58.23067
G1 X59.122 Y58 E58.23503
G1 X40.876 Y58 E58.95568
G1 X40.798 Y58.4 E58.97178
G1 X59.201 Y58.4 E59.69863
G1 X59.261 Y58.786 E59.71406
G1 X59.263 Y58.8 E59.71462
G1 X40.738 Y58.8 E60.44629
G1 X40.725 Y58.884 E60.44964
G1 X40.696 Y59.2 E60.46218
G1 X59.305 Y59.2 E61.19717
G1 X59.31 Y59.255 E61.19935
G1 X59.33 Y59.6 E61.213
G1 X40.67 Y59.6 E61.95
G1 X40.66 Y59.839 E61.95945
G1 X40.661 Y60 E61.96581
G1 X59.337 Y60 E62.70344
G1 X59.338 Y60.159 E62.70972
G1 X59.328 Y60.4 E62.71925
G1 X40.668 Y60.4 E63.45625
G1 X40.688 Y60.74 E63.4697
G1 X40.694 Y60.8 E63.47208
G1 X59.302 Y60.8 E64.20703
G1 X59.273 Y61.114 E64.21949
G1 X59.26 Y61.2 E64.22292
G1 X40.735 Y61.2 E64.95459
G1 F3600 X40.736 Y61.206
G1 F2400 X40.797 Y61.6 E64.97034
G1 X59.199 Y61.6 E65.69715
G1 X59.122 Y62 E65.71324
G1 X40.877 Y62 E66.43386
G1 X40.898 Y62.101 E66.43793
G1 X40.974 Y62.4 E66.45011
G1 X59.025 Y62.4 E67.16306
G1 X58.906 Y62.8 E67.17955
G1 X41.091 Y62.8 E67.88318
G1 X41.154 Y63.002 E67.89153
G1 X41.226 Y63.2 E67.89985
G1 X58.771 Y63.2 E68.59282
G1 X58.727 Y63.325 E68.59805
G1 X58.615 Y63.6 E68.60978
G1 X41.383 Y63.6 E69.29038
G1 X41.476 Y63.822 E69.29989
G1 X41.56 Y64 E69.30766
G1 X58.437 Y64 E69.97424
G1 X58.371 Y64.142 E69.98043
G1 X58.233 Y64.4 E69.99199
G1 X41.762 Y64.4 E70.64253
G1 X41.863 Y64.588 E70.65096
G1 X41.989 Y64.8 E70.6607
G1 X58.008 Y64.8 E71.29339
G1 X57.878 Y65.017 E71.30338
G1 X57.753 Y65.2 E71.31214
G1 X42.244 Y65.2 E71.92469
G1 X42.334 Y65.335 E71.9311
G1 X42.527 Y65.6 E71.94404
G1 X57.471 Y65.6 E72.53428
G1 X57.402 Y65.694 E72.53888
G1 X57.153 Y66 E72.55446
G1 X42.844 Y66 E73.11962
G1 X42.902 Y66.071 E73.12324
G1 X43.188 Y66.392 E73.14022
G1 X43.195 Y66.4 E73.14064
G1 X56.799 Y66.4 E73.67795
G1 X56.751 Y66.454 E73.6808
G1 X56.402 Y66.8 E73.70021
G1 X43.597 Y66.8 E74.20597
G1 X43.866 Y67.044 E74.22031
G1 X44.054 Y67.2 E74.22996
G1 X55.942 Y67.2 E74.69949
G1 X55.698 Y67.399 E74.71193
G1 X55.422 Y67.6 E74.72541
G1 X44.572 Y67.6 E75.15395
G1 X44.974 Y67.873 E75.17314
G1 X45.184 Y68 E75.18283
G1 X54.814 Y68 E75.56318
G1 X54.588 Y68.135 E75.57358
G1 X54.219 Y68.333 E75.59012
G1 X54.078 Y68.4 E75.59629
G1 X45.918 Y68.4 E75.91858
G1 X46.254 Y68.556 E75.93321
G1 X46.673 Y68.727 E75.95108
G1 X46.879 Y68.8 E75.95972
G1 X53.122 Y68.8 E76.20629
G1 X53.008 Y68.842 E76.21109
G1 X52.544 Y68.986 E76.23028
G1 X52.101 Y69.1 E76.24835
G1 X51.663 Y69.19 E76.26601
G1 X51.599 Y69.2 E76.26857
G1 X48.4 Y69.2 E76.39491
G1 F3600 X48.468 Y69.213
G1 F2400 X48.884 Y69.273 E76.41151
G1 X49.386 Y69.32 E76.43143
G1 X49.839 Y69.338 E76.44933
G1 X50.316 Y69.334 E76.46818
G1 X50.74 Y69.31 E76.48495
G1 X51.212 Y69.261 E76.50369
G1 X51.599 Y69.2 E76.51916
G1 F1680 E73.51916
G1 F3600 X56.805 Y53.6
G1 F1680 E76.51916
G1 F2400 X43.197 Y53.6 E77.05663
G1 X43.247 Y53.544 E77.0596
G1 X43.594 Y53.2 E77.0789
G1 F1680 E74.0789
G1 F3600 X56.132 Y52.954
;TIME_ELAPSED:45.522495
;LAYER:-23
G1 X56.132 Y52.954 Z1.119
G1 F1680 E77.0789
G1 F2400 X55.999 Y52.845 E77.08569
G1 X55.999 Y67.155 E77.65088
G1 X55.698 Y67.399 E77.66618
G1 X55.599 Y67.472 E77.67104
G1 X55.599 Y52.527 E78.26132
G1 X55.449 Y52.414 E78.26873
G1 X55.199 Y52.244 E78.28068
G1 X55.199 Y67.755 E78.8933
G1 X54.944 Y67.923 E78.90536
G1 X54.799 Y68.01 E78.91204
G1 X54.799 Y51.989 E79.54482
G1 X54.642 Y51.894 E79.55206
G1 X54.399 Y51.765 E79.56293
G1 X54.399 Y68.237 E80.21351
G1 X54.219 Y68.333 E80.22157
G1 X53.999 Y68.438 E80.2312
G1 X53.999 Y51.561 E80.89778
G1 X53.744 Y51.442 E80.9089
G1 X53.599 Y51.383 E80.91508
G1 X53.599 Y68.615 E81.59568
G1 X53.395 Y68.7 E81.60441
G1 X53.199 Y68.772 E81.61266
G1 X53.199 Y51.227 E82.30562
G1 X52.891 Y51.118 E82.31852
G1 X52.799 Y51.091 E82.32231
G1 X52.799 Y68.907 E83.02598
G1 X52.544 Y68.986 E83.03652
G1 X52.399 Y69.024 E83.04244
G1 X52.399 Y50.973 E83.75539
G1 X52.01 Y50.878 E83.77121
G1 X51.999 Y50.876 E83.77165
G1 X51.999 Y69.121 E84.49226
G1 X51.663 Y69.19 E84.50581
G1 X51.599 Y69.201 E84.50838
G1 X51.599 Y50.799 E85.23519
G1 X51.53 Y50.785 E85.23797
G1 X51.199 Y50.738 E85.25117
G1 X51.199 Y69.263 E85.98284
G1 X50.799 Y69.304 E85.99873
G1 X50.799 Y50.696 E86.73368
G1 X50.612 Y50.678 E86.7411
G1 X50.399 Y50.67 E86.74951
G1 X50.399 Y69.33 E87.48652
G1 X50.316 Y69.334 E87.4898
G1 X49.999 Y69.337 E87.50232
G1 X49.999 Y50.661 E88.23995
G1 X49.682 Y50.664 E88.25248
G1 X49.599 Y50.668 E88.25576
G1 X49.599 Y69.328 E88.99276
G1 X49.386 Y69.32 E89.00118
G1 X49.199 Y69.302 E89.0086
G1 X49.199 Y50.694 E89.74355
G1 X48.799 Y50.735 E89.75943
G1 X48.799 Y69.26 E90.4911
G1 X48.468 Y69.213 E90.50431
G1 X48.399 Y69.199 E90.50709
G1 X48.399 Y50.797 E91.2339
G1 X48.334 Y50.808 E91.2365
G1 X47.999 Y50.876 E91.25
G1 X47.999 Y69.122 E91.97066
G1 X47.988 Y69.12 E91.9711
G1 X47.599 Y69.025 E91.98691
G1 X47.599 Y50.974 E92.69986
G1 X47.454 Y51.012 E92.70578
G1 X47.199 Y51.091 E92.71633
G1 X47.199 Y68.907 E93.41999
G1 X47.104 Y68.879 E93.42391
G1 X46.799 Y68.771 E93.43669
G1 X46.799 Y51.226 E94.12965
G1 X46.603 Y51.298 E94.1379
G1 X46.399 Y51.383 E94.14663
G1 X46.399 Y68.615 E94.82723
G1 X46.254 Y68.556 E94.83341
G1 X45.999 Y68.437 E94.84453
G1 X45.999 Y51.56 E95.51111
G1 X45.779 Y51.665 E95.52073
G1 X45.599 Y51.761 E95.52879
G1 X45.599 Y68.233 E96.17938
G1 X45.356 Y68.104 E96.19024
G1 X45.199 Y68.009 E96.19749
G1 X45.199 Y51.988 E96.83026
G1 X45.054 Y52.075 E96.83694
