M73 P0
;MINX:42.0
;MAXX:58.0
;MINY:52.0
;MAXY:68.0
;MINZ:0.0
;MAXZ:10.0
;MachineType:ENTINA TINA2
;FilamentType:PLA
;Extruder0Temperature:200
;InfillDensity:10
;FLAVOR:Marlin
;TIME:105
;FilamentUsed:156.7
;Layer height: 0.8

;Generated with Cura_SteamEngine 3.1
M104 T0 S215
M82 ; absolute extrusion mode
;(**** start.gcode for tina2****)
M104 S150
G28 Z
G28 X Y; Home extruder
G1 X55 Y55 F1000
G1 Z10 F200
G29
G1 Z15 F100
M107 ; Turn off fan
G90 ; Absolute positioning
M82 ; Extruder in absolute mode
M109 S215.0
G92 E0 ; Reset extruder position
G1 X90 Y6 Z0.27 F2000
G1 X20 Y6 Z0.27 E15 F1000
G92 E0 ; Reset extruder position

;LAYER_COUNT:13
M73 P1
;LAYER:0
M106 S255
M203 Z5
G1 F3600 X56.162 Y52.337 Z0.299
;TYPE:SKIRT
G1 F1200 X56.644 Y52.743 E0.03286
G1 X56.903 Y53.01 E0.05225
G1 X57.651 Y53.84 E0.1105
G1 X58.043 Y54.335 E0.14342
G1 X58.393 Y54.921 E0.17901
G1 X59.055 Y56.226 E0.2553
G1 X59.304 Y56.806 E0.2882
G1 X59.466 Y57.357 E0.31815
G1 X59.667 Y58.226 E0.36465
G1 X59.788 Y59.076 E0.40941
G1 X59.832 Y59.881 E0.45144
G1 X59.826 Y60.512 E0.48434
G1 X59.782 Y60.905 E0.50496
G1 X59.611 Y62.025 E0.56402
G1 X59.476 Y62.641 E0.5969
G1 X59.347 Y63.031 E0.61832
G1 X59.016 Y63.908 E0.66719
G1 X58.756 Y64.483 E0.70009
G1 X58.459 Y64.974 E0.73001
G1 X57.665 Y66.127 E0.80299
M73 P2
G1 X57.275 Y66.623 E0.83589
G1 X56.927 Y66.975 E0.86169
G1 X56.319 Y67.532 E0.90468
G1 X55.828 Y67.928 E0.93757
G1 X55.377 Y68.211 E0.96533
G1 X54.15 Y68.894 E1.03854
G1 X53.581 Y69.166 E1.07142
G1 X53.027 Y69.35 E1.10186
G1 X52.091 Y69.603 E1.15241
G1 X51.473 Y69.729 E1.18529
G1 X51.026 Y69.771 E1.2087
G1 X49.92 Y69.823 E1.26642
G1 X48.98 Y69.778 E1.31548
G1 X48.198 Y69.666 E1.35667
G1 X47.378 Y69.477 E1.40054
G1 X46.595 Y69.225 E1.44343
G1 X46.008 Y68.994 E1.47631
G1 X45.549 Y68.749 E1.50344
G1 X44.34 Y68.02 E1.57704
G1 X43.822 Y67.66 E1.60993
G1 X43.328 Y67.213 E1.64466
G1 X42.556 Y66.413 E1.70262
G1 X42.148 Y65.932 E1.73551
G1 X41.789 Y65.377 E1.76997
G1 X41.106 Y64.15 E1.84318
M73 P3
G1 X40.834 Y63.581 E1.87606
G1 X40.65 Y63.027 E1.9065
G1 X40.397 Y62.091 E1.95705
G1 X40.271 Y61.473 E1.98993
G1 X40.235 Y61.123 E2.00827
G1 X40.172 Y60.178 E2.05765
G1 X40.193 Y59.281 E2.10443
G1 X40.286 Y58.468 E2.14709
G1 X40.474 Y57.572 E2.19482
G1 X40.752 Y56.667 E2.24418
G1 X40.975 Y56.077 E2.27706
G1 X41.117 Y55.786 E2.29394
G1 X41.512 Y55.045 E2.33772
G1 X41.9 Y54.43 E2.37563
G1 X42.337 Y53.838 E2.41399
G1 X42.743 Y53.356 E2.44685
G1 X43.01 Y53.097 E2.46624
G1 X43.84 Y52.349 E2.5245
G1 X44.335 Y51.957 E2.55742
G1 X44.922 Y51.606 E2.59307
G1 X46.23 Y50.943 E2.66953
G1 X46.81 Y50.694 E2.70243
G1 X47.367 Y50.531 E2.73269
G1 X48.238 Y50.331 E2.77928
G1 X49.08 Y50.213 E2.82361
M73 P4
G1 X49.88 Y50.169 E2.86538
G1 X50.719 Y50.193 E2.90914
G1 X51.532 Y50.286 E2.9518
G1 X52.43 Y50.474 E2.99963
G1 X53.334 Y50.752 E3.04894
G1 X53.924 Y50.975 E3.08183
G1 X54.21 Y51.116 E3.09845
G1 X54.952 Y51.511 E3.14227
G1 X55.57 Y51.9 E3.18035
G1 X56.162 Y52.337 E3.21871
G1 F3600 X55.9 Y52.691
G1 F1200 X56.36 Y53.08 E3.25012
G1 X56.577 Y53.305 E3.26641
G1 X57.325 Y54.135 E3.32466
G1 X57.697 Y54.608 E3.35604
G1 X58.001 Y55.12 E3.38708
G1 X58.663 Y56.425 E3.46337
G1 X58.899 Y56.979 E3.49477
G1 X59.037 Y57.456 E3.52065
G1 X59.238 Y58.325 E3.56716
G1 X59.348 Y59.1 E3.60797
G1 X59.392 Y59.905 E3.65
G1 X59.385 Y60.508 E3.68144
G1 X59.347 Y60.838 E3.69875
G1 X59.176 Y61.958 E3.75782
M73 P5
G1 X59.046 Y62.546 E3.78922
G1 X58.936 Y62.876 E3.80735
G1 X58.605 Y63.753 E3.85622
G1 X58.355 Y64.301 E3.88763
G1 X58.096 Y64.725 E3.91353
G1 X57.302 Y65.878 E3.98652
G1 X56.928 Y66.35 E4.01791
G1 X56.63 Y66.651 E4.04
G1 X56.022 Y67.208 E4.08299
G1 X55.552 Y67.584 E4.11437
G1 X55.163 Y67.827 E4.13828
G1 X53.936 Y68.51 E4.21149
G1 X53.392 Y68.767 E4.24286
G1 X52.913 Y68.926 E4.26917
G1 X51.977 Y69.179 E4.31972
G1 X51.386 Y69.297 E4.35114
G1 X51.005 Y69.331 E4.37108
G1 X49.899 Y69.383 E4.42881
G1 X49.042 Y69.342 E4.47354
G1 X48.26 Y69.23 E4.51473
G1 X47.513 Y69.058 E4.55469
G1 X46.73 Y68.806 E4.59757
G1 X46.17 Y68.584 E4.62898
G1 X45.777 Y68.372 E4.65226
G1 X44.568 Y67.643 E4.72586
M73 P6
G1 X44.074 Y67.298 E4.75728
G1 X43.645 Y66.908 E4.7875
G1 X42.873 Y66.108 E4.84547
G1 X42.484 Y65.647 E4.87691
G1 X42.173 Y65.163 E4.90691
G1 X41.49 Y63.936 E4.98012
G1 X41.233 Y63.392 E5.01149
G1 X41.074 Y62.913 E5.0378
G1 X40.821 Y61.977 E5.08835
G1 X40.674 Y61.094 E5.13502
G1 X40.611 Y60.149 E5.1844
G1 X40.63 Y59.331 E5.22705
G1 X40.723 Y58.518 E5.26972
G1 X40.894 Y57.701 E5.31323
G1 X41.172 Y56.796 E5.36259
G1 X41.506 Y55.993 E5.40793
G1 X41.901 Y55.252 E5.45171
G1 X42.254 Y54.692 E5.48622
G1 X42.691 Y54.1 E5.52459
G1 X43.08 Y53.64 E5.55599
G1 X43.305 Y53.423 E5.57229
G1 X44.135 Y52.675 E5.63054
G1 X44.608 Y52.303 E5.66192
G1 X45.121 Y51.999 E5.693
G1 X46.429 Y51.336 E5.76946
M73 P7
G1 X46.984 Y51.099 E5.80092
G1 X47.466 Y50.96 E5.82707
G1 X48.337 Y50.76 E5.87366
G1 X49.104 Y50.652 E5.91405
G1 X49.904 Y50.608 E5.95582
G1 X50.669 Y50.63 E5.99572
G1 X51.482 Y50.723 E6.03838
G1 X52.3 Y50.895 E6.08196
G1 X53.204 Y51.173 E6.13127
G1 X54.003 Y51.504 E6.17636
G1 X54.745 Y51.899 E6.22018
G1 X55.308 Y52.254 E6.25488
G1 X55.9 Y52.691 E6.29324
G1 F3600 X55.639 Y53.045
G1 F1200 X56.25 Y53.599 E6.33624
G1 X56.998 Y54.429 E6.3945
G1 X57.35 Y54.88 E6.42432
G1 X57.608 Y55.319 E6.45087
G1 X58.27 Y56.624 E6.52716
G1 X58.493 Y57.151 E6.55699
G1 X58.609 Y57.555 E6.57891
G1 X58.81 Y58.424 E6.62541
G1 X58.909 Y59.124 E6.66227
G1 X58.953 Y59.929 E6.7043
G1 X58.912 Y60.772 E6.7483
M73 P8
G1 X58.741 Y61.892 E6.80737
G1 X58.524 Y62.721 E6.85204
G1 X58.193 Y63.598 E6.90091
G1 X57.954 Y64.118 E6.93075
G1 X57.734 Y64.475 E6.95261
G1 X56.94 Y65.628 E7.0256
G1 X56.583 Y66.076 E7.05547
G1 X56.333 Y66.326 E7.0739
G1 X55.725 Y66.883 E7.11689
G1 X55.277 Y67.239 E7.14672
G1 X54.949 Y67.442 E7.16683
G1 X53.722 Y68.125 E7.24004
G1 X53.204 Y68.368 E7.26987
G1 X52.798 Y68.501 E7.29215
G1 X51.862 Y68.754 E7.3427
G1 X51.3 Y68.864 E7.37255
G1 X50.985 Y68.891 E7.38904
G1 X49.879 Y68.943 E7.44676
G1 X49.105 Y68.907 E7.48716
G1 X48.323 Y68.795 E7.52834
G1 X47.648 Y68.639 E7.56446
G1 X46.865 Y68.387 E7.60735
G1 X46.334 Y68.174 E7.63717
G1 X46.004 Y67.995 E7.65675
G1 X44.795 Y67.266 E7.73035
M73 P9
G1 X44.327 Y66.937 E7.76018
G1 X43.962 Y66.602 E7.78601
G1 X43.19 Y65.802 E7.84397
G1 X42.822 Y65.363 E7.87383
G1 X42.558 Y64.949 E7.89943
G1 X41.875 Y63.722 E7.97264
G1 X41.632 Y63.204 E8.00247
G1 X41.499 Y62.798 E8.02475
G1 X41.246 Y61.862 E8.0753
G1 X41.113 Y61.065 E8.11742
G1 X41.05 Y60.12 E8.1668
G1 X41.068 Y59.381 E8.20534
G1 X41.161 Y58.568 E8.248
G1 X41.315 Y57.83 E8.28731
G1 X41.593 Y56.925 E8.33667
G1 X41.894 Y56.2 E8.37759
G1 X42.289 Y55.459 E8.42137
G1 X42.608 Y54.953 E8.45256
G1 X43.045 Y54.361 E8.49092
G1 X43.599 Y53.75 E8.53392
G1 X44.429 Y53.002 E8.59217
G1 X44.88 Y52.65 E8.622
G1 X45.32 Y52.391 E8.64861
G1 X46.628 Y51.728 E8.72507
G1 X47.156 Y51.505 E8.75495
M73 P10
G1 X47.564 Y51.389 E8.77706
G1 X48.435 Y51.189 E8.82365
G1 X49.128 Y51.091 E8.86014
G1 X49.928 Y51.047 E8.90192
G1 X50.619 Y51.068 E8.93796
G1 X51.432 Y51.161 E8.98062
G1 X52.171 Y51.315 E9.01998
G1 X53.075 Y51.593 E9.06928
G1 X53.797 Y51.893 E9.11005
G1 X54.539 Y52.288 E9.15387
G1 X55.047 Y52.608 E9.18517
G1 X55.639 Y53.045 E9.22353
G1 F3600 X55.378 Y53.399
G1 F1200 X55.923 Y53.894 E9.26192
G1 X56.671 Y54.724 E9.32017
G1 X57.002 Y55.151 E9.34834
G1 X57.216 Y55.518 E9.37049
G1 X57.878 Y56.823 E9.44678
G1 X58.086 Y57.322 E9.47496
G1 X58.18 Y57.654 E9.49295
G1 X58.381 Y58.523 E9.53945
G1 X58.47 Y59.148 E9.57236
G1 X58.514 Y59.953 E9.6144
G1 X58.477 Y60.705 E9.65365
G1 X58.306 Y61.825 E9.71272
M73 P11
G1 X58.112 Y62.565 E9.7526
G1 X57.781 Y63.442 E9.80147
G1 X57.553 Y63.933 E9.8297
G1 X57.371 Y64.226 E9.84768
G1 X56.577 Y65.379 E9.92066
G1 X56.239 Y65.8 E9.94881
G1 X56.035 Y66.002 E9.96378
G1 X55.427 Y66.559 E10.00677
G1 X55.003 Y66.894 E10.03494
G1 X54.735 Y67.058 E10.05132
G1 X53.508 Y67.741 E10.12453
G1 X53.017 Y67.968 E10.15274
G1 X52.683 Y68.076 E10.17104
G1 X51.747 Y68.329 E10.22159
G1 X50.964 Y68.452 E10.26291
G1 X49.858 Y68.504 E10.32064
G1 X49.167 Y68.471 E10.3567
G1 X48.385 Y68.359 E10.39789
G1 X47.783 Y68.22 E10.4301
G1 X47 Y67.968 E10.47298
G1 X46.499 Y67.765 E10.50117
G1 X46.231 Y67.618 E10.5171
G1 X45.022 Y66.889 E10.5907
G1 X44.581 Y66.577 E10.61887
G1 X44.278 Y66.297 E10.64038
M73 P12
G1 X43.506 Y65.497 E10.69834
G1 X43.161 Y65.081 E10.72652
G1 X42.942 Y64.735 E10.74786
G1 X42.259 Y63.508 E10.82108
G1 X42.032 Y63.017 E10.84928
G1 X41.924 Y62.683 E10.86758
G1 X41.671 Y61.747 E10.91813
G1 X41.552 Y61.035 E10.95576
G1 X41.489 Y60.09 E11.00514
G1 X41.505 Y59.431 E11.03951
G1 X41.598 Y58.618 E11.08217
G1 X41.735 Y57.959 E11.11726
G1 X42.013 Y57.054 E11.16662
G1 X42.282 Y56.407 E11.20315
G1 X42.677 Y55.666 E11.24693
G1 X42.962 Y55.214 E11.27479
G1 X43.399 Y54.622 E11.31315
G1 X43.894 Y54.077 E11.35154
G1 X44.724 Y53.329 E11.40979
G1 X45.151 Y52.998 E11.43795
G1 X45.519 Y52.783 E11.46017
G1 X46.827 Y52.12 E11.53663
G1 X47.326 Y51.912 E11.56481
G1 X47.663 Y51.818 E11.58305
G1 X48.534 Y51.618 E11.62964
M73 P13
G1 X49.152 Y51.531 E11.66218
G1 X49.952 Y51.487 E11.70395
G1 X50.569 Y51.505 E11.73613
G1 X51.382 Y51.598 E11.7788
G1 X52.042 Y51.736 E11.81395
G1 X52.946 Y52.014 E11.86326
G1 X53.59 Y52.281 E11.8996
G1 X54.332 Y52.676 E11.94343
G1 X54.786 Y52.962 E11.9714
G1 X55.378 Y53.399 E12.00977
G1 F3600 X55.116 Y53.753
G1 F1200 X55.596 Y54.188 E12.04354
G1 X56.344 Y55.018 E12.10179
G1 X56.653 Y55.421 E12.12827
G1 X56.824 Y55.717 E12.14609
G1 X57.486 Y57.022 E12.22238
G1 X57.679 Y57.491 E12.24882
G1 X57.751 Y57.753 E12.26298
G1 X57.952 Y58.622 E12.30949
G1 X58.03 Y59.172 E12.33845
G1 X58.074 Y59.977 E12.38048
G1 X58.042 Y60.639 E12.41503
G1 X57.871 Y61.759 E12.4741
G1 X57.701 Y62.41 E12.50918
G1 X57.37 Y63.287 E12.55805
M73 P14
G1 X57.154 Y63.746 E12.5845
G1 X57.009 Y63.976 E12.59867
G1 X56.215 Y65.129 E12.67166
G1 X55.738 Y65.677 E12.70954
G1 X55.13 Y66.234 E12.75253
G1 X54.521 Y66.673 E12.79166
G1 X53.294 Y67.356 E12.86488
G1 X52.833 Y67.567 E12.89131
G1 X52.568 Y67.651 E12.9058
G1 X51.632 Y67.904 E12.95635
G1 X50.943 Y68.012 E12.99271
G1 X49.837 Y68.064 E13.05044
G1 X49.229 Y68.035 E13.08217
G1 X48.447 Y67.923 E13.12336
G1 X47.918 Y67.801 E13.15166
G1 X47.135 Y67.549 E13.19455
G1 X46.458 Y67.241 E13.23332
G1 X45.249 Y66.512 E13.30693
G1 X44.837 Y66.217 E13.33334
G1 X44.595 Y65.991 E13.35061
G1 X43.823 Y65.191 E13.40857
G1 X43.501 Y64.799 E13.43502
G1 X43.327 Y64.521 E13.45211
G1 X42.644 Y63.294 E13.52533
G1 X42.433 Y62.833 E13.55176
M73 P15
G1 X42.349 Y62.568 E13.56625
G1 X42.096 Y61.632 E13.6168
G1 X41.991 Y61.006 E13.6499
G1 X41.928 Y60.061 E13.69927
G1 X41.942 Y59.481 E13.72952
G1 X42.035 Y58.668 E13.77218
G1 X42.156 Y58.088 E13.80307
G1 X42.434 Y57.183 E13.85243
G1 X42.671 Y56.614 E13.88457
G1 X43.066 Y55.873 E13.92834
G1 X43.316 Y55.476 E13.9528
G1 X43.753 Y54.884 E13.99117
G1 X44.188 Y54.404 E14.02494
G1 X45.018 Y53.656 E14.08319
G1 X45.421 Y53.347 E14.10967
G1 X45.718 Y53.176 E14.12753
G1 X47.026 Y52.513 E14.20399
G1 X47.495 Y52.32 E14.23043
G1 X47.761 Y52.247 E14.24481
G1 X48.632 Y52.047 E14.2914
G1 X49.176 Y51.97 E14.32004
G1 X49.976 Y51.926 E14.36181
G1 X50.519 Y51.942 E14.39014
G1 X51.332 Y52.035 E14.4328
G1 X51.912 Y52.156 E14.46369
M73 P16
G1 X52.816 Y52.434 E14.513
G1 X53.383 Y52.67 E14.54502
G1 X54.125 Y53.065 E14.58884
G1 X54.524 Y53.316 E14.61342
G1 X55.116 Y53.753 E14.65178
G1 F1680 E11.65178
G1 F3600 X52.707 Y56.695
;TYPE:WALL-INNER
G1 F1680 E14.65178
G1 F1320 X53.02 Y56.98 E14.67385
G1 X53.305 Y57.293 E14.69592
G1 X53.547 Y57.622 E14.71721
G1 X53.766 Y57.985 E14.73931
G1 X53.943 Y58.358 E14.76084
G1 X54.087 Y58.763 E14.78325
G1 X54.189 Y59.165 E14.80487
G1 X54.25 Y59.577 E14.82658
G1 X54.27 Y60 E14.84866
G1 X54.25 Y60.423 E14.87074
G1 X54.189 Y60.835 E14.89245
G1 X54.087 Y61.237 E14.91408
G1 X53.943 Y61.642 E14.93649
G1 X53.766 Y62.015 E14.95801
G1 X53.547 Y62.378 E14.98011
G1 X53.305 Y62.707 E15.00141
M73 P17
G1 X53.02 Y63.02 E15.02348
G1 X52.707 Y63.305 E15.04554
G1 X52.378 Y63.547 E15.06684
G1 X52.015 Y63.766 E15.08894
G1 X51.642 Y63.943 E15.11046
G1 X51.237 Y64.087 E15.13287
G1 X50.835 Y64.189 E15.1545
G1 X50.423 Y64.25 E15.17621
G1 X50 Y64.27 E15.19829
G1 X49.577 Y64.25 E15.22037
G1 X49.165 Y64.189 E15.24208
G1 X48.763 Y64.087 E15.2637
G1 X48.358 Y63.943 E15.28611
G1 X47.985 Y63.766 E15.30764
G1 X47.622 Y63.547 E15.32974
G1 X47.293 Y63.305 E15.35103
G1 X46.98 Y63.02 E15.3731
G1 X46.695 Y62.707 E15.39517
G1 X46.453 Y62.378 E15.41647
G1 X46.234 Y62.015 E15.43857
G1 X46.057 Y61.642 E15.46009
G1 X45.913 Y61.237 E15.4825
G1 X45.811 Y60.835 E15.50412
G1 X45.75 Y60.423 E15.52584
G1 X45.73 Y60 E15.54792
M73 P18
G1 X45.75 Y59.577 E15.56999
G1 X45.811 Y59.165 E15.59171
G1 X45.913 Y58.763 E15.61333
G1 X46.057 Y58.358 E15.63574
G1 X46.234 Y57.985 E15.65727
G1 X46.453 Y57.622 E15.67937
G1 X46.695 Y57.293 E15.70066
G1 X46.98 Y56.98 E15.72273
G1 X47.293 Y56.695 E15.7448
G1 X47.622 Y56.453 E15.76609
G1 X47.985 Y56.234 E15.7882
G1 X48.358 Y56.057 E15.80972
G1 X48.763 Y55.913 E15.83213
G1 X49.165 Y55.811 E15.85375
G1 X49.577 Y55.75 E15.87547
G1 X50 Y55.73 E15.89754
G1 X50.423 Y55.75 E15.91962
G1 X50.835 Y55.811 E15.94134
G1 X51.237 Y55.913 E15.96296
G1 X51.642 Y56.057 E15.98537
G1 X52.015 Y56.234 E16.00689
G1 X52.378 Y56.453 E16.029
G1 X52.707 Y56.695 E16.05029
G1 F3600 X52.913 Y56.45
;TYPE:WALL-OUTER
M73 P19
G1 F1320 X53.247 Y56.753 E16.0738
G1 X53.55 Y57.087 E16.09731
G1 X53.815 Y57.446 E16.12057
G1 X54.048 Y57.834 E16.14417
G1 X54.241 Y58.24 E16.16761
G1 X54.392 Y58.665 E16.19112
G1 X54.504 Y59.107 E16.21489
G1 X54.569 Y59.545 E16.23798
G1 X54.591 Y60 E16.26173
G1 X54.569 Y60.455 E16.28548
G1 X54.504 Y60.893 E16.30856
G1 X54.392 Y61.335 E16.33233
G1 X54.241 Y61.76 E16.35585
G1 X54.048 Y62.166 E16.37929
G1 X53.815 Y62.554 E16.40288
G1 X53.55 Y62.913 E16.42614
G1 X53.247 Y63.247 E16.44966
G1 X52.913 Y63.55 E16.47317
G1 X52.554 Y63.815 E16.49643
G1 X52.166 Y64.048 E16.52003
G1 X51.76 Y64.241 E16.54346
G1 X51.335 Y64.392 E16.56698
G1 X50.893 Y64.504 E16.59075
G1 X50.455 Y64.569 E16.61383
G1 X50 Y64.591 E16.63758
M73 P20
G1 X49.545 Y64.569 E16.66133
G1 X49.107 Y64.504 E16.68442
G1 X48.665 Y64.392 E16.70819
G1 X48.24 Y64.241 E16.7317
G1 X47.834 Y64.048 E16.75514
G1 X47.446 Y63.815 E16.77874
G1 X47.087 Y63.55 E16.802
G1 X46.753 Y63.247 E16.82551
G1 X46.45 Y62.913 E16.84902
G1 X46.185 Y62.554 E16.87229
G1 X45.952 Y62.166 E16.89588
G1 X45.759 Y61.76 E16.91932
G1 X45.608 Y61.335 E16.94283
G1 X45.496 Y60.893 E16.9666
G1 X45.431 Y60.455 E16.98969
G1 X45.409 Y60 E17.01344
G1 X45.431 Y59.545 E17.03719
G1 X45.496 Y59.107 E17.06027
G1 X45.608 Y58.665 E17.08405
G1 X45.759 Y58.24 E17.10756
G1 X45.952 Y57.834 E17.131
G1 X46.185 Y57.446 E17.15459
G1 X46.45 Y57.087 E17.17786
G1 X46.753 Y56.753 E17.20137
G1 X47.087 Y56.45 E17.22488
M73 P21
G1 X47.446 Y56.185 E17.24814
G1 X47.834 Y55.952 E17.27174
G1 X48.24 Y55.759 E17.29517
G1 X48.665 Y55.608 E17.31869
G1 X49.107 Y55.496 E17.34246
G1 X49.545 Y55.431 E17.36555
G1 X50 Y55.409 E17.38929
G1 X50.455 Y55.431 E17.41304
G1 X50.893 Y55.496 E17.43613
G1 X51.335 Y55.608 E17.4599
G1 X51.76 Y55.759 E17.48342
G1 X52.166 Y55.952 E17.50685
G1 X52.554 Y56.185 E17.53045
G1 X52.913 Y56.45 E17.55371
G1 F3600 X52.462 Y56.999
;TYPE:SKIN
G1 F1320 X52.744 Y57.256 E17.5736
G1 X53.005 Y57.542 E17.59379
G1 X53.223 Y57.839 E17.613
G1 X53.418 Y58.162 E17.63267
G1 X53.586 Y58.517 E17.65314
G1 X53.712 Y58.869 E17.67264
G1 X53.806 Y59.241 E17.69264
G1 X53.86 Y59.611 E17.71213
G1 X53.88 Y60 E17.73244
M73 P22
G1 X53.86 Y60.389 E17.75275
G1 X53.806 Y60.759 E17.77224
G1 X53.713 Y61.127 E17.79203
G1 X53.586 Y61.483 E17.81174
G1 X53.419 Y61.836 E17.8321
G1 X53.224 Y62.159 E17.85177
G1 X53.005 Y62.458 E17.87109
G1 X52.744 Y62.744 E17.89128
G1 X52.462 Y63.001 E17.91117
G1 X52.156 Y63.226 E17.93097
G1 X51.838 Y63.418 E17.95034
G1 X51.485 Y63.585 E17.9707
G1 X51.127 Y63.713 E17.99052
G1 X50.759 Y63.806 E18.01031
G1 X50.389 Y63.86 E18.0298
G1 X50 Y63.88 E18.05011
G1 X49.611 Y63.86 E18.07042
G1 X49.241 Y63.806 E18.08991
G1 X48.873 Y63.713 E18.1097
