M73 P0
;MachineType:WEEDO TINA2
;FilamentType:PLA
;Extruder0Temperature:200
;InfillDensity:10
;FLAVOR:Marlin
;TIME:758
;FilamentUsed:633.1
;Layer height: 0.2

;Generated with Cura_SteamEngine 3.1
M104 S215
M82 ; absolute extrusion mode
;(**** start.gcode for WEEDO TINA2****)
M104 S150
G28 Z
G28 X Y; Home extruder
G1 X55 Y55 F1000
G1 Z10 F200
G29
G1 Z15 F100
M107 ; Turn off fan
G90 ; Absolute positioning
M82 ; Extruder in absolute mode
M109 S215.0
G92 E0 ; Reset extruder position
G1 X90 Y6 Z0.27 F2000
G1 X20 Y6 Z0.27 E15 F1000
G92 E0 ; Reset extruder position

;LAYER_COUNT:50
;LAYER:-6
M107
M203 Z5
G1 F3600 X63.273 Y36.779 Z0.349
G1 F1200 X63.46 Y36.981 E0.03036
G1 X63.648 Y37.211 E0.06311
G1 X63.812 Y37.439 E0.09408
G1 X63.974 Y37.698 E0.12777
G1 X64.102 Y37.937 E0.15767
G1 X64.229 Y38.212 E0.19107
G1 X64.331 Y38.473 E0.22197
G1 X64.426 Y38.776 E0.25699
G1 X64.48 Y38.997 E0.28208
G1 X64.54 Y39.353 E0.32189
G1 X64.59 Y39.907 E0.38323
G1 X64.6 Y40.129 E0.40773
G1 X64.596 Y60.05 E2.6045
G1 X64.572 Y60.427 E2.64616
G1 X64.535 Y60.725 E2.67927
G1 X64.48 Y61.009 E2.71117
G1 X64.404 Y61.3 E2.74434
G1 X64.32 Y61.558 E2.77426
G1 X64.209 Y61.837 E2.80737
G1 X64.087 Y62.095 E2.83884
G1 X63.944 Y62.353 E2.87137
G1 X63.792 Y62.592 E2.90261
G1 X63.619 Y62.827 E2.93479
G1 X63.438 Y63.044 E2.96595
G1 X63.224 Y63.27 E3.00027
G1 X63.019 Y63.46 E3.03109
G1 X62.789 Y63.648 E3.06385
G1 X62.561 Y63.812 E3.09482
G1 X62.302 Y63.974 E3.12851
G1 X62.063 Y64.102 E3.1584
G1 X61.788 Y64.229 E3.19181
G1 X61.527 Y64.331 E3.22271
G1 X61.224 Y64.426 E3.25773
G1 X61.003 Y64.48 E3.28281
G1 X60.647 Y64.54 E3.32262
G1 X60.093 Y64.59 E3.38396
G1 X59.871 Y64.6 E3.40847
G1 X40.076 Y64.6 E5.59134
G1 X39.573 Y64.572 E5.6469
G1 X39.275 Y64.535 E5.68001
G1 X38.991 Y64.48 E5.71191
G1 X38.7 Y64.404 E5.74508
G1 X38.44 Y64.319 E5.77524
G1 X38.163 Y64.209 E5.80811
G1 X37.904 Y64.086 E5.83973
G1 X37.647 Y63.944 E5.8721
G1 X37.408 Y63.792 E5.90334
G1 X37.161 Y63.61 E5.93717
G1 X36.96 Y63.441 E5.96613
G1 X36.727 Y63.221 E6.00147
G1 X36.54 Y63.019 E6.03182
G1 X36.348 Y62.784 E6.06529
G1 X36.188 Y62.561 E6.09555
G1 X36.026 Y62.302 E6.12924
G1 X35.898 Y62.063 E6.15914
G1 X35.771 Y61.788 E6.19254
G1 X35.669 Y61.527 E6.22344
G1 X35.574 Y61.224 E6.25846
G1 X35.518 Y60.995 E6.28446
G1 X35.46 Y60.647 E6.32336
G1 X35.41 Y60.093 E6.3847
G1 X35.4 Y59.871 E6.40921
G1 X35.404 Y39.95 E8.60597
G1 X35.428 Y39.573 E8.64763
G1 X35.465 Y39.275 E8.68075
G1 X35.52 Y38.991 E8.71265
G1 X35.596 Y38.7 E8.74581
G1 X35.68 Y38.442 E8.77573
G1 X35.791 Y38.163 E8.80884
G1 X35.913 Y37.905 E8.84032
G1 X36.059 Y37.642 E8.87349
G1 X36.208 Y37.408 E8.90408
G1 X36.39 Y37.161 E8.93791
G1 X36.559 Y36.96 E8.96687
G1 X36.779 Y36.727 E9.00221
G1 X36.981 Y36.54 E9.03256
G1 X37.211 Y36.352 E9.06532
G1 X37.439 Y36.188 E9.09629
G1 X37.698 Y36.026 E9.12998
G1 X37.937 Y35.898 E9.15988
G1 X38.212 Y35.771 E9.19328
G1 X38.473 Y35.669 E9.22418
G1 X38.776 Y35.574 E9.2592
G1 X38.997 Y35.52 E9.28428
G1 X39.353 Y35.46 E9.3241
G1 X39.907 Y35.41 E9.38544
G1 X40.129 Y35.4 E9.40994
G1 X60.05 Y35.404 E11.60671
G1 X60.427 Y35.428 E11.64837
G1 X60.725 Y35.465 E11.68148
G1 X61.009 Y35.52 E11.71338
G1 X61.3 Y35.596 E11.74655
G1 X61.558 Y35.68 E11.77647
G1 X61.837 Y35.791 E11.80958
G1 X62.095 Y35.913 E11.84105
G1 X62.353 Y36.056 E11.87358
G1 X62.592 Y36.208 E11.90481
G1 X62.839 Y36.39 E11.93865
G1 X63.04 Y36.559 E11.96761
G1 X63.273 Y36.779 E12.00294
G1 F3600 X62.4 Y36.086
G1 F1200 X62.4 Y63.913 E15.07154
G1 F3600 X60.8 Y64.515
G1 F1200 X60.8 Y35.48 E18.27334
G1 F3600 X59.2 Y35.404
G1 F1200 X59.2 Y64.6 E21.4929
G1 F3600 X57.6 Y64.6
G1 F1200 X57.6 Y35.404 E24.71246
G1 F3600 X56 Y35.404
G1 F1200 X56 Y64.6 E27.93202
G1 F3600 X54.4 Y64.6
G1 F1200 X54.4 Y35.403 E31.15169
G1 F3600 X52.8 Y35.403
G1 F1200 X52.8 Y64.6 E34.37136
G1 F3600 X51.2 Y64.6
G1 F1200 X51.2 Y35.403 E37.59103
G1 F3600 X49.6 Y35.402
G1 F1200 X49.6 Y64.6 E40.81081
G1 F3600 X48 Y64.6
G1 F1200 X48 Y35.402 E44.03059
G1 F3600 X46.4 Y35.402
G1 F1200 X46.4 Y64.6 E47.25037
G1 F3600 X44.8 Y64.6
G1 F1200 X44.8 Y35.401 E50.47026
G1 F3600 X43.2 Y35.401
M73 P1
G1 F1200 X43.2 Y64.6 E53.69015
G1 F3600 X41.6 Y64.6
G1 F1200 X41.6 Y35.401 E56.91003
G1 F3600 X40 Y35.405
G1 F1200 X40 Y64.595 E60.12893
G1 F3600 X38.4 Y64.303
G1 F1200 X38.4 Y35.697 E63.28343
G1 F3600 X36.8 Y36.707
M104 S200
G1 F1200 X36.8 Y63.289 E66.21473
G1 F3600 X64 Y62.252
G1 F1200 X64 Y37.747 E68.917
G1 F3600 X63.307 Y36.742
;TIME_ELAPSED:33.612100
;LAYER:-5
G1 X63.307 Y36.742 Z0.619
;TYPE:SUPPORT
G1 F1980 X63.073 Y36.522 E68.94094
G1 X62.875 Y36.355 E68.96025
G1 X62.611 Y36.16 E68.98471
G1 X62.376 Y36.01 E69.00549
G1 X62.125 Y35.872 E69.02684
G1 X61.849 Y35.741 E69.04962
G1 X61.591 Y35.638 E69.07032
G1 X61.312 Y35.546 E69.09222
G1 X61.018 Y35.47 E69.11486
G1 X60.904 Y35.448 E69.12351
G1 X64.546 Y39.09 E69.50744
G1 X64.589 Y39.342 E69.5265
G1 X64.64 Y39.905 E69.56864
G1 X64.65 Y40.126 E69.58513
G1 X64.65 Y40.467 E69.61055
G1 X59.536 Y35.353 E70.14965
G1 X58.263 Y35.353 E70.24455
G1 X64.65 Y41.74 E70.91785
G1 X64.65 Y43.013 E71.01274
G1 X56.99 Y35.353 E71.82024
G1 X55.717 Y35.352 E71.91513
G1 X64.65 Y44.285 E72.85683
G1 X64.65 Y45.558 E72.95172
G1 X54.444 Y35.352 E74.02761
G1 X53.17 Y35.351 E74.12258
G1 X64.649 Y46.83 E75.33267
G1 X64.649 Y48.103 E75.42756
G1 X51.898 Y35.351 E76.77179
G1 X50.625 Y35.351 E76.86669
G1 X64.649 Y49.375 E78.34506
G1 X64.648 Y50.647 E78.43988
G1 X49.351 Y35.351 E80.0524
G1 X48.079 Y35.351 E80.14722
G1 X64.648 Y51.92 E81.89388
G1 X64.648 Y53.193 E81.98878
G1 X46.806 Y35.351 E83.86964
G1 X45.532 Y35.35 E83.96461
G1 X64.647 Y54.465 E85.97966
G1 X64.647 Y55.738 E86.07456
G1 X44.259 Y35.35 E88.22381
G1 X42.986 Y35.349 E88.3187
G1 X64.647 Y57.01 E90.60216
G1 X64.647 Y58.283 E90.69705
G1 X41.713 Y35.349 E93.1147
G1 X40.44 Y35.349 E93.20959
G1 X64.647 Y59.556 E95.76144
G1 X64.646 Y60.051 E95.79833
G1 X64.622 Y60.435 E95.82701
G1 X64.586 Y60.722 E95.84857
G1 X64.579 Y60.76 E95.85145
G1 X39.245 Y35.426 E98.52211
G1 X38.989 Y35.469 E98.54146
G1 X38.75 Y35.527 E98.55979
G1 X38.448 Y35.622 E98.58339
G1 X38.247 Y35.701 E98.59949
G1 X64.297 Y61.752 E101.34567
G1 X64.258 Y61.849 E101.35346
G1 X64.127 Y62.126 E101.3763
G1 X63.988 Y62.377 E101.39769
G1 X63.857 Y62.584 E101.41595
G1 X37.415 Y36.143 E104.20335
G1 X37.406 Y36.148 E104.20412
G1 X37.176 Y36.313 E104.22522
G1 X36.949 Y36.498 E104.24705
G1 X36.741 Y36.691 E104.2682
G1 X36.716 Y36.716 E104.27084
G1 X63.282 Y63.282 E107.07136
G1 X63.259 Y63.305 E107.07379
G1 X63.049 Y63.5 E107.09515
G1 X62.823 Y63.686 E107.11697
G1 X62.592 Y63.851 E107.13813
G1 F3600 X62.583 Y63.855
G1 F1980 X36.142 Y37.415 E109.92543
G1 X36.013 Y37.615 E109.94317
G1 X35.872 Y37.873 E109.96508
G1 X35.742 Y38.142 E109.98735
G1 X35.701 Y38.246 E109.99569
G1 X61.751 Y64.297 E112.74187
G1 X61.55 Y64.376 E112.75797
G1 X61.248 Y64.471 E112.78157
G1 X61.009 Y64.529 E112.7999
G1 X60.753 Y64.572 E112.81925
G1 X35.419 Y39.238 E115.4899
G1 X35.412 Y39.276 E115.49278
G1 X35.376 Y39.564 E115.51442
G1 X35.352 Y39.947 E115.54302
G1 X35.351 Y40.442 E115.57992
G1 X59.558 Y64.649 E118.13177
G1 X58.285 Y64.649 E118.22666
G1 X35.351 Y41.715 E120.64431
G1 X35.351 Y42.988 E120.7392
G1 X57.012 Y64.649 E123.02265
G1 X55.739 Y64.648 E123.11754
G1 X35.351 Y44.26 E125.2668
G1 X35.351 Y45.533 E125.36169
G1 X54.466 Y64.648 E127.37675
G1 X53.192 Y64.647 E127.47172
G1 X35.351 Y46.806 E129.35248
G1 X35.35 Y48.078 E129.44729
G1 X51.92 Y64.647 E131.19401
G1 X50.647 Y64.647 E131.2889
G1 X35.35 Y49.351 E132.90142
G1 X35.35 Y50.623 E132.99624
G1 X49.373 Y64.647 E134.47457
G1 X48.1 Y64.647 E134.56946
G1 X35.35 Y51.896 E135.91359
G1 X35.349 Y53.168 E136.0084
G1 X46.828 Y64.647 E137.21849
G1 X45.554 Y64.646 E137.31346
G1 X35.349 Y54.441 E138.38925
G1 X35.349 Y55.714 E138.48414
G1 X44.281 Y64.646 E139.42573
G1 X43.008 Y64.645 E139.52062
G1 X35.348 Y56.986 E140.32807
G1 X35.348 Y58.259 E140.42296
G1 X41.735 Y64.645 E141.09621
G1 X40.462 Y64.645 E141.1911
G1 X35.348 Y59.532 E141.73015
G1 X35.348 Y59.872 E141.7555
G1 X35.357 Y60.079 E141.77094
G1 X35.409 Y60.657 E141.8142
G1 X35.452 Y60.908 E141.83318
G1 X39.095 Y64.551 E142.21722
G1 X38.981 Y64.529 E142.22588
G1 X38.686 Y64.452 E142.2486
G1 X38.407 Y64.36 E142.2705
G1 X38.15 Y64.258 E142.29111
G1 X37.874 Y64.127 E142.31388
G1 X37.623 Y63.988 E142.33527
G1 X37.384 Y63.837 E142.35635
G1 X37.123 Y63.643 E142.38059
G1 X36.925 Y63.476 E142.39989
G1 X36.692 Y63.257 E142.42373
G1 X36.499 Y63.048 E142.44494
G1 X36.312 Y62.822 E142.4668
G1 X36.148 Y62.59 E142.48798
G1 X35.981 Y62.323 E142.51145
M73 P2
G1 X35.855 Y62.091 E142.53113
G1 X35.718 Y61.794 E142.55552
G1 X35.621 Y61.548 E142.57523
G1 X35.527 Y61.246 E142.5988
G1 X35.469 Y61.007 E142.61714
G1 F3600 X62.583 Y63.855
G1 F1980 X62.592 Y63.851 E142.61787
G1 F3600 X64.529 Y38.989
G1 F1980 X64.471 Y38.752 E142.63606
G1 X64.375 Y38.448 E142.65982
G1 X64.281 Y38.204 E142.67931
G1 X64.142 Y37.904 E142.70396
G1 X64.018 Y37.676 E142.72331
G1 X63.851 Y37.408 E142.74684
G1 X63.686 Y37.176 E142.76806
G1 X63.5 Y36.951 E142.78983
G1 X63.307 Y36.742 E142.81103
G1 F3600 X63.565 Y36.8
;TIME_ELAPSED:64.813652
;LAYER:-4
M106 S255
G1 X63.565 Y36.8 Z0.869
G1 F2400 X36.433 Y36.8 E143.88265
G1 X36.623 Y36.598 E143.8936
G1 X36.837 Y36.4 E143.90512
G1 X63.162 Y36.4 E144.94486
G1 X62.964 Y36.234 E144.95506
G1 X62.703 Y36.042 E144.96786
G1 X62.637 Y36 E144.97095
G1 X37.362 Y36 E145.96922
G1 X37.605 Y35.848 E145.98054
G1 X37.852 Y35.715 E145.99162
G1 X38.1 Y35.6 E146.00242
G1 X61.901 Y35.6 E146.94247
G1 X61.631 Y35.493 E146.95395
G1 X61.346 Y35.4 E146.96579
G1 X61.051 Y35.323 E146.97783
G1 X60.756 Y35.266 E146.98969
G1 X60.453 Y35.229 E147.00175
G1 X60.049 Y35.203 E147.01774
G1 X45.102 Y35.2 E147.60809
G1 X40.097 Y35.2 E147.80577
G1 X40.119 Y35.199 E147.80664
G1 F3600 X36.112 Y37.2
G1 F2400 X36.039 Y37.299 E147.8115
G1 X35.877 Y37.554 E147.82343
G1 X35.852 Y37.6 E147.8255
G1 X64.147 Y37.6 E148.94305
G1 X64.283 Y37.852 E148.95436
G1 X64.352 Y38 E148.96081
G1 X35.647 Y38 E150.09456
G1 X35.599 Y38.1 E150.09894
G1 X35.493 Y38.367 E150.11028
G1 X35.483 Y38.4 E150.11165
G1 X64.517 Y38.4 E151.25838
G1 X64.616 Y38.715 E151.27143
G1 X64.637 Y38.8 E151.27488
G1 X35.362 Y38.8 E152.43114
G1 X35.324 Y38.941 E152.43691
G1 X35.275 Y39.2 E152.44732
G1 X64.717 Y39.2 E153.61017
G1 X64.738 Y39.328 E153.6153
G1 X64.763 Y39.6 E153.62608
G1 X35.226 Y39.6 E154.79269
G1 X35.203 Y39.949 E154.8065
G1 X35.203 Y40 E154.80852
G1 X64.794 Y40 E155.97726
G1 X64.799 Y40.11 E155.98161
G1 X64.798 Y40.4 E155.99306
G1 X35.203 Y40.4 E157.16196
G1 X35.203 Y40.8 E157.17775
G1 X64.798 Y40.8 E158.34665
G1 X64.798 Y41.2 E158.36245
G1 X35.203 Y41.2 E159.53135
G1 X35.203 Y41.6 E159.54714
G1 X64.798 Y41.6 E160.71604
G1 X64.798 Y42 E160.73184
G1 X35.203 Y42 E161.90074
G1 X35.203 Y42.4 E161.91653
G1 X64.798 Y42.4 E163.08543
G1 X64.798 Y42.8 E163.10123
G1 X35.203 Y42.8 E164.27012
G1 X35.203 Y43.2 E164.28592
G1 X64.798 Y43.2 E165.45482
G1 X64.798 Y43.6 E165.47062
G1 X35.203 Y43.6 E166.63951
G1 X35.203 Y44 E166.65531
G1 X64.798 Y44 E167.82421
G1 X64.798 Y44.4 E167.84001
G1 X35.203 Y44.4 E169.0089
G1 X35.203 Y44.8 E169.0247
G1 X64.798 Y44.8 E170.1936
G1 X64.797 Y45.2 E170.2094
G1 X35.202 Y45.2 E171.37829
G1 X35.202 Y45.6 E171.39409
G1 X64.797 Y45.6 E172.56299
G1 X64.797 Y46 E172.57879
G1 X35.202 Y46 E173.74768
G1 X35.202 Y46.4 E173.76348
G1 X64.797 Y46.4 E174.93238
G1 X64.797 Y46.8 E174.94818
G1 X35.202 Y46.8 E176.11707
G1 X35.202 Y47.2 E176.13287
G1 X64.797 Y47.2 E177.30177
G1 X64.797 Y47.6 E177.31757
G1 X35.202 Y47.6 E178.48646
G1 X35.202 Y48 E178.50226
G1 X64.797 Y48 E179.67116
G1 X64.797 Y48.4 E179.68696
G1 X35.202 Y48.4 E180.85585
G1 X35.202 Y48.8 E180.87165
G1 X64.797 Y48.8 E182.04055
G1 X64.797 Y49.2 E182.05635
G1 X35.202 Y49.2 E183.22524
G1 X35.202 Y49.6 E183.24104
G1 X64.797 Y49.6 E184.40994
G1 X64.797 Y50 E184.42574
G1 X35.201 Y50 E185.59467
G1 X35.201 Y50.4 E185.61047
G1 X64.796 Y50.4 E186.77937
G1 X64.796 Y50.8 E186.79516
G1 X35.201 Y50.8 E187.96406
G1 X35.201 Y51.2 E187.97986
G1 X64.796 Y51.2 E189.14876
G1 X64.796 Y51.6 E189.16455
G1 X35.201 Y51.6 E190.33345
G1 X35.201 Y52 E190.34925
G1 X64.796 Y52 E191.51815
G1 X64.796 Y52.4 E191.53394
G1 X35.201 Y52.4 E192.70284
G1 X35.201 Y52.8 E192.71864
G1 X64.796 Y52.8 E193.88754
G1 X64.796 Y53.2 E193.90333
G1 X35.201 Y53.2 E195.07223
G1 X35.201 Y53.6 E195.08803
G1 X64.796 Y53.6 E196.25692
G1 X64.796 Y54 E196.27272
G1 X35.201 Y54 E197.44162
G1 X35.201 Y54.4 E197.45742
G1 X64.796 Y54.4 E198.62631
G1 X64.796 Y54.8 E198.64211
G1 X35.201 Y54.8 E199.81101
G1 X35.2 Y55.2 E199.82681
G1 X64.795 Y55.2 E200.9957
G1 X64.795 Y55.6 E201.0115
G1 X35.2 Y55.6 E202.1804
G1 X35.2 Y56 E202.1962
G1 X64.795 Y56 E203.36509
G1 X64.795 Y56.4 E203.38089
G1 X35.2 Y56.4 E204.54979
G1 X35.2 Y56.8 E204.56559
G1 X64.795 Y56.8 E205.73448
G1 X64.795 Y57.2 E205.75028
G1 X35.2 Y57.2 E206.91918
M73 P3
G1 X35.2 Y57.6 E206.93498
G1 X64.795 Y57.6 E208.10387
G1 X64.795 Y58 E208.11967
G1 X35.2 Y58 E209.28857
G1 X35.2 Y58.4 E209.30437
G1 X64.795 Y58.4 E210.47326
G1 X64.795 Y58.8 E210.48906
G1 X35.2 Y58.8 E211.65796
G1 X35.2 Y59.2 E211.67376
G1 X64.795 Y59.2 E212.84265
G1 X64.795 Y59.6 E212.85845
G1 X35.2 Y59.6 E214.02735
G1 X35.199 Y59.888 E214.03872
G1 X35.204 Y60 E214.04315
G1 X64.795 Y60 E215.21189
G1 X64.795 Y60.049 E215.21382
G1 X64.772 Y60.4 E215.22772
G1 X35.235 Y60.4 E216.39432
G1 X35.26 Y60.67 E216.40503
G1 X35.281 Y60.8 E216.41023
G1 X64.723 Y60.8 E217.57309
G1 X64.676 Y61.049 E217.58309
G1 X64.636 Y61.2 E217.58926
G1 X35.361 Y61.2 E218.74552
G1 X35.382 Y61.283 E218.7489
G1 X35.481 Y61.6 E218.76202
G1 X64.515 Y61.6 E219.90876
G1 X64.505 Y61.631 E219.91005
G1 X64.399 Y61.898 E219.92139
G1 X64.35 Y62 E219.92586
G1 X35.647 Y62 E221.05953
G1 X35.715 Y62.146 E221.06589
G1 X35.852 Y62.4 E221.07729
G1 X64.145 Y62.4 E222.19476
G1 X64.121 Y62.444 E222.19674
G1 X63.959 Y62.699 E222.20867
G1 X63.884 Y62.8 E222.21364
G1 X36.113 Y62.8 E223.31049
G1 X36.191 Y62.908 E223.31575
G1 X36.386 Y63.147 E223.32794
G1 X36.435 Y63.2 E223.33079
G1 X63.564 Y63.2 E224.40229
G1 X63.375 Y63.4 E224.41316
G1 X63.159 Y63.6 E224.42478
G1 X36.839 Y63.6 E225.46433
G1 X37.034 Y63.764 E225.47439
G1 X37.295 Y63.956 E225.48719
G1 X37.364 Y64 E225.49042
G1 X62.633 Y64 E226.48846
G1 X62.394 Y64.149 E226.49958
G1 X62.146 Y64.283 E226.51071
G1 X61.894 Y64.4 E226.52169
G1 X38.102 Y64.4 E227.46138
G1 F3600 X38.366 Y64.505
G1 F2400 X38.65 Y64.597 E227.47318
G1 X38.947 Y64.675 E227.4853
G1 X39.242 Y64.732 E227.49717
G1 X39.545 Y64.769 E227.50923
G1 X39.949 Y64.795 E227.52522
G1 X59.879 Y64.799 E228.31238
G1 X60.101 Y64.789 E228.32116
G1 X60.67 Y64.738 E228.34372
G1 X61.04 Y64.675 E228.35854
G1 X61.284 Y64.616 E228.36846
G1 X61.595 Y64.518 E228.38134
G1 X61.862 Y64.415 E228.39264
G1 X61.894 Y64.4 E228.39404
G1 F3600 X63.887 Y37.2
G1 F2400 X36.112 Y37.2 E229.49105
G1 F3600 X63.565 Y36.8
G1 F2400 X63.609 Y36.848 E229.49362
G1 X63.807 Y37.09 E229.50597
G1 X63.887 Y37.2 E229.51134
G1 F3600 X63.4 Y36.623
;TIME_ELAPSED:121.405828
;LAYER:-3
G1 X63.4 Y36.623 Z1.119
G1 F2400 X63.199 Y36.434 E229.52224
G1 X63.199 Y63.564 E230.59378
G1 X63.15 Y63.609 E230.59641
G1 X62.908 Y63.807 E230.60876
G1 X62.799 Y63.886 E230.61407
G1 X62.799 Y36.113 E231.71101
G1 X62.703 Y36.042 E231.71572
G1 X62.45 Y35.881 E231.72757
G1 X62.399 Y35.853 E231.72986
G1 X62.399 Y64.146 E232.84734
G1 X62.146 Y64.283 E232.8587
G1 X61.999 Y64.352 E232.86511
G1 X61.999 Y35.647 E233.99886
G1 X61.901 Y35.6 E234.00315
G1 X61.631 Y35.493 E234.01462
G1 X61.599 Y35.483 E234.01595
G1 X61.599 Y64.517 E235.16269
G1 X61.284 Y64.616 E235.17573
G1 X61.199 Y64.637 E235.17918
G1 X61.199 Y35.362 E236.33544
G1 X61.051 Y35.323 E236.34149
G1 X60.799 Y35.275 E236.35162
G1 X60.799 Y64.717 E237.51447
G1 X60.67 Y64.738 E237.51963
G1 X60.399 Y64.763 E237.53038
G1 X60.399 Y35.226 E238.69699
G1 X60.049 Y35.203 E238.71084
G1 X59.999 Y35.203 E238.71282
G1 X59.999 Y64.794 E239.88156
G1 X59.879 Y64.799 E239.8863
G1 X59.599 Y64.798 E239.89736
G1 X59.599 Y35.203 E241.06625
G1 X59.199 Y35.203 E241.08205
G1 X59.199 Y64.798 E242.25095
G1 X58.799 Y64.798 E242.26675
