M73 P0
;MINX:31.6
;MAXX:67.7
;MINY:41.7
;MAXY:76.6
;MINZ:0.0
;MAXZ:38.0
;MachineType:ENTINA TINA2
;FilamentType:PLA
;Extruder0Temperature:200
;InfillDensity:10
;FLAVOR:Marlin
;TIME:3267
;FilamentUsed:2068.9
;Layer height: 0.2

;Generated with Cura_SteamEngine 3.1
M104 T0 S215
M82 ; absolute extrusion mode
;(**** start.gcode for tina2****)
M104 S150
G28 Z
G28 X Y; Home extruder
G1 X55 Y55 F1000
G1 Z10 F200
G29
G1 Z15 F100
M107 ; Turn off fan
G90 ; Absolute positioning
M82 ; Extruder in absolute mode
M109 S215.0
G92 E0 ; Reset extruder position
G1 X90 Y6 Z0.27 F2000
G1 X20 Y6 Z0.27 E15 F1000
G92 E0 ; Reset extruder position

;LAYER_COUNT:190
;LAYER:0
M106 S255
M203 Z5
G1 F3600 X63.845 Y42.928 Z0.299
;TYPE:SKIRT
G1 F1200 X64.112 Y43.176 E0.019
G1 X64.877 Y43.953 E0.07585
G1 X65.249 Y44.387 E0.10565
G1 X65.633 Y45.017 E0.14411
G1 X66.106 Y45.977 E0.19991
G1 X66.322 Y46.507 E0.22975
G1 X66.478 Y47.148 E0.26414
G1 X66.583 Y47.811 E0.29914
G1 X66.63 Y48.294 E0.32444
G1 X66.96 Y56.825 E0.76954
G1 X66.963 Y57.03 E0.78022
G1 X66.939 Y59.141 E0.89029
G1 X66.92 Y59.493 E0.90867
G1 X66.686 Y61.885 E1.03397
G1 X66.62 Y62.315 E1.05665
G1 X66.187 Y64.412 E1.16829
G1 X66.093 Y64.781 E1.18814
G1 X65.593 Y66.417 E1.27733
G1 X65.386 Y66.955 E1.30738
G1 X64.401 Y69.062 E1.42864
G1 X64.125 Y69.561 E1.45837
G1 X63.068 Y71.187 E1.55948
G1 X62.638 Y71.738 E1.59592
G1 X62.009 Y72.417 E1.64417
G1 X61.505 Y72.878 E1.67978
G1 X60.657 Y73.532 E1.73561
G1 X60.194 Y73.841 E1.76463
G1 X59.246 Y74.385 E1.82162
G1 X58.655 Y74.664 E1.85569
G1 X56.372 Y75.527 E1.98293
G1 X55.843 Y75.687 E2.01175
G1 X54.373 Y76.026 E2.0904
G1 X53.597 Y76.128 E2.1312
G1 X47.841 Y76.332 E2.43148
G1 X47.505 Y76.331 E2.449
G1 X46.069 Y76.264 E2.52395
G1 X45.361 Y76.168 E2.5612
G1 X43.18 Y75.678 E2.67774
G1 X42.744 Y75.555 E2.70136
G1 X41.748 Y75.212 E2.75628
G1 X41.264 Y75.009 E2.78364
G1 X39.717 Y74.243 E2.87364
G1 X39.134 Y73.892 E2.90912
G1 X38.499 Y73.433 E2.94997
G1 X37.919 Y72.923 E2.99023
G1 X36.788 Y71.724 E3.07616
G1 X36.397 Y71.242 E3.10852
G1 X35.619 Y70.116 E3.17988
G1 X35.369 Y69.705 E3.20496
G1 X34.633 Y68.316 E3.28691
G1 X34.483 Y68.001 E3.3051
G1 X33.942 Y66.729 E3.37716
G1 X33.782 Y66.283 E3.40187
G1 X32.964 Y63.508 E3.5527
G1 X32.863 Y63.081 E3.57557
G1 X32.677 Y62.056 E3.62989
G1 X32.634 Y61.759 E3.64553
G1 X32.375 Y59.331 E3.77283
G1 X32.353 Y58.964 E3.792
G1 X32.187 Y49.029 E4.31004
G1 X32.217 Y48.458 E4.33985
G1 X32.268 Y48.145 E4.35638
G1 X32.444 Y47.278 E4.4025
G1 X32.597 Y46.727 E4.43232
G1 X32.825 Y46.202 E4.46216
G1 X32.969 Y45.948 E4.47738
G1 X33.611 Y44.903 E4.54132
G1 X33.944 Y44.437 E4.57118
G1 X34.224 Y44.13 E4.59285
G1 X34.598 Y43.761 E4.62024
G1 X35.033 Y43.389 E4.65008
G1 X35.277 Y43.221 E4.66552
G1 X35.948 Y42.794 E4.70699
G1 X36.671 Y42.429 E4.74921
G1 X37.716 Y42.025 E4.80762
G1 X38.175 Y41.878 E4.83275
G1 X39.165 Y41.624 E4.88604
G1 X39.821 Y41.511 E4.92074
G1 X40.552 Y41.446 E4.959
G1 X41.081 Y41.433 E4.98659
G1 X43.172 Y41.518 E5.0957
G1 X48.643 Y41.561 E5.38094
G1 X54.088 Y41.297 E5.66515
G1 X57.549 Y40.999 E5.84625
G1 X58.33 Y41.006 E5.88697
G1 X59.062 Y41.083 E5.92535
G1 X59.586 Y41.173 E5.95307
G1 X60.833 Y41.471 E6.01991
G1 X61.571 Y41.724 E6.06058
G1 X62.881 Y42.317 E6.13555
G1 X63.384 Y42.589 E6.16536
G1 X63.845 Y42.928 E6.1952
G1 F3600 X63.798 Y43.484
G1 F1200 X64.563 Y44.261 E6.25205
G1 X64.913 Y44.674 E6.28027
G1 X65.238 Y45.211 E6.31299
G1 X65.711 Y46.171 E6.36879
G1 X65.914 Y46.673 E6.39702
G1 X66.043 Y47.216 E6.42612
G1 X66.148 Y47.879 E6.46111
G1 X66.19 Y48.311 E6.48374
G1 X66.52 Y56.842 E6.92884
G1 X66.523 Y57.025 E6.93838
G1 X66.499 Y59.136 E7.04845
G1 X66.482 Y59.45 E7.06484
G1 X66.248 Y61.842 E7.19015
G1 X66.189 Y62.226 E7.2104
G1 X65.756 Y64.323 E7.32203
G1 X65.672 Y64.653 E7.33979
G1 X65.172 Y66.289 E7.42898
G1 X64.988 Y66.769 E7.45578
G1 X64.003 Y68.876 E7.57704
G1 X63.756 Y69.321 E7.60357
G1 X62.699 Y70.947 E7.70468
G1 X62.315 Y71.439 E7.73722
G1 X61.686 Y72.118 E7.78547
G1 X61.236 Y72.529 E7.81725
G1 X60.388 Y73.183 E7.87308
G1 X59.975 Y73.459 E7.89898
G1 X59.027 Y74.003 E7.95596
G1 X58.499 Y74.253 E7.98642
G1 X56.216 Y75.116 E8.11366
G1 X55.744 Y75.258 E8.13936
G1 X54.274 Y75.597 E8.21801
G1 X53.582 Y75.689 E8.2544
G1 X47.826 Y75.893 E8.55468
G1 X47.525 Y75.891 E8.57038
G1 X46.089 Y75.824 E8.64532
G1 X45.458 Y75.739 E8.67852
G1 X43.277 Y75.249 E8.79506
G1 X42.887 Y75.139 E8.81619
G1 X41.891 Y74.796 E8.8711
G1 X41.459 Y74.615 E8.89552
G1 X39.912 Y73.849 E8.98552
G1 X39.392 Y73.535 E9.01719
G1 X38.757 Y73.076 E9.05804
G1 X38.239 Y72.621 E9.09399
G1 X37.108 Y71.422 E9.17992
G1 X36.759 Y70.992 E9.20879
G1 X35.981 Y69.866 E9.28015
G1 X35.758 Y69.499 E9.30253
G1 X35.022 Y68.11 E9.38449
G1 X34.888 Y67.828 E9.40077
G1 X34.347 Y66.556 E9.47283
G1 X34.204 Y66.159 E9.49483
G1 X33.386 Y63.384 E9.64566
G1 X33.296 Y63.002 E9.66612
G1 X33.11 Y61.977 E9.72043
G1 X33.072 Y61.712 E9.73439
G1 X32.813 Y59.284 E9.86169
G1 X32.793 Y58.957 E9.87877
G1 X32.627 Y49.022 E10.39681
G1 X32.699 Y48.233 E10.43811
G1 X32.875 Y47.366 E10.48424
G1 X33.022 Y46.845 E10.51246
G1 X33.343 Y46.178 E10.55105
G1 X33.985 Y45.133 E10.61499
G1 X34.302 Y44.695 E10.64318
G1 X34.533 Y44.444 E10.66097
G1 X34.907 Y44.075 E10.68836
G1 X35.513 Y43.592 E10.72876
G1 X36.184 Y43.165 E10.77023
G1 X36.829 Y42.839 E10.8079
G1 X37.874 Y42.435 E10.86631
G1 X38.284 Y42.304 E10.88875
G1 X39.274 Y42.05 E10.94204
G1 X39.86 Y41.949 E10.97304
G1 X40.591 Y41.884 E11.0113
G1 X41.063 Y41.873 E11.03592
G1 X43.151 Y41.957 E11.14486
G1 X48.644 Y42.001 E11.43125
G1 X54.12 Y41.736 E11.71708
G1 X57.587 Y41.437 E11.8985
G1 X58.284 Y41.444 E11.93484
G1 X59.016 Y41.521 E11.97322
G1 X59.484 Y41.601 E11.99797
G1 X60.731 Y41.899 E12.06481
G1 X61.389 Y42.125 E12.10109
G1 X62.699 Y42.718 E12.17605
G1 X63.174 Y42.976 E12.20424
G1 X63.798 Y43.484 E12.24619
G1 F3600 X63.485 Y43.793
G1 F1200 X64.25 Y44.57 E12.30303
G1 X64.576 Y44.958 E12.32945
G1 X64.843 Y45.406 E12.35664
G1 X65.316 Y46.366 E12.41244
G1 X65.504 Y46.837 E12.43888
G1 X65.608 Y47.285 E12.46286
G1 X65.713 Y47.948 E12.49785
G1 X65.751 Y48.328 E12.51776
G1 X66.081 Y56.859 E12.96286
G1 X66.083 Y57.02 E12.97126
G1 X66.059 Y59.131 E13.08132
G1 X66.044 Y59.408 E13.09578
G1 X65.81 Y61.8 E13.22109
G1 X65.758 Y62.137 E13.23886
G1 X65.325 Y64.234 E13.3505
G1 X65.251 Y64.524 E13.3661
G1 X64.751 Y66.16 E13.45529
G1 X64.589 Y66.583 E13.4789
G1 X63.604 Y68.69 E13.60016
G1 X63.387 Y69.081 E13.62348
G1 X62.33 Y70.707 E13.72459
G1 X61.992 Y71.14 E13.75323
G1 X61.363 Y71.819 E13.80148
G1 X60.967 Y72.181 E13.82945
G1 X60.119 Y72.835 E13.88528
G1 X59.756 Y73.078 E13.90806
G1 X58.808 Y73.622 E13.96504
G1 X58.344 Y73.841 E13.99179
G1 X56.061 Y74.704 E14.11904
G1 X55.646 Y74.83 E14.14165
G1 X54.176 Y75.169 E14.2203
G1 X53.566 Y75.249 E14.25237
G1 X47.81 Y75.453 E14.55265
G1 X47.546 Y75.452 E14.56642
G1 X46.11 Y75.385 E14.64136
G1 X45.554 Y75.31 E14.67061
G1 X43.373 Y74.82 E14.78715
G1 X43.031 Y74.723 E14.80569
G1 X42.035 Y74.38 E14.86061
G1 X41.654 Y74.221 E14.88213
G1 X40.107 Y73.455 E14.97213
G1 X39.65 Y73.179 E14.99996
G1 X39.015 Y72.72 E15.04081
G1 X38.559 Y72.319 E15.07247
G1 X37.428 Y71.12 E15.1584
G1 X37.121 Y70.741 E15.18383
G1 X36.343 Y69.615 E15.25519
G1 X36.147 Y69.293 E15.27484
G1 X35.411 Y67.904 E15.35679
G1 X35.293 Y67.656 E15.37111
G1 X34.752 Y66.384 E15.44318
G1 X34.626 Y66.034 E15.46257
G1 X33.808 Y63.259 E15.6134
G1 X33.729 Y62.924 E15.63135
G1 X33.543 Y61.899 E15.68566
G1 X33.509 Y61.666 E15.69793
G1 X33.25 Y59.238 E15.82524
G1 X33.232 Y58.95 E15.84028
G1 X33.066 Y49.015 E16.35832
G1 X33.13 Y48.32 E16.3947
G1 X33.306 Y47.453 E16.44083
G1 X33.446 Y46.966 E16.46724
G1 X33.718 Y46.408 E16.49961
G1 X34.36 Y45.363 E16.56355
G1 X34.659 Y44.954 E16.58996
G1 X34.842 Y44.757 E16.60398
G1 X35.216 Y44.388 E16.63137
G1 X35.749 Y43.963 E16.66691
G1 X36.42 Y43.536 E16.70838
G1 X36.988 Y43.25 E16.74153
G1 X38.033 Y42.846 E16.79994
G1 X38.394 Y42.73 E16.81971
G1 X39.384 Y42.476 E16.873
G1 X39.899 Y42.388 E16.90024
G1 X40.63 Y42.323 E16.9385
G1 X41.045 Y42.313 E16.96014
G1 X43.129 Y42.397 E17.06888
G1 X48.662 Y42.441 E17.35735
G1 X54.153 Y42.175 E17.64396
G1 X57.625 Y41.876 E17.82565
G1 X58.238 Y41.882 E17.85761
G1 X58.97 Y41.959 E17.89598
G1 X59.381 Y42.029 E17.91772
G1 X60.628 Y42.327 E17.98456
G1 X61.208 Y42.526 E18.01653
G1 X62.518 Y43.119 E18.0915
G1 X62.962 Y43.363 E18.11791
G1 X63.485 Y43.793 E18.15321
G1 F1680 E15.15321
G1 F3600 X59.683 Y46.092
;TYPE:WALL-INNER
G1 F1680 E18.15321
G1 F1320 X60.07 Y46.215 E18.17438
G1 X60.471 Y46.377 E18.19693
G1 X60.828 Y46.593 E18.21868
G1 X61.287 Y47.029 E18.25169
G1 X61.385 Y47.153 E18.25993
G1 X61.529 Y47.355 E18.27286
G1 X61.664 Y47.627 E18.28869
G1 X61.805 Y47.98 E18.30851
G1 X61.871 Y48.305 E18.3258
G1 X61.889 Y48.824 E18.35288
G1 X61.859 Y49.194 E18.37223
G1 X61.812 Y49.567 E18.39183
G1 X61.757 Y49.724 E18.4005
G1 X61.621 Y50.288 E18.43075
G1 X61.568 Y50.463 E18.44028
G1 X61.485 Y50.662 E18.45152
G1 X61.45 Y50.914 E18.46479
G1 X61.451 Y51.007 E18.46964
G1 X61.386 Y51.483 E18.49468
G1 X61.419 Y51.715 E18.5069
G1 X61.443 Y52.031 E18.52342
G1 X61.487 Y52.336 E18.53949
G1 X61.539 Y52.578 E18.55239
G1 X61.665 Y53.005 E18.5756
G1 X62.023 Y54.745 E18.66822
G1 X62.096 Y55.457 E18.70553
G1 X62.123 Y55.62 E18.71415
G1 X62.153 Y55.904 E18.72904
G1 X62.201 Y56.734 E18.77238
G1 X62.222 Y57.724 E18.82401
G1 X62.206 Y58.713 E18.87558
G1 X62.165 Y59.533 E18.91838
G1 X62.042 Y60.896 E18.98973
G1 X62.002 Y61.115 E19.00133
G1 X61.902 Y61.759 E19.03531
G1 X61.804 Y62.27 E19.06244
G1 X61.563 Y63.342 E19.11972
G1 X61.323 Y64.184 E19.16537
G1 X61.06 Y64.999 E19.21002
G1 X60.604 Y66.126 E19.2734
G1 X60.519 Y66.286 E19.28285
G1 X59.615 Y67.874 E19.37811
G1 X59.147 Y68.512 E19.41936
G1 X59.074 Y68.577 E19.42446
G1 X58.564 Y69.148 E19.46437
G1 X58.168 Y69.448 E19.49028
G1 X57.932 Y69.642 E19.5062
G1 X57.81 Y69.731 E19.51408
G1 X57.433 Y69.938 E19.5365
G1 X56.907 Y70.25 E19.56838
G1 X56.067 Y70.606 E19.61595
G1 X55.285 Y70.9 E19.6595
G1 X54.874 Y71.022 E19.68186
G1 X54.212 Y71.207 E19.71769
G1 X53.982 Y71.244 E19.72984
G1 X53.575 Y71.345 E19.7517
G1 X53.293 Y71.398 E19.76666
G1 X52.763 Y71.451 E19.79443
G1 X51.754 Y71.434 E19.84704
G1 X51.631 Y71.41 E19.85357
G1 X51.351 Y71.383 E19.86824
G1 X50.861 Y71.254 E19.89466
G1 X50.591 Y71.171 E19.90938
G1 X50.424 Y71.013 E19.92137
G1 X49.97 Y70.838 E19.94674
G1 X49.522 Y71.04 E19.97236
G1 X49.372 Y71.194 E19.98356
G1 X49.096 Y71.313 E19.99923
G1 X48.892 Y71.374 E20.01034
G1 X48.285 Y71.515 E20.04282
G1 X47.769 Y71.582 E20.06995
G1 X47.219 Y71.577 E20.09863
G1 X47.099 Y71.581 E20.10489
G1 X46.8 Y71.566 E20.1205
G1 X46.53 Y71.542 E20.13463
G1 X45.934 Y71.462 E20.16598
G1 X45.212 Y71.309 E20.20446
G1 X44.554 Y71.124 E20.24009
G1 X44.285 Y71.061 E20.2545
G1 X43.92 Y70.929 E20.27473
G1 X43.462 Y70.778 E20.29987
G1 X42.984 Y70.596 E20.32654
G1 X42.846 Y70.533 E20.33445
G1 X42.451 Y70.315 E20.35797
G1 X42.025 Y70.111 E20.38259
G1 X41.381 Y69.664 E20.42346
G1 X41.283 Y69.582 E20.43013
G1 X40.28 Y68.506 E20.50682
G1 X39.825 Y67.886 E20.54691
G1 X39.733 Y67.714 E20.55708
G1 X39.446 Y67.267 E20.58477
G1 X39.159 Y66.762 E20.61506
G1 X38.907 Y66.249 E20.64486
G1 X38.323 Y64.889 E20.72202
G1 X37.912 Y63.646 E20.79028
G1 X37.663 Y62.723 E20.84012
G1 X37.533 Y62.212 E20.86761
G1 X37.299 Y60.878 E20.93822
G1 X37.293 Y60.729 E20.94599
G1 X37.214 Y60.136 E20.97718
G1 X37.149 Y59.47 E21.01207
G1 X37.063 Y58.175 E21.07973
G1 X37.019 Y56.841 E21.14932
G1 X37.046 Y56.438 E21.17037
G1 X37.091 Y55.532 E21.21767
G1 X37.116 Y55.408 E21.22426
G1 X37.155 Y54.981 E21.24662
G1 X37.244 Y54.383 E21.27814
G1 X37.354 Y53.883 E21.30483
G1 X37.48 Y53.072 E21.34762
G1 X37.525 Y52.91 E21.35638
G1 X37.549 Y52.409 E21.38253
G1 X37.571 Y52.259 E21.39044
G1 X37.55 Y52.014 E21.40326
G1 X37.558 Y51.919 E21.40823
G1 X37.526 Y51.693 E21.42013
G1 X37.384 Y51.209 E21.44642
G1 X37.305 Y51.016 E21.4573
G1 X37.162 Y50.588 E21.48082
G1 X37.123 Y50.506 E21.48556
G1 X37.015 Y50.13 E21.50595
G1 X36.968 Y49.797 E21.52349
G1 X36.928 Y49.438 E21.54232
G1 X36.936 Y49.006 E21.56484
G1 X37.062 Y48.348 E21.59977
G1 X37.085 Y48.292 E21.60293
G1 X37.216 Y48.049 E21.61732
G1 X37.235 Y47.994 E21.62035
G1 X37.45 Y47.649 E21.64155
G1 X37.618 Y47.449 E21.65517
G1 X37.896 Y47.179 E21.67537
G1 X38.077 Y47.051 E21.68693
G1 X38.282 Y46.918 E21.69967
G1 X38.377 Y46.867 E21.70529
G1 X38.439 Y46.85 E21.70864
G1 X39.21 Y46.545 E21.75187
G1 X39.323 Y46.492 E21.75838
G1 X40.108 Y46.27 E21.80091
G1 X40.657 Y46.188 E21.82985
G1 X40.902 Y46.187 E21.84262
G1 X41.016 Y46.179 E21.84858
G1 X41.144 Y46.185 E21.85526
G1 X41.31 Y46.208 E21.864
G1 X41.511 Y46.261 E21.87483
G1 X41.754 Y46.384 E21.88903
G1 X41.923 Y46.528 E21.90061
G1 X42.187 Y46.876 E21.92338
G1 X42.275 Y47.044 E21.93327
G1 X42.372 Y47.283 E21.94672
G1 X42.472 Y47.455 E21.95709
G1 X42.823 Y48.186 E21.99937
G1 X43.073 Y48.439 E22.01791
G1 X43.2 Y48.592 E22.02828
G1 X43.63 Y48.825 E22.05377
G1 X44.072 Y48.893 E22.07709
G1 X44.559 Y48.863 E22.10253
G1 X45.91 Y48.618 E22.17411
G1 X47.084 Y48.454 E22.23591
G1 X47.853 Y48.45 E22.276
G1 X48.119 Y48.469 E22.28991
G1 X49.283 Y48.602 E22.35099
G1 X49.483 Y48.594 E22.36142
G1 X50.032 Y48.505 E22.39042
G1 X50.196 Y48.506 E22.39897
G1 X50.835 Y48.373 E22.433
G1 X51.202 Y48.341 E22.4522
G1 X51.437 Y48.332 E22.46446
G1 X51.549 Y48.336 E22.47031
G1 X53.014 Y48.47 E22.547
G1 X53.486 Y48.532 E22.57182
G1 X54.097 Y48.593 E22.60384
G1 X54.659 Y48.635 E22.63322
G1 X55.049 Y48.565 E22.65388
G1 X55.461 Y48.372 E22.6776
G1 X55.719 Y48.139 E22.69572
G1 X55.842 Y48.005 E22.7052
G1 X55.998 Y47.764 E22.72017
G1 X56.092 Y47.513 E22.73414
G1 X56.494 Y46.545 E22.78879
G1 X56.673 Y46.281 E22.80542
G1 X56.731 Y46.181 E22.81145
G1 X57.038 Y45.924 E22.83232
G1 X57.139 Y45.866 E22.83839
G1 X57.357 Y45.803 E22.85022
G1 X57.566 Y45.766 E22.86129
G1 X57.623 Y45.743 E22.86449
G1 X57.892 Y45.734 E22.87852
G1 X58.26 Y45.76 E22.89776
G1 X58.496 Y45.797 E22.91021
G1 X58.883 Y45.898 E22.93106
G1 X59.418 Y46.012 E22.95958
G1 X59.64 Y46.069 E22.97153
G1 X59.683 Y46.092 E22.97407
G1 F1680 E19.97407
G1 F3600 X57.477 Y51.467
G1 F1680 E22.97407
G1 F1320 X57.301 Y51.347 E22.98518
G1 X57.046 Y51.24 E22.9996
G1 X56.873 Y51.195 E23.00892
G1 X56.687 Y51.169 E23.01871
G1 X56.354 Y51.17 E23.03607
G1 X56.161 Y51.2 E23.04625
G1 X55.981 Y51.245 E23.05593
G1 X55.804 Y51.317 E23.06589
G1 X55.643 Y51.407 E23.0755
G1 X55.486 Y51.525 E23.08574
G1 X55.458 Y51.554 E23.08784
G1 X55.438 Y51.53 E23.08947
G1 X55.267 Y51.396 E23.1008
G1 X55.098 Y51.302 E23.11088
G1 X54.919 Y51.232 E23.1209
G1 X54.734 Y51.187 E23.13083
G1 X54.541 Y51.162 E23.14097
G1 X54.22 Y51.16 E23.15771
G1 X53.923 Y51.199 E23.17333
G1 X53.644 Y51.28 E23.18847
G1 X53.48 Y51.361 E23.19801
G1 X53.333 Y51.457 E23.20716
G1 X53.19 Y51.592 E23.21742
G1 X53.117 Y51.506 E23.2233
G1 X52.962 Y51.377 E23.23381
G1 X52.793 Y51.276 E23.24408
G1 X52.611 Y51.208 E23.2542
G1 X52.419 Y51.166 E23.26445
G1 X52.151 Y51.156 E23.27843
G1 X51.886 Y51.19 E23.29236
G1 X51.634 Y51.277 E23.30626
G1 X51.607 Y51.295 E23.30795
G1 X51.509 Y51.244 E23.31371
G1 X51.262 Y51.175 E23.32708
G1 X51.016 Y51.155 E23.33995
G1 X50.817 Y51.168 E23.35035
G1 X50.614 Y51.203 E23.36109
G1 X50.552 Y51.226 E23.36454
G1 X48.891 Y51.221 E23.45113
G1 X48.891 Y51.27 E23.45369
G1 X48.862 Y51.256 E23.45537
G1 X48.632 Y51.19 E23.46784
G1 X48.385 Y51.157 E23.48083
G1 X48.043 Y51.169 E23.49867
G1 X47.797 Y51.217 E23.51174
G1 X47.566 Y51.301 E23.52456
G1 X47.351 Y51.421 E23.53739
G1 X47.159 Y51.576 E23.55026
G1 X47.091 Y51.654 E23.55565
G1 X46.967 Y51.508 E23.56564
G1 X46.816 Y51.377 E23.57606
G1 X46.642 Y51.276 E23.58655
G1 X46.462 Y51.208 E23.59658
G1 X46.267 Y51.167 E23.60697
G1 X46.15 Y51.162 E23.61308
G1 X46.152 Y50.114 E23.66771
G1 X43.936 Y50.114 E23.78325
G1 X43.936 Y50.342 E23.79513
G1 X41.405 Y50.342 E23.92709
G1 X41.405 Y52.623 E24.04601
G1 X42.306 Y52.623 E24.09298
G1 X42.304 Y53.608 E24.14433
G1 X41.95 Y53.612 E24.16279
G1 X41.95 Y55.189 E24.24501
G1 X47.704 Y55.189 E24.54499
G1 X47.7 Y55.141 E24.54751
G1 X47.797 Y55.177 E24.5529
G1 X48.03 Y55.225 E24.5653
G1 X48.263 Y55.24 E24.57748
