M73 P0
;MINX:37.5
;MAXX:62.5
;MINY:47.8
;MAXY:72.2
;MINZ:0.0
;MAXZ:20.3
;MachineType:ENTINA TINA2
;FilamentType:PLA
;Extruder0Temperature:200
;InfillDensity:10
;FLAVOR:Marlin
;TIME:1732
;FilamentUsed:572.4
;Layer height: 0.1

;Generated with Cura_SteamEngine 3.1
M104 T0 S215
M82 ; absolute extrusion mode
;(**** start.gcode for tina2****)
M104 S150
G28 Z
G28 X Y; Home extruder
G1 X55 Y55 F1000
G1 Z10 F200
G29
G1 Z15 F100
M107 ; Turn off fan
G90 ; Absolute positioning
M82 ; Extruder in absolute mode
M109 S215.0
G92 E0 ; Reset extruder position
G1 X90 Y6 Z0.27 F2000
G1 X20 Y6 Z0.27 E15 F1000
G92 E0 ; Reset extruder position

;LAYER_COUNT:189
;LAYER:-8
M107
M203 Z5
G1 F3600 X58.892 Y49.995 Z0.349
G1 F1200 X59.301 Y50.375 E0.06156
G1 X59.471 Y50.561 E0.08935
G1 X59.847 Y51.02 E0.15478
G1 X60.064 Y51.319 E0.19552
G1 X60.346 Y51.785 E0.25559
G1 X60.465 Y52.012 E0.28385
G1 X60.613 Y52.345 E0.32403
G1 X60.704 Y52.594 E0.35327
G1 X60.882 Y53.184 E0.42123
G1 X60.921 Y53.334 E0.43832
G1 X61.003 Y53.867 E0.49779
G1 X61.065 Y54.393 E0.55619
G1 X61.069 Y54.582 E0.57704
G1 X61.052 Y55.243 E0.64995
G1 X61.033 Y55.517 E0.68024
G1 X61.029 Y56.187 E0.75413
G1 X61.051 Y56.369 E0.77434
G1 X61.027 Y56.369 E0.77699
G1 X61.167 Y57.196 E0.86948
G1 X61.224 Y57.635 E0.9183
G1 X61.27 Y58.102 E0.97005
G1 X61.292 Y58.478 E1.01158
G1 X61.307 Y59.455 E1.11933
G1 X61.3 Y59.757 E1.15264
G1 X61.249 Y60.785 E1.26614
G1 X61.23 Y61.008 E1.29082
G1 X61.136 Y61.785 E1.37713
G1 X61.05 Y62.284 E1.43297
G1 X60.878 Y63.072 E1.52191
G1 X60.752 Y63.603 E1.58209
G1 X60.564 Y64.247 E1.65607
G1 X60.385 Y64.757 E1.71568
G1 X60.23 Y65.156 E1.76288
G1 X60.032 Y65.611 E1.8176
G1 X59.858 Y65.953 E1.85991
G1 X59.433 Y66.717 E1.95632
G1 X59.012 Y67.368 E2.04181
G1 X58.679 Y67.81 E2.10284
G1 X58.299 Y68.255 E2.16737
G1 X58.07 Y68.49 E2.20355
G1 X57.756 Y68.787 E2.25121
G1 X57.555 Y68.956 E2.28017
G1 X57.101 Y69.297 E2.34278
G1 X56.54 Y69.662 E2.41659
G1 X56.022 Y69.952 E2.48205
G1 X55.553 Y70.181 E2.53961
G1 X54.83 Y70.487 E2.62618
G1 X54.317 Y70.67 E2.68624
G1 X53.745 Y70.838 E2.75199
G1 X52.657 Y71.072 E2.87471
G1 X52.457 Y71.097 E2.89693
G1 X51.788 Y71.153 E2.97097
G1 X51.6 Y71.16 E2.99171
G1 X50.99 Y71.156 E3.05898
G1 X50.748 Y71.143 E3.0857
G1 X49.95 Y71.162 E3.17373
G1 X49.667 Y71.191 E3.2051
G1 X49.078 Y71.227 E3.27017
G1 X48.599 Y71.23 E3.32299
G1 X48.169 Y71.217 E3.37043
G1 X47.94 Y71.195 E3.3958
G1 X47.349 Y71.11 E3.46164
G1 X46.982 Y71.044 E3.50276
G1 X46.611 Y70.967 E3.54455
G1 X46.219 Y70.869 E3.58911
G1 X45.858 Y70.764 E3.63056
G1 X45.299 Y70.577 E3.69557
G1 X44.88 Y70.416 E3.74506
G1 X44.469 Y70.237 E3.7945
G1 X44.231 Y70.125 E3.8235
G1 X43.812 Y69.906 E3.87564
G1 X43.51 Y69.73 E3.91419
G1 X43.052 Y69.429 E3.97462
G1 X42.827 Y69.266 E4.00526
G1 X42.393 Y68.91 E4.06716
G1 X42.228 Y68.759 E4.09182
G1 X41.618 Y68.097 E4.19109
G1 X41.332 Y67.754 E4.24034
G1 X41.029 Y67.354 E4.29568
G1 X40.698 Y66.844 E4.36272
G1 X40.481 Y66.495 E4.40804
G1 X40.274 Y66.119 E4.45537
G1 X40.007 Y65.579 E4.5218
G1 X39.883 Y65.304 E4.55507
G1 X39.702 Y64.864 E4.60753
G1 X39.558 Y64.472 E4.65358
G1 X39.271 Y63.593 E4.75555
G1 X39.154 Y63.156 E4.80544
G1 X39.001 Y62.472 E4.88273
G1 X38.895 Y61.922 E4.9445
G1 X38.865 Y61.719 E4.96712
G1 X38.754 Y60.702 E5.07994
G1 X38.659 Y59.33 E5.2316
G1 X38.648 Y59.009 E5.26702
G1 X38.656 Y58.587 E5.31356
G1 X38.683 Y58.036 E5.37439
G1 X38.747 Y57.478 E5.43633
G1 X38.791 Y56.809 E5.51026
G1 X38.741 Y56.079 E5.59095
G1 X38.706 Y55.826 E5.61912
G1 X38.691 Y55.67 E5.6364
G1 X38.659 Y55.068 E5.70288
G1 X38.662 Y54.675 E5.74622
G1 X38.706 Y54.157 E5.80354
G1 X38.744 Y53.901 E5.83208
G1 X38.859 Y53.389 E5.88995
G1 X39.014 Y52.902 E5.94631
G1 X39.117 Y52.642 E5.97715
G1 X39.408 Y52.025 E6.05237
G1 X39.558 Y51.757 E6.08624
G1 X39.634 Y51.642 E6.10144
G1 X39.909 Y51.253 E6.15398
G1 X40.012 Y51.12 E6.17253
G1 X40.381 Y50.708 E6.23352
G1 X40.596 Y50.493 E6.26705
G1 X41.011 Y50.128 E6.32799
G1 X41.205 Y49.977 E6.3551
G1 X41.491 Y49.783 E6.39321
G1 X41.826 Y49.578 E6.43652
G1 X42.159 Y49.397 E6.47832
G1 X42.46 Y49.261 E6.51474
G1 X43.058 Y49.022 E6.58575
G1 X43.594 Y48.844 E6.64804
G1 X44.011 Y48.735 E6.69556
G1 X44.454 Y48.648 E6.74535
G1 X44.719 Y48.607 E6.77492
G1 X45.143 Y48.563 E6.82193
G1 X45.356 Y48.55 E6.84546
G1 X45.809 Y48.544 E6.89542
G1 X46.026 Y48.556 E6.91938
G1 X46.415 Y48.596 E6.96251
G1 X46.669 Y48.634 E6.99083
G1 X46.959 Y48.698 E7.02358
G1 X47.178 Y48.759 E7.04865
G1 X47.826 Y48.984 E7.12429
G1 X48.472 Y49.163 E7.19821
G1 X49.148 Y49.261 E7.27353
G1 X49.83 Y49.273 E7.34875
G1 X50.51 Y49.199 E7.42418
G1 X51.169 Y49.041 E7.49891
G1 X51.578 Y48.896 E7.54676
G1 X52.259 Y48.625 E7.62759
G1 X52.498 Y48.548 E7.65528
G1 X53.006 Y48.431 E7.71276
G1 X53.318 Y48.381 E7.74761
G1 X53.791 Y48.331 E7.80006
G1 X53.973 Y48.32 E7.82016
G1 X54.164 Y48.323 E7.84123
G1 X54.805 Y48.362 E7.91205
G1 X55.2 Y48.41 E7.95592
G1 X55.812 Y48.533 E8.02476
G1 X56.287 Y48.655 E8.07884
G1 X56.704 Y48.786 E8.12704
G1 X57.121 Y48.942 E8.17614
G1 X57.287 Y49.014 E8.19609
G1 X57.91 Y49.313 E8.2723
G1 X58.093 Y49.413 E8.29529
G1 X58.664 Y49.809 E8.37192
G1 X58.892 Y49.995 E8.40437
G1 F3600 X59.2 Y50.282
G1 F1200 X59.2 Y67.078 E10.25653
G1 F1680 E7.25653
G1 F3600 X57.6 Y68.919
G1 F1680 E10.25653
G1 F1200 X57.6 Y49.165 E12.43488
G1 F1680 E9.43488
G1 F3600 X56 Y48.582
G1 F1680 E12.43488
G1 F1200 X56 Y69.963 E14.79265
G1 F1680 E11.79265
G1 F3600 X54.4 Y70.641
G1 F1680 E14.79265
G1 F1200 X54.4 Y48.338 E17.25209
G1 F1680 E14.25209
G1 F3600 X52.8 Y48.478
G1 F1680 E17.25209
G1 F1200 X52.8 Y71.042 E19.74031
G1 F1680 E16.74031
G1 F3600 X51.2 Y71.157
G1 F1680 E19.74031
G1 F1200 X51.2 Y49.03 E22.18034
G1 F1680 E19.18034
G1 F3600 X49.6 Y49.269
G1 F1680 E22.18034
G1 F1200 X49.6 Y71.196 E24.59832
G1 F1680 E21.59832
G1 F3600 X48 Y71.2
G1 F1680 E24.59832
G1 F1200 X48 Y49.033 E27.04276
G1 F1680 E24.04276
G1 F3600 X46.4 Y48.595
G1 F1680 E27.04276
G1 F1200 X46.4 Y70.914 E29.50397
G1 F1680 E26.50397
G1 F3600 X44.8 Y70.381
G1 F1680 E29.50397
G1 F1200 X44.8 Y48.598 E31.90607
G1 F1680 E28.90607
G1 F3600 X43.2 Y48.974
G1 F1680 E31.90607
G1 F1200 X43.2 Y69.526 E34.17242
M104 T0 S200
G1 F1680 E31.17242
G1 F3600 X41.6 Y68.075
G1 F1680 E34.17242
G1 F1200 X41.6 Y49.716 E36.19694
G1 F1680 E33.19694
G1 F3600 X40 Y51.135
G1 F1680 E36.19694
G1 F1200 X40 Y65.563 E37.78797
G1 F1680 E34.78797
G1 F3600 X60.8 Y63.401
G1 F1680 E37.78797
G1 F1200 X60.8 Y52.913 E38.94452
G1 F1680 E35.94452
G1 F3600 X58.838 Y49.88
;TIME_ELAPSED:22.185307
;LAYER:-7
G1 X58.838 Y49.88 Z0.619
;TYPE:SUPPORT
G1 F1680 E38.94452
G1 F1980 X59.247 Y50.251 E38.98569
G1 X59.379 Y50.383 E38.9996
G1 X59.508 Y50.527 E39.01401
G1 F3600 X59.83 Y50.92
G1 F1980 X58.64 Y49.73 E39.13946
G1 X58.125 Y49.373 E39.18617
G1 X57.931 Y49.266 E39.20268
G1 X57.308 Y48.967 E39.2542
G1 X56.764 Y48.751 E39.29783
G1 X56.287 Y48.602 E39.33508
G1 X56.223 Y48.586 E39.33999
G1 X60.973 Y53.336 E39.84073
G1 X61.053 Y53.861 E39.88031
G1 X61.115 Y54.392 E39.92016
G1 X61.119 Y54.582 E39.93433
G1 X61.115 Y54.751 E39.94693
G1 X54.666 Y48.302 E40.62677
G1 X54.166 Y48.272 E40.66411
G1 X53.972 Y48.269 E40.67857
G1 X53.782 Y48.279 E40.69275
G1 X53.41 Y48.319 E40.72064
G1 X61.08 Y55.989 E41.5292
G1 X61.079 Y56.184 E41.54373
G1 X61.108 Y56.42 E41.56146
G1 X61.086 Y56.42 E41.5631
G1 X61.205 Y57.12 E41.61602
G1 X61.247 Y57.429 E41.63927
G1 X52.358 Y48.54 E42.57633
G1 X52.224 Y48.583 E42.58682
G1 X51.558 Y48.849 E42.64028
G1 X51.437 Y48.892 E42.64985
G1 X61.347 Y58.801 E43.69448
G1 X61.357 Y59.454 E43.74317
G1 X61.35 Y59.759 E43.76591
G1 X61.335 Y60.063 E43.7886
G1 X50.429 Y49.156 E44.93833
G1 X49.826 Y49.221 E44.98354
G1 X49.211 Y49.211 E45.02939
G1 X61.251 Y61.251 E46.29862
G1 X61.177 Y61.849 E46.34354
G1 X61.102 Y62.286 E46.37659
G1 X61.086 Y62.359 E46.38216
G1 X47.567 Y48.839 E47.80735
G1 X47.199 Y48.712 E47.83637
G1 X47.028 Y48.661 E47.84967
G1 X46.667 Y48.582 E47.87722
G1 X46.408 Y48.542 E47.89675
G1 X46.036 Y48.505 E47.92462
G1 X45.955 Y48.501 E47.93067
G1 X60.851 Y63.397 E49.50097
G1 X60.815 Y63.556 E49.51312
G1 X60.705 Y63.962 E49.54448
G1 X60.615 Y64.255 E49.56732
G1 X60.569 Y64.387 E49.57774
G1 X44.737 Y48.556 E51.24666
G1 X44.655 Y48.564 E51.2528
G1 X44.376 Y48.609 E51.27387
G1 X44.093 Y48.663 E51.29535
G1 X43.776 Y48.74 E51.31966
G1 X43.677 Y48.768 E51.32733
G1 X60.218 Y65.309 E53.07105
G1 X60.063 Y65.663 E53.09985
G1 X59.877 Y66.023 E53.13006
G1 X59.8 Y66.163 E53.14197
G1 X42.732 Y49.096 E54.94118
G1 X42.461 Y49.204 E54.96293
G1 X42.134 Y49.352 E54.98969
G1 X41.862 Y49.499 E55.01273
G1 X59.333 Y66.97 E56.85449
G1 X59.146 Y67.261 E56.88027
G1 X58.811 Y67.721 E56.92269
G1 X41.091 Y50 E58.79074
G1 X40.962 Y50.099 E58.80286
G1 X40.551 Y50.464 E58.84384
G1 X40.416 Y50.599 E58.85807
G1 X58.223 Y68.406 E60.73524
G1 X57.852 Y68.766 E60.77378
G1 X57.666 Y68.929 E60.79221
G1 X57.557 Y69.012 E60.80242
G1 X39.826 Y51.281 E62.67159
G1 X39.524 Y51.713 E62.71088
G1 X39.354 Y52.018 E62.7369
G1 X39.333 Y52.061 E62.74047
G1 X56.817 Y69.545 E64.5836
G1 X56.573 Y69.7 E64.60514
G1 X56.217 Y69.906 E64.6358
G1 X56.01 Y70.011 E64.6531
G1 X38.944 Y52.945 E66.45216
G1 X38.84 Y53.268 E66.47746
G1 X38.776 Y53.508 E66.49597
G1 X38.692 Y53.899 E66.52578
G1 X38.682 Y53.956 E66.5301
G1 X55.138 Y70.411 E68.2648
G1 X54.951 Y70.493 E68.28002
G1 X54.483 Y70.666 E68.31721
G1 X54.206 Y70.752 E68.33883
G1 X38.612 Y55.159 E69.98266
G1 X38.641 Y55.689 E70.02223
G1 X38.69 Y56.083 E70.05182
G1 X38.721 Y56.54 E70.08597
G1 X53.194 Y71.014 E71.61173
G1 X52.695 Y71.117 E71.64971
G1 X52.465 Y71.146 E71.66699
G1 X52.086 Y71.178 E71.69534
G1 X38.663 Y57.755 E73.11036
G1 X38.634 Y58.015 E73.12987
G1 X38.6 Y58.714 E73.18203
G1 X38.598 Y58.963 E73.20059
G1 X50.832 Y71.197 E74.49027
G1 X50.746 Y71.193 E74.49669
G1 X49.952 Y71.212 E74.55589
G1 X49.672 Y71.241 E74.57688
G1 X49.607 Y71.244 E74.58173
G1 X38.675 Y60.312 E75.73415
G1 X38.692 Y60.584 E75.75447
G1 X38.745 Y61.123 E75.79484
G1 X38.813 Y61.724 E75.83993
G1 X48.362 Y71.272 E76.84651
G1 X48.164 Y71.267 E76.86127
G1 X47.946 Y71.246 E76.8776
G1 X47.342 Y71.159 E76.92308
G1 X46.972 Y71.093 E76.9511
G1 X46.892 Y71.075 E76.95721
G1 X39.149 Y63.332 E77.77346
G1 X39.25 Y63.705 E77.80227
G1 X39.523 Y64.532 E77.86718
G1 X39.651 Y64.873 E77.89434
G1 X39.821 Y65.277 E77.92701
G1 X45.097 Y70.552 E78.48314
G1 X44.86 Y70.462 E78.50204
G1 X44.208 Y70.17 E78.55529
G1 X43.795 Y69.954 E78.59003
G1 X43.482 Y69.772 E78.61702
G1 X43.023 Y69.47 E78.65798
G1 X42.688 Y69.221 E78.68909
G1 X42.371 Y68.958 E78.71979
G1 X42.205 Y68.807 E78.73652
G1 X41.964 Y68.556 E78.76246
G1 X41.5 Y68.038 E78.8143
G1 X41.21 Y67.68 E78.84864
G1 X40.889 Y67.238 E78.88936
G1 X40.655 Y66.872 E78.92174
G1 X40.597 Y66.768 E78.93062
G1 X40.549 Y66.703 E78.93664
G1 X40.413 Y66.478 E78.95624
G1 X40.186 Y66.059 E78.99176
G1 X39.926 Y65.524 E79.0361
G1 F1680 E76.0361
G1 F3600 X58.64 Y49.73
G1 F1680 E79.0361
G1 F1980 X58.682 Y49.759 E79.0399
G1 X58.838 Y49.88 E79.05462
G1 F3600 X58.881 Y49.723
;TIME_ELAPSED:39.437985
;LAYER:-6
M106 S255
G1 X58.881 Y49.723 Z0.869
G1 F2400 X58.707 Y49.6 E79.06304
G1 X41.404 Y49.6 E79.74644
G1 X41.72 Y49.406 E79.76109
G1 X42.065 Y49.219 E79.77659
G1 X42.107 Y49.2 E79.77841
G1 X58.123 Y49.2 E80.41098
G1 X57.987 Y49.127 E80.41708
G1 X57.38 Y48.836 E80.44367
G1 X57.297 Y48.8 E80.44724
G1 X51.247 Y48.8 E80.68619
G1 X51.506 Y48.708 E80.69705
G1 X52.184 Y48.438 E80.72587
G1 X52.293 Y48.4 E80.73043
G1 X52.376 Y48.371 E80.7339
G1 X52.979 Y48.232 E80.75834
G1 X53.291 Y48.181 E80.77083
G1 X53.762 Y48.132 E80.78953
G1 X53.971 Y48.119 E80.79781
G1 X54.159 Y48.122 E80.80523
G1 X54.833 Y48.163 E80.8319
G1 X55.24 Y48.214 E80.8481
G1 X55.722 Y48.308 E80.8675
G1 F3600 X56.094 Y48.4
G1 F2400 X52.293 Y48.4 E81.01762
G1 F1680 E78.01762
G1 F3600 X51.111 Y48.848
G1 F1680 E81.01762
G1 F2400 X50.474 Y49 E81.04349
G1 X49.82 Y49.072 E81.06948
G1 X49.163 Y49.061 E81.09543
G1 X48.513 Y48.966 E81.12137
G1 X47.913 Y48.8 E81.14596
G1 X43.085 Y48.8 E81.33665
G1 X43.39 Y48.697 E81.34937
G1 X43.74 Y48.595 E81.36376
G1 X44.155 Y48.499 E81.38059
G1 X44.632 Y48.417 E81.3997
G1 X44.796 Y48.4 E81.40622
G1 X45.199 Y48.358 E81.42222
G1 X45.469 Y48.346 E81.43289
G1 X45.878 Y48.345 E81.44905
G1 X46.425 Y48.395 E81.47074
G1 F3600 X46.459 Y48.4
G1 F2400 X44.796 Y48.4 E81.53643
G1 F1680 E78.53643
G1 F3600 X40.851 Y50
G1 F1680 E81.53643
G1 F2400 X59.192 Y50 E82.26083
G1 X59.018 Y49.839 E82.27019
G1 X58.881 Y49.723 E82.27728
G1 F1680 E79.27728
G1 F3600 X59.595 Y50.4
G1 F1680 E82.27728
G1 F2400 X59.613 Y50.42 E82.27835
G1 X59.925 Y50.8 E82.29776
G1 X40.03 Y50.8 E83.08355
G1 X39.828 Y51.027 E83.09555
G1 X39.706 Y51.2 E83.10391
G1 X60.225 Y51.2 E83.91433
G1 X60.232 Y51.21 E83.91482
G1 X60.469 Y51.6 E83.93284
G1 X39.422 Y51.6 E84.76412
G1 X39.39 Y51.645 E84.7663
G1 X39.227 Y51.937 E84.77951
G1 X39.198 Y52 E84.78225
G1 X60.678 Y52 E85.63063
G1 X60.798 Y52.271 E85.64234
G1 X60.845 Y52.4 E85.64776
G1 X39.009 Y52.4 E86.51021
G1 X38.93 Y52.567 E86.5175
G1 X38.838 Y52.8 E86.5274
G1 X60.975 Y52.8 E87.40173
G1 X61.071 Y53.117 E87.41481
G1 X61.093 Y53.2 E87.4182
G1 X38.708 Y53.2 E88.30233
G1 X38.664 Y53.339 E88.30809
G1 X38.606 Y53.6 E88.31865
G1 X61.164 Y53.6 E89.20961
G1 X61.2 Y53.841 E89.21923
G1 X61.221 Y54 E89.22557
G1 X38.526 Y54 E90.12194
G1 X38.507 Y54.126 E90.12697
G1 X38.484 Y54.4 E90.13783
G1 X61.265 Y54.4 E91.0376
G1 X61.268 Y54.586 E91.04495
G1 X61.262 Y54.8 E91.0534
G1 X38.461 Y54.8 E91.95396
G1 X38.458 Y55.062 E91.96431
G1 X38.465 Y55.2 E91.96977
G1 X61.252 Y55.2 E92.86977
G1 X61.251 Y55.244 E92.87151
G1 X61.232 Y55.523 E92.88255
G1 X61.231 Y55.6 E92.88559
G1 X38.486 Y55.6 E93.78394
G1 X38.492 Y55.697 E93.78778
G1 X38.528 Y56 E93.79983
G1 X61.229 Y56 E94.69644
G1 X61.228 Y56.175 E94.70335
G1 X61.256 Y56.4 E94.71231
G1 X38.561 Y56.4 E95.60868
G1 X38.588 Y56.8 E95.62451
G1 X61.303 Y56.8 E96.52167
G1 X61.363 Y57.158 E96.53601
G1 X61.369 Y57.2 E96.53768
G1 X38.564 Y57.2 E97.4384
G1 X38.547 Y57.458 E97.44861
G1 X38.531 Y57.6 E97.45426
G1 X61.419 Y57.6 E98.35825
G1 X61.461 Y58 E98.37414
G1 X38.485 Y58 E99.28161
G1 F3600 X38.484 Y58.008
G1 F2400 X38.465 Y58.4 E99.29711
G1 X61.488 Y58.4 E100.20643
G1 X61.488 Y58.412 E100.20691
G1 X61.496 Y58.8 E100.22223
G1 X38.451 Y58.8 E101.13243
G1 X38.447 Y59.006 E101.14057
G1 X38.453 Y59.2 E101.14823
G1 X61.504 Y59.2 E102.05866
G1 X61.506 Y59.329 E102.06376
G1 X61.503 Y59.6 E102.07446
G1 X38.476 Y59.6 E102.98395
G1 X38.504 Y60 E102.99979
G1 X61.486 Y60 E103.90749
G1 X61.467 Y60.4 E103.92331
G1 X38.531 Y60.4 E104.8292
G1 X38.555 Y60.736 E104.8425
G1 X38.561 Y60.8 E104.84504
G1 X61.448 Y60.8 E105.749
G1 X61.405 Y61.2 E105.76489
G1 X38.603 Y61.2 E106.66548
G1 X38.649 Y61.6 E106.68138
G1 X61.362 Y61.6 E107.57847
G1 X61.324 Y61.873 E107.58935
G1 X61.3 Y62 E107.59446
G1 X38.706 Y62 E108.48684
G1 X38.782 Y62.4 E108.50292
G1 X61.226 Y62.4 E109.38938
G1 X61.196 Y62.565 E109.396
G1 X61.141 Y62.8 E109.40553
G1 X38.868 Y62.8 E110.28524
G1 X38.958 Y63.2 E110.30143
G1 X61.049 Y63.2 E111.17395
G1 X60.959 Y63.593 E111.18987
G1 F3600 X60.957 Y63.6
G1 F2400 X39.063 Y63.6 E112.05461
G1 X39.074 Y63.638 E112.05617
G1 X39.192 Y64 E112.07121
G1 X60.848 Y64 E112.92654
G1 X60.785 Y64.212 E112.93528
G1 X60.719 Y64.4 E112.94315
G1 X39.323 Y64.4 E113.78821
G1 X39.384 Y64.584 E113.79587
G1 X39.464 Y64.8 E113.80496
G1 X60.58 Y64.8 E114.63897
G1 X60.569 Y64.834 E114.64038
G1 X60.426 Y65.2 E114.6559
G1 X39.623 Y65.2 E115.47755
G1 X39.699 Y65.384 E115.48541
G1 X39.801 Y65.6 E115.49484
G1 X60.252 Y65.6 E116.30258
G1 X60.195 Y65.73 E116.30819
G1 X60.056 Y66 E116.32018
G1 X39.991 Y66 E117.11268
G1 X40.049 Y66.12 E117.11794
G1 X40.201 Y66.4 E117.13053
G1 X59.834 Y66.4 E117.90596
G1 X59.608 Y66.8 E117.92411
G1 X40.434 Y66.8 E118.68141
G1 X40.473 Y66.852 E118.68398
G1 X40.524 Y66.944 E118.68813
G1 X40.686 Y67.2 E118.7001
G1 X59.36 Y67.2 E119.43765
G1 X59.172 Y67.486 E119.45117
G1 X59.085 Y67.6 E119.45684
G1 X40.966 Y67.6 E120.17247
G1 X41.088 Y67.766 E120.18061
G1 X41.276 Y68 E120.19246
G1 X58.777 Y68 E120.88369
G1 X58.439 Y68.396 E120.90425
G1 F3600 X58.435 Y68.4
G1 F2400 X41.623 Y68.4 E121.56827
G1 X41.855 Y68.658 E121.58197
