M73 P0
;MINX:5.0
;MAXX:95.0
;MINY:15.0
;MAXY:105.0
;MINZ:0.0
;MAXZ:6.3
;MachineType:ENTINA TINA2
;FilamentType:PLA
;Extruder0Temperature:200
;InfillDensity:100
;FLAVOR:Marlin
;TIME:1873
;FilamentUsed:2277.8
;Layer height: 0.2

;Generated with Cura_SteamEngine 3.1
M104 T0 S215
M82 ; absolute extrusion mode
;(**** start.gcode for tina2****)
M104 S150
G28 Z
G28 X Y; Home extruder
G1 X55 Y55 F1000
G1 Z10 F200
G29
G1 Z15 F100
M107 ; Turn off fan
G90 ; Absolute positioning
M82 ; Extruder in absolute mode
M109 S215.0
G92 E0 ; Reset extruder position
G1 X90 Y6 Z0.27 F2000
G1 X20 Y6 Z0.27 E15 F1000
G92 E0 ; Reset extruder position

;LAYER_COUNT:25
;LAYER:-6
M107
M203 Z5
G1 F3600 X79.473 Y26.484 Z0.349
G1 F1200 X79.914 Y26.853 E0.06341
G1 X80.054 Y26.98 E0.08425
G1 X83.031 Y29.957 E0.54852
G1 X83.372 Y30.337 E0.60482
G1 X83.562 Y30.583 E0.6391
G1 X83.947 Y31.084 E0.70877
G1 X84.235 Y31.421 E0.75766
G1 X85.521 Y33.036 E0.98532
G1 X86.717 Y34.69 E1.2104
G1 X87.652 Y36.096 E1.3966
G1 X88.601 Y37.668 E1.59909
G1 X89.595 Y39.48 E1.82699
G1 X90.344 Y40.985 E2.01237
G1 X90.809 Y42.01 E2.13649
G1 X91.438 Y43.513 E2.31616
G1 X91.965 Y44.9 E2.47978
G1 X92.056 Y45.155 E2.50963
G1 X92.566 Y46.7 E2.68905
G1 X93.129 Y48.655 E2.9134
G1 X93.536 Y50.318 E3.1022
G1 X93.751 Y51.34 E3.21736
G1 X94.044 Y53.009 E3.40422
G1 X94.292 Y54.774 E3.60077
G1 X94.38 Y55.574 E3.68952
G1 X94.535 Y57.64 E3.91799
G1 X94.546 Y57.868 E3.94316
G1 X94.599 Y60.039 E4.18264
G1 X94.56 Y61.776 E4.37423
G1 X94.434 Y63.798 E4.59764
G1 X94.281 Y65.312 E4.76544
G1 X94.051 Y66.953 E4.94817
G1 X93.766 Y68.583 E5.13064
G1 X93.491 Y69.878 E5.27663
G1 X93.084 Y71.516 E5.46275
G1 X92.54 Y73.385 E5.67741
G1 X92.057 Y74.841 E5.84657
G1 X91.965 Y75.099 E5.87678
G1 X91.391 Y76.601 E6.05409
G1 X90.824 Y77.955 E6.21596
G1 X90.273 Y79.161 E6.36218
G1 X89.511 Y80.682 E6.54978
G1 X88.614 Y82.309 E6.75465
G1 X87.675 Y83.867 E6.95525
G1 X86.738 Y85.281 E7.14231
G1 X85.526 Y86.955 E7.37021
G1 X84.257 Y88.549 E7.59489
G1 X83.923 Y88.942 E7.65176
G1 X83.601 Y89.351 E7.70916
G1 X83.508 Y89.482 E7.72688
G1 X83.151 Y89.91 E7.78834
G1 X83.02 Y90.054 E7.80981
G1 X80.043 Y93.031 E8.27407
G1 X79.651 Y93.381 E8.33202
G1 X78.922 Y93.942 E8.43346
G1 X78.673 Y94.157 E8.46974
G1 X77.171 Y95.361 E8.68202
G1 X76.967 Y95.518 E8.7104
G1 X75.083 Y96.873 E8.96631
G1 X73.831 Y97.695 E9.13147
G1 X72.394 Y98.564 E9.31666
G1 X70.436 Y99.639 E9.56298
G1 X68.986 Y100.356 E9.74135
G1 X68.079 Y100.769 E9.85125
G1 X66.579 Y101.4 E10.0307
G1 X64.913 Y102.031 E10.22716
G1 X62.784 Y102.726 E10.47412
G1 X60.692 Y103.296 E10.71323
G1 X58.781 Y103.725 E10.9292
G1 X57.195 Y104.011 E11.10692
G1 X55.586 Y104.246 E11.28623
G1 X54.002 Y104.416 E11.46191
G1 X51.903 Y104.551 E11.69385
G1 X51.42 Y104.571 E11.74716
G1 X50.054 Y104.599 E11.89783
G1 X48.396 Y104.566 E12.0807
G1 X46.193 Y104.431 E12.32409
G1 X44.617 Y104.27 E12.49878
G1 X42.938 Y104.032 E12.68578
G1 X41.224 Y103.725 E12.8778
G1 X39.257 Y103.283 E13.10012
G1 X36.934 Y102.641 E13.36589
G1 X34.98 Y101.992 E13.59294
G1 X33.339 Y101.365 E13.78666
G1 X31.77 Y100.701 E13.97453
G1 X30.694 Y100.2 E14.10542
G1 X29.193 Y99.441 E14.2909
G1 X27.634 Y98.579 E14.48734
G1 X27.423 Y98.457 E14.51422
G1 X26.04 Y97.613 E14.69289
G1 X24.632 Y96.677 E14.87933
G1 X23.104 Y95.572 E15.08727
G1 X22.921 Y95.433 E15.11261
G1 X21.354 Y94.177 E15.33407
G1 X21.046 Y93.914 E15.37873
G1 X20.643 Y93.597 E15.43527
G1 X20.526 Y93.514 E15.45109
G1 X20.074 Y93.136 E15.51607
G1 X19.943 Y93.017 E15.53559
G1 X16.97 Y90.044 E15.99923
G1 X16.616 Y89.647 E16.05788
G1 X16.06 Y88.925 E16.15837
G1 X15.725 Y88.529 E16.21557
G1 X14.573 Y87.087 E16.4191
G1 X13.313 Y85.352 E16.65555
G1 X12.37 Y83.935 E16.84325
G1 X12.212 Y83.684 E16.87596
G1 X11.461 Y82.44 E17.0362
G1 X10.466 Y80.634 E17.26358
G1 X9.726 Y79.156 E17.44585
G1 X9.195 Y77.999 E17.58623
G1 X8.62 Y76.628 E17.75018
G1 X7.957 Y74.882 E17.95613
G1 X7.435 Y73.304 E18.13942
G1 X6.872 Y71.345 E18.36419
G1 X6.472 Y69.711 E18.54969
G1 X6.22 Y68.5 E18.6861
G1 X5.946 Y66.934 E18.86141
G1 X5.736 Y65.457 E19.02592
G1 X5.558 Y63.69 E19.22176
G1 X5.443 Y61.825 E19.42781
G1 X5.402 Y60.131 E19.61467
G1 X5.401 Y59.889 E19.64136
G1 X5.455 Y57.85 E19.86629
G1 X5.604 Y55.777 E20.09547
G1 X5.729 Y54.601 E20.22589
G1 X5.967 Y52.941 E20.41081
G1 X6.25 Y51.34 E20.5901
G1 X6.472 Y50.287 E20.70877
G1 X6.868 Y48.667 E20.89267
G1 X7.431 Y46.708 E21.11744
G1 X7.958 Y45.117 E21.30227
G1 X8.56 Y43.52 E21.49047
G1 X9.194 Y42.001 E21.67198
G1 X9.659 Y40.982 E21.7955
G1 X10.466 Y39.367 E21.99459
G1 X11.482 Y37.523 E22.22675
G1 X12.31 Y36.158 E22.40281
G1 X13.246 Y34.743 E22.58989
G1 X14.398 Y33.146 E22.80704
G1 X14.569 Y32.919 E22.83838
G1 X15.904 Y31.256 E23.07354
G1 X16.115 Y31.009 E23.10937
G1 X16.411 Y30.632 E23.16222
G1 X16.491 Y30.519 E23.17749
G1 X16.853 Y30.086 E23.23973
G1 X16.98 Y29.946 E23.26057
G1 X19.956 Y26.97 E23.72468
G1 X20.342 Y26.624 E23.78184
G1 X21.088 Y26.049 E23.88571
G1 X21.402 Y25.783 E23.93109
G1 X22.897 Y24.586 E24.14228
G1 X23.096 Y24.436 E24.16976
G1 X24.891 Y23.146 E24.41352
G1 X26.172 Y22.302 E24.58268
G1 X27.459 Y21.522 E24.74864
G1 X29.34 Y20.48 E24.98576
G1 X30.8 Y19.746 E25.16596
G1 X31.786 Y19.291 E25.28571
G1 X33.441 Y18.592 E25.48383
G1 X34.943 Y18.02 E25.66106
G1 X35.175 Y17.938 E25.6882
G1 X36.988 Y17.342 E25.89865
G1 X37.212 Y17.274 E25.92446
G1 X39.057 Y16.765 E26.13552
G1 X39.281 Y16.709 E26.16098
G1 X41.313 Y16.255 E26.39058
G1 X42.793 Y15.99 E26.55638
G1 X44.526 Y15.74 E26.74947
G1 X46.043 Y15.58 E26.91768
G1 X46.262 Y15.562 E26.94191
G1 X48.398 Y15.433 E27.17788
G1 X50.049 Y15.401 E27.35998
G1 X51.712 Y15.437 E27.54341
G1 X53.624 Y15.551 E27.75463
G1 X53.917 Y15.575 E27.78705
G1 X55.632 Y15.759 E27.97725
G1 X57.192 Y15.988 E28.15112
G1 X58.782 Y16.274 E28.32927
G1 X60.977 Y16.773 E28.5775
G1 X62.957 Y17.324 E28.80414
G1 X64.91 Y17.967 E29.03088
G1 X66.536 Y18.583 E29.22262
M73 P1
G1 X68.024 Y19.208 E29.40059
G1 X68.995 Y19.647 E29.5181
G1 X70.467 Y20.378 E29.69934
G1 X72.311 Y21.386 E29.93108
G1 X73.956 Y22.382 E30.14314
G1 X75.229 Y23.227 E30.31163
G1 X76.823 Y24.372 E30.52806
G1 X77.025 Y24.525 E30.556
G1 X78.745 Y25.904 E30.79911
G1 X78.968 Y26.096 E30.83156
G1 X79.348 Y26.396 E30.88495
G1 X79.473 Y26.484 E30.9018
G1 F1680 E27.9018
G1 F3600 X63.59 Y29.559
G1 F1680 E30.9018
G1 F1200 X63.102 Y29.08 E30.97721
G1 X62.557 Y28.669 E31.05248
G1 X61.966 Y28.329 E31.12767
G1 X61.351 Y28.071 E31.20121
G1 X60.384 Y27.737 E31.31403
G1 X60.137 Y27.659 E31.34259
G1 X58.81 Y27.274 E31.49496
G1 X58.564 Y27.208 E31.52305
G1 X57.176 Y26.878 E31.68038
G1 X56.933 Y26.826 E31.70778
G1 X55.298 Y26.523 E31.89115
G1 X54.003 Y26.339 E32.03539
G1 X52.771 Y26.218 E32.1719
G1 X51.504 Y26.135 E32.31191
G1 X50.324 Y26.107 E32.44207
G1 X48.575 Y26.136 E32.63497
G1 X46.978 Y26.24 E32.81145
G1 X45.821 Y26.361 E32.93973
G1 X44.551 Y26.548 E33.08129
G1 X42.995 Y26.84 E33.25587
G1 X41.451 Y27.204 E33.4308
G1 X41.188 Y27.272 E33.46076
G1 X39.841 Y27.665 E33.61549
G1 X38.648 Y28.071 E33.75446
G1 X38.03 Y28.33 E33.82835
G1 X37.439 Y28.67 E33.90354
G1 X36.894 Y29.083 E33.97894
G1 X36.407 Y29.561 E34.05419
G1 X35.983 Y30.097 E34.12956
G1 X35.631 Y30.682 E34.20484
G1 X35.356 Y31.307 E34.28014
G1 X35.161 Y31.961 E34.3554
G1 X35.051 Y32.635 E34.43071
G1 X35.026 Y33.318 E34.50607
G1 X35.088 Y33.997 E34.58126
G1 X35.235 Y34.664 E34.65658
G1 X35.465 Y35.308 E34.73199
G1 X35.774 Y35.916 E34.8072
G1 X36.158 Y36.481 E34.88253
G1 X36.597 Y36.98 E34.95582
G1 X46.19 Y46.573 E36.45186
G1 X46.694 Y47.015 E36.52578
G1 X47.258 Y47.398 E36.60096
G1 X47.868 Y47.707 E36.67637
G1 X48.51 Y47.936 E36.75153
G1 X49.178 Y48.083 E36.82696
G1 X49.857 Y48.144 E36.90213
G1 X50.54 Y48.119 E36.9775
G1 X51.214 Y48.008 E37.05283
G1 X51.869 Y47.812 E37.12822
G1 X52.493 Y47.537 E37.20342
G1 X53.082 Y47.181 E37.27931
G1 X53.805 Y46.577 E37.3832
G1 X63.402 Y36.981 E38.87978
G1 X63.845 Y36.477 E38.95378
G1 X64.228 Y35.913 E39.02896
G1 X64.537 Y35.303 E39.10437
G1 X64.766 Y34.661 E39.17953
G1 X64.913 Y33.993 E39.25496
G1 X64.974 Y33.314 E39.33013
G1 X64.949 Y32.631 E39.4055
G1 X64.838 Y31.957 E39.48083
G1 X64.642 Y31.303 E39.55611
G1 X64.367 Y30.679 E39.63131
G1 X64.013 Y30.094 E39.70671
G1 X63.59 Y29.559 E39.78192
G1 F1680 E36.78192
G1 F3600 X79.332 Y45.64
G1 F1680 E39.78192
G1 F1200 X78.708 Y45.362 E39.85725
G1 X78.055 Y45.166 E39.93244
G1 X77.381 Y45.053 E40.0078
G1 X76.699 Y45.026 E40.08306
G1 X76.019 Y45.087 E40.15835
G1 X75.351 Y45.232 E40.23373
G1 X74.707 Y45.461 E40.3091
G1 X74.098 Y45.767 E40.38426
G1 X73.532 Y46.15 E40.45962
G1 X73.021 Y46.598 E40.53456
G1 X63.428 Y56.191 E42.0306
G1 X62.986 Y56.695 E42.10452
G1 X62.603 Y57.259 E42.1797
G1 X62.294 Y57.869 E42.25511
G1 X62.065 Y58.511 E42.33027
G1 X61.918 Y59.179 E42.4057
G1 X61.857 Y59.858 E42.48088
G1 X61.882 Y60.541 E42.55624
G1 X61.993 Y61.215 E42.63157
G1 X62.189 Y61.87 E42.70696
G1 X62.464 Y62.494 E42.78216
G1 X62.82 Y63.083 E42.85805
G1 X63.424 Y63.807 E42.96203
G1 X73.02 Y73.403 E44.45853
G1 X73.524 Y73.845 E44.53246
G1 X74.088 Y74.228 E44.60763
G1 X74.698 Y74.537 E44.68304
G1 X75.34 Y74.766 E44.7582
G1 X76.008 Y74.913 E44.83363
G1 X76.687 Y74.974 E44.90881
G1 X77.37 Y74.949 E44.98418
G1 X78.044 Y74.838 E45.0595
G1 X78.699 Y74.642 E45.1349
G1 X79.323 Y74.367 E45.21009
G1 X79.907 Y74.013 E45.2854
G1 X80.443 Y73.59 E45.3607
G1 X80.921 Y73.101 E45.4361
G1 X81.332 Y72.557 E45.51129
G1 X81.673 Y71.965 E45.58663
G1 X81.934 Y71.339 E45.66142
G1 X82.285 Y70.316 E45.78068
G1 X82.361 Y70.073 E45.80876
G1 X82.754 Y68.716 E45.96455
G1 X82.82 Y68.464 E45.99328
G1 X83.141 Y67.101 E46.14769
G1 X83.193 Y66.855 E46.17542
G1 X83.444 Y65.499 E46.32749
G1 X83.623 Y64.292 E46.46205
G1 X83.76 Y63.015 E46.60368
G1 X83.858 Y61.61 E46.75899
G1 X83.892 Y60.343 E46.89875
G1 X83.876 Y58.908 E47.05701
G1 X83.867 Y58.653 E47.08514
G1 X83.76 Y56.98 E47.27001
G1 X83.621 Y55.688 E47.41331
G1 X83.443 Y54.485 E47.54741
G1 X83.144 Y52.915 E47.72365
G1 X82.815 Y51.518 E47.88192
G1 X82.749 Y51.266 E47.91064
G1 X82.359 Y49.919 E48.06528
G1 X82.283 Y49.678 E48.09315
G1 X81.935 Y48.663 E48.21147
G1 X81.679 Y48.044 E48.28534
G1 X81.34 Y47.452 E48.36057
G1 X80.928 Y46.907 E48.43591
G1 X80.451 Y46.419 E48.51116
G1 X79.917 Y45.993 E48.58649
G1 X79.332 Y45.64 E48.66183
G1 F1680 E45.66183
G1 F3600 X52.741 Y72.602
G1 F1680 E48.66183
G1 F1200 X52.132 Y72.293 E48.73714
G1 X51.489 Y72.064 E48.81241
G1 X50.822 Y71.917 E48.88773
G1 X50.141 Y71.856 E48.96312
G1 X49.46 Y71.881 E49.03827
G1 X48.786 Y71.992 E49.1136
G1 X48.131 Y72.188 E49.18899
G1 X47.507 Y72.464 E49.26423
G1 X46.918 Y72.819 E49.34007
G1 X46.195 Y73.423 E49.44396
G1 X36.599 Y83.018 E50.94039
G1 X36.156 Y83.522 E51.01438
G1 X35.773 Y84.086 E51.08956
G1 X35.464 Y84.696 E51.16497
G1 X35.235 Y85.338 E51.24013
G1 X35.088 Y86.006 E51.31556
G1 X35.027 Y86.685 E51.39073
G1 X35.052 Y87.368 E51.4661
G1 X35.163 Y88.042 E51.54143
G1 X35.359 Y88.696 E51.61672
G1 X35.634 Y89.32 E51.69191
G1 X35.988 Y89.905 E51.76732
G1 X36.411 Y90.44 E51.84252
G1 X36.899 Y90.919 E51.91793
G1 X37.444 Y91.33 E51.9932
G1 X38.035 Y91.67 E52.06839
G1 X38.65 Y91.928 E52.14193
G1 X39.613 Y92.261 E52.2543
G1 X39.86 Y92.339 E52.28286
G1 X41.435 Y92.791 E52.46355
G1 X42.799 Y93.117 E52.6182
G1 X43.051 Y93.171 E52.64662
G1 X44.513 Y93.445 E52.81065
G1 X45.768 Y93.631 E52.95056
G1 X47.209 Y93.778 E53.11029
G1 X48.603 Y93.864 E53.2643
G1 X48.849 Y93.873 E53.29145
G1 X50.294 Y93.893 E53.45081
G1 X51.506 Y93.864 E53.5845
G1 X52.769 Y93.781 E53.72407
G1 X53.992 Y93.661 E53.85959
G1 X55.249 Y93.484 E53.99957
G1 X56.749 Y93.213 E54.16766
G1 X57 Y93.161 E54.19592
G1 X58.554 Y92.794 E54.372
G1 X58.815 Y92.726 E54.40175
G1 X60.164 Y92.333 E54.55669
G1 X61.351 Y91.929 E54.69496
G1 X61.969 Y91.67 E54.76885
G1 X62.561 Y91.329 E54.84419
G1 X63.105 Y90.916 E54.91951
G1 X63.592 Y90.439 E54.99468
G1 X64.016 Y89.903 E55.07004
G1 X64.368 Y89.318 E55.14533
G1 X64.644 Y88.694 E55.22057
G1 X64.839 Y88.039 E55.29594
M73 P2
G1 X64.949 Y87.365 E55.37124
G1 X64.974 Y86.683 E55.4465
G1 X64.912 Y86.003 E55.5218
G1 X64.765 Y85.336 E55.59712
G1 X64.535 Y84.694 E55.67232
G1 X64.226 Y84.084 E55.74772
G1 X63.843 Y83.519 E55.82299
G1 X63.402 Y83.019 E55.89651
G1 X53.809 Y73.427 E57.39247
G1 X53.306 Y72.984 E57.46639
G1 X52.741 Y72.602 E57.54159
G1 F1680 E54.54159
G1 F3600 X36.575 Y56.192
G1 F1680 E57.54159
G1 F1200 X26.98 Y46.597 E59.03794
G1 X26.477 Y46.154 E59.11186
G1 X25.912 Y45.772 E59.18707
G1 X25.303 Y45.463 E59.26237
G1 X24.66 Y45.234 E59.33764
G1 X23.993 Y45.087 E59.41296
G1 X23.312 Y45.026 E59.48836
G1 X22.631 Y45.051 E59.5635
G1 X21.957 Y45.162 E59.63883
G1 X21.302 Y45.358 E59.71422
G1 X20.678 Y45.634 E59.78947
G1 X20.094 Y45.986 E59.86466
G1 X19.558 Y46.41 E59.94002
G1 X19.08 Y46.898 E60.01535
G1 X18.668 Y47.443 E60.09069
G1 X18.327 Y48.035 E60.16603
G1 X18.068 Y48.661 E60.24074
G1 X17.721 Y49.671 E60.3585
G1 X17.643 Y49.916 E60.38686
G1 X17.246 Y51.291 E60.54468
G1 X17.183 Y51.534 E60.57236
G1 X16.861 Y52.894 E60.72648
G1 X16.808 Y53.145 E60.75477
G1 X16.534 Y54.642 E60.92259
G1 X16.35 Y55.93 E61.06606
G1 X16.23 Y57.12 E61.19796
G1 X16.135 Y58.665 E61.36865
G1 X16.126 Y58.92 E61.39679
G1 X16.109 Y60.34 E61.55339
G1 X16.143 Y61.611 E61.6936
G1 X16.227 Y62.867 E61.83241
G1 X16.351 Y64.078 E61.96665
G1 X16.522 Y65.295 E62.10217
G1 X16.808 Y66.855 E62.27707
G1 X17.181 Y68.461 E62.45888
G1 X17.245 Y68.71 E62.48723
G1 X17.636 Y70.064 E62.64264
G1 X17.713 Y70.308 E62.67086
G1 X18.066 Y71.337 E62.79082
G1 X18.323 Y71.956 E62.86473
G1 X18.662 Y72.548 E62.93996
G1 X19.074 Y73.093 E63.0153
G1 X19.55 Y73.581 E63.09047
G1 X20.085 Y74.006 E63.16582
G1 X20.67 Y74.36 E63.24122
G1 X21.294 Y74.637 E63.31651
G1 X21.947 Y74.833 E63.39169
G1 X22.621 Y74.946 E63.46705
G1 X23.303 Y74.972 E63.54231
G1 X23.983 Y74.912 E63.61759
G1 X24.651 Y74.766 E63.69299
G1 X25.294 Y74.539 E63.76819
G1 X25.904 Y74.231 E63.84354
G1 X26.47 Y73.849 E63.91884
G1 X26.98 Y73.401 E63.9937
G1 X36.573 Y63.808 E65.48974
G1 X37.015 Y63.304 E65.56366
G1 X37.398 Y62.74 E65.63884
G1 X37.707 Y62.13 E65.71424
G1 X37.936 Y61.488 E65.78941
G1 X38.083 Y60.82 E65.86483
G1 X38.144 Y60.141 E65.94001
G1 X38.119 Y59.458 E66.01538
G1 X38.008 Y58.784 E66.09071
G1 X37.812 Y58.129 E66.1661
G1 X37.537 Y57.505 E66.2413
G1 X37.181 Y56.916 E66.31719
G1 X36.575 Y56.192 E66.42131
G1 F3600 X36.8 Y56.46
G1 F1200 X36.8 Y37.183 E68.54706
G1 F1680 E65.54706
G1 F3600 X38.4 Y38.783
G1 F1680 E68.54706
G1 F1200 X38.4 Y81.218 E73.22653
G1 F1680 E70.22653
G1 F3600 X40 Y79.618
G1 F1680 E73.22653
G1 F1200 X40 Y40.383 E77.55313
G1 F1680 E74.55313
G1 F3600 X41.6 Y41.983
G1 F1680 E77.55313
G1 F1200 X41.6 Y78.018 E81.52686
G1 F1680 E78.52686
G1 F3600 X43.2 Y76.418
G1 F1680 E81.52686
G1 F1200 X43.2 Y43.583 E85.1477
G1 F1680 E82.1477
G1 F3600 X44.8 Y45.183
G1 F1680 E85.1477
G1 F1200 X44.8 Y74.818 E88.41567
G1 F1680 E85.41567
G1 F3600 X46.4 Y73.252
G1 F1680 E88.41567
G1 F1200 X46.4 Y46.758 E91.33727
G1 F1680 E88.33727
G1 F3600 X48 Y47.755
G1 F1680 E91.33727
G1 F1200 X48 Y72.246 E94.03799
G1 F1680 E91.03799
G1 F3600 X49.6 Y71.876
G1 F1680 E94.03799
G1 F1200 X49.6 Y48.121 E96.65755
G1 F1680 E93.65755
G1 F3600 X51.2 Y48.01
G1 F1680 E96.65755
G1 F1200 X51.2 Y72 E99.30302
G1 F1680 E96.30302
G1 F3600 X52.8 Y72.641
G1 F1680 E99.30302
G1 F1200 X52.8 Y47.351 E102.09185
G1 F1680 E99.09185
G1 F3600 X54.4 Y45.982
G1 F1680 E102.09185
G1 F1200 X54.4 Y74.017 E105.18338
G1 F1680 E102.18338
G1 F3600 X56 Y75.617
G1 F1680 E105.18338
G1 F1200 X56 Y44.382 E108.62779
G1 F1680 E105.62779
G1 F3600 X57.6 Y42.782
G1 F1680 E108.62779
G1 F1200 X57.6 Y77.217 E112.42507
G1 F1680 E109.42507
G1 F3600 X59.2 Y78.817
G1 F1680 E112.42507
G1 F1200 X59.2 Y41.182 E116.57523
G1 F1680 E113.57523
G1 F3600 X60.8 Y39.582
G1 F1680 E116.57523
G1 F1200 X60.8 Y80.417 E121.07827
G1 F1680 E118.07827
G1 F3600 X62.4 Y82.017
G1 F1680 E121.07827
G1 F1200 X62.4 Y62.349 E123.24714
G1 F1680 E120.24714
G1 F3600 X64 Y64.383
G1 F1680 E123.24714
G1 F1200 X64 Y83.75 E125.38282
G1 F1680 E122.38282
G1 F3600 X64 Y89.923
G1 F1680 E125.38282
G1 F1200 X64 Y102.33 E126.75099
G1 F1680 E123.75099
G1 F3600 X62.4 Y102.831
G1 F1680 E126.75099
