M73 P0
;MINX:25.0
;MAXX:75.0
;MINY:35.0
;MAXY:85.0
;MINZ:0.0
;MAXZ:40.3
;MachineType:ENTINA TINA2
;FilamentType:PLA
;Extruder0Temperature:200
;InfillDensity:10
;FLAVOR:Marlin
;TIME:4515
;FilamentUsed:3879.1
;Layer height: 0.2

;Generated with Cura_SteamEngine 3.1
M104 T0 S215
M82 ; absolute extrusion mode
;(**** start.gcode for tina2****)
M104 S150
G28 Z
G28 X Y; Home extruder
G1 X55 Y55 F1000
G1 Z10 F200
G29
G1 Z15 F100
M107 ; Turn off fan
G90 ; Absolute positioning
M82 ; Extruder in absolute mode
M109 S215.0
G92 E0 ; Reset extruder position
G1 X90 Y6 Z0.27 F2000
G1 X20 Y6 Z0.27 E15 F1000
G92 E0 ; Reset extruder position

;LAYER_COUNT:195
;LAYER:-6
M107
M203 Z5
G1 F3600 X65.743 Y41.107 Z0.349
G1 F1200 X67.177 Y42.4 E0.21292
G1 X67.52 Y42.739 E0.2661
G1 X68.829 Y44.181 E0.48086
G1 X69.124 Y44.536 E0.53176
G1 X70.308 Y46.132 E0.7509
G1 X70.558 Y46.502 E0.80015
G1 X71.547 Y48.146 E1.01171
G1 X71.783 Y48.581 E1.06629
G1 X72.62 Y50.35 E1.28209
G1 X72.847 Y50.902 E1.34791
G1 X73.484 Y52.694 E1.55764
G1 X73.621 Y53.156 E1.61078
G1 X74.085 Y55.023 E1.82292
G1 X74.157 Y55.383 E1.86341
G1 X74.46 Y57.443 E2.09301
G1 X74.502 Y57.907 E2.14439
G1 X74.594 Y59.835 E2.35724
G1 X74.59 Y60.304 E2.40896
G1 X74.49 Y62.26 E2.62494
G1 X74.444 Y62.697 E2.67339
G1 X74.148 Y64.658 E2.89209
G1 X74.063 Y65.079 E2.93945
G1 X73.594 Y66.946 E3.15173
G1 X73.457 Y67.397 E3.20371
G1 X72.782 Y69.268 E3.42305
G1 X72.6 Y69.698 E3.47454
G1 X71.776 Y71.433 E3.68634
G1 X71.53 Y71.883 E3.7429
G1 X70.561 Y73.495 E3.9503
G1 X70.338 Y73.83 E3.99468
G1 X69.177 Y75.394 E4.20948
G1 X68.894 Y75.743 E4.25903
G1 X67.592 Y77.186 E4.47335
G1 X67.259 Y77.523 E4.5256
G1 X65.816 Y78.835 E4.74066
G1 X65.446 Y79.141 E4.79361
G1 X63.872 Y80.307 E5.00962
G1 X63.51 Y80.551 E5.05776
G1 X61.861 Y81.542 E5.26991
G1 X61.419 Y81.783 E5.32542
G1 X59.554 Y82.663 E5.55283
G1 X59.219 Y82.802 E5.59283
G1 X57.419 Y83.447 E5.80368
G1 X56.956 Y83.591 E5.85715
G1 X55.07 Y84.065 E6.07159
G1 X54.61 Y84.159 E6.12337
G1 X52.665 Y84.447 E6.34019
G1 X52.211 Y84.494 E6.39052
G1 X50.267 Y84.592 E6.60516
G1 X49.846 Y84.594 E6.65159
G1 X47.896 Y84.502 E6.86686
G1 X47.407 Y84.457 E6.92102
G1 X45.46 Y84.169 E7.13806
G1 X44.895 Y84.057 E7.20157
G1 X43.062 Y83.596 E7.41
G1 X42.665 Y83.475 E7.45577
G1 X40.733 Y82.782 E7.68211
G1 X40.3 Y82.599 E7.73394
G1 X38.542 Y81.763 E7.94861
G1 X38.172 Y81.564 E7.99494
G1 X36.474 Y80.542 E8.21348
G1 X36.096 Y80.286 E8.26383
G1 X34.481 Y79.077 E8.48629
G1 X34.151 Y78.804 E8.53352
G1 X32.745 Y77.527 E8.74297
G1 X32.406 Y77.185 E8.79607
G1 X31.086 Y75.721 E9.01345
G1 X30.784 Y75.345 E9.06663
G1 X29.708 Y73.894 E9.26583
G1 X29.365 Y73.378 E9.33416
G1 X28.394 Y71.751 E9.5431
G1 X28.172 Y71.332 E9.59539
G1 X27.333 Y69.541 E9.81348
G1 X27.154 Y69.099 E9.86607
G1 X26.546 Y67.397 E10.06537
G1 X26.413 Y66.966 E10.11511
G1 X25.941 Y65.093 E10.32811
G1 X25.908 Y64.943 E10.34505
G1 X25.839 Y64.596 E10.38406
G1 X25.553 Y62.662 E10.59965
G1 X25.504 Y62.191 E10.65187
G1 X25.41 Y60.306 E10.86
G1 X25.406 Y59.843 E10.91105
G1 X25.5 Y57.88 E11.12777
G1 X25.545 Y57.396 E11.18137
G1 X25.827 Y55.488 E11.39406
G1 X25.947 Y54.881 E11.46229
G1 X26.417 Y53.02 E11.67396
G1 X26.549 Y52.591 E11.72345
G1 X27.22 Y50.733 E11.94129
G1 X27.409 Y50.287 E11.99471
G1 X28.248 Y48.522 E12.21021
G1 X28.447 Y48.154 E12.25635
G1 X29.442 Y46.497 E12.46948
G1 X29.714 Y46.097 E12.52283
G1 X30.906 Y44.502 E12.7424
G1 X31.197 Y44.152 E12.7926
G1 X32.468 Y42.751 E13.00119
G1 X32.816 Y42.406 E13.05523
G1 X34.271 Y41.093 E13.27135
G1 X34.617 Y40.812 E13.3205
G1 X36.189 Y39.65 E13.53607
G1 X36.611 Y39.373 E13.59174
G1 X38.248 Y38.396 E13.80196
G1 X38.657 Y38.179 E13.85302
G1 X40.473 Y37.327 E14.07422
G1 X40.902 Y37.154 E14.12523
G1 X42.68 Y36.521 E14.33335
G1 X43.176 Y36.375 E14.39037
G1 X45.027 Y35.914 E14.60072
G1 X45.501 Y35.823 E14.65395
G1 X47.443 Y35.54 E14.87036
G1 X47.907 Y35.498 E14.92174
G1 X49.845 Y35.406 E15.13569
G1 X50.304 Y35.41 E15.18631
G1 X52.269 Y35.511 E15.40328
G1 X52.696 Y35.556 E15.45063
G1 X54.633 Y35.848 E15.66664
G1 X55.087 Y35.94 E15.71772
G1 X56.976 Y36.417 E15.93257
G1 X57.336 Y36.526 E15.97405
G1 X59.164 Y37.18 E16.18814
G1 X59.616 Y37.365 E16.242
G1 X61.34 Y38.179 E16.45224
G1 X61.784 Y38.413 E16.50758
G1 X63.425 Y39.394 E16.71841
G1 X63.815 Y39.654 E16.7701
G1 X65.394 Y40.824 E16.98681
G1 X65.743 Y41.107 E17.03636
G1 F3600 X65.6 Y40.992
G1 F1200 X65.6 Y79.014 E21.2292
G1 F1680 E18.2292
G1 F3600 X64 Y80.213
G1 F1680 E21.2292
G1 F1200 X64 Y39.792 E25.68658
G1 F1680 E22.68658
G1 F3600 X62.4 Y38.782
G1 F1680 E25.68658
G1 F1200 X62.4 Y81.219 E30.36628
G1 F1680 E27.36628
G1 F3600 X60.8 Y82.076
G1 F1680 E30.36628
G1 F1200 X60.8 Y37.925 E35.23499
G1 F1680 E32.23499
G1 F3600 X59.2 Y37.195
G1 F1680 E35.23499
G1 F1200 X59.2 Y82.809 E40.26503
G1 F1680 E37.26503
G1 F3600 X57.6 Y83.383
G1 F1680 E40.26503
G1 F1200 X57.6 Y36.621 E45.42166
G1 F1680 E42.42166
G1 F3600 X56 Y36.171
G1 F1680 E45.42166
G1 F1200 X56 Y83.832 E50.67742
G1 F1680 E47.67742
G1 F3600 X54.4 Y84.191
G1 F1680 E50.67742
G1 F1200 X54.4 Y35.813 E56.01226
G1 F1680 E53.01226
G1 F3600 X52.8 Y35.572
G1 F1680 E56.01226
G1 F1200 X52.8 Y84.428 E61.3998
G1 F1680 E58.3998
G1 F3600 X51.2 Y84.545
G1 F1680 E61.3998
G1 F1200 X51.2 Y35.457 E66.81293
G1 F1680 E63.81293
G1 F3600 X49.6 Y35.417
G1 F1680 E66.81293
G1 F1200 X49.6 Y84.582 E72.23455
G1 F1680 E69.23455
G1 F3600 X48 Y84.506
G1 F1680 E72.23455
G1 F1200 X48 Y35.493 E77.63941
G1 F1680 E74.63941
G1 F3600 X46.4 Y35.691
G1 F1680 E77.63941
G1 F1200 X46.4 Y84.308 E83.0006
G1 F1680 E80.0006
G1 F3600 X44.8 Y84.033
G1 F1680 E83.0006
G1 F1200 X44.8 Y35.97 E88.3007
G1 F1680 E85.3007
G1 F3600 X43.2 Y36.369
G1 F1680 E88.3007
G1 F1200 X43.2 Y83.63 E93.51236
G1 F1680 E90.51236
G1 F3600 X41.6 Y83.092
G1 F1680 E93.51236
G1 F1200 X41.6 Y36.905 E98.60558
G1 F1680 E95.60558
G1 F3600 X40 Y37.548
G1 F1680 E98.60558
G1 F1200 X40 Y82.456 E103.55777
G1 F1680 E100.55777
G1 F3600 X38.4 Y81.686
G1 F1680 E103.55777
G1 F1200 X38.4 Y38.315 E108.34046
G1 F1680 E105.34046
G1 F3600 X36.8 Y39.26
G1 F1680 E108.34046
G1 F1200 X36.8 Y80.738 E112.9144
G1 F1680 E109.9144
G1 F3600 X35.2 Y79.615
G1 F1680 E112.9144
G1 F1200 X35.2 Y40.381 E117.24089
G1 F1680 E114.24089
G1 F3600 X33.6 Y41.698
G1 F1680 E117.24089
G1 F1200 X33.6 Y78.303 E121.27747
G1 F1680 E118.27747
G1 F3600 X32 Y76.734
G1 F1680 E121.27747
G1 F1200 X32 Y43.266 E124.96812
G1 F1680 E121.96812
G1 F3600 X30.4 Y45.179
G1 F1680 E124.96812
G1 F1200 X30.4 Y74.827 E128.23752
G1 F1680 E125.23752
G1 F3600 X28.8 Y72.431
G1 F1680 E128.23752
G1 F1200 X28.8 Y47.566 E130.97949
G1 F1680 E127.97949
G1 F3600 X27.2 Y50.788
G1 F1680 E130.97949
G1 F1200 X27.2 Y69.212 E133.01117
G1 F1680 E130.01117
G1 F3600 X25.6 Y62.979
G1 F1680 E133.01117
G1 F1200 X25.6 Y57.023 E133.66797
G1 F1680 E130.66797
G1 F3600 X67.2 Y42.423
G1 F1680 E133.66797
G1 F1200 X67.2 Y77.577 E137.54454
G1 F1680 E134.54454
G1 F3600 X68.8 Y75.848
G1 F1680 E137.54454
G1 F1200 X68.8 Y44.15 E141.04
G1 F1680 E138.04
G1 F3600 X70.4 Y46.269
M104 T0 S200
G1 F1680 E141.04
G1 F1200 X70.4 Y73.737 E144.06901
G1 F1680 E141.06901
G1 F3600 X72 Y70.962
G1 F1680 E144.06901
G1 F1200 X72 Y49.04 E146.48643
G1 F1680 E143.48643
G1 F3600 X73.6 Y53.086
G1 F1680 E146.48643
G1 F1200 X73.6 Y66.923 E148.0123
G1 F1680 E145.0123
G1 F3600 X65.775 Y41.068
;TIME_ELAPSED:76.239087
;LAYER:-5
G1 X65.775 Y41.068 Z0.619
;TYPE:SUPPORT
G1 F1680 E148.0123
G1 F1980 X67.211 Y42.363 E148.15643
G1 X67.556 Y42.704 E148.19259
G1 X68.87 Y44.151 E148.33829
G1 X69.169 Y44.51 E148.37312
G1 X70.343 Y46.094 E148.52009
G1 F3600 X70.476 Y46.293
G1 F1980 X63.698 Y39.515 E149.23461
G1 X63.452 Y39.351 E149.25665
G1 X61.859 Y38.398 E149.39502
G1 X61.353 Y38.129 E149.43773
G1 X60.757 Y37.847 E149.48688
G1 X72.151 Y49.241 E150.68801
G1 X72.72 Y50.453 E150.78782
G1 X72.83 Y50.717 E150.80914
G1 X73.095 Y51.458 E150.8678
G1 X58.542 Y36.905 E152.40194
G1 X57.437 Y36.505 E152.48954
G1 X56.989 Y36.368 E152.52446
G1 X56.647 Y36.282 E152.55075
G1 X73.723 Y53.358 E154.35086
G1 X74.135 Y55.02 E154.4785
G1 X74.14 Y55.048 E154.48062
G1 X54.953 Y35.861 E156.50327
G1 X54.64 Y35.797 E156.52708
G1 X53.435 Y35.616 E156.61791
G1 X74.384 Y56.565 E158.82631
G1 X74.498 Y57.334 E158.88426
G1 X74.543 Y57.78 E158.91767
G1 X74.555 Y58.008 E158.93469
G1 X51.988 Y35.442 E161.3136
G1 X50.652 Y35.378 E161.4133
G1 X74.623 Y59.35 E163.94032
G1 X74.64 Y59.684 E163.96525
G1 X74.644 Y60.158 E164.00059
G1 X74.622 Y60.621 E164.03514
G1 X49.376 Y35.375 E166.69651
G1 X48.164 Y35.436 E166.78697
G1 X74.565 Y61.837 E169.5701
G1 X74.551 Y62.11 E169.59048
G1 X74.492 Y62.714 E169.63572
G1 X74.449 Y62.994 E169.65683
G1 X47.005 Y35.55 E172.54992
G1 X45.898 Y35.715 E172.63335
G1 X74.282 Y64.1 E175.62558
G1 X74.195 Y64.674 E175.66885
G1 X74.112 Y65.091 E175.70055
G1 X74.09 Y65.181 E175.70745
G1 X44.82 Y35.911 E178.79303
G1 X43.804 Y36.167 E178.87113
G1 X73.835 Y66.198 E182.03693
G1 X73.662 Y66.885 E182.08974
G1 X73.567 Y67.203 E182.11448
G1 X42.796 Y36.432 E185.35829
G1 X42.602 Y36.491 E185.3734
G1 X41.852 Y36.761 E185.43282
G1 X73.239 Y68.148 E188.74156
G1 X72.904 Y69.085 E188.81574
G1 X40.916 Y37.097 E192.18784
G1 X40.742 Y37.159 E192.20161
G1 X40.445 Y37.282 E192.22557
G1 X40.025 Y37.48 E192.26018
G1 X72.521 Y69.975 E195.68579
G1 X72.114 Y70.841 E195.75711
G1 X39.16 Y37.887 E199.23105
G1 X38.554 Y38.171 E199.28093
G1 X38.307 Y38.307 E199.30195
G1 X71.693 Y71.693 E202.82143
G1 X71.649 Y71.775 E202.82836
G1 X71.22 Y72.493 E202.89071
G1 X37.504 Y38.777 E206.44497
G1 X36.709 Y39.255 E206.51412
G1 X70.743 Y73.289 E210.10191
G1 X70.603 Y73.523 E210.12223
G1 X70.326 Y73.933 E210.15912
G1 X70.236 Y74.054 E210.17036
G1 X35.947 Y39.765 E213.78503
G1 X35.215 Y40.306 E213.85288
G1 X69.692 Y74.783 E217.48736
G1 X69.147 Y75.511 E217.55515
G1 X34.487 Y40.851 E221.20893
G1 X34.238 Y41.052 E221.23278
G1 X33.806 Y41.443 E221.27621
G1 X68.556 Y76.193 E224.93948
G1 X67.952 Y76.862 E225.00667
G1 X33.137 Y42.047 E228.67678
G1 X32.772 Y42.375 E228.71336
G1 X32.482 Y42.664 E228.74388
G1 X67.335 Y77.517 E232.418
G1 X67.293 Y77.559 E232.42243
G1 X66.67 Y78.125 E232.48517
G1 X31.873 Y43.328 E236.15339
G1 X31.268 Y43.996 E236.22058
G1 X66.004 Y78.732 E239.88236
G1 X65.848 Y78.873 E239.89804
G1 X65.485 Y79.174 E239.93319
G1 X65.306 Y79.306 E239.94977
G1 X30.695 Y44.696 E243.59833
G1 X30.151 Y45.424 E243.66607
G1 X64.575 Y79.848 E247.29497
G1 X63.901 Y80.347 E247.35748
G1 X63.841 Y80.388 E247.3629
G1 X29.61 Y46.156 E250.97151
G1 X29.398 Y46.468 E250.99962
G1 X29.117 Y46.936 E251.04031
G1 X63.059 Y80.878 E254.6184
G1 X62.263 Y81.355 E254.68758
G1 X28.639 Y47.731 E258.23214
G1 X28.408 Y48.117 E258.26567
G1 X28.202 Y48.496 E258.29783
G1 X28.179 Y48.544 E258.30179
G1 X61.453 Y81.818 E261.80946
G1 X61.364 Y81.867 E261.81704
G1 X60.591 Y82.229 E261.88066
G1 X27.769 Y49.406 E265.34074
G1 X27.36 Y50.27 E265.41199
G1 X59.726 Y82.636 E268.82394
G1 X59.581 Y82.705 E268.83591
G1 X59.135 Y82.887 E268.87182
G1 X58.817 Y83 E268.89697
G1 X27.001 Y51.184 E272.25094
G1 X26.664 Y52.12 E272.3251
G1 X57.879 Y83.335 E275.61571
G1 X57.434 Y83.495 E275.65096
G1 X56.98 Y83.635 E275.68638
G1 X56.921 Y83.65 E275.69091
G1 X26.348 Y53.077 E278.91385
G1 X26.092 Y54.094 E278.99202
G1 X55.903 Y83.905 E282.13463
G1 X54.98 Y84.137 E282.20557
G1 X54.881 Y84.155 E282.21307
G1 X25.844 Y55.118 E285.27409
G1 X25.801 Y55.327 E285.28999
G1 X25.667 Y56.214 E285.35686
G1 X53.784 Y84.331 E288.32089
G1 X52.673 Y84.493 E288.40458
G1 X25.503 Y57.323 E291.26878
G1 X25.457 Y57.747 E291.30057
G1 X25.418 Y58.51 E291.35752
G1 X51.489 Y84.581 E294.10587
G1 X50.274 Y84.639 E294.19654
G1 X25.358 Y59.723 E296.82313
G1 X25.354 Y60.164 E296.856
G1 X25.395 Y61.033 E296.92085
G1 X48.965 Y84.603 E299.40554
G1 X47.728 Y84.54 E299.49787
G1 X47.617 Y84.528 E299.50619
G1 X25.473 Y62.384 E301.84056
G1 X25.488 Y62.542 E301.85239
G1 X25.679 Y63.863 E301.95189
G1 X46.134 Y84.318 E304.10821
G1 X45.35 Y84.201 E304.16729
G1 X44.893 Y84.108 E304.20206
M73 P1
G1 X44.57 Y84.026 E304.2269
G1 X25.976 Y65.433 E306.18698
G1 X26.326 Y66.844 E306.29535
G1 X26.416 Y67.145 E306.31877
G1 X42.856 Y83.585 E308.05183
G1 X42.568 Y83.497 E308.07428
G1 X40.894 Y82.896 E308.20686
G1 X27.107 Y69.109 E309.66026
G1 X27.149 Y69.226 E309.66952
G1 X27.283 Y69.552 E309.6958
G1 X28.13 Y71.361 E309.84469
G1 X28.18 Y71.455 E309.85263
G1 X38.541 Y81.816 E310.94486
G1 X38.137 Y81.602 E310.97894
G1 X36.556 Y80.655 E311.11631
G1 X36.134 Y80.375 E311.15406
G1 X34.933 Y79.481 E311.26567
G1 X30.518 Y75.065 E311.73114
G1 F3600 X30.851 Y75.513
G1 F1980 X31.137 Y75.859 E311.7646
G1 X32.432 Y77.285 E311.90819
G1 X32.772 Y77.624 E311.94398
G1 X34.209 Y78.921 E312.08827
G1 X34.586 Y79.222 E312.12423
G1 X34.933 Y79.481 E312.15651
G1 F1680 E309.15651
G1 F3600 X63.698 Y39.515
G1 F1680 E312.15651
G1 F1980 X63.838 Y39.608 E312.16904
G1 X65.531 Y40.867 E312.32631
G1 X65.775 Y41.068 E312.34987
G1 F3600 X65.876 Y40.957
;TIME_ELAPSED:144.539739
;LAYER:-4
M106 S255
G1 X65.876 Y40.957 Z0.869
G1 F2400 X66.146 Y41.2 E312.36422
G1 X33.852 Y41.2 E313.63972
G1 X33.41 Y41.6 E313.66326
G1 X66.589 Y41.6 E314.97371
G1 X67.033 Y42 E314.99732
G1 X32.968 Y42 E316.34276
G1 X32.605 Y42.328 E316.36209
G1 X32.534 Y42.4 E316.36608
G1 X67.461 Y42.4 E317.74557
G1 X67.664 Y42.601 E317.75685
G1 X67.845 Y42.8 E317.76748
G1 X32.149 Y42.8 E319.17734
G1 X31.789 Y43.2 E319.1986
G1 X68.209 Y43.2 E320.63706
G1 X68.572 Y43.6 E320.65839
G1 X31.428 Y43.6 E322.12544
G1 X31.068 Y44 E322.1467
G1 X68.936 Y44 E323.64235
G1 X68.979 Y44.048 E323.6449
G1 X69.272 Y44.4 E323.66298
G1 X30.732 Y44.4 E325.18518
G1 X30.67 Y44.475 E325.18902
G1 X30.429 Y44.8 E325.205
G1 X69.569 Y44.8 E326.75089
G1 X69.866 Y45.2 E326.77057
G1 X30.131 Y45.2 E328.33996
G1 X29.833 Y45.6 E328.35966
G1 X70.163 Y45.6 E329.95255
G1 X70.46 Y46 E329.97222
G1 X29.537 Y46 E331.58854
G1 X29.269 Y46.4 E331.60755
G1 X70.73 Y46.4 E333.24511
G1 X70.97 Y46.8 E333.26354
G1 X29.024 Y46.8 E334.92025
G1 X28.784 Y47.2 E334.93868
G1 X71.21 Y47.2 E336.61435
G1 X71.451 Y47.6 E336.6328
G1 X28.544 Y47.6 E338.32747
G1 X28.304 Y48 E338.34589
G1 X71.691 Y48 E340.05952
G1 X71.775 Y48.141 E340.06601
G1 X71.913 Y48.4 E340.0776
G1 X28.085 Y48.4 E341.80865
G1 X28.07 Y48.427 E341.80987
G1 X27.893 Y48.8 E341.82617
G1 X72.108 Y48.8 E343.57251
G1 X72.297 Y49.2 E343.58998
G1 X27.703 Y49.2 E345.35128
G1 X27.513 Y49.6 E345.36877
G1 X72.487 Y49.6 E347.14509
G1 X72.676 Y50 E347.16256
G1 X27.323 Y50 E348.95384
G1 X27.227 Y50.2 E348.9626
G1 X27.143 Y50.4 E348.97117
G1 X72.857 Y50.4 E350.77671
G1 X73.021 Y50.8 E350.79378
G1 X26.983 Y50.8 E352.61212
G1 X26.838 Y51.2 E352.62892
G1 X73.166 Y51.2 E354.45871
G1 X73.308 Y51.6 E354.47548
G1 X26.694 Y51.6 E356.31656
G1 X26.549 Y52 E356.33337
G1 X73.45 Y52 E358.18579
G1 X73.592 Y52.4 E358.20255
G1 X26.404 Y52.4 E360.06631
G1 X26.355 Y52.535 E360.07198
G1 X26.274 Y52.8 E360.08293
G1 X73.725 Y52.8 E361.95707
G1 X73.778 Y52.979 E361.96444
G1 X73.834 Y53.2 E361.97345
G1 X26.165 Y53.2 E363.8562
G1 X26.064 Y53.6 E363.8725
G1 X73.935 Y53.6 E365.76323
G1 X74.036 Y54 E365.77953
G1 X25.963 Y54 E367.67824
G1 X25.861 Y54.4 E367.69454
G1 X74.137 Y54.4 E369.60127
G1 X74.238 Y54.8 E369.61756
G1 X25.76 Y54.8 E371.53227
G1 X25.749 Y54.843 E371.53402
G1 X25.676 Y55.2 E371.54842
G1 X74.323 Y55.2 E373.4698
G1 X74.352 Y55.346 E373.47568
G1 X74.39 Y55.6 E373.48582
G1 X25.61 Y55.6 E375.41245
G1 X25.55 Y56 E375.42843
G1 X74.45 Y56 E377.3598
G1 X74.509 Y56.4 E377.37577
G1 X25.489 Y56.4 E379.31189
G1 X25.429 Y56.8 E379.32786
G1 X74.569 Y56.8 E381.26872
G1 X74.628 Y57.2 E381.28469
G1 X25.369 Y57.2 E383.23024
G1 X25.362 Y57.242 E383.23192
G1 X25.324 Y57.6 E383.24614
G1 X74.673 Y57.6 E385.19525
G1 X74.701 Y57.896 E385.20699
G1 X74.706 Y58 E385.21111
G1 X25.296 Y58 E387.16262
G1 X25.276 Y58.4 E387.17844
G1 X74.725 Y58.4 E389.1315
G1 X74.744 Y58.8 E389.14732
G1 X25.257 Y58.8 E391.10187
G1 X25.237 Y59.2 E391.11769
G1 X74.763 Y59.2 E393.07379
G1 X74.782 Y59.6 E393.08961
G1 X25.217 Y59.6 E395.04725
G1 X25.205 Y59.837 E395.05662
G1 X25.206 Y60 E395.06306
G1 X74.791 Y60 E397.02149
G1 X74.789 Y60.313 E397.03385
G1 X74.784 Y60.4 E397.03729
