M73 P0
;MINX:25.0
;MAXX:75.0
;MINY:35.0
;MAXY:85.0
;MINZ:0.0
;MAXZ:36.1
;MachineType:ENTINA TINA2
;FilamentType:PLA
;Extruder0Temperature:200
;InfillDensity:100
;FLAVOR:Marlin
;TIME:5115
;FilamentUsed:8141.2
;Layer height: 0.35

;Generated with Cura_SteamEngine 3.1
M104 T0 S215
M82 ; absolute extrusion mode
;(**** start.gcode for tina2****)
M104 S150
G28 Z
G28 X Y; Home extruder
G1 X55 Y55 F1000
G1 Z10 F200
G29
G1 Z15 F100
M107 ; Turn off fan
G90 ; Absolute positioning
M82 ; Extruder in absolute mode
M109 S215.0
G92 E0 ; Reset extruder position
G1 X90 Y6 Z0.27 F2000
G1 X20 Y6 Z0.27 E15 F1000
G92 E0 ; Reset extruder position

;LAYER_COUNT:100
;LAYER:-5
M107
M203 Z5
G1 F3600 X65.732 Y41.096 Z0.349
G1 F1200 X67.182 Y42.408 E0.21564
G1 X67.299 Y42.521 E0.23357
G1 X67.518 Y42.738 E0.26757
G1 X68.808 Y44.157 E0.47905
G1 X69.115 Y44.524 E0.53181
G1 X70.36 Y46.204 E0.7624
G1 X70.61 Y46.585 E0.81265
G1 X71.602 Y48.245 E1.0259
G1 X71.828 Y48.672 E1.07917
G1 X72.642 Y50.398 E1.28961
G1 X72.831 Y50.862 E1.34486
G1 X73.479 Y52.673 E1.55697
G1 X73.63 Y53.192 E1.61657
G1 X74.086 Y55.023 E1.82465
G1 X74.159 Y55.392 E1.86613
G1 X74.442 Y57.282 E2.07687
G1 X74.495 Y57.779 E2.13199
G1 X74.59 Y59.684 E2.34232
G1 X74.594 Y60.192 E2.39834
G1 X74.502 Y62.118 E2.61097
G1 X74.445 Y62.698 E2.67524
G1 X74.17 Y64.536 E2.88018
G1 X74.058 Y65.101 E2.9437
G1 X73.588 Y66.964 E3.15557
G1 X73.453 Y67.405 E3.20643
G1 X72.837 Y69.122 E3.40759
G1 X72.668 Y69.541 E3.45741
G1 X71.815 Y71.354 E3.67836
G1 X71.608 Y71.747 E3.72734
G1 X70.594 Y73.444 E3.94534
G1 X70.34 Y73.827 E3.99602
G1 X69.126 Y75.462 E4.22058
G1 X68.822 Y75.827 E4.27296
G1 X67.491 Y77.288 E4.49091
G1 X67.148 Y77.625 E4.54393
G1 X65.749 Y78.89 E4.75192
G1 X65.374 Y79.194 E4.80516
G1 X63.826 Y80.341 E5.01761
G1 X63.407 Y80.617 E5.07294
G1 X61.743 Y81.61 E5.28663
G1 X61.317 Y81.834 E5.3397
G1 X59.578 Y82.653 E5.55167
G1 X59.142 Y82.831 E5.6036
G1 X57.431 Y83.444 E5.80403
G1 X56.967 Y83.587 E5.85757
G1 X55.062 Y84.068 E6.07423
G1 X54.592 Y84.162 E6.12709
G1 X52.709 Y84.443 E6.33703
G1 X52.218 Y84.495 E6.39148
G1 X50.306 Y84.59 E6.60258
G1 X49.846 Y84.594 E6.65331
G1 X47.896 Y84.502 E6.86859
G1 X47.407 Y84.457 E6.92274
G1 X45.463 Y84.17 E7.13943
G1 X44.899 Y84.058 E7.20284
G1 X43.049 Y83.592 E7.41322
G1 X42.605 Y83.455 E7.46446
G1 X40.763 Y82.794 E7.68027
G1 X40.319 Y82.607 E7.7334
G1 X38.566 Y81.775 E7.94737
G1 X38.148 Y81.549 E7.99977
G1 X36.466 Y80.538 E8.21618
G1 X36.108 Y80.296 E8.26383
G1 X34.539 Y79.126 E8.47966
G1 X34.189 Y78.836 E8.52979
G1 X32.818 Y77.592 E8.73393
G1 X32.701 Y77.479 E8.75187
G1 X32.481 Y77.261 E8.78602
G1 X31.193 Y75.843 E8.99727
G1 X30.877 Y75.465 E9.0516
G1 X29.727 Y73.921 E9.2639
G1 X29.445 Y73.506 E9.31923
G1 X28.427 Y71.809 E9.53745
G1 X28.216 Y71.417 E9.58654
G1 X27.347 Y69.578 E9.81084
G1 X27.167 Y69.137 E9.86337
G1 X26.556 Y67.431 E10.06319
G1 X26.38 Y66.854 E10.12972
G1 X25.912 Y64.967 E10.34411
G1 X25.825 Y64.518 E10.39454
G1 X25.54 Y62.574 E10.61121
G1 X25.5 Y62.139 E10.65938
G1 X25.406 Y60.202 E10.87323
G1 X25.41 Y59.694 E10.92925
G1 X25.509 Y57.742 E11.14478
G1 X25.556 Y57.3 E11.1938
G1 X25.854 Y55.328 E11.41373
G1 X25.94 Y54.909 E11.46089
G1 X26.413 Y53.033 E11.67424
G1 X26.526 Y52.663 E11.7169
G1 X27.159 Y50.886 E11.92492
G1 X27.343 Y50.433 E11.97884
G1 X28.177 Y48.662 E12.19471
G1 X28.403 Y48.234 E12.24808
G1 X29.395 Y46.574 E12.46133
G1 X29.661 Y46.171 E12.51458
G1 X30.874 Y44.538 E12.7389
G1 X31.178 Y44.173 E12.79128
G1 X32.521 Y42.701 E13.01101
G1 X32.738 Y42.482 E13.04501
G1 X34.17 Y41.18 E13.25844
G1 X34.543 Y40.87 E13.31192
G1 X36.097 Y39.713 E13.52557
G1 X36.514 Y39.433 E13.58096
G1 X38.184 Y38.431 E13.79572
G1 X38.575 Y38.221 E13.84466
G1 X40.307 Y37.4 E14.05603
G1 X40.853 Y37.171 E14.12132
G1 X42.665 Y36.524 E14.33349
G1 X43.042 Y36.41 E14.37692
G1 X44.943 Y35.933 E14.59305
G1 X45.363 Y35.847 E14.64033
G1 X47.324 Y35.553 E14.85899
G1 X47.756 Y35.509 E14.90688
G1 X49.696 Y35.41 E15.12109
G1 X50.157 Y35.406 E15.17192
G1 X52.11 Y35.499 E15.38753
G1 X52.574 Y35.542 E15.43892
G1 X54.529 Y35.83 E15.65683
G1 X54.994 Y35.919 E15.70904
G1 X56.872 Y36.385 E15.92242
G1 X57.442 Y36.561 E15.9882
G1 X59.265 Y37.218 E16.20189
G1 X59.685 Y37.396 E16.25219
G1 X61.453 Y38.236 E16.46804
G1 X61.859 Y38.456 E16.51896
G1 X63.521 Y39.456 E16.73285
G1 X63.915 Y39.724 E16.7854
G1 X65.358 Y40.793 E16.98343
G1 X65.732 Y41.096 E17.03651
G1 F1680 E14.03651
G1 F3600 X58.509 Y50.511
G1 F1680 E17.03651
G1 F1200 X56.961 Y49.324 E17.25163
G1 X56.404 Y48.95 E17.32561
G1 X55.766 Y48.634 E17.40412
G1 X53.963 Y47.887 E17.61933
G1 X53.327 Y47.669 E17.69347
G1 X52.624 Y47.528 E17.77254
G1 X50.692 Y47.274 E17.98742
G1 X50.023 Y47.228 E18.06137
G1 X49.309 Y47.274 E18.14027
G1 X47.376 Y47.528 E18.35526
G1 X46.717 Y47.658 E18.42933
G1 X46.037 Y47.886 E18.50842
G1 X44.235 Y48.633 E18.72353
G1 X43.633 Y48.929 E18.79751
G1 X43.039 Y49.323 E18.87611
G1 X41.491 Y50.51 E19.09122
G1 X40.986 Y50.952 E19.16523
G1 X40.511 Y51.491 E19.24445
G1 X39.324 Y53.039 E19.45957
G1 X38.95 Y53.596 E19.53355
G1 X38.634 Y54.234 E19.61206
G1 X37.887 Y56.037 E19.82728
G1 X37.669 Y56.673 E19.90142
G1 X37.528 Y57.376 E19.98048
G1 X37.274 Y59.308 E20.19536
G1 X37.228 Y59.977 E20.26931
G1 X37.274 Y60.691 E20.34821
G1 X37.528 Y62.624 E20.5632
G1 X37.658 Y63.283 E20.63727
G1 X37.886 Y63.963 E20.71636
G1 X38.633 Y65.765 E20.93147
G1 X38.929 Y66.367 E21.00545
G1 X39.323 Y66.961 E21.08405
G1 X40.51 Y68.509 E21.29916
G1 X40.952 Y69.014 E21.37317
G1 X41.491 Y69.489 E21.45239
G1 X43.039 Y70.676 E21.66751
G1 X43.596 Y71.05 E21.74149
G1 X44.234 Y71.366 E21.82
G1 X46.037 Y72.113 E22.03522
G1 X46.673 Y72.331 E22.10936
G1 X47.376 Y72.472 E22.18842
G1 X49.308 Y72.726 E22.40331
G1 X49.977 Y72.772 E22.47725
G1 X50.691 Y72.726 E22.55615
G1 X52.624 Y72.472 E22.77114
G1 X53.283 Y72.342 E22.84521
G1 X53.963 Y72.114 E22.9243
G1 X55.765 Y71.367 E23.13941
G1 X56.367 Y71.071 E23.21339
G1 X56.961 Y70.677 E23.29199
G1 X58.509 Y69.49 E23.50711
G1 X59.014 Y69.048 E23.58111
G1 X59.489 Y68.509 E23.66034
G1 X60.676 Y66.961 E23.87545
G1 X61.05 Y66.404 E23.94943
G1 X61.366 Y65.766 E24.02794
G1 X62.113 Y63.963 E24.24316
G1 X62.331 Y63.327 E24.3173
G1 X62.472 Y62.624 E24.39636
G1 X62.726 Y60.692 E24.61125
G1 X62.772 Y60.023 E24.68519
G1 X62.726 Y59.309 E24.76409
G1 X62.472 Y57.376 E24.97908
G1 X62.342 Y56.717 E25.05316
G1 X62.114 Y56.037 E25.13225
G1 X61.367 Y54.235 E25.34736
G1 X61.071 Y53.633 E25.42133
G1 X60.677 Y53.039 E25.49993
G1 X59.49 Y51.491 E25.71505
G1 X59.048 Y50.986 E25.78905
G1 X58.509 Y50.511 E25.86828
G1 F1680 E22.86828
G1 F3600 X59.2 Y51.159
G1 F1680 E25.86828
G1 F1200 X59.2 Y37.195 E27.40814
G1 F1680 E24.40814
G1 F3600 X57.6 Y36.618
G1 F1680 E27.40814
G1 F1200 X57.6 Y49.813 E28.86321
G1 F1680 E25.86321
G1 F3600 X56 Y48.749
G1 F1680 E28.86321
G1 F1200 X56 Y36.169 E30.25045
G1 F1680 E27.25045
G1 F3600 X54.4 Y35.811
G1 F1680 E30.25045
G1 F1200 X54.4 Y48.068 E31.60208
G1 F1680 E28.60208
G1 F3600 X52.8 Y47.563
G1 F1680 E31.60208
G1 F1200 X52.8 Y35.576 E32.92394
G1 F1680 E29.92394
G1 F3600 X51.2 Y35.456
G1 F1680 E32.92394
G1 F1200 X51.2 Y47.34 E34.23443
G1 F1680 E31.23443
G1 F3600 X49.6 Y47.256
G1 F1680 E34.23443
G1 F1200 X49.6 Y35.414 E35.5403
G1 F1680 E32.5403
G1 F3600 X48 Y35.496
G1 F1680 E35.5403
G1 F1200 X48 Y47.447 E36.85818
G1 F1680 E33.85818
G1 F3600 X46.4 Y47.765
G1 F1680 E36.85818
G1 F1200 X46.4 Y35.691 E38.18963
G1 F1680 E35.18963
G1 F3600 X44.8 Y35.968
G1 F1680 E38.18963
G1 F1200 X44.8 Y48.399 E39.56045
G1 F1680 E36.56045
G1 F3600 X43.2 Y49.217
G1 F1680 E39.56045
G1 F1200 X43.2 Y36.37 E40.97714
G1 F1680 E37.97714
G1 F3600 X41.6 Y36.904
G1 F1680 E40.97714
G1 F1200 X41.6 Y50.427 E42.46837
G1 F1680 E39.46837
G1 F3600 X40 Y52.158
G1 F1680 E42.46837
G1 F1200 X40 Y37.545 E44.0798
G1 F1680 E41.0798
G1 F3600 X38.4 Y38.314
G1 F1680 E44.0798
G1 F1200 X38.4 Y54.799 E45.89767
G1 F1680 E42.89767
G1 F3600 X30.4 Y45.176
G1 F1680 E45.89767
G1 F1200 X30.4 Y74.824 E49.16707
G1 F1680 E46.16707
G1 F3600 X32 Y76.731
G1 F1680 E49.16707
G1 F1200 X32 Y43.272 E52.85673
G1 F1680 E49.85673
G1 F3600 X33.6 Y41.698
G1 F1680 E52.85673
G1 F1200 X33.6 Y78.301 E56.89309
G1 F1680 E53.89309
G1 F3600 X35.2 Y79.618
G1 F1680 E56.89309
G1 F1200 X35.2 Y40.38 E61.22002
G1 F1680 E58.22002
G1 F3600 X36.8 Y39.261
G1 F1680 E61.22002
G1 F1200 X36.8 Y80.738 E65.79385
G1 F1680 E62.79385
G1 F3600 X38.4 Y81.685
G1 F1680 E65.79385
G1 F1200 X38.4 Y65.203 E67.61139
G1 F1680 E64.61139
G1 F3600 X40 Y67.844
G1 F1680 E67.61139
G1 F1200 X40 Y82.455 E69.2226
G1 F1680 E66.2226
G1 F3600 X41.6 Y83.094
G1 F1680 E69.2226
G1 F1200 X41.6 Y69.573 E70.71362
G1 F1680 E67.71362
G1 F3600 X43.2 Y70.785
G1 F1680 E70.71362
G1 F1200 X43.2 Y83.63 E72.13009
G1 F1680 E69.13009
G1 F3600 X44.8 Y84.033
G1 F1680 E72.13009
G1 F1200 X44.8 Y71.601 E73.50101
G1 F1680 E70.50101
G1 F3600 X46.4 Y72.238
G1 F1680 E73.50101
G1 F1200 X46.4 Y84.308 E74.83202
G1 F1680 E71.83202
G1 F3600 X48 Y84.506
G1 F1680 E74.83202
G1 F1200 X48 Y72.555 E76.1499
G1 F1680 E73.1499
G1 F3600 X49.6 Y72.747
G1 F1680 E76.1499
G1 F1200 X49.6 Y84.582 E77.455
G1 F1680 E74.455
G1 F3600 X51.2 Y84.546
G1 F1680 E77.455
G1 F1200 X51.2 Y72.659 E78.76582
G1 F1680 E75.76582
G1 F3600 X52.8 Y72.437
G1 F1680 E78.76582
G1 F1200 X52.8 Y84.43 E80.08834
G1 F1680 E77.08834
G1 F3600 X54.4 Y84.191
G1 F1680 E80.08834
G1 F1200 X54.4 Y71.932 E81.44019
G1 F1680 E78.44019
G1 F3600 X56 Y71.251
G1 F1680 E81.44019
G1 F1200 X56 Y83.832 E82.82754
G1 F1680 E79.82754
G1 F3600 X57.6 Y83.384
G1 F1680 E82.82754
G1 F1200 X57.6 Y70.187 E84.28283
G1 F1680 E81.28283
G1 F3600 X59.2 Y68.836
G1 F1680 E84.28283
G1 F1200 X59.2 Y82.808 E85.82358
G1 F1680 E82.82358
G1 F3600 X60.8 Y82.078
G1 F1680 E85.82358
G1 F1200 X60.8 Y66.776 E87.51099
G1 F1680 E84.51099
G1 F3600 X62.4 Y62.982
G1 F1680 E87.51099
G1 F1200 X62.4 Y81.218 E89.52195
G1 F1680 E86.52195
G1 F3600 X64 Y80.213
G1 F1680 E89.52195
G1 F1200 X64 Y39.787 E93.97988
G1 F1680 E90.97988
G1 F3600 X62.4 Y38.782
G1 F1680 E93.97988
G1 F1200 X62.4 Y57.011 E95.99007
G1 F1680 E92.99007
G1 F3600 X60.8 Y53.224
G1 F1680 E95.99007
G1 F1200 X60.8 Y37.926 E97.67704
G1 F1680 E94.67704
G1 F3600 X65.6 Y40.99
G1 F1680 E97.67704
G1 F1200 X65.6 Y79.011 E101.86976
G1 F1680 E98.86976
G1 F3600 X67.2 Y77.574
G1 F1680 E101.86976
G1 F1200 X67.2 Y42.426 E105.74567
G1 F1680 E102.74567
G1 F3600 X68.8 Y44.149
G1 F1680 E105.74567
G1 F1200 X68.8 Y75.852 E109.24169
G1 F1680 E106.24169
G1 F3600 X70.4 Y73.737
G1 F1680 E109.24169
G1 F1200 X70.4 Y46.265 E112.27114
G1 F1680 E109.27114
G1 F3600 X72 Y49.037
G1 F1680 E112.27114
G1 F1200 X72 Y70.961 E114.68878
G1 F1680 E111.68878
G1 F3600 X73.6 Y66.917
G1 F1680 E114.68878
G1 F1200 X73.6 Y53.089 E116.21365
G1 F1680 E113.21365
G1 F3600 X28.8 Y47.569
M104 T0 S200
G1 F1680 E116.21365
G1 F1200 X28.8 Y72.43 E118.95517
G1 F1680 E115.95517
G1 F3600 X27.2 Y69.217
G1 F1680 E118.95517
G1 F1200 X27.2 Y50.785 E120.98774
G1 F1680 E117.98774
G1 F3600 X25.6 Y57.008
G1 F1680 E120.98774
G1 F1200 X25.6 Y62.983 E121.64663
G1 F1680 E118.64663
G1 F3600 X65.838 Y41.121
;TIME_ELAPSED:68.910596
;LAYER:-4
G1 X65.838 Y41.121 Z0.619
;TYPE:SUPPORT
G1 F1680 E121.64663
G1 F1980 X65.471 Y40.817 E121.68215
G1 X63.937 Y39.676 E121.82466
G1 X63.696 Y39.513 E121.84635
G1 X70.485 Y46.302 E122.56203
G1 F3600 X70.402 Y46.175
G1 F1980 X69.245 Y44.609 E122.70717
G1 X68.946 Y44.238 E122.74269
G1 X67.661 Y42.816 E122.88555
G1 X67.33 Y42.48 E122.92071
G1 X65.838 Y41.121 E123.07115
G1 F1680 E120.07115
G1 F3600 X63.696 Y39.513
G1 F1680 E123.07115
G1 F1980 X63.546 Y39.412 E123.08463
G1 X61.892 Y38.416 E123.22855
G1 X61.475 Y38.19 E123.2639
G1 X60.762 Y37.852 E123.32272
G1 X72.149 Y49.239 E124.52311
G1 X72.662 Y50.32 E124.6123
G1 X72.879 Y50.844 E124.65458
G1 X73.099 Y51.462 E124.70348
G1 X58.54 Y36.903 E126.23825
G1 X57.458 Y36.512 E126.32401
G1 X56.977 Y36.362 E126.36157
G1 X56.643 Y36.278 E126.38724
G1 X73.722 Y53.357 E128.18767
G1 X74.135 Y55.012 E128.31482
G1 X74.143 Y55.051 E128.31779
G1 X54.951 Y35.859 E130.34097
G1 X54.654 Y35.8 E130.36354
G1 X53.435 Y35.616 E130.45543
G1 X74.387 Y56.568 E132.66414
G1 X74.492 Y57.275 E132.71742
G1 X74.55 Y57.855 E132.76087
G1 X74.558 Y58.011 E132.77252
G1 X51.988 Y35.442 E135.15174
G1 X50.652 Y35.378 E135.25144
G1 X74.621 Y59.348 E137.77825
G1 X74.644 Y59.836 E137.81467
G1 X74.642 Y60.269 E137.84695
G1 X74.625 Y60.624 E137.87344
G1 X49.375 Y35.375 E140.53518
G1 X48.165 Y35.437 E140.6255
G1 X74.564 Y61.836 E143.40842
G1 X74.545 Y62.217 E143.43685
G1 X74.492 Y62.709 E143.47374
G1 X74.45 Y62.995 E143.49529
G1 X47.004 Y35.549 E146.38858
G1 X45.898 Y35.715 E146.47195
G1 X74.285 Y64.102 E149.46444
G1 X74.204 Y64.637 E149.50478
G1 X74.109 Y65.101 E149.54008
G1 X74.089 Y65.18 E149.54616
G1 X44.823 Y35.913 E152.63136
G1 X43.803 Y36.167 E152.70972
G1 X57.233 Y49.597 E154.12548
G1 X56.931 Y49.365 E154.15386
G1 X56.377 Y48.994 E154.20357
G1 X55.744 Y48.68 E154.25624
G1 X54.548 Y48.184 E154.35275
G1 X42.797 Y36.433 E155.59151
G1 X42.581 Y36.498 E155.60833
G1 X41.851 Y36.76 E155.66614
G1 X52.683 Y47.592 E156.80803
G1 X52.615 Y47.579 E156.81319
G1 X51.212 Y47.393 E156.91868
G1 X40.914 Y37.096 E158.00422
G1 X40.835 Y37.124 E158.01047
G1 X40.404 Y37.299 E158.04515
G1 X40.025 Y37.479 E158.07642
G1 X49.835 Y47.289 E159.11057
G1 X49.313 Y47.323 E159.14956
G1 X48.679 Y47.406 E159.19722
G1 X39.16 Y37.888 E160.20064
G1 X38.55 Y38.175 E160.25089
G1 X38.306 Y38.306 E160.27154
G1 X47.554 Y47.554 E161.24644
G1 X47.384 Y47.576 E161.25922
G1 X46.73 Y47.706 E161.30892
G1 X46.507 Y47.78 E161.32644
G1 X37.506 Y38.779 E162.2753
G1 X36.708 Y39.254 E162.34453
G1 X45.582 Y48.128 E163.28
G1 X44.683 Y48.501 E163.35256
G1 X35.946 Y39.764 E164.27359
G1 X35.216 Y40.307 E164.34141
G1 X43.808 Y48.899 E165.24716
G1 X43.658 Y48.973 E165.25962
G1 X43.069 Y49.363 E165.31228
G1 X43.029 Y49.393 E165.31601
G1 X34.487 Y40.85 E166.21654
G1 X34.136 Y41.14 E166.25048
G1 X33.805 Y41.442 E166.28388
G1 X42.309 Y49.946 E167.18035
G1 X41.589 Y50.498 E167.24798
G1 X33.138 Y42.048 E168.13881
G1 X32.702 Y42.444 E168.18272
G1 X32.483 Y42.666 E168.20596
G1 X40.92 Y51.102 E169.09532
G1 X40.549 Y51.522 E169.13709
G1 X40.341 Y51.796 E169.16273
G1 X31.875 Y43.33 E170.0552
G1 X31.271 Y43.999 E170.12238
G1 X39.788 Y52.516 E171.02023
G1 X39.365 Y53.067 E171.07201
G1 X39.245 Y53.246 E171.08807
G1 X30.691 Y44.691 E171.98987
G1 X30.149 Y45.423 E172.05776
G1 X38.779 Y54.053 E172.96752
G1 X38.679 Y54.254 E172.98425
G1 X38.395 Y54.941 E173.03966
G1 X29.609 Y46.155 E173.96586
G1 X29.347 Y46.553 E174.00138
G1 X29.117 Y46.937 E174.03475
G1 X38.022 Y55.841 E174.97344
G1 X37.934 Y56.054 E174.99062
G1 X37.717 Y56.685 E175.04036
G1 X37.697 Y56.789 E175.04825
G1 X28.641 Y47.733 E176.00292
G1 X28.353 Y48.216 E176.04483
G1 X28.179 Y48.544 E176.07251
G1 X37.514 Y57.878 E177.05653
G1 X37.366 Y59.003 E177.14111
G1 X27.768 Y49.405 E178.15291
G1 X27.359 Y50.269 E178.22417
G1 X37.294 Y60.204 E179.27149
G1 X37.323 Y60.685 E179.30741
G1 X37.449 Y61.632 E179.37863
G1 X27 Y51.183 E180.48014
G1 X26.664 Y52.12 E180.55434
G1 X37.681 Y63.137 E181.71572
G1 X37.707 Y63.269 E181.72575
G1 X37.934 Y63.944 E181.77884
G1 X38.442 Y65.171 E181.87783
G1 X26.348 Y53.077 E183.15275
G1 X26.331 Y53.139 E183.15754
G1 X26.091 Y54.092 E183.2308
G1 X55.904 Y83.905 E186.37362
G1 X54.977 Y84.137 E186.44485
G1 X54.881 Y84.155 E186.45213
G1 X25.845 Y55.119 E189.51304
G1 X25.776 Y55.476 E189.54014
G1 X25.666 Y56.213 E189.59569
G1 X53.786 Y84.333 E192.56003
G1 X52.724 Y84.492 E192.64008
G1 X52.677 Y84.497 E192.6436
G1 X25.503 Y57.323 E195.50822
G1 X25.491 Y57.407 E195.51455
G1 X25.457 Y57.735 E195.53913
G1 X25.418 Y58.51 E195.59697
G1 X51.487 Y84.58 E198.34516
G1 X50.273 Y84.638 E198.43575
G1 X25.358 Y59.723 E201.06223
G1 X25.354 Y60.2 E201.09779
G1 X25.395 Y61.033 E201.15996
G1 X48.965 Y84.603 E203.64466
G1 X47.728 Y84.54 E203.73698
G1 X47.617 Y84.528 E203.74531
G1 X25.47 Y62.381 E206.07999
G1 X25.488 Y62.58 E206.09489
G1 X25.675 Y63.859 E206.19124
G1 X46.134 Y84.318 E208.34798
G1 X45.355 Y84.202 E208.40669
G1 X44.897 Y84.109 E208.44152
G1 X44.57 Y84.026 E208.46667
G1 X25.974 Y65.431 E210.42697
G1 X26.334 Y66.878 E210.53812
