M73 P0
;MINX:25.0
;MAXX:75.0
;MINY:35.0
;MAXY:85.0
;MINZ:0.0
;MAXZ:29.3
;MachineType:ENTINA TINA2
;FilamentType:PLA
;Extruder0Temperature:200
;InfillDensity:100
;FLAVOR:Marlin
;TIME:5997
;FilamentUsed:9233.8
;Layer height: 0.2

;Generated with Cura_SteamEngine 3.1
M104 T0 S215
M82 ; absolute extrusion mode
;(**** start.gcode for tina2****)
M104 S150
G28 Z
G28 X Y; Home extruder
G1 X55 Y55 F1000
G1 Z10 F200
G29
G1 Z15 F100
M107 ; Turn off fan
G90 ; Absolute positioning
M82 ; Extruder in absolute mode
M109 S215.0
G92 E0 ; Reset extruder position
G1 X90 Y6 Z0.27 F2000
G1 X20 Y6 Z0.27 E15 F1000
G92 E0 ; Reset extruder position

;LAYER_COUNT:140
;LAYER:-6
M107
M203 Z5
G1 F3600 X65.791 Y41.148 Z0.349
G1 F1200 X67.238 Y42.458 E0.21524
G1 X67.601 Y42.825 E0.27217
G1 X68.884 Y44.244 E0.48312
G1 X69.209 Y44.646 E0.54013
G1 X70.372 Y46.226 E0.75647
G1 X70.612 Y46.587 E0.80428
G1 X71.604 Y48.245 E1.01734
G1 X71.823 Y48.662 E1.06928
G1 X72.653 Y50.425 E1.28416
G1 X72.827 Y50.851 E1.3349
G1 X73.479 Y52.68 E1.54903
G1 X73.622 Y53.161 E1.60436
G1 X74.086 Y55.024 E1.81608
G1 X74.181 Y55.531 E1.87296
G1 X74.453 Y57.394 E2.08058
G1 X74.496 Y57.873 E2.13361
G1 X74.593 Y59.808 E2.34726
G1 X74.59 Y60.302 E2.40174
G1 X74.494 Y62.213 E2.61274
G1 X74.443 Y62.697 E2.6664
G1 X74.163 Y64.557 E2.87382
G1 X74.054 Y65.113 E2.9363
G1 X73.587 Y66.969 E3.14735
G1 X73.455 Y67.399 E3.19695
G1 X72.792 Y69.246 E3.41335
G1 X72.604 Y69.687 E3.46622
G1 X71.819 Y71.346 E3.66861
G1 X71.592 Y71.775 E3.72213
G1 X70.553 Y73.507 E3.94486
G1 X70.279 Y73.912 E3.99878
G1 X69.239 Y75.316 E4.19145
G1 X68.93 Y75.701 E4.24589
G1 X67.514 Y77.267 E4.47871
G1 X67.258 Y77.524 E4.51871
G1 X65.823 Y78.829 E4.7326
G1 X65.444 Y79.141 E4.78674
G1 X63.846 Y80.323 E5.00592
G1 X63.475 Y80.573 E5.05526
G1 X61.839 Y81.556 E5.26573
G1 X61.315 Y81.834 E5.33114
G1 X59.549 Y82.664 E5.54632
G1 X59.14 Y82.83 E5.59499
G1 X57.32 Y83.479 E5.80807
G1 X56.855 Y83.618 E5.86159
G1 X54.954 Y84.09 E6.07759
G1 X54.624 Y84.156 E6.1147
G1 X52.715 Y84.441 E6.32754
G1 X52.147 Y84.497 E6.39048
G1 X50.324 Y84.589 E6.59177
G1 X49.843 Y84.594 E6.64481
G1 X47.888 Y84.502 E6.86064
G1 X47.391 Y84.456 E6.91568
G1 X45.54 Y84.184 E7.12199
G1 X45.086 Y84.097 E7.17296
G1 X43.143 Y83.618 E7.39364
G1 X42.659 Y83.474 E7.44932
G1 X40.87 Y82.836 E7.65877
G1 X40.313 Y82.605 E7.72527
G1 X38.67 Y81.826 E7.92578
G1 X38.115 Y81.53 E7.99514
G1 X36.503 Y80.562 E8.20249
G1 X36.095 Y80.285 E8.25687
G1 X34.534 Y79.123 E8.47147
G1 X34.209 Y78.852 E8.51813
G1 X32.753 Y77.535 E8.73463
G1 X32.416 Y77.196 E8.78734
G1 X31.11 Y75.751 E9.00213
G1 X30.796 Y75.362 E9.05725
G1 X29.627 Y73.776 E9.27452
G1 X29.368 Y73.382 E9.32652
G1 X28.382 Y71.73 E9.53867
G1 X28.176 Y71.338 E9.5875
G1 X27.352 Y69.587 E9.80091
G1 X27.166 Y69.126 E9.85572
G1 X26.54 Y67.374 E10.06089
G1 X26.408 Y66.947 E10.11017
G1 X25.915 Y64.986 E10.33315
G1 X25.829 Y64.547 E10.38248
G1 X25.545 Y62.595 E10.6
G1 X25.506 Y62.16 E10.64816
G1 X25.411 Y60.319 E10.85145
G1 X25.406 Y59.841 E10.90416
G1 X25.5 Y57.879 E11.12077
G1 X25.542 Y57.41 E11.17269
G1 X25.832 Y55.445 E11.39173
G1 X25.919 Y55.009 E11.44075
G1 X26.409 Y53.046 E11.66386
G1 X26.541 Y52.614 E11.71368
G1 X27.209 Y50.758 E11.9312
G1 X27.399 Y50.31 E11.98486
G1 X28.246 Y48.528 E12.20244
G1 X28.464 Y48.126 E12.25286
G1 X29.446 Y46.492 E12.46309
G1 X29.719 Y46.089 E12.51677
G1 X30.883 Y44.529 E12.7314
G1 X31.142 Y44.217 E12.77612
G1 X32.466 Y42.753 E12.99379
G1 X32.805 Y42.416 E13.0465
G1 X34.278 Y41.087 E13.26528
G1 X34.669 Y40.775 E13.32044
G1 X36.228 Y39.626 E13.534
G1 X36.632 Y39.36 E13.58734
G1 X38.254 Y38.391 E13.79569
G1 X38.686 Y38.166 E13.84941
G1 X40.424 Y37.348 E14.06123
G1 X40.861 Y37.17 E14.11326
G1 X42.733 Y36.506 E14.3323
G1 X43.149 Y36.382 E14.38017
G1 X45.041 Y35.911 E14.59517
G1 X45.51 Y35.822 E14.64781
G1 X47.404 Y35.546 E14.85888
G1 X47.873 Y35.504 E14.9108
G1 X49.819 Y35.407 E15.12566
G1 X50.302 Y35.41 E15.17893
G1 X52.118 Y35.499 E15.37942
G1 X52.58 Y35.542 E15.43059
G1 X54.458 Y35.817 E15.63989
G1 X54.913 Y35.904 E15.69098
G1 X56.866 Y36.385 E15.91278
G1 X57.332 Y36.525 E15.96644
G1 X59.124 Y37.164 E16.17623
G1 X59.562 Y37.341 E16.22833
G1 X61.483 Y38.253 E16.46283
G1 X61.884 Y38.471 E16.51316
G1 X63.496 Y39.439 E16.72051
G1 X63.896 Y39.709 E16.77373
G1 X65.462 Y40.875 E16.98903
G1 X65.791 Y41.148 E17.03617
G1 F3600 X65.6 Y40.99
G1 F1200 X65.6 Y79.013 E21.22912
G1 F1680 E18.22912
G1 F3600 X64 Y80.21
G1 F1680 E21.22912
G1 F1200 X64 Y39.787 E25.68672
G1 F1680 E22.68672
G1 F3600 X62.4 Y38.781
G1 F1680 E25.68672
G1 F1200 X62.4 Y81.219 E30.36653
G1 F1680 E27.36653
G1 F3600 X60.8 Y82.077
G1 F1680 E30.36653
G1 F1200 X60.8 Y37.929 E35.2349
G1 F1680 E32.2349
G1 F3600 X59.2 Y37.195
G1 F1680 E35.2349
G1 F1200 X59.2 Y82.806 E40.26461
G1 F1680 E37.26461
G1 F3600 X57.6 Y83.38
G1 F1680 E40.26461
G1 F1200 X57.6 Y36.621 E45.42091
G1 F1680 E42.42091
G1 F3600 X56 Y36.172
G1 F1680 E45.42091
G1 F1200 X56 Y83.831 E50.67646
G1 F1680 E47.67646
G1 F3600 X54.4 Y84.19
G1 F1680 E50.67646
G1 F1200 X54.4 Y35.809 E56.01162
G1 F1680 E53.01162
G1 F3600 X52.8 Y35.575
G1 F1680 E56.01162
G1 F1200 X52.8 Y84.429 E61.39895
G1 F1680 E58.39895
G1 F3600 X51.2 Y84.545
G1 F1680 E61.39895
G1 F1200 X51.2 Y35.455 E66.8123
G1 F1680 E63.8123
G1 F3600 X49.6 Y35.417
G1 F1680 E66.8123
G1 F1200 X49.6 Y84.582 E72.23392
G1 F1680 E69.23392
G1 F3600 X48 Y84.507
G1 F1680 E72.23392
G1 F1200 X48 Y35.497 E77.63845
G1 F1680 E74.63845
G1 F3600 X46.4 Y35.692
G1 F1680 E77.63845
G1 F1200 X46.4 Y84.31 E82.99975
G1 F1680 E79.99975
G1 F3600 X44.8 Y84.026
G1 F1680 E82.99975
G1 F1200 X44.8 Y35.97 E88.29907
G1 F1680 E85.29907
G1 F3600 X43.2 Y36.369
G1 F1680 E88.29907
G1 F1200 X43.2 Y83.632 E93.51095
G1 F1680 E90.51095
G1 F3600 X41.6 Y83.096
G1 F1680 E93.51095
G1 F1200 X41.6 Y36.907 E98.6044
G1 F1680 E95.6044
G1 F3600 X40 Y37.547
G1 F1680 E98.6044
G1 F1200 X40 Y82.456 E103.55669
G1 F1680 E100.55669
G1 F3600 X38.4 Y81.682
G1 F1680 E103.55669
G1 F1200 X38.4 Y38.314 E108.33905
G1 F1680 E105.33905
G1 F3600 X36.8 Y39.259
G1 F1680 E108.33905
G1 F1200 X36.8 Y80.74 E112.91333
G1 F1680 E109.91333
G1 F3600 X35.2 Y79.618
G1 F1680 E112.91333
G1 F1200 X35.2 Y40.383 E117.23993
G1 F1680 E114.23993
G1 F3600 X33.6 Y41.698
G1 F1680 E117.23993
G1 F1200 X33.6 Y78.301 E121.27629
G1 F1680 E118.27629
G1 F3600 X32 Y76.735
G1 F1680 E121.27629
G1 F1200 X32 Y43.268 E124.96682
G1 F1680 E121.96682
G1 F3600 X30.4 Y45.176
G1 F1680 E124.96682
G1 F1200 X30.4 Y74.824 E128.23623
G1 F1680 E125.23623
G1 F3600 X28.8 Y72.43
G1 F1680 E128.23623
G1 F1200 X28.8 Y47.566 E130.97808
G1 F1680 E127.97808
G1 F3600 X27.2 Y50.783
G1 F1680 E130.97808
G1 F1200 X27.2 Y69.21 E133.0101
G1 F1680 E130.0101
G1 F3600 X25.6 Y62.973
G1 F1680 E133.0101
G1 F1200 X25.6 Y57.017 E133.66689
G1 F1680 E130.66689
G1 F3600 X67.2 Y42.424
G1 F1680 E133.66689
G1 F1200 X67.2 Y77.577 E137.54335
G1 F1680 E134.54335
G1 F3600 X68.8 Y75.845
G1 F1680 E137.54335
G1 F1200 X68.8 Y44.152 E141.03826
G1 F1680 E138.03826
G1 F3600 X70.4 Y46.269
M104 T0 S200
G1 F1680 E141.03826
G1 F1200 X70.4 Y73.734 E144.06694
G1 F1680 E141.06694
G1 F3600 X72 Y70.964
G1 F1680 E144.06694
G1 F1200 X72 Y49.038 E146.48481
G1 F1680 E143.48481
G1 F3600 X73.6 Y53.087
G1 F1680 E146.48481
G1 F1200 X73.6 Y66.918 E148.01001
G1 F1680 E145.01001
G1 F3600 X65.732 Y41.031
;TIME_ELAPSED:76.241618
;LAYER:-5
G1 X65.732 Y41.031 Z0.619
;TYPE:SUPPORT
G1 F1680 E148.01001
G1 F1980 X67.216 Y42.369 E148.15895
G1 X67.559 Y42.707 E148.19485
G1 X68.865 Y44.144 E148.33959
G1 X69.151 Y44.489 E148.37299
G1 X70.352 Y46.109 E148.52332
G1 F3600 X70.477 Y46.294
G1 F1980 X63.696 Y39.513 E149.23815
G1 X63.459 Y39.355 E149.25939
G1 X61.907 Y38.426 E149.39422
G1 X61.497 Y38.202 E149.42904
G1 X60.763 Y37.853 E149.48963
G1 X72.151 Y49.24 E150.69007
G1 X72.64 Y50.273 E150.77526
G1 X72.874 Y50.833 E150.82051
G1 X73.097 Y51.459 E150.87004
G1 X58.539 Y36.902 E152.40466
G1 X57.415 Y36.498 E152.49369
G1 X56.878 Y36.335 E152.53552
G1 X56.642 Y36.277 E152.55364
G1 X73.722 Y53.358 E154.35423
G1 X74.137 Y55.022 E154.48206
G1 X74.142 Y55.051 E154.48426
G1 X54.954 Y35.862 E156.50706
G1 X54.916 Y35.852 E156.50999
G1 X54.582 Y35.787 E156.53536
G1 X53.436 Y35.617 E156.62172
G1 X74.383 Y56.564 E158.8299
G1 X74.503 Y57.388 E158.89197
G1 X74.545 Y57.86 E158.92729
G1 X74.553 Y58.006 E158.93819
G1 X51.987 Y35.441 E161.317
G1 X50.649 Y35.375 E161.41685
G1 X74.62 Y59.346 E163.94382
G1 X74.642 Y59.807 E163.97823
G1 X74.64 Y60.304 E164.01527
G1 X74.625 Y60.624 E164.03915
G1 X49.378 Y35.377 E166.70063
G1 X48.166 Y35.438 E166.79109
G1 X74.564 Y61.836 E169.57391
G1 X74.544 Y62.218 E169.60242
G1 X74.493 Y62.704 E169.63885
G1 X74.449 Y62.994 E169.66071
G1 X47.007 Y35.552 E172.55359
G1 X45.896 Y35.714 E172.63728
G1 X74.282 Y64.099 E175.62961
G1 X74.193 Y64.682 E175.67357
G1 X74.103 Y65.124 E175.7072
G1 X74.089 Y65.18 E175.7115
G1 X44.822 Y35.912 E178.79681
G1 X43.804 Y36.167 E178.87504
G1 X73.834 Y66.197 E182.04073
G1 X73.666 Y66.866 E182.09215
G1 X73.568 Y67.204 E182.11838
G1 X42.799 Y36.435 E185.36198
G1 X42.575 Y36.504 E185.37945
G1 X41.854 Y36.763 E185.43656
G1 X73.239 Y68.148 E188.74509
G1 X72.905 Y69.087 E188.81938
G1 X40.917 Y37.099 E192.19149
G1 X40.727 Y37.166 E192.2065
G1 X40.403 Y37.3 E192.23264
G1 X40.025 Y37.479 E192.26381
G1 X72.522 Y69.977 E195.68963
G1 X72.112 Y70.839 E195.76078
G1 X39.159 Y37.886 E199.23461
G1 X38.663 Y38.12 E199.27549
G1 X38.308 Y38.308 E199.30543
G1 X71.691 Y71.691 E202.82459
G1 X71.574 Y71.907 E202.8429
G1 X71.221 Y72.494 E202.89396
G1 X37.504 Y38.777 E206.44833
G1 X36.708 Y39.254 E206.5175
G1 X70.743 Y73.288 E210.10534
G1 X70.589 Y73.542 E210.12749
G1 X70.396 Y73.833 E210.15351
G1 X70.234 Y74.053 E210.17388
G1 X35.949 Y39.767 E213.78818
G1 X35.216 Y40.307 E213.85604
G1 X69.694 Y74.785 E217.49064
G1 X69.279 Y75.346 E217.54265
G1 X69.147 Y75.511 E217.5584
G1 X34.489 Y40.853 E221.21197
G1 X34.238 Y41.053 E221.23589
G1 X33.806 Y41.443 E221.27928
G1 X68.554 Y76.191 E224.94233
G1 X67.95 Y76.86 E225.00952
G1 X33.137 Y42.047 E228.67942
G1 X32.77 Y42.377 E228.71621
G1 X32.482 Y42.664 E228.74652
G1 X67.333 Y77.515 E232.42043
G1 X67.221 Y77.628 E232.43229
G1 X66.671 Y78.126 E232.4876
G1 X31.874 Y43.329 E236.15582
G1 X31.269 Y43.997 E236.223
G1 X66.004 Y78.732 E239.88468
G1 X65.856 Y78.867 E239.89962
G1 X65.483 Y79.174 E239.93563
G1 X65.304 Y79.305 E239.95216
G1 X30.694 Y44.695 E243.60067
G1 X30.15 Y45.423 E243.66841
G1 X64.573 Y79.847 E247.29726
G1 X63.884 Y80.358 E247.3612
G1 X63.841 Y80.387 E247.36507
G1 X29.61 Y46.156 E250.97362
G1 X29.399 Y46.47 E251.00182
G1 X29.117 Y46.937 E251.04248
G1 X63.061 Y80.88 E254.62073
G1 X62.264 Y81.356 E254.68993
G1 X28.639 Y47.731 E258.2346
G1 X28.424 Y48.089 E258.26573
G1 X28.2 Y48.503 E258.30082
G1 X28.18 Y48.545 E258.30428
G1 X61.453 Y81.817 E261.81179
G1 X61.336 Y81.879 E261.82166
G1 X60.591 Y82.228 E261.88299
G1 X27.77 Y49.407 E265.3429
G1 X27.36 Y50.27 E265.41412
G1 X59.725 Y82.636 E268.82602
G1 X59.575 Y82.706 E268.83836
G1 X59.157 Y82.877 E268.87202
G1 X58.815 Y82.998 E268.89907
G1 X26.998 Y51.181 E272.25314
G1 X26.663 Y52.119 E272.32739
G1 X57.876 Y83.332 E275.61779
G1 X57.326 Y83.529 E275.66134
G1 X56.92 Y83.649 E275.6929
G1 X26.348 Y53.077 E278.91573
G1 X26.094 Y54.095 E278.99394
G1 X55.903 Y83.905 E282.13639
G1 X54.965 Y84.139 E282.20845
G1 X54.88 Y84.154 E282.21488
G1 X25.844 Y55.118 E285.27579
G1 X25.781 Y55.434 E285.29981
G1 X25.665 Y56.212 E285.35844
G1 X53.785 Y84.332 E288.32279
G1 X52.675 Y84.495 E288.40642
G1 X25.501 Y57.32 E291.27109
G1 F3600 X25.501 Y57.323
G1 F1980 X25.457 Y57.749 E291.30302
G1 X25.419 Y58.512 E291.35996
G1 X51.485 Y84.577 E294.10773
G1 X50.317 Y84.639 E294.19491
G1 X50.274 Y84.639 E294.19812
G1 X25.359 Y59.725 E296.82455
G1 X25.354 Y59.838 E296.83298
G1 X25.359 Y60.311 E296.86824
G1 X25.396 Y61.034 E296.9222
G1 X48.964 Y84.602 E299.40669
G1 X47.885 Y84.552 E299.4872
G1 X47.614 Y84.525 E299.50751
G1 X25.474 Y62.385 E301.84145
G1 X25.494 Y62.6 E301.85755
G1 X25.677 Y63.86 E301.95246
G1 X46.137 Y84.321 E304.10936
G1 X45.416 Y84.213 E304.1637
G1 X45.082 Y84.148 E304.18906
G1 X44.563 Y84.019 E304.22893
G1 X25.974 Y65.43 E306.18854
G1 X26.326 Y66.839 E306.29679
G1 X26.416 Y67.146 E306.32064
G1 X42.854 Y83.584 E308.0535
G1 X42.651 Y83.524 E308.06928
G1 X40.897 Y82.899 E308.20808
G1 X27.105 Y69.107 E309.662
G1 X27.118 Y69.143 E309.66485
G1 X27.3 Y69.596 E309.70124
G1 X28.125 Y71.351 E309.84579
G1 X28.182 Y71.457 E309.85477
G1 X38.539 Y81.814 E310.94658
G1 X38.231 Y81.653 E310.97248
G1 X36.469 Y80.599 E311.12553
G1 X36.065 Y80.325 E311.16192
G1 X34.936 Y79.484 E311.26686
G1 X30.503 Y75.05 E311.73423
G1 F3600 X30.76 Y75.4
G1 F1980 X31.071 Y75.783 E311.771
G1 X32.377 Y77.229 E311.91625
G1 X32.717 Y77.571 E311.95219
G1 X34.175 Y78.89 E312.09875
G1 X34.503 Y79.161 E312.13047
G1 X34.936 Y79.484 E312.17073
G1 F1680 E309.17073
G1 F3600 X63.696 Y39.513
G1 F1680 E312.17073
G1 F1980 X63.848 Y39.614 E312.18434
G1 X65.349 Y40.723 E312.32345
G1 X65.732 Y41.031 E312.36009
G1 F3600 X65.928 Y41.002
;TIME_ELAPSED:144.543737
;LAYER:-4
M106 S255
G1 X65.928 Y41.002 Z0.869
G1 F2400 X65.685 Y40.8 E312.37257
G1 X34.315 Y40.8 E313.61157
G1 X34.549 Y40.613 E313.6234
G1 X34.839 Y40.4 E313.63761
G1 X65.159 Y40.4 E314.83514
G1 X64.622 Y40 E314.86159
G1 X35.382 Y40 E316.01646
G1 X35.925 Y39.6 E316.0431
G1 X64.084 Y39.6 E317.15528
G1 X64.006 Y39.542 E317.15912
G1 X63.607 Y39.272 E317.17815
G1 X63.488 Y39.2 E317.18364
G1 X36.508 Y39.2 E318.24925
G1 X36.518 Y39.193 E318.24974
G1 X37.177 Y38.8 E318.28004
G1 X62.822 Y38.8 E319.29293
G1 X62.156 Y38.4 E319.32361
G1 X37.847 Y38.4 E320.28373
G1 X38.148 Y38.22 E320.29758
G1 X38.569 Y38 E320.31634
G1 X61.419 Y38 E321.21884
G1 X60.579 Y37.6 E321.25558
G1 X39.416 Y37.6 E322.09145
G1 X40.267 Y37.2 E322.12858
G1 X59.735 Y37.2 E322.8975
G1 X59.323 Y37.026 E322.91516
G1 X58.696 Y36.8 E322.94149
G1 X41.299 Y36.8 E323.62861
G1 X42.421 Y36.4 E323.67565
G1 X57.584 Y36.4 E324.27454
G1 X57.47 Y36.359 E324.27932
G1 X56.998 Y36.213 E324.29884
G1 X56.143 Y36 E324.33364
G1 X43.852 Y36 E324.81909
G1 X44.995 Y35.715 E324.86562
G1 X45.48 Y35.623 E324.88511
G1 X45.638 Y35.6 E324.89142
G1 X47.373 Y35.347 E324.96067
G1 X47.851 Y35.303 E324.97963
G1 X49.679 Y35.21 E325.05192
G1 X50.164 Y35.205 E325.07108
G1 X52.123 Y35.299 E325.14854
G1 X52.609 Y35.343 E325.16782
G1 F1680 E322.16782
G1 F3600 X54.365 Y35.6
G1 F1680 E325.16782
G1 F2400 X45.638 Y35.6 E325.5125
G1 F1680 E322.5125
G1 F3600 X33.852 Y41.2
G1 F1680 E325.5125
G1 F2400 X66.147 Y41.2 E326.78804
G1 X65.928 Y41.002 E326.7997
G1 F1680 E323.7997
G1 F3600 X66.589 Y41.6
G1 F1680 E326.7997
G1 F2400 X67.03 Y42 E326.82321
G1 X32.966 Y42 E328.16862
G1 X32.674 Y42.263 E328.18414
G1 X32.537 Y42.4 E328.19179
G1 X67.463 Y42.4 E329.57124
G1 X67.745 Y42.686 E329.58711
G1 X67.849 Y42.8 E329.5932
G1 X32.153 Y42.8 E331.00307
G1 X31.791 Y43.2 E331.02437
G1 X68.21 Y43.2 E332.46279
G1 X68.572 Y43.6 E332.4841
G1 X31.429 Y43.6 E333.95112
G1 X31.067 Y44 E333.97242
G1 X68.934 Y44 E335.46804
G1 X69.038 Y44.116 E335.47419
G1 X69.268 Y44.4 E335.48862
G1 X30.729 Y44.4 E337.01077
M73 P1
G1 X30.431 Y44.8 E337.03048
G1 X69.571 Y44.8 E338.57637
G1 X69.866 Y45.2 E338.596
G1 X30.132 Y45.2 E340.16535
G1 X29.834 Y45.6 E340.18505
G1 X70.16 Y45.6 E341.77778
G1 X70.455 Y46 E341.79741
G1 X29.537 Y46 E343.41352
G1 X29.274 Y46.387 E343.432
G1 X29.267 Y46.4 E343.43259
G1 X70.728 Y46.4 E345.07015
G1 X70.785 Y46.487 E345.07426
G1 X70.973 Y46.8 E345.08868
G1 X29.026 Y46.8 E346.74543
G1 X28.786 Y47.2 E346.76386
G1 X71.212 Y47.2 E348.43953
G1 X71.451 Y47.6 E348.45794
G1 X28.545 Y47.6 E350.15257
G1 X28.305 Y48 E350.17099
G1 X71.69 Y48 E351.88454
G1 X71.782 Y48.155 E351.89166
G1 X71.913 Y48.4 E351.90264
G1 X28.087 Y48.4 E353.63361
G1 X28.069 Y48.433 E353.63509
G1 X27.895 Y48.8 E353.65113
G1 X72.108 Y48.8 E355.39739
G1 X72.297 Y49.2 E355.41486
G1 X27.705 Y49.2 E357.17608
G1 X27.514 Y49.6 E357.19359
G1 X72.487 Y49.6 E358.96986
G1 X72.676 Y50 E358.98734
G1 X27.324 Y50 E360.77858
G1 X27.217 Y50.224 E360.78838
G1 X27.143 Y50.4 E360.79592
G1 X72.856 Y50.4 E362.60142
G1 X72.971 Y50.671 E362.61305
G1 X73.018 Y50.8 E362.61847
