M73 P0
;MINX:25.0
;MAXX:75.0
;MINY:35.0
;MAXY:85.0
;MINZ:0.0
;MAXZ:61.3
;MachineType:ENTINA TINA2
;FilamentType:PLA
;Extruder0Temperature:200
;InfillDensity:100
;FLAVOR:Marlin
;TIME:7466
;FilamentUsed:15160.0
;Layer height: 0.35

;Generated with Cura_SteamEngine 3.1
M104 T0 S215
M82 ; absolute extrusion mode
;(**** start.gcode for tina2****)
M104 S150
G28 Z
G28 X Y; Home extruder
G1 X55 Y55 F1000
G1 Z10 F200
G29
G1 Z15 F100
M107 ; Turn off fan
G90 ; Absolute positioning
M82 ; Extruder in absolute mode
M109 S215.0
G92 E0 ; Reset extruder position
G1 X90 Y6 Z0.27 F2000
G1 X20 Y6 Z0.27 E15 F1000
G92 E0 ; Reset extruder position

;LAYER_COUNT:173
;LAYER:-5
M107
M203 Z5
G1 F3600 X65.816 Y41.024 Z0.349
G1 F1200 X66.133 Y41.292 E0.04578
G1 X67.317 Y42.382 E0.22324
G1 X67.607 Y42.674 E0.26863
G1 X68.723 Y43.891 E0.45071
G1 X68.972 Y44.188 E0.49345
G1 X69.253 Y44.566 E0.54539
G1 X70.227 Y45.811 E0.7197
G1 X70.463 Y46.133 E0.76373
G1 X70.664 Y46.439 E0.8041
G1 X71.694 Y48.152 E1.02452
G1 X71.915 Y48.57 E1.07666
G1 X72.478 Y49.767 E1.22253
G1 X73.028 Y51.078 E1.3793
G1 X73.12 Y51.314 E1.40724
G1 X73.575 Y52.579 E1.55548
G1 X73.713 Y53.034 E1.60791
G1 X74.207 Y55.017 E1.83327
G1 X74.303 Y55.536 E1.89147
G1 X74.6 Y57.721 E2.13464
G1 X74.637 Y58.177 E2.18509
G1 X74.712 Y59.807 E2.36502
G1 X74.711 Y60.252 E2.4141
G1 X74.637 Y61.814 E2.58654
G1 X74.605 Y62.195 E2.6287
G1 X74.435 Y63.537 E2.77787
G1 X74.304 Y64.492 E2.88417
G1 X74.204 Y65.002 E2.94148
G1 X73.695 Y66.989 E3.16767
G1 X73.6 Y67.31 E3.20458
G1 X73.25 Y68.339 E3.32444
G1 X73.134 Y68.649 E3.36094
G1 X72.552 Y70.056 E3.52885
G1 X71.828 Y71.596 E3.7165
G1 X71.654 Y71.925 E3.75754
G1 X70.772 Y73.399 E3.94696
G1 X70.373 Y73.985 E4.02514
G1 X68.897 Y75.908 E4.29246
G1 X68.638 Y76.215 E4.33675
G1 X67.631 Y77.323 E4.50186
G1 X67.29 Y77.66 E4.55473
G1 X66.159 Y78.689 E4.72334
G1 X65.824 Y78.97 E4.77156
G1 X64.014 Y80.356 E5.02295
G1 X63.434 Y80.749 E5.10021
G1 X61.767 Y81.738 E5.31395
G1 X61.353 Y81.957 E5.3656
G1 X60.499 Y82.356 E5.46955
G1 X58.522 Y83.174 E5.70548
G1 X57.473 Y83.552 E5.82844
G1 X57.057 Y83.681 E5.87647
G1 X55.054 Y84.188 E6.10432
G1 X54.477 Y84.303 E6.16919
G1 X54.34 Y84.325 E6.1845
G1 X52.245 Y84.593 E6.4174
G1 X51.957 Y84.619 E6.44929
G1 X50.232 Y84.704 E6.63974
G1 X49.8 Y84.707 E6.68738
G1 X48.221 Y84.637 E6.86168
G1 X47.71 Y84.589 E6.91828
G1 X45.443 Y84.287 E7.17047
G1 X44.886 Y84.177 E7.23308
G1 X43.036 Y83.705 E7.44363
G1 X42.622 Y83.582 E7.49125
G1 X41.137 Y83.049 E7.66524
G1 X39.891 Y82.545 E7.81345
G1 X39.628 Y82.427 E7.84524
G1 X38.496 Y81.881 E7.98383
G1 X38.096 Y81.662 E8.03412
G1 X36.4 Y80.641 E8.25242
G1 X35.971 Y80.346 E8.30983
G1 X34.061 Y78.87 E8.57602
G1 X33.787 Y78.638 E8.61561
G1 X32.642 Y77.602 E8.78589
G1 X32.265 Y77.216 E8.84539
G1 X31.261 Y76.102 E9.01076
G1 X31.006 Y75.792 E9.05502
G1 X29.632 Y73.997 E9.3043
G1 X29.335 Y73.562 E9.36238
G1 X28.297 Y71.821 E9.5859
G1 X28.089 Y71.436 E9.63416
G1 X27.588 Y70.391 E9.76195
G1 X27.437 Y70.047 E9.80338
G1 X26.835 Y68.551 E9.98121
G1 X26.388 Y67.307 E10.12698
G1 X26.251 Y66.841 E10.18054
G1 X25.808 Y65.034 E10.3857
G1 X25.712 Y64.516 E10.4438
G1 X25.567 Y63.482 E10.55894
G1 X25.393 Y62.135 E10.70871
G1 X25.362 Y61.798 E10.74603
G1 X25.29 Y60.23 E10.91912
G1 X25.288 Y59.807 E10.96577
G1 X25.364 Y58.107 E11.15342
G1 X25.401 Y57.689 E11.1997
G1 X25.627 Y55.954 E11.39264
G1 X25.703 Y55.435 E11.45048
G1 X25.777 Y55.055 E11.49317
G1 X26.273 Y53.087 E11.71698
G1 X26.406 Y52.646 E11.76777
G1 X26.851 Y51.407 E11.91295
G1 X27.416 Y50.009 E12.07922
G1 X27.558 Y49.696 E12.11712
G1 X28.303 Y48.196 E12.30181
G1 X28.48 Y47.874 E12.34233
G1 X29.286 Y46.515 E12.51657
G1 X29.389 Y46.354 E12.53765
G1 X29.71 Y45.892 E12.59968
G1 X31.034 Y44.178 E12.83852
G1 X31.237 Y43.935 E12.87343
G1 X32.349 Y42.713 E13.05563
G1 X32.671 Y42.388 E13.10608
G1 X33.844 Y41.319 E13.28109
G1 X34.15 Y41.06 E13.3253
G1 X35.966 Y39.662 E13.57802
G1 X36.404 Y39.359 E13.63675
G1 X38.103 Y38.332 E13.85568
G1 X38.541 Y38.096 E13.91054
G1 X39.743 Y37.53 E14.05705
G1 X39.949 Y37.44 E14.08184
G1 X41.472 Y36.822 E14.26309
G1 X42.671 Y36.394 E14.40348
G1 X43.139 Y36.255 E14.45732
G1 X45.068 Y35.776 E14.67649
G1 X45.632 Y35.672 E14.73974
G1 X47.769 Y35.395 E14.97736
G1 X48.068 Y35.367 E15.01048
G1 X49.732 Y35.29 E15.19417
G1 X50.156 Y35.287 E15.24093
G1 X51.889 Y35.364 E15.43222
G1 X52.308 Y35.401 E15.47861
G1 X53.867 Y35.614 E15.65212
G1 X53.867 Y35.62 E15.65278
G1 X54.59 Y35.717 E15.73323
G1 X55.039 Y35.805 E15.78368
G1 X56.906 Y36.272 E15.99591
G1 X57.296 Y36.389 E16.04081
G1 X58.723 Y36.9 E16.20795
G1 X60.224 Y37.514 E16.38679
G1 X60.453 Y37.616 E16.41443
G1 X61.506 Y38.124 E16.54336
G1 X61.788 Y38.275 E16.57863
G1 X63.475 Y39.283 E16.79534
G1 X63.996 Y39.636 E16.86474
G1 X65.816 Y41.024 E17.11714
G1 F3600 X65.6 Y40.86
G1 F1200 X65.6 Y79.142 E21.33865
G1 F1680 E18.33865
G1 F3600 X64 Y80.366
G1 F1680 E21.33865
G1 F1200 X64 Y39.64 E25.82967
G1 F1680 E22.82967
G1 F3600 X62.4 Y38.641
G1 F1680 E25.82967
G1 F1200 X62.4 Y81.363 E30.54079
G1 F1680 E27.54079
G1 F3600 X60.8 Y82.216
G1 F1680 E30.54079
G1 F1200 X60.8 Y37.784 E35.44049
G1 F1680 E32.44049
G1 F3600 X59.2 Y37.096
G1 F1680 E35.44049
G1 F1200 X59.2 Y82.894 E40.49082
G1 F1680 E37.49082
G1 F3600 X57.6 Y83.507
G1 F1680 E40.49082
G1 F1200 X57.6 Y36.498 E45.67468
G1 F1680 E42.67468
G1 F3600 X56 Y36.046
G1 F1680 E45.67468
G1 F1200 X56 Y83.949 E50.95714
G1 F1680 E47.95714
G1 F3600 X54.4 Y84.316
G1 F1680 E50.95714
G1 F1200 X54.4 Y35.692 E56.3191
G1 F1680 E53.3191
G1 F3600 X52.8 Y35.469
G1 F1680 E56.3191
G1 F1200 X52.8 Y84.523 E61.72848
G1 F1680 E58.72848
G1 F3600 X51.2 Y84.657
G1 F1680 E61.72848
G1 F1200 X51.2 Y35.334 E67.16752
G1 F1680 E64.16752
G1 F3600 X49.6 Y35.296
G1 F1680 E67.16752
G1 F1200 X49.6 Y84.698 E72.61528
G1 F1680 E69.61528
G1 F3600 X48 Y84.616
G1 F1680 E72.61528
G1 F1200 X48 Y35.373 E78.0455
G1 F1680 E75.0455
G1 F3600 X46.4 Y35.572
G1 F1680 E78.0455
G1 F1200 X46.4 Y84.414 E83.4315
G1 F1680 E80.4315
G1 F3600 X44.8 Y84.155
G1 F1680 E83.4315
G1 F1200 X44.8 Y35.842 E88.75917
G1 F1680 E85.75917
G1 F3600 X43.2 Y36.239
G1 F1680 E88.75917
G1 F1200 X43.2 Y83.746 E93.99795
G1 F1680 E90.99795
G1 F3600 X41.6 Y83.215
G1 F1680 E93.99795
G1 F1200 X41.6 Y36.776 E99.11897
G1 F1680 E96.11897
G1 F3600 X40 Y37.419
G1 F1680 E99.11897
G1 F1200 X40 Y82.589 E104.10004
G1 F1680 E101.10004
G1 F3600 X38.4 Y81.828
G1 F1680 E104.10004
G1 F1200 X38.4 Y38.171 E108.91427
G1 F1680 E105.91427
G1 F3600 X36.8 Y39.119
G1 F1680 E108.91427
G1 F1200 X36.8 Y80.881 E113.51954
G1 F1680 E110.51954
G1 F3600 X35.2 Y79.75
G1 F1680 E113.51954
G1 F1200 X35.2 Y40.251 E117.87525
G1 F1680 E114.87525
G1 F3600 X33.6 Y41.541
G1 F1680 E117.87525
G1 F1200 X33.6 Y78.468 E121.94734
G1 F1680 E118.94734
G1 F3600 X32 Y76.921
G1 F1680 E121.94734
G1 F1200 X32 Y43.096 E125.67735
G1 F1680 E122.67735
G1 F3600 X30.4 Y44.998
G1 F1680 E125.67735
G1 F1200 X30.4 Y75 E128.98579
G1 F1680 E125.98579
G1 F3600 X28.8 Y72.664
G1 F1680 E128.98579
G1 F1200 X28.8 Y47.334 E131.77903
G1 F1680 E128.77903
G1 F3600 X27.2 Y50.543
G1 F1680 E131.77903
G1 F1200 X27.2 Y69.458 E133.86486
G1 F1680 E130.86486
G1 F3600 X25.6 Y63.717
G1 F1680 E133.86486
G1 F1200 X25.6 Y56.161 E134.69809
G1 F1680 E131.69809
G1 F3600 X67.2 Y42.275
G1 F1680 E134.69809
G1 F1200 X67.2 Y77.742 E138.60918
G1 F1680 E135.60918
G1 F3600 X68.8 Y76.023
G1 F1680 E138.60918
G1 F1200 X68.8 Y43.983 E142.14236
G1 F1680 E139.14236
G1 F3600 X70.4 Y46.048
M104 T0 S200
G1 F1680 E142.14236
G1 F1200 X70.4 Y73.946 E145.21878
G1 F1680 E142.21878
G1 F3600 X72 Y71.231
G1 F1680 E145.21878
G1 F1200 X72 Y48.751 E147.69774
G1 F1680 E144.69774
G1 F3600 X73.6 Y52.662
G1 F1680 E147.69774
G1 F1200 X73.6 Y67.31 E149.31304
G1 F1680 E146.31304
G1 F3600 X65.775 Y40.928
;TIME_ELAPSED:76.823433
;LAYER:-4
G1 X65.775 Y40.928 Z0.619
;TYPE:SUPPORT
G1 F1680 E149.31304
G1 F1980 X64.026 Y39.594 E149.477
G1 X63.594 Y39.299 E149.516
G1 X63.315 Y39.131 E149.54027
G1 X70.872 Y46.689 E150.33697
G1 F3600 X70.701 Y46.405
G1 F1980 X70.504 Y46.104 E150.36378
G1 X70.354 Y45.895 E150.38296
G1 X69.293 Y44.534 E150.5116
G1 X69.012 Y44.157 E150.54665
G1 X68.759 Y43.856 E150.57596
G1 X67.643 Y42.638 E150.6991
G1 X67.351 Y42.345 E150.72993
G1 X66.173 Y41.261 E150.84926
G1 X65.775 Y40.928 E150.88794
G1 F1680 E147.88794
G1 F3600 X63.315 Y39.131
G1 F1680 E150.88794
G1 F1980 X61.872 Y38.265 E151.01339
G1 X61.528 Y38.077 E151.04261
G1 X60.485 Y37.575 E151.12889
G1 X72.414 Y49.504 E152.38642
G1 X72.433 Y49.544 E152.38972
G1 X73.075 Y51.06 E152.51244
G1 X73.164 Y51.287 E152.53062
G1 X73.298 Y51.661 E152.56023
G1 X58.343 Y36.705 E154.13681
G1 X57.317 Y36.341 E154.21796
G1 X56.909 Y36.219 E154.2497
G1 X56.475 Y36.111 E154.28304
G1 X73.889 Y53.524 E156.11873
G1 X74.221 Y54.848 E156.22048
G1 X74.293 Y55.201 E156.24733
G1 X54.798 Y35.706 E158.30245
G1 X54.59 Y35.666 E158.31824
G1 X53.916 Y35.57 E158.36899
G1 X53.305 Y35.486 E158.41496
G1 X74.51 Y56.691 E160.65034
G1 X74.649 Y57.715 E160.72737
G1 X74.684 Y58.138 E160.75901
G1 X51.857 Y35.311 E163.16538
G1 X50.524 Y35.25 E163.26485
G1 X74.747 Y59.474 E165.81844
G1 X74.762 Y59.807 E165.84329
G1 X74.76 Y60.253 E165.87653
G1 X74.738 Y60.737 E165.91265
G1 X49.262 Y35.262 E168.59822
G1 X48.124 Y35.312 E168.68313
G1 X48.047 Y35.319 E168.68889
G1 X74.676 Y61.948 E171.49606
G1 X74.654 Y62.199 E171.51484
G1 X74.543 Y63.088 E171.58162
G1 X46.91 Y35.455 E174.49463
G1 X45.783 Y35.601 E174.57934
G1 X74.394 Y64.212 E177.59544
G1 X74.335 Y64.605 E177.62507
G1 X74.217 Y65.17 E177.66809
G1 X74.188 Y65.279 E177.6765
G1 X44.719 Y35.81 E180.78305
G1 X43.7 Y36.063 E180.86132
G1 X73.926 Y66.289 E184.04767
G1 X73.718 Y67.092 E184.10951
G1 X73.657 Y67.293 E184.12516
G1 X42.698 Y36.334 E187.38879
G1 X42.58 Y36.37 E187.39799
G1 X41.756 Y36.665 E187.46323
G1 X73.335 Y68.244 E190.79221
G1 X73.279 Y68.404 E190.80485
G1 X73.18 Y68.667 E190.8258
G1 X72.977 Y69.159 E190.86547
G1 X40.841 Y37.022 E194.25323
G1 X39.935 Y37.39 E194.32612
G1 X72.605 Y70.06 E197.77012
G1 X72.514 Y70.261 E197.78656
G1 X72.201 Y70.928 E197.84148
G1 X39.065 Y37.792 E201.3346
G1 X38.516 Y38.05 E201.37982
G1 X38.214 Y38.214 E201.40544
G1 X71.783 Y71.783 E204.94421
G1 X71.654 Y72.026 E204.96471
G1 X71.316 Y72.589 E205.01366
G1 X37.415 Y38.687 E208.58748
G1 X36.621 Y39.167 E208.65664
G1 X70.839 Y73.384 E212.26377
G1 X70.82 Y73.414 E212.26642
G1 X70.414 Y74.014 E212.32042
G1 X70.32 Y74.138 E212.33202
G1 X35.86 Y39.678 E215.96471
G1 X35.141 Y40.232 E216.03237
G1 X69.767 Y74.858 E219.68257
G1 X69.214 Y75.578 E219.75024
G1 X34.421 Y40.785 E223.41804
G1 X34.142 Y41 E223.44429
G1 X33.865 Y41.232 E223.47123
G1 X33.724 Y41.36 E223.48542
G1 X68.645 Y76.281 E227.16671
G1 X68.039 Y76.948 E227.23389
G1 X33.056 Y41.966 E230.92166
G1 X32.717 Y42.272 E230.95571
G1 X32.402 Y42.584 E230.98876
G1 X67.419 Y77.602 E234.68022
G1 X67.325 Y77.696 E234.69013
G1 X66.756 Y78.211 E234.74734
G1 X31.792 Y43.247 E238.43316
G1 X31.268 Y43.821 E238.4911
G1 X31.188 Y43.916 E238.50035
G1 X66.088 Y78.816 E242.17943
G1 X65.854 Y79.009 E242.20204
G1 X65.374 Y79.375 E242.24704
G1 X30.623 Y44.624 E245.91041
G1 X30.07 Y45.343 E245.97802
G1 X64.652 Y79.926 E249.62363
G1 X63.93 Y80.476 E249.69128
G1 X29.521 Y46.068 E253.31855
G1 X29.243 Y46.486 E253.35597
G1 X29.028 Y46.847 E253.38729
G1 X63.154 Y80.973 E256.98477
G1 X62.355 Y81.447 E257.05403
G1 X28.554 Y47.646 E260.61725
G1 X28.431 Y47.855 E260.63533
G1 X28.258 Y48.17 E260.66212
G1 X28.107 Y48.472 E260.68728
G1 X61.547 Y81.911 E264.2124
G1 X61.383 Y81.998 E264.22624
G1 X60.684 Y82.322 E264.28367
G1 X27.685 Y49.322 E267.7624
G1 X27.512 Y49.672 E267.7915
G1 X27.369 Y49.987 E267.81729
G1 X27.284 Y50.194 E267.83397
G1 X59.793 Y82.703 E271.26099
G1 X58.891 Y83.074 E271.33369
G1 X26.915 Y51.098 E274.70453
G1 X26.872 Y51.204 E274.71306
G1 X26.572 Y52.028 E274.77842
G1 X57.969 Y83.425 E278.08822
G1 X57.488 Y83.599 E278.12635
G1 X57.071 Y83.729 E278.15891
G1 X57.015 Y83.744 E278.16323
G1 X26.249 Y52.977 E281.40657
G1 F3600 X26.247 Y52.983
G1 F1980 X25.99 Y53.991 E281.48411
G1 X56 Y84.002 E284.64775
G1 X55.065 Y84.237 E284.71961
G1 X54.979 Y84.253 E284.72613
G1 X25.737 Y55.011 E287.80876
G1 X25.638 Y55.509 E287.8466
G1 X25.559 Y56.106 E287.89149
G1 X53.886 Y84.433 E290.87766
G1 X52.757 Y84.577 E290.9625
G1 X25.41 Y57.23 E293.84536
G1 X25.344 Y57.73 E293.88295
G1 X25.313 Y58.104 E293.91093
G1 X25.299 Y58.392 E293.93242
G1 X51.595 Y84.688 E296.70448
G1 X50.379 Y84.745 E296.79523
G1 X25.243 Y59.609 E299.44501
G1 X25.24 Y59.691 E299.45112
G1 X25.237 Y60.133 E299.48407
G1 X25.271 Y60.91 E299.54204
G1 X49.087 Y84.725 E302.05262
G1 X48.165 Y84.683 E302.12142
G1 X47.73 Y84.641 E302.15399
G1 X25.358 Y62.269 E304.5124
G1 X25.515 Y63.484 E304.60372
G1 X25.55 Y63.734 E304.62254
G1 X46.261 Y84.445 E306.80584
G1 X45.425 Y84.333 E306.86872
G1 X44.863 Y84.222 E306.91142
G1 X44.731 Y84.188 E306.92158
G1 X25.812 Y65.268 E308.91603
G1 X26.203 Y66.862 E309.03837
G1 X26.232 Y66.962 E309.04613
G1 X43.023 Y83.753 E310.8162
G1 X42.934 Y83.73 E310.82305
G1 X42.472 Y83.586 E310.85913
G1 X41.14 Y83.104 E310.96472
G1 X41.076 Y83.078 E310.96987
G1 X26.938 Y68.94 E312.46026
G1 X27.388 Y70.062 E312.55037
G1 X27.504 Y70.328 E312.572
G1 X27.915 Y71.19 E312.64319
G1 X38.818 Y82.093 E313.79256
G1 X38.567 Y81.973 E313.8133
G1 X38.062 Y81.701 E313.85605
G1 X36.38 Y80.687 E314.00245
G1 X35.942 Y80.386 E314.04207
G1 X35.486 Y80.033 E314.08505
G1 X29.958 Y74.506 E314.66775
G1 F1680 E311.66775
G1 F3600 X31.044 Y75.921
G1 F1680 E314.66775
G1 F1980 X31.222 Y76.134 E314.68844
G1 X32.226 Y77.249 E314.80029
G1 X32.606 Y77.638 E314.84082
G1 X33.753 Y78.675 E314.95608
G1 X34.025 Y78.903 E314.98254
G1 X35.486 Y80.033 E315.12022
G1 F1680 E312.12022
G1 F3600 X65.868 Y40.81
;TIME_ELAPSED:146.040493
;LAYER:-3
M106 S255
G1 X65.868 Y40.81 Z0.869
G1 F1680 E315.12022
G1 F2400 X65.855 Y40.8 E315.12087
G1 X34.158 Y40.8 E316.37278
G1 X34.679 Y40.4 E316.39873
G1 X65.333 Y40.4 E317.60945
G1 X64.81 Y40 E317.63546
G1 X35.2 Y40 E318.80494
G1 X35.722 Y39.6 E318.83092
G1 X64.28 Y39.6 E319.95886
G1 X64.009 Y39.398 E319.97221
G1 X63.712 Y39.2 E319.9863
G1 X36.284 Y39.2 E321.06961
G1 X36.381 Y39.134 E321.07425
G1 X36.936 Y38.8 E321.09983
G1 X63.057 Y38.8 E322.13152
G1 X62.387 Y38.4 E322.16234
G1 X37.6 Y38.4 E323.14133
G1 X37.994 Y38.162 E323.15951
G1 X38.294 Y38 E323.17298
G1 X61.696 Y38 E324.09727
G1 X61.452 Y37.871 E324.10818
G1 X60.886 Y37.6 E324.13296
G1 X39.122 Y37.6 E324.99256
G1 X39.657 Y37.348 E325.01592
G1 X39.872 Y37.254 E325.02519
G1 X40.005 Y37.2 E325.03086
G1 X59.985 Y37.2 E325.81999
G1 X58.999 Y36.8 E325.86202
G1 X40.985 Y36.8 E326.57351
G1 X41.332 Y36.658 E326.58832
G1 X42.052 Y36.4 E326.61852
G1 X57.929 Y36.4 E327.24561
G1 X57.357 Y36.197 E327.26958
G1 X57.035 Y36.1 E327.28286
G1 X56.642 Y36 E327.29888
G1 X43.339 Y36 E327.8243
G1 X44.908 Y35.606 E327.8882
G1 X44.937 Y35.6 E327.88936
G1 X55.032 Y35.6 E328.28808
G1 X54.74 Y35.54 E328.29986
G1 X54.316 Y35.474 E328.3168
G1 X52.322 Y35.201 E328.39629
G1 X52.311 Y35.2 E328.39673
G1 X47.708 Y35.2 E328.57853
G1 X47.746 Y35.195 E328.58005
G1 X48.118 Y35.161 E328.5948
G1 X49.722 Y35.089 E328.65822
G1 X50.16 Y35.086 E328.67552
G1 X51.893 Y35.163 E328.74403
G1 F1680 E325.74403
G1 F3600 X65.868 Y40.81
G1 F1680 E328.74403
G1 F2400 X66.271 Y41.148 E328.7648
G1 X66.328 Y41.2 E328.76785
G1 X33.678 Y41.2 E330.05741
G1 X33.237 Y41.6 E330.08093
G1 X66.763 Y41.6 E331.40508
G1 X67.197 Y42 E331.42839
G1 X32.796 Y42 E332.78711
G1 X32.619 Y42.16 E332.79653
G1 X32.376 Y42.4 E332.81002
G1 X67.617 Y42.4 E334.20192
G1 X67.751 Y42.535 E334.20943
G1 X67.996 Y42.8 E334.22368
G1 X32 Y42.8 E335.6454
G1 X31.634 Y43.2 E335.66681
G1 X68.364 Y43.2 E337.11751
G1 X68.732 Y43.6 E337.13898
G1 X31.269 Y43.6 E338.61863
G1 X31.153 Y43.726 E338.6254
G1 X30.921 Y44 E338.63958
G1 X69.076 Y44 E340.14656
G1 X69.131 Y44.066 E340.14996
G1 X69.379 Y44.4 E340.16639
G1 X30.608 Y44.4 E341.6977
G1 X30.299 Y44.8 E341.71767
G1 X69.69 Y44.8 E343.27347
G1 X70.003 Y45.2 E343.29353
G1 X29.99 Y45.2 E344.8739
G1 X29.681 Y45.6 E344.89386
G1 X70.316 Y45.6 E346.4988
G1 X70.386 Y45.69 E346.5033
G1 X70.614 Y46 E346.5185
