M73 P0
;MINX:25.0
;MAXX:75.0
;MINY:35.0
;MAXY:85.0
;MINZ:0.0
;MAXZ:56.1
;MachineType:ENTINA TINA2
;FilamentType:PLA
;Extruder0Temperature:200
;InfillDensity:100
;FLAVOR:Marlin
;TIME:7169
;FilamentUsed:14266.7
;Layer height: 0.35

;Generated with Cura_SteamEngine 3.1
M104 T0 S215
M82 ; absolute extrusion mode
;(**** start.gcode for tina2****)
M104 S150
G28 Z
G28 X Y; Home extruder
G1 X55 Y55 F1000
G1 Z10 F200
G29
G1 Z15 F100
M107 ; Turn off fan
G90 ; Absolute positioning
M82 ; Extruder in absolute mode
M109 S215.0
G92 E0 ; Reset extruder position
G1 X90 Y6 Z0.27 F2000
G1 X20 Y6 Z0.27 E15 F1000
G92 E0 ; Reset extruder position

;LAYER_COUNT:158
;LAYER:-5
M107
M203 Z5
G1 F3600 X65.879 Y41.075 Z0.349
G1 F1200 X67.31 Y42.38 E0.21357
G1 X67.614 Y42.686 E0.26113
G1 X68.987 Y44.179 E0.48481
G1 X69.309 Y44.574 E0.541
G1 X70.449 Y46.114 E0.75229
G1 X70.729 Y46.543 E0.80878
G1 X71.691 Y48.168 E1.01703
G1 X71.912 Y48.585 E1.06907
G1 X72.725 Y50.298 E1.27816
G1 X72.952 Y50.847 E1.34368
G1 X73.594 Y52.629 E1.55255
G1 X73.74 Y53.118 E1.60882
G1 X74.185 Y54.917 E1.81319
G1 X74.284 Y55.395 E1.86702
G1 X74.56 Y57.203 E2.0687
G1 X74.608 Y57.733 E2.12738
G1 X74.708 Y59.876 E2.36396
G1 X74.707 Y60.326 E2.41358
G1 X74.615 Y62.248 E2.62577
G1 X74.558 Y62.777 E2.68444
G1 X74.25 Y64.768 E2.90661
G1 X74.167 Y65.174 E2.95231
G1 X73.727 Y66.914 E3.15023
G1 X73.576 Y67.399 E3.20624
G1 X72.865 Y69.387 E3.43906
G1 X72.669 Y69.851 E3.49461
G1 X71.918 Y71.423 E3.68673
G1 X71.707 Y71.811 E3.73543
G1 X70.681 Y73.54 E3.95714
G1 X70.408 Y73.948 E4.01127
G1 X69.311 Y75.426 E4.21424
G1 X68.992 Y75.815 E4.26972
G1 X67.692 Y77.247 E4.483
G1 X67.289 Y77.653 E4.54608
G1 X65.895 Y78.923 E4.75403
G1 X65.533 Y79.225 E4.80602
G1 X63.912 Y80.425 E5.02842
G1 X63.526 Y80.678 E5.07932
G1 X61.712 Y81.758 E5.31212
G1 X61.29 Y81.98 E5.3647
G1 X59.704 Y82.732 E5.55826
G1 X59.355 Y82.877 E5.59994
G1 X57.417 Y83.567 E5.82679
G1 X57.013 Y83.687 E5.87326
G1 X55.091 Y84.176 E6.09196
G1 X54.557 Y84.288 E6.15213
G1 X52.82 Y84.551 E6.34586
G1 X52.31 Y84.597 E6.40233
G1 X50.017 Y84.704 E6.65546
G1 X49.575 Y84.702 E6.7042
G1 X47.722 Y84.615 E6.90877
G1 X47.172 Y84.555 E6.96978
G1 X45.276 Y84.262 E7.18134
G1 X44.872 Y84.18 E7.2268
G1 X43.043 Y83.723 E7.43469
G1 X42.709 Y83.62 E7.47323
G1 X40.845 Y82.955 E7.69147
G1 X40.354 Y82.755 E7.74993
G1 X38.543 Y81.889 E7.9713
G1 X38.121 Y81.666 E8.02393
G1 X36.516 Y80.708 E8.23005
G1 X36.144 Y80.461 E8.27929
G1 X34.556 Y79.289 E8.49694
G1 X34.177 Y78.98 E8.55086
G1 X32.801 Y77.733 E8.75564
G1 X32.464 Y77.402 E8.80773
G1 X31.107 Y75.931 E9.02842
G1 X30.77 Y75.528 E9.08635
G1 X29.583 Y73.932 E9.30569
G1 X29.303 Y73.514 E9.36117
G1 X28.312 Y71.836 E9.57607
G1 X28.132 Y71.498 E9.6183
G1 X27.254 Y69.648 E9.84412
G1 X27.07 Y69.218 E9.89569
G1 X26.433 Y67.468 E10.10106
G1 X26.291 Y67.007 E10.15425
G1 X25.816 Y65.119 E10.36894
G1 X25.724 Y64.665 E10.42002
G1 X25.465 Y62.944 E10.61194
G1 X25.415 Y62.468 E10.66472
G1 X25.297 Y60.063 E10.93024
G1 X25.295 Y59.666 E10.97402
G1 X25.378 Y57.81 E11.1789
G1 X25.432 Y57.262 E11.23962
G1 X25.734 Y55.348 E11.4533
G1 X25.816 Y54.931 E11.50016
G1 X26.275 Y53.071 E11.71142
G1 X26.459 Y52.472 E11.78052
G1 X27.093 Y50.729 E11.98505
G1 X27.272 Y50.303 E12.03601
G1 X28.059 Y48.619 E12.24099
G1 X28.302 Y48.153 E12.29894
G1 X29.117 Y46.789 E12.47416
G1 X29.387 Y46.366 E12.5295
G1 X29.595 Y46.059 E12.57039
G1 X30.789 Y44.448 E12.79152
G1 X31.105 Y44.071 E12.84576
G1 X32.391 Y42.669 E13.05555
G1 X32.698 Y42.365 E13.1032
G1 X34.224 Y40.981 E13.33038
G1 X34.47 Y40.778 E13.36555
G1 X36.035 Y39.615 E13.58056
G1 X36.473 Y39.318 E13.63892
G1 X38.249 Y38.261 E13.86683
G1 X38.648 Y38.052 E13.9165
G1 X40.407 Y37.223 E14.13093
G1 X40.736 Y37.087 E14.17019
G1 X42.515 Y36.444 E14.37879
G1 X43.007 Y36.294 E14.43551
G1 X44.968 Y35.815 E14.65811
G1 X45.395 Y35.727 E14.70619
G1 X47.161 Y35.451 E14.9033
G1 X47.657 Y35.399 E14.95829
G1 X49.778 Y35.295 E15.19247
G1 X50.213 Y35.291 E15.24044
G1 X52.197 Y35.38 E15.45944
G1 X52.681 Y35.425 E15.51304
G1 X54.709 Y35.736 E15.73929
G1 X55.142 Y35.823 E15.788
G1 X56.894 Y36.264 E15.98722
G1 X57.301 Y36.386 E16.03408
G1 X59.21 Y37.063 E16.25744
G1 X59.67 Y37.257 E16.31249
G1 X61.578 Y38.17 E16.54574
G1 X61.96 Y38.377 E16.59365
G1 X63.51 Y39.312 E16.79327
G1 X63.897 Y39.573 E16.84474
G1 X65.527 Y40.784 E17.06866
G1 X65.879 Y41.075 E17.11903
G1 F3600 X65.6 Y40.845
G1 F1200 X65.6 Y79.17 E21.34528
G1 F1680 E18.34528
G1 F3600 X64 Y80.36
G1 F1680 E21.34528
G1 F1200 X64 Y39.65 E25.83453
G1 F1680 E22.83453
G1 F3600 X62.4 Y38.643
G1 F1680 E25.83453
G1 F1200 X62.4 Y81.349 E30.54389
G1 F1680 E27.54389
G1 F3600 X60.8 Y82.213
G1 F1680 E30.54389
G1 F1200 X60.8 Y37.798 E35.44171
G1 F1680 E32.44171
G1 F3600 X59.2 Y37.06
G1 F1680 E35.44171
G1 F1200 X59.2 Y82.933 E40.50031
G1 F1680 E37.50031
G1 F3600 X57.6 Y83.502
G1 F1680 E40.50031
G1 F1200 X57.6 Y36.493 E45.68418
G1 F1680 E42.68418
G1 F3600 X56 Y36.039
G1 F1680 E45.68418
G1 F1200 X56 Y83.945 E50.96696
G1 F1680 E47.96696
G1 F3600 X54.4 Y84.312
G1 F1680 E50.96696
G1 F1200 X54.4 Y35.689 E56.32882
G1 F1680 E53.32882
G1 F3600 X52.8 Y35.444
G1 F1680 E56.32882
G1 F1200 X52.8 Y84.553 E61.74426
G1 F1680 E58.74426
G1 F3600 X51.2 Y84.649
G1 F1680 E61.74426
G1 F1200 X51.2 Y35.336 E67.1822
G1 F1680 E64.1822
G1 F3600 X49.6 Y35.303
G1 F1680 E67.1822
G1 F1200 X49.6 Y84.702 E72.62963
G1 F1680 E69.62963
G1 F3600 X48 Y84.628
G1 F1680 E72.62963
G1 F1200 X48 Y35.382 E78.06018
G1 F1680 E75.06018
G1 F3600 X46.4 Y35.569
G1 F1680 E78.06018
G1 F1200 X46.4 Y84.435 E83.44883
G1 F1680 E80.44883
G1 F3600 X44.8 Y84.162
G1 F1680 E83.44883
G1 F1200 X44.8 Y35.856 E88.77572
G1 F1680 E85.77572
G1 F3600 X43.2 Y36.246
G1 F1680 E88.77572
G1 F1200 X43.2 Y83.762 E94.0155
G1 F1680 E91.0155
G1 F3600 X41.6 Y83.224
G1 F1680 E94.0155
G1 F1200 X41.6 Y36.774 E99.13773
G1 F1680 E96.13773
G1 F3600 X40 Y37.414
G1 F1680 E99.13773
G1 F1200 X40 Y82.585 E104.11891
G1 F1680 E101.11891
G1 F3600 X38.4 Y81.813
G1 F1680 E104.11891
G1 F1200 X38.4 Y38.181 E108.93039
G1 F1680 E105.93039
G1 F3600 X36.8 Y39.123
G1 F1680 E108.93039
G1 F1200 X36.8 Y80.877 E113.53476
G1 F1680 E110.53476
G1 F3600 X35.2 Y79.764
G1 F1680 E113.53476
G1 F1200 X35.2 Y40.235 E117.89378
G1 F1680 E114.89378
G1 F3600 X33.6 Y41.546
G1 F1680 E117.89378
G1 F1200 X33.6 Y78.457 E121.96411
G1 F1680 E118.96411
G1 F3600 X32 Y76.899
G1 F1680 E121.96411
G1 F1200 X32 Y43.095 E125.69181
G1 F1680 E122.69181
G1 F3600 X30.4 Y44.972
G1 F1680 E125.69181
G1 F1200 X30.4 Y75.03 E129.00642
G1 F1680 E126.00642
G1 F3600 X28.8 Y72.662
G1 F1680 E129.00642
G1 F1200 X28.8 Y47.319 E131.8011
G1 F1680 E128.8011
G1 F3600 X27.2 Y50.474
G1 F1680 E131.8011
G1 F1200 X27.2 Y69.521 E133.90149
G1 F1680 E130.90149
G1 F3600 X25.6 Y63.841
G1 F1680 E133.90149
G1 F1200 X25.6 Y56.197 E134.74442
G1 F1680 E131.74442
G1 F3600 X67.2 Y42.28
G1 F1680 E134.74442
G1 F1200 X67.2 Y77.735 E138.65418
G1 F1680 E135.65418
G1 F3600 X68.8 Y76.027
G1 F1680 E138.65418
G1 F1200 X68.8 Y43.976 E142.18858
G1 F1680 E139.18858
G1 F3600 X70.4 Y46.048
M104 T0 S200
G1 F1680 E142.18858
G1 F1200 X70.4 Y73.959 E145.26643
G1 F1680 E142.26643
G1 F3600 X72 Y71.252
G1 F1680 E145.26643
G1 F1200 X72 Y48.771 E147.7455
G1 F1680 E144.7455
G1 F3600 X73.6 Y52.65
G1 F1680 E147.7455
G1 F1200 X73.6 Y67.322 E149.36344
G1 F1680 E146.36344
G1 F3600 X65.912 Y41.037
;TIME_ELAPSED:76.845489
;LAYER:-4
G1 X65.912 Y41.037 Z0.619
;TYPE:SUPPORT
G1 F1680 E149.36344
G1 F1980 X65.566 Y40.751 E149.3969
G1 X63.926 Y39.532 E149.54922
G1 X63.537 Y39.269 E149.58423
G1 X63.323 Y39.14 E149.60285
G1 X70.877 Y46.694 E150.39918
G1 F3600 X70.772 Y46.517
G1 F1980 X70.49 Y46.086 E150.43757
G1 X69.349 Y44.544 E150.58056
G1 X69.018 Y44.136 E150.61972
G1 X67.644 Y42.644 E150.77091
G1 X67.344 Y42.343 E150.80259
G1 X65.912 Y41.037 E150.94706
G1 F1680 E147.94706
G1 F3600 X63.323 Y39.14
G1 F1680 E150.94706
G1 F1980 X61.985 Y38.332 E151.06357
G1 X61.601 Y38.125 E151.09609
G1 X60.517 Y37.606 E151.18568
G1 X72.392 Y49.481 E152.43751
G1 X72.802 Y50.347 E152.50893
G1 X72.999 Y50.83 E152.54782
G1 X73.299 Y51.661 E152.61367
G1 X58.335 Y36.698 E154.19109
G1 X57.407 Y36.367 E154.26454
G1 X56.946 Y36.225 E154.30049
G1 X56.469 Y36.104 E154.33718
G1 X73.893 Y53.528 E156.17397
G1 X74.252 Y54.981 E156.28554
G1 X74.297 Y55.205 E156.30257
G1 X54.79 Y35.698 E158.35895
G1 X53.282 Y35.463 E158.47272
G1 X74.536 Y56.717 E160.71327
G1 X74.611 Y57.209 E160.75036
G1 X74.658 Y57.73 E160.78936
G1 X74.677 Y58.131 E160.81928
G1 X51.862 Y35.315 E163.22444
G1 X50.526 Y35.252 E163.32414
G1 X74.739 Y59.466 E165.87667
G1 X74.758 Y59.876 E165.90727
G1 X74.756 Y60.328 E165.94096
G1 X74.737 Y60.736 E165.9714
G1 X49.27 Y35.269 E168.65608
G1 X48.053 Y35.325 E168.74689
G1 X74.68 Y61.952 E171.55385
G1 X74.665 Y62.252 E171.57624
G1 X74.608 Y62.774 E171.61538
G1 X74.558 Y63.103 E171.64019
G1 X46.898 Y35.443 E174.55604
G1 X45.794 Y35.612 E174.63929
G1 X74.388 Y64.206 E177.65361
G1 X74.299 Y64.777 E177.69668
G1 X74.216 Y65.186 E177.72779
G1 X74.192 Y65.282 E177.73517
G1 X44.732 Y35.822 E180.84077
G1 X43.706 Y36.069 E180.91944
G1 X73.936 Y66.299 E184.10622
G1 X73.791 Y66.873 E184.15035
G1 X73.66 Y67.296 E184.18336
G1 X42.698 Y36.334 E187.4473
G1 X42.609 Y36.36 E187.45421
G1 X41.756 Y36.665 E187.52174
G1 X73.329 Y68.238 E190.85009
G1 X72.993 Y69.175 E190.92429
G1 X40.819 Y37.001 E194.316
G1 X40.807 Y37.005 E194.31694
G1 X40.385 Y37.176 E194.35088
G1 X39.935 Y37.389 E194.38799
G1 X72.618 Y70.072 E197.83336
G1 X72.207 Y70.934 E197.90455
G1 X39.07 Y37.797 E201.39777
G1 X38.625 Y38.006 E201.43442
G1 X38.219 Y38.219 E201.4686
G1 X71.781 Y71.781 E205.00663
G1 X71.751 Y71.836 E205.0113
G1 X71.308 Y72.581 E205.07591
G1 X37.42 Y38.693 E208.6483
G1 X36.621 Y39.167 E208.71755
G1 X70.835 Y73.38 E212.32426
G1 X70.723 Y73.567 E212.34051
G1 X70.496 Y73.91 E212.37117
G1 X70.324 Y74.142 E212.3927
G1 X35.861 Y39.68 E216.02565
G1 X35.13 Y40.221 E216.09344
G1 X69.782 Y74.874 E219.74643
G1 X69.35 Y75.457 E219.80052
G1 X69.235 Y75.599 E219.81414
G1 X34.404 Y40.768 E223.48594
G1 X34.082 Y41.033 E223.51703
G1 X33.724 Y41.36 E223.55317
G1 X68.64 Y76.277 E227.23399
G1 X68.033 Y76.943 E227.30116
G1 X33.057 Y41.967 E230.98825
G1 X32.658 Y42.33 E231.02846
G1 X32.403 Y42.585 E231.05534
G1 X67.415 Y77.597 E234.74622
G1 X66.751 Y78.206 E234.81338
G1 X31.79 Y43.245 E238.49889
G1 X31.181 Y43.909 E238.56605
G1 X66.086 Y78.814 E242.24566
G1 X65.922 Y78.966 E242.26233
G1 X65.567 Y79.261 E242.29673
G1 X65.391 Y79.392 E242.31309
G1 X30.607 Y44.607 E245.97999
G1 X30.064 Y45.338 E246.04787
G1 X64.661 Y79.934 E249.69495
G1 X64.063 Y80.379 E249.75052
G1 X63.925 Y80.471 E249.76288
G1 X29.524 Y46.07 E253.38935
G1 X29.149 Y46.641 E253.44028
G1 X29.026 Y46.845 E253.45803
G1 X63.145 Y80.964 E257.05478
G1 X62.348 Y81.44 E257.12398
G1 X28.547 Y47.639 E260.6872
G1 X28.304 Y48.043 E260.72234
G1 X28.085 Y48.45 E260.7568
G1 X61.54 Y81.905 E264.28355
G1 X61.458 Y81.951 E264.29055
G1 X60.683 Y82.32 E264.35454
G1 X27.678 Y49.315 E267.83385
G1 X27.271 Y50.181 E267.90518
G1 X59.82 Y82.73 E271.33642
G1 X59.724 Y82.777 E271.34438
G1 X59.372 Y82.923 E271.37279
G1 X58.906 Y83.089 E271.40966
G1 X26.906 Y51.089 E274.78303
G1 X26.567 Y52.023 E274.8571
G1 X57.97 Y83.425 E278.16748
G1 X57.585 Y83.564 E278.19799
G1 X57.157 Y83.698 E278.23142
G1 X57.007 Y83.736 E278.24295
G1 X26.248 Y52.977 E281.4855
G1 X25.993 Y53.995 E281.56372
G1 X55.994 Y83.995 E284.72631
G1 X55.111 Y84.222 E284.79427
G1 X54.976 Y84.251 E284.80456
G1 X25.747 Y55.021 E287.88587
G1 X25.684 Y55.329 E287.9093
G1 X25.56 Y56.107 E287.96803
G1 X53.892 Y84.439 E290.95472
G1 X52.959 Y84.584 E291.0251
G1 X52.782 Y84.602 E291.03837
G1 X25.387 Y57.207 E293.92628
G1 X25.334 Y57.7 E293.96325
G1 X25.301 Y58.394 E294.01504
G1 X51.586 Y84.678 E296.78589
G1 X50.371 Y84.736 E296.87656
G1 X25.245 Y59.611 E299.52523
G1 X25.245 Y60.016 E299.55542
G1 X25.287 Y60.925 E299.62325
G1 X49.091 Y84.729 E302.13261
G1 X47.755 Y84.666 E302.23231
G1 X25.35 Y62.261 E304.5942
G1 X25.354 Y62.342 E304.60024
G1 X25.398 Y62.831 E304.63684
G1 X25.528 Y63.712 E304.70322
G1 X46.285 Y84.468 E306.89132
G1 X45.267 Y84.311 E306.9681
G1 X44.938 Y84.247 E306.99309
G1 X44.742 Y84.198 E307.00815
G1 X25.8 Y65.256 E309.00497
G1 X26.212 Y66.909 E309.13196
G1 X26.225 Y66.955 E309.13552
G1 X43.041 Y83.77 E310.90817
G1 X42.598 Y83.637 E310.94265
G1 X41.092 Y83.094 E311.06198
G1 X26.901 Y68.903 E312.55797
G1 X27.022 Y69.237 E312.58445
G1 X27.211 Y69.676 E312.62007
G1 X27.936 Y71.211 E312.74662
G1 X38.781 Y82.056 E313.88987
G1 X38.392 Y81.869 E313.92204
G1 X38.04 Y81.678 E313.9519
G1 X36.437 Y80.716 E314.09125
G1 X36.011 Y80.429 E314.12954
G1 X35.51 Y80.058 E314.17601
G1 X29.913 Y74.461 E314.76603
G1 F1680 E311.76603
G1 F3600 X30.73 Y75.559
G1 F1680 E314.76603
G1 F1980 X31.075 Y75.971 E314.80609
G1 X32.427 Y77.436 E314.95469
G1 X32.765 Y77.769 E314.99006
G1 X34.136 Y79.012 E315.12801
G1 X34.516 Y79.322 E315.16456
G1 X35.51 Y80.058 E315.25676
G1 F1680 E312.25676
G1 F3600 X66.012 Y40.926
;TIME_ELAPSED:146.090739
;LAYER:-3
M106 S255
G1 X66.012 Y40.926 Z0.869
G1 F1680 E315.25676
G1 F2400 X66.313 Y41.2 E315.27283
G1 X33.683 Y41.2 E316.5616
G1 X33.242 Y41.6 E316.58512
G1 X66.751 Y41.6 E317.9086
G1 X67.19 Y42 E317.93206
G1 X32.801 Y42 E319.2903
G1 X32.558 Y42.22 E319.30325
G1 X32.377 Y42.4 E319.31333
G1 X67.613 Y42.4 E320.70503
G1 X67.754 Y42.541 E320.7129
G1 X67.993 Y42.8 E320.72682
G1 X31.998 Y42.8 E322.14849
G1 X31.632 Y43.2 E322.16991
G1 X68.362 Y43.2 E323.62061
G1 X68.731 Y43.6 E323.64211
G1 X31.265 Y43.6 E325.12188
G1 X30.957 Y43.935 E325.13985
G1 X30.903 Y44 E325.14319
G1 X69.094 Y44 E326.6516
G1 X69.371 Y44.33 E326.66861
G1 X69.424 Y44.4 E326.67208
G1 X30.575 Y44.4 E328.20648
G1 X30.278 Y44.8 E328.22615
G1 X69.722 Y44.8 E329.78405
G1 X70.02 Y45.2 E329.80375
G1 X29.982 Y45.2 E331.38511
G1 X29.685 Y45.6 E331.40479
G1 X70.318 Y45.6 E333.00964
G1 X70.548 Y45.909 E333.02486
G1 X70.61 Y46 E333.02921
G1 X29.393 Y46 E334.65713
G1 X29.129 Y46.4 E334.67606
G1 X70.872 Y46.4 E336.32476
G1 X71.111 Y46.8 E336.34316
G1 X28.879 Y46.8 E338.01117
G1 X28.638 Y47.2 E338.02962
G1 X71.35 Y47.2 E339.71659
G1 X71.588 Y47.6 E339.73497
G1 X28.397 Y47.6 E341.44086
G1 X28.175 Y47.967 E341.4578
G1 X28.158 Y48 E341.45927
G1 X71.827 Y48 E343.18404
G1 X72.024 Y48.366 E343.20046
G1 X72.041 Y48.4 E343.20196
G1 X27.947 Y48.4 E344.94351
G1 X27.879 Y48.529 E344.94927
G1 X27.753 Y48.8 E344.96108
G1 X72.231 Y48.8 E346.7178
G1 X72.422 Y49.2 E346.7353
G1 X27.567 Y49.2 E348.50692
G1 X27.381 Y49.6 E348.52434
G1 X72.612 Y49.6 E350.3108
G1 X72.802 Y50 E350.32829
G1 X27.195 Y50 E352.1296
G1 X27.037 Y50.338 E352.14434
G1 X27.012 Y50.4 E352.14698
G1 X72.986 Y50.4 E353.96279
G1 X73.089 Y50.649 E353.97343
G1 X73.144 Y50.8 E353.97978
G1 X26.851 Y50.8 E355.80819
G1 X26.707 Y51.2 E355.82498
G1 X73.289 Y51.2 E357.6648
G1 X73.434 Y51.6 E357.6816
G1 X26.564 Y51.6 E359.5328
G1 X26.42 Y52 E359.54959
G1 X73.579 Y52 E361.4122
G1 X73.724 Y52.4 E361.42901
G1 X26.276 Y52.4 E363.30303
G1 X26.214 Y52.572 E363.31025
G1 X26.146 Y52.8 E363.31965
G1 X73.854 Y52.8 E365.20395
G1 X73.933 Y53.069 E365.21502
G1 X73.966 Y53.2 E365.22035
G1 X26.036 Y53.2 E367.11342
G1 X25.938 Y53.6 E367.12968
G1 X74.065 Y53.6 E369.03053
G1 X74.164 Y54 E369.0468
G1 X25.839 Y54 E370.95547
G1 X25.74 Y54.4 E370.97174
G1 X74.263 Y54.4 E372.88823
G1 X74.361 Y54.8 E372.90449
G1 X25.642 Y54.8 E374.82872
G1 X25.618 Y54.894 E374.83255
G1 X25.558 Y55.2 E374.84486
G1 X74.448 Y55.2 E376.77584
G1 X74.477 Y55.345 E376.78168
G1 X74.516 Y55.6 E376.79187
G1 X25.49 Y55.6 E378.72822
G1 X25.427 Y56 E378.74422
G1 X74.578 Y56 E380.68551
G1 X74.639 Y56.4 E380.70149
G1 X25.363 Y56.4 E382.64771
G1 X25.299 Y56.8 E382.66371
G1 X74.7 Y56.8 E384.61487
G1 X74.758 Y57.183 E384.63017
G1 X74.76 Y57.2 E384.63085
G1 X25.238 Y57.2 E386.58679
G1 X25.196 Y57.6 E386.60268
G1 X74.796 Y57.6 E388.5617
G1 X74.807 Y57.722 E388.56654
G1 X74.82 Y58 E388.57753
G1 X25.171 Y58 E390.53849
G1 X25.152 Y58.4 E390.5543
G1 X74.839 Y58.4 E392.51676
G1 X74.858 Y58.8 E392.53258
G1 X25.133 Y58.8 E394.49654
G1 X25.114 Y59.2 E394.51235
G1 X74.876 Y59.2 E396.47777
G1 X74.895 Y59.6 E396.49359
