M73 P0
;MINX:2.8
;MAXX:97.2
;MINY:3.1
;MAXY:116.9
;MINZ:0.0
;MAXZ:8.9
;MachineType:ENTINA TINA2
;FilamentType:PLA
;Extruder0Temperature:200
;InfillDensity:10
;FLAVOR:Marlin
;TIME:4551
;FilamentUsed:4725.4
;Layer height: 0.2

;Generated with Cura_SteamEngine 3.1
M104 T0 S215
M82 ; absolute extrusion mode
;(**** start.gcode for tina2****)
M104 S150
G28 Z
G28 X Y; Home extruder
G1 X55 Y55 F1000
G1 Z10 F200
G29
G1 Z15 F100
M107 ; Turn off fan
G90 ; Absolute positioning
M82 ; Extruder in absolute mode
M109 S215.0
G92 E0 ; Reset extruder position
G1 X90 Y6 Z0.27 F2000
G1 X20 Y6 Z0.27 E15 F1000
G92 E0 ; Reset extruder position

;LAYER_COUNT:38
;LAYER:-6
M107
M203 Z5
G1 F3600 X89.69 Y27.2 Z0.349
G1 F1200 X90.191 Y27.385 E0.05889
G1 X90.368 Y27.458 E0.08001
G1 X90.907 Y27.713 E0.14576
G1 X91.086 Y27.807 E0.16806
G1 X91.758 Y28.203 E0.25407
G1 X92.367 Y28.616 E0.33521
G1 X93.052 Y29.168 E0.43222
G1 X93.481 Y29.57 E0.49706
G1 X93.936 Y30.046 E0.56967
G1 X94.222 Y30.371 E0.61741
G1 X94.376 Y30.562 E0.64447
G1 X94.739 Y31.05 E0.71153
G1 X94.875 Y31.249 E0.73811
G1 X95.161 Y31.702 E0.79719
G1 X95.351 Y32.033 E0.83928
G1 X95.598 Y32.51 E0.89851
G1 X95.793 Y32.936 E0.95018
G1 X96.009 Y33.471 E1.0138
G1 X96.192 Y34.025 E1.07814
G1 X96.322 Y34.482 E1.13053
G1 X96.433 Y34.956 E1.18422
G1 X96.534 Y35.518 E1.24718
G1 X96.59 Y35.962 E1.29653
G1 X96.63 Y36.397 E1.34471
G1 X96.649 Y36.738 E1.38237
G1 X96.659 Y37.076 E1.41966
G1 X96.645 Y37.597 E1.47713
G1 X96.622 Y37.972 E1.51856
G1 X96.561 Y38.539 E1.58145
G1 X96.512 Y38.864 E1.61769
G1 X96.383 Y39.529 E1.69239
G1 X96.311 Y39.811 E1.72448
G1 X96.182 Y40.257 E1.77568
G1 X96.074 Y40.586 E1.81387
G1 X95.972 Y40.857 E1.8458
G1 X95.778 Y41.498 E1.91965
G1 X95.663 Y42.171 E1.99494
G1 X95.635 Y42.853 E2.07021
G1 X95.694 Y43.533 E2.14548
G1 X95.837 Y44.198 E2.22049
G1 X96.019 Y44.737 E2.28322
G1 X96.152 Y45.098 E2.32565
G1 X96.293 Y45.539 E2.3767
G1 X96.413 Y45.979 E2.427
G1 X96.508 Y46.377 E2.47212
G1 X96.567 Y46.688 E2.50702
G1 X96.641 Y47.156 E2.55927
G1 X96.672 Y47.41 E2.58749
G1 X96.716 Y47.979 E2.65042
G1 X96.731 Y48.362 E2.69269
G1 X96.727 Y48.786 E2.73945
G1 X96.734 Y49.356 E2.80231
G1 X96.728 Y49.572 E2.82614
G1 X96.675 Y50.303 E2.90696
G1 X96.576 Y50.994 E2.98394
G1 X96.537 Y51.21 E3.00814
G1 X96.399 Y51.813 E3.07636
G1 X96.282 Y52.232 E3.12433
G1 X95.858 Y53.504 E3.27219
G1 X95.728 Y54.174 E3.34745
G1 X95.681 Y54.855 E3.42272
G1 X95.721 Y55.537 E3.49806
G1 X95.847 Y56.207 E3.57324
G1 X96.029 Y56.782 E3.63974
G1 X96.16 Y57.126 E3.68034
G1 X96.27 Y57.46 E3.71911
G1 X96.413 Y57.961 E3.77657
G1 X96.476 Y58.208 E3.80468
G1 X96.581 Y58.733 E3.86372
G1 X96.658 Y59.23 E3.91918
G1 X96.708 Y59.689 E3.97009
G1 X96.737 Y60.099 E4.01542
G1 X96.749 Y60.544 E4.06451
G1 X96.745 Y60.908 E4.10465
G1 X96.716 Y61.439 E4.16329
G1 X96.693 Y61.702 E4.19241
G1 X96.63 Y62.173 E4.24481
G1 X96.551 Y62.629 E4.29584
G1 X96.452 Y63.09 E4.34784
G1 X96.398 Y63.296 E4.37132
G1 X96.196 Y63.975 E4.44944
G1 X96.048 Y64.389 E4.49792
G1 X95.794 Y65.002 E4.57109
G1 X95.507 Y65.574 E4.64167
G1 X95.233 Y66.053 E4.70252
G1 X94.978 Y66.46 E4.75548
G1 X94.756 Y66.78 E4.79843
G1 X94.593 Y66.999 E4.82853
G1 X94.171 Y67.521 E4.90255
G1 X93.741 Y67.993 E4.97296
G1 X93.322 Y68.396 E5.03707
G1 X93.024 Y68.66 E5.08097
G1 X92.721 Y68.904 E5.12387
G1 X92.232 Y69.269 E5.19116
G1 X91.72 Y69.609 E5.25894
G1 X91.17 Y69.922 E5.32872
G1 X90.827 Y70.099 E5.37129
G1 X90.518 Y70.243 E5.40888
G1 X90.325 Y70.321 E5.43184
G1 X89.602 Y70.576 E5.51638
G1 X89.475 Y70.602 E5.53067
G1 X88.842 Y70.706 E5.60141
G1 X88.597 Y70.728 E5.62854
G1 X88.207 Y70.732 E5.67155
G1 X87.946 Y70.719 E5.70036
G1 X87.64 Y70.683 E5.73434
G1 X87.364 Y70.633 E5.76527
G1 X87.108 Y70.57 E5.79434
G1 X86.781 Y70.463 E5.83228
G1 X86.166 Y70.205 E5.90583
G1 X85.756 Y69.965 E5.95822
G1 X85.508 Y69.796 E5.99131
G1 X85.271 Y69.612 E6.0244
G1 X85.07 Y69.435 E6.05393
G1 X84.867 Y69.231 E6.08567
G1 X84.659 Y68.99 E6.12077
G1 X84.347 Y68.565 E6.17891
G1 X84.222 Y68.381 E6.20344
G1 X83.737 Y67.596 E6.3052
G1 X83.468 Y67.193 E6.35863
G1 X83.062 Y66.66 E6.43251
G1 X82.582 Y66.173 E6.50792
G1 X82.046 Y65.752 E6.58308
G1 X81.46 Y65.401 E6.6584
G1 X80.836 Y65.127 E6.73356
G1 X80.18 Y64.933 E6.80899
G1 X79.506 Y64.824 E6.88428
G1 X78.824 Y64.8 E6.95954
G1 X78.144 Y64.864 E7.03485
G1 X77.478 Y65.012 E7.11009
G1 X76.835 Y65.243 E7.18543
G1 X76.226 Y65.554 E7.26084
G1 X75.663 Y65.939 E7.33605
G1 X75.152 Y66.392 E7.41136
G1 X74.7 Y66.908 E7.487
G1 X74.234 Y67.626 E7.58139
G1 X74.004 Y68.044 E7.634
G1 X73.532 Y68.801 E7.73238
G1 X73.072 Y69.442 E7.81938
G1 X72.819 Y69.765 E7.86463
G1 X72.412 Y70.247 E7.93419
G1 X72.202 Y70.481 E7.96886
G1 X71.73 Y70.97 E8.04381
G1 X70.971 Y71.66 E8.15692
G1 X70.453 Y72.072 E8.22991
G1 X70.127 Y72.314 E8.27468
G1 X69.551 Y72.709 E8.3517
G1 X69.202 Y72.923 E8.39685
G1 X68.703 Y73.21 E8.46032
G1 X68.372 Y73.387 E8.50172
G1 X67.716 Y73.707 E8.5822
G1 X67.116 Y73.957 E8.65388
G1 X66.631 Y74.137 E8.71093
G1 X65.95 Y74.36 E8.78995
G1 X65.219 Y74.552 E8.87329
G1 X64.895 Y74.624 E8.90989
G1 X64.336 Y74.728 E8.9726
G1 X63.76 Y74.824 E9.03699
G1 X63.76 Y74.84 E9.03875
G1 X63.458 Y74.905 E9.07282
G1 X62.813 Y75.131 E9.14819
G1 X62.202 Y75.436 E9.22349
G1 X61.635 Y75.816 E9.29876
G1 X61.12 Y76.264 E9.37403
G1 X60.664 Y76.775 E9.44956
G1 X60.227 Y77.428 E9.5362
G1 X59.909 Y77.985 E9.60693
G1 X59.731 Y78.273 E9.64427
G1 X59.312 Y78.894 E9.72688
G1 X58.767 Y79.594 E9.8247
G1 X58.294 Y80.126 E9.9032
G1 X57.893 Y80.56 E9.96837
G1 X57.913 Y80.573 E9.971
G1 X57.82 Y80.683 E9.98688
G1 X57.449 Y81.257 E10.06225
G1 X57.153 Y81.871 E10.13741
G1 X56.937 Y82.519 E10.21274
G1 X56.804 Y83.189 E10.28806
G1 X56.756 Y83.869 E10.36323
G1 X56.795 Y84.552 E10.43867
G1 X56.92 Y85.223 E10.51394
G1 X57.13 Y85.878 E10.58979
G1 X57.364 Y86.346 E10.64749
G1 X57.337 Y86.364 E10.65107
G1 X57.811 Y87.161 E10.75333
G1 X57.927 Y87.385 E10.78114
G1 X58.222 Y88.014 E10.85776
G1 X58.33 Y88.284 E10.88982
G1 X58.476 Y88.692 E10.93761
G1 X58.604 Y89.11 E10.98582
G1 X58.725 Y89.593 E11.04072
G1 X58.79 Y89.904 E11.07576
G1 X58.859 Y90.352 E11.12575
G1 X58.898 Y90.662 E11.1602
G1 X58.942 Y91.157 E11.215
G1 X58.963 Y91.157 E11.21732
G1 X59.004 Y91.44 E11.24885
G1 X59.185 Y92.099 E11.32421
G1 X59.449 Y92.729 E11.39954
G1 X59.79 Y93.321 E11.47488
G1 X60.203 Y93.864 E11.55011
G1 X60.681 Y94.352 E11.62543
G1 X61.217 Y94.774 E11.70066
G1 X61.801 Y95.128 E11.77597
G1 X62.426 Y95.403 E11.85127
G1 X63.08 Y95.598 E11.92652
G1 X63.76 Y95.709 E12.0025
G1 X64.709 Y95.718 E12.10716
G1 X66.035 Y95.649 E12.25358
G1 X67.491 Y95.629 E12.41415
G1 X68.85 Y95.663 E12.56406
G1 X70.217 Y95.751 E12.71512
G1 X71.595 Y95.887 E12.86781
G1 X72.557 Y96.014 E12.97482
G1 X73.981 Y96.251 E13.13401
G1 X75.461 Y96.557 E13.30067
G1 X76.587 Y96.833 E13.42851
G1 X78.028 Y97.243 E13.59372
G1 X79.283 Y97.651 E13.73925
G1 X80.527 Y98.107 E13.88535
G1 X81.425 Y98.469 E13.99212
G1 X81.815 Y98.633 E14.03878
G1 X82.848 Y99.096 E14.16361
G1 X83.475 Y99.333 E14.23752
G1 X84.137 Y99.491 E14.31258
G1 X84.695 Y99.558 E14.37455
G1 X85.092 Y99.585 E14.41843
G1 X85.415 Y99.627 E14.45435
G1 X85.66 Y99.675 E14.48188
G1 X85.96 Y99.753 E14.51606
G1 X86.226 Y99.841 E14.54696
G1 X86.505 Y99.957 E14.58028
G1 X86.974 Y100.191 E14.63808
G1 X87.291 Y100.374 E14.67844
G1 X87.994 Y100.838 E14.77133
G1 X88.289 Y101.06 E14.81204
G1 X88.506 Y101.246 E14.84356
G1 X88.718 Y101.452 E14.87615
G1 X88.912 Y101.666 E14.90801
G1 X89.085 Y101.884 E14.9387
G1 X89.262 Y102.137 E14.97274
G1 X89.393 Y102.352 E15.00051
G1 X89.778 Y102.902 E15.07454
G1 X90.232 Y103.404 E15.14918
G1 X90.624 Y103.75 E15.20684
G1 X90.83 Y103.945 E15.23812
G1 X91.028 Y104.158 E15.27019
G1 X91.216 Y104.388 E15.30294
G1 X91.38 Y104.616 E15.33392
G1 X91.542 Y104.875 E15.3676
G1 X91.67 Y105.114 E15.3975
G1 X91.797 Y105.389 E15.4309
G1 X91.907 Y105.673 E15.46449
G1 X91.99 Y105.93 E15.49427
G1 X92.085 Y106.3 E15.5364
G1 X92.187 Y106.801 E15.59278
G1 X92.265 Y107.317 E15.65032
G1 X92.287 Y107.612 E15.68294
G1 X92.292 Y107.88 E15.7125
G1 X92.276 Y108.207 E15.74861
G1 X92.247 Y108.462 E15.77691
G1 X92.194 Y108.763 E15.81061
G1 X92.124 Y109.049 E15.84308
G1 X92.036 Y109.328 E15.87534
G1 X91.931 Y109.604 E15.9079
G1 X91.819 Y109.848 E15.93751
G1 X91.677 Y110.113 E15.97066
G1 X91.517 Y110.371 E16.00414
G1 X91.363 Y110.586 E16.0333
G1 X91.163 Y110.832 E16.06827
G1 X90.989 Y111.021 E16.0966
G1 X90.758 Y111.243 E16.13193
G1 X90.527 Y111.437 E16.16519
G1 X90.323 Y111.587 E16.19311
G1 X90.057 Y111.759 E16.22804
G1 X89.816 Y111.894 E16.25851
G1 X89.562 Y112.019 E16.28972
G1 X88.79 Y112.352 E16.38244
G1 X88.285 Y112.535 E16.44167
G1 X88.017 Y112.61 E16.47236
G1 X87.708 Y112.677 E16.50722
G1 X87.449 Y112.717 E16.53612
G1 X86.975 Y112.769 E16.58871
G1 X86.623 Y112.8 E16.62767
G1 X86.306 Y112.806 E16.66264
G1 X85.742 Y112.799 E16.72484
G1 X85.071 Y112.793 E16.79883
G1 X84.392 Y112.873 E16.87423
G1 X83.708 Y113.045 E16.952
G1 X83.082 Y113.245 E17.02447
G1 X81.55 Y113.687 E17.2003
G1 X80.249 Y114.024 E17.3485
G1 X78.877 Y114.336 E17.50366
G1 X77.379 Y114.632 E17.67205
G1 X75.895 Y114.879 E17.83794
G1 X75.513 Y114.935 E17.88052
G1 X74.059 Y115.125 E18.04222
G1 X72.677 Y115.26 E18.19534
G1 X71.241 Y115.365 E18.35412
G1 X69.672 Y115.431 E18.52729
G1 X68.045 Y115.447 E18.70672
G1 X66.499 Y115.413 E18.87724
G1 X65.061 Y115.337 E19.03604
G1 X63.397 Y115.203 E19.22013
G1 X62.186 Y115.067 E19.35451
G1 X60.42 Y114.816 E19.55121
G1 X58.865 Y114.542 E19.72533
G1 X57.517 Y114.261 E19.87717
G1 X55.964 Y113.896 E20.05309
G1 X54.452 Y113.484 E20.22591
G1 X53 Y113.043 E20.39325
G1 X51.766 Y112.626 E20.53689
G1 X51.404 Y112.479 E20.57997
G1 X51.146 Y112.355 E20.61154
G1 X50.92 Y112.228 E20.64012
G1 X50.637 Y112.038 E20.67771
G1 X50.171 Y111.672 E20.74306
G1 X50.007 Y111.522 E20.76756
G1 X49.73 Y111.225 E20.81235
G1 X49.569 Y111.029 E20.84032
G1 X49.411 Y110.811 E20.87001
G1 X49.227 Y110.508 E20.9091
G1 X48.962 Y109.985 E20.97375
G1 X48.876 Y109.792 E20.99706
G1 X48.653 Y109.227 E21.06404
G1 X48.567 Y108.992 E21.09163
G1 X48.294 Y108.16 E21.18819
G1 X48.071 Y107.362 E21.27956
G1 X47.949 Y106.891 E21.33322
G1 X47.727 Y106.259 E21.40708
G1 X47.421 Y105.647 E21.48254
G1 X47.041 Y105.08 E21.55781
G1 X46.593 Y104.566 E21.633
G1 X46.083 Y104.112 E21.70829
G1 X45.519 Y103.726 E21.78366
G1 X44.912 Y103.414 E21.85892
G1 X44.27 Y103.181 E21.93423
G1 X43.605 Y103.031 E22.00941
G1 X43.001 Y102.971 E22.07634
G1 X42.656 Y102.956 E22.11442
G1 X42.353 Y102.923 E22.14803
G1 X42.078 Y102.876 E22.1788
G1 X41.807 Y102.812 E22.2095
G1 X41.504 Y102.72 E22.24442
G1 X41.248 Y102.623 E22.27461
G1 X40.969 Y102.499 E22.30828
G1 X40.732 Y102.373 E22.33788
G1 X40.481 Y102.219 E22.37035
G1 X40.23 Y102.044 E22.40409
G1 X39.989 Y101.85 E22.43821
G1 X39.817 Y101.696 E22.46367
G1 X39.536 Y101.41 E22.50788
G1 X39.222 Y101.058 E22.5599
G1 X38.986 Y100.764 E22.60147
G1 X38.814 Y100.518 E22.63457
G1 X38.659 Y100.266 E22.6672
G1 X38.536 Y100.033 E22.69625
G1 X38.41 Y99.751 E22.73031
G1 X38.313 Y99.493 E22.76071
G1 X38.222 Y99.193 E22.79528
G1 X38.159 Y98.923 E22.82585
G1 X38.11 Y98.636 E22.85796
G1 X38.081 Y98.354 E22.88922
G1 X38.068 Y98.054 E22.92233
G1 X38.074 Y97.771 E22.95355
G1 X38.099 Y97.473 E22.98652
G1 X38.14 Y97.195 E23.01751
G1 X38.196 Y96.935 E23.04684
G1 X38.293 Y96.272 E23.12073
G1 X38.306 Y95.59 E23.19595
G1 X38.234 Y94.91 E23.27136
G1 X38.076 Y94.246 E23.34662
G1 X37.835 Y93.607 E23.42193
G1 X37.517 Y93.004 E23.49711
G1 X37.124 Y92.445 E23.57246
G1 X36.665 Y91.94 E23.64771
G1 X36.144 Y91.498 E23.72306
G1 X35.573 Y91.124 E23.79833
G1 X34.958 Y90.826 E23.87369
G1 X34.311 Y90.608 E23.94898
G1 X33.642 Y90.473 E24.02424
G1 X32.961 Y90.423 E24.09954
G1 X32.279 Y90.46 E24.17485
G1 X31.607 Y90.583 E24.25019
G1 X30.956 Y90.789 E24.32548
G1 X30.333 Y91.079 E24.40126
G1 X29.963 Y91.322 E24.45008
G1 X29.945 Y91.298 E24.45339
G1 X29.123 Y91.913 E24.56659
G1 X28.802 Y92.138 E24.60982
G1 X28.37 Y92.423 E24.66689
G1 X27.846 Y92.747 E24.73483
G1 X27.307 Y93.052 E24.80312
G1 X27.106 Y93.159 E24.82823
G1 X26.523 Y93.445 E24.89984
G1 X26.098 Y93.639 E24.95136
G1 X25.669 Y93.818 E25.00262
G1 X25.151 Y94.017 E25.06381
G1 X24.543 Y94.226 E25.13471
G1 X24.288 Y94.305 E25.16415
G1 X23.567 Y94.501 E25.24654
G1 X23.243 Y94.58 E25.28332
G1 X22.637 Y94.71 E25.35166
G1 X22.336 Y94.763 E25.38537
G1 X21.791 Y94.845 E25.44614
G1 X21.301 Y94.906 E25.50059
G1 X20.808 Y94.95 E25.55518
G1 X20.445 Y94.973 E25.59529
G1 X19.503 Y95.001 E25.69921
G1 X18.663 Y94.975 E25.79188
G1 X18.237 Y94.943 E25.83899
G1 X17.386 Y94.854 E25.93335
G1 X16.674 Y94.741 E26.01285
G1 X16.408 Y94.691 E26.04269
G1 X15.52 Y94.485 E26.14322
G1 X14.765 Y94.275 E26.22963
G1 X14.471 Y94.182 E26.26364
G1 X13.965 Y94.003 E26.32282
G1 X13.596 Y93.863 E26.36635
G1 X13.069 Y93.645 E26.42924
G1 X12.567 Y93.417 E26.49004
G1 X11.639 Y92.938 E26.6052
G1 X11.098 Y92.625 E26.67412
G1 X10.351 Y92.142 E26.77222
G1 X9.391 Y91.433 E26.90382
G1 X8.819 Y90.953 E26.98616
G1 X8.476 Y90.644 E27.03707
G1 X7.945 Y90.132 E27.11841
G1 X7.337 Y89.477 E27.21697
G1 X7.166 Y89.282 E27.24557
G1 X6.7 Y88.707 E27.32718
G1 X6.551 Y88.513 E27.35416
G1 X6.149 Y87.953 E27.43017
G1 X5.605 Y87.114 E27.54044
G1 X5.54 Y87.004 E27.55453
G1 X5.153 Y86.312 E27.64196
G1 X4.977 Y85.971 E27.68428
G1 X4.693 Y85.372 E27.75738
G1 X4.507 Y84.94 E27.80925
G1 X4.254 Y84.299 E27.88524
G1 X3.973 Y83.462 E27.9826
G1 X3.871 Y83.118 E28.02217
G1 X3.717 Y82.531 E28.08909
G1 X3.605 Y82.029 E28.14581
G1 X3.507 Y81.536 E28.20124
G1 X3.455 Y81.236 E28.23481
G1 X3.359 Y80.485 E28.3183
G1 X3.326 Y80.181 E28.35202
G1 X3.278 Y79.576 E28.41895
G1 X3.259 Y79.133 E28.46784
G1 X3.249 Y78.469 E28.54107
G1 X3.29 Y77.488 E28.64935
G1 X3.365 Y76.708 E28.73576
G1 X3.433 Y76.192 E28.79315
G1 X3.543 Y75.542 E28.86585
G1 X3.622 Y75.157 E28.90919
G1 X3.759 Y74.576 E28.97501
G1 X3.853 Y74.23 E29.01455
G1 X4.138 Y73.309 E29.12087
G1 X4.348 Y72.731 E29.18868
G1 X4.469 Y72.428 E29.22466
G1 X4.891 Y71.492 E29.33788
G1 X5.163 Y70.954 E29.40436
G1 X5.316 Y70.671 E29.43984
G1 X5.582 Y70.215 E29.49805
G1 X5.781 Y69.894 E29.5397
G1 X6.152 Y69.331 E29.61405
G1 X6.353 Y69.045 E29.6526
G1 X6.915 Y68.314 E29.75428
G1 X7.361 Y67.793 E29.82991
G1 X7.609 Y67.519 E29.87066
G1 X8.161 Y66.948 E29.95824
G1 X8.788 Y66.371 E30.05221
G1 X9.109 Y66.095 E30.09889
G1 X9.759 Y65.582 E30.1902
G1 X10.412 Y65.112 E30.27892
G1 X10.62 Y64.973 E30.30651
G1 X11.162 Y64.635 E30.37695
G1 X11.464 Y64.456 E30.41566
G1 X12.216 Y64.051 E30.50985
G1 X12.829 Y63.76 E30.58468
G1 X13.338 Y63.537 E30.64596
G1 X13.979 Y63.288 E30.72179
G1 X14.198 Y63.21 E30.74742
G1 X14.747 Y63.031 E30.8111
G1 X15.178 Y62.904 E30.86065
G1 X15.863 Y62.728 E30.93864
G1 X16.865 Y62.524 E31.0514
G1 X17.701 Y62.408 E31.14447
G1 X18.002 Y62.376 E31.17785
G1 X18.765 Y62.321 E31.26221
G1 X19.102 Y62.308 E31.2994
G1 X19.757 Y62.301 E31.37163
G1 X20.671 Y62.339 E31.47251
G1 X21.129 Y62.378 E31.5232
G1 X21.853 Y62.46 E31.60355
G1 X22.644 Y62.594 E31.69202
G1 X23.028 Y62.673 E31.73525
G1 X23.499 Y62.783 E31.78859
G1 X23.859 Y62.877 E31.82962
G1 X24.494 Y63.062 E31.90255
G1 X24.933 Y63.209 E31.9536
G1 X25.871 Y63.568 E32.06436
G1 X26.617 Y63.901 E32.15445
G1 X27.258 Y64.226 E32.2337
G1 X27.596 Y64.412 E32.27624
G1 X28.216 Y64.783 E32.35592
G1 X28.503 Y64.966 E32.39345
G1 X28.896 Y65.232 E32.44578
G1 X29.178 Y65.433 E32.48397
G1 X29.577 Y65.733 E32.53902
G1 X30.133 Y66.106 E32.61285
G1 X30.743 Y66.412 E32.68811
G1 X31.388 Y66.639 E32.76351
G1 X32.054 Y66.781 E32.83861
G1 X32.701 Y66.838 E32.91023
G1 X33.462 Y66.839 E32.99415
G1 X34.192 Y66.806 E33.07473
G1 X34.983 Y66.737 E33.16229
G1 X35.72 Y66.638 E33.24429
G1 X36.451 Y66.506 E33.3262
G1 X37.184 Y66.341 E33.40906
G1 X37.951 Y66.131 E33.49675
G1 X38.877 Y65.826 E33.60426
G1 X39.566 Y65.557 E33.68582
G1 X40.257 Y65.251 E33.76916
G1 X40.967 Y64.899 E33.85655
G1 X41.603 Y64.547 E33.93671
G1 X42.261 Y64.145 E34.02174
G1 X42.883 Y63.724 E34.10456
G1 X43.485 Y63.276 E34.18731
G1 X44.069 Y62.798 E34.27054
G1 X44.628 Y62.298 E34.35324
G1 X45.184 Y61.757 E34.43879
G1 X45.696 Y61.211 E34.52133
G1 X46.197 Y60.625 E34.60635
