M73 P0
;MINX:31.1
;MAXX:68.9
;MINY:44.5
;MAXY:75.5
;MINZ:0.0
;MAXZ:28.6
;MachineType:ENTINA TINA2
;FilamentType:PLA
;Extruder0Temperature:200
;InfillDensity:10
;FLAVOR:Marlin
;TIME:2486
;FilamentUsed:855.1
;Layer height: 0.1

;Generated with Cura_SteamEngine 3.1
M104 T0 S215
M82 ; absolute extrusion mode
;(**** start.gcode for tina2****)
M104 S150
G28 Z
G28 X Y; Home extruder
G1 X55 Y55 F1000
G1 Z10 F200
G29
G1 Z15 F100
M107 ; Turn off fan
G90 ; Absolute positioning
M82 ; Extruder in absolute mode
M109 S215.0
G92 E0 ; Reset extruder position
G1 X90 Y6 Z0.27 F2000
G1 X20 Y6 Z0.27 E15 F1000
G92 E0 ; Reset extruder position

;LAYER_COUNT:272
;LAYER:-8
M107
M203 Z5
G1 F3600 X62.084 Y47.173 Z0.349
G1 F1200 X62.261 Y47.319 E0.0253
G1 X62.625 Y47.683 E0.08207
G1 X62.799 Y47.88 E0.11105
G1 X63.054 Y48.21 E0.15704
G1 X63.563 Y48.955 E0.25654
G1 X64.021 Y49.459 E0.33164
G1 X64.479 Y49.857 E0.39855
G1 X64.727 Y50.055 E0.43354
G1 X65.18 Y50.521 E0.50521
G1 X65.32 Y50.686 E0.52907
G1 X65.545 Y50.99 E0.57078
G1 X65.674 Y51.191 E0.59712
G1 X65.997 Y51.791 E0.67226
G1 X66.086 Y51.983 E0.69559
G1 X66.26 Y52.467 E0.75231
G1 X66.417 Y53.076 E0.82166
G1 X66.43 Y53.073 E0.82314
G1 X66.467 Y53.206 E0.83836
G1 X66.734 Y53.838 E0.91402
G1 X66.917 Y54.141 E0.95305
G1 X66.889 Y54.155 E0.9565
G1 X67.215 Y54.626 E1.01967
G1 X67.31 Y54.78 E1.03962
G1 X67.659 Y55.421 E1.12011
G1 X67.875 Y55.99 E1.18722
G1 X67.929 Y56.153 E1.20616
G1 X68.055 Y56.69 E1.26698
G1 X68.089 Y56.888 E1.28914
G1 X68.121 Y57.144 E1.31759
G1 X68.141 Y57.643 E1.37266
G1 X68.136 Y57.875 E1.39825
G1 X68.084 Y58.423 E1.45895
G1 X68.04 Y59.092 E1.53288
G1 X68.082 Y59.772 E1.60801
G1 X68.204 Y60.419 E1.68061
G1 X68.297 Y61.109 E1.75739
G1 X68.308 Y61.23 E1.77079
G1 X68.297 Y61.925 E1.84744
G1 X68.271 Y62.226 E1.88076
G1 X68.202 Y62.652 E1.92834
G1 X68.155 Y62.873 E1.95326
G1 X68.07 Y63.176 E1.98796
G1 X68.008 Y63.355 E2.00885
G1 X67.738 Y64.013 E2.08728
G1 X67.471 Y64.482 E2.1468
G1 X67.314 Y64.713 E2.1776
G1 X66.958 Y65.281 E2.25152
G1 X66.671 Y65.901 E2.32686
G1 X66.466 Y66.551 E2.40202
G1 X66.357 Y67.13 E2.46699
G1 X66.277 Y67.693 E2.52969
G1 X66.226 Y67.927 E2.5561
G1 X66.083 Y68.469 E2.61792
G1 X65.926 Y68.893 E2.66778
G1 X65.821 Y69.135 E2.69687
G1 X65.631 Y69.507 E2.74293
G1 X65.376 Y69.924 E2.79683
G1 X65.281 Y70.054 E2.81458
G1 X64.971 Y70.444 E2.86952
G1 X64.601 Y70.825 E2.92809
G1 X64.413 Y70.996 E2.95611
G1 X64.129 Y71.229 E2.99662
G1 X63.978 Y71.334 E3.0169
G1 X63.495 Y71.639 E3.0799
G1 X63.351 Y71.722 E3.09822
G1 X62.832 Y71.956 E3.161
G1 X62.595 Y72.045 E3.18892
G1 X62.216 Y72.155 E3.23244
G1 X61.858 Y72.238 E3.27297
G1 X61.258 Y72.336 E3.34001
G1 X61.258 Y72.344 E3.34089
G1 X61.063 Y72.378 E3.36272
G1 X60.412 Y72.582 E3.43795
G1 X59.795 Y72.862 E3.51266
G1 X59.447 Y73.067 E3.5572
G1 X59.229 Y73.177 E3.58413
G1 X58.64 Y73.429 E3.65478
G1 X58.442 Y73.503 E3.67809
G1 X58.296 Y73.547 E3.6949
G1 X57.963 Y73.632 E3.7328
G1 X57.673 Y73.688 E3.76537
G1 X57.206 Y73.745 E3.81725
G1 X57.026 Y73.753 E3.83712
G1 X56.359 Y73.819 E3.91103
G1 X55.693 Y73.972 E3.98639
G1 X55.011 Y74.226 E4.06664
G1 X54.587 Y74.413 E4.11774
G1 X54.017 Y74.591 E4.18359
G1 X53.802 Y74.642 E4.20796
G1 X53.435 Y74.71 E4.24912
G1 X53.247 Y74.733 E4.27
G1 X52.599 Y74.769 E4.34157
G1 X52.064 Y74.736 E4.40068
G1 X51.388 Y74.654 E4.47577
G1 X51.388 Y74.677 E4.47831
G1 X51.239 Y74.665 E4.49479
G1 X50.56 Y74.695 E4.56974
G1 X50.021 Y74.781 E4.62993
G1 X49.528 Y74.88 E4.68538
G1 X49.304 Y74.904 E4.71022
G1 X48.665 Y74.94 E4.7808
G1 X48.466 Y74.943 E4.80275
G1 X48.279 Y74.927 E4.82344
G1 X47.646 Y74.848 E4.89379
G1 X47.486 Y74.82 E4.9117
G1 X47.321 Y74.776 E4.93053
G1 X46.685 Y74.575 E5.00409
G1 X46.468 Y74.494 E5.02963
G1 X46.299 Y74.417 E5.05011
G1 X45.669 Y74.175 E5.12453
G1 X44.741 Y73.972 E5.22928
G1 X44.366 Y73.926 E5.27095
G1 X44.117 Y73.875 E5.29897
G1 X43.734 Y73.77 E5.34277
G1 X43.495 Y73.686 E5.3707
G1 X42.858 Y73.411 E5.44721
G1 X42.429 Y73.158 E5.50214
G1 X42.219 Y73.016 E5.53009
G1 X41.373 Y72.355 E5.64848
G1 X40.787 Y72.006 E5.72369
G1 X40.166 Y71.735 E5.79841
G1 X39.775 Y71.611 E5.84364
G1 X39.321 Y71.484 E5.89563
G1 X39.146 Y71.427 E5.91593
G1 X39.006 Y71.366 E5.93277
G1 X38.385 Y71.058 E6.00921
G1 X38.251 Y70.983 E6.02614
G1 X37.749 Y70.626 E6.09407
G1 X37.58 Y70.484 E6.11841
G1 X37.025 Y69.922 E6.20551
G1 X36.741 Y69.663 E6.2479
G1 X36.76 Y69.641 E6.2511
G1 X35.898 Y68.927 E6.37453
G1 X35.74 Y68.775 E6.39871
G1 X35.294 Y68.263 E6.47359
G1 X34.987 Y67.806 E6.5343
G1 X34.358 Y66.825 E6.6628
G1 X34.245 Y66.626 E6.68804
G1 X33.983 Y66.092 E6.75363
G1 X33.933 Y65.954 E6.76982
G1 X33.74 Y65.338 E6.841
G1 X33.55 Y64.624 E6.92248
G1 X33.541 Y64.627 E6.92352
G1 X33.514 Y64.533 E6.93431
G1 X33.315 Y64.051 E6.99181
G1 X33.244 Y63.9 E7.01021
G1 X32.916 Y62.96 E7.12
G1 X32.886 Y62.97 E7.12349
G1 X32.713 Y62.567 E7.17185
G1 X32.539 Y62.236 E7.21309
G1 X32.485 Y62.101 E7.22912
G1 X32.294 Y61.56 E7.29239
G1 X32.253 Y61.426 E7.30784
G1 X32.145 Y60.914 E7.36554
G1 X32.127 Y60.747 E7.38406
G1 X32.084 Y60.15 E7.45007
G1 X32.087 Y59.898 E7.47786
G1 X32.131 Y59.388 E7.53431
G1 X32.223 Y58.649 E7.61643
G1 X32.236 Y58.223 E7.66343
G1 X32.231 Y57.785 E7.71173
G1 X32.247 Y57.482 E7.74519
G1 X32.283 Y57.194 E7.7772
G1 X32.399 Y56.585 E7.84556
G1 X32.505 Y55.919 E7.91993
G1 X32.51 Y55.62 E7.95291
G1 X32.537 Y55.62 E7.95588
G1 X32.503 Y54.543 E8.07471
G1 X32.509 Y54.317 E8.09964
G1 X32.57 Y53.761 E8.16132
G1 X32.689 Y53.225 E8.22186
G1 X32.825 Y52.791 E8.27202
G1 X32.903 Y52.591 E8.29569
G1 X33.064 Y52.228 E8.33948
G1 X33.189 Y51.987 E8.36942
G1 X33.454 Y51.557 E8.42512
G1 X33.554 Y51.418 E8.444
G1 X33.767 Y51.148 E8.48192
G1 X34.148 Y50.595 E8.55598
G1 X34.461 Y49.992 E8.6309
G1 X34.658 Y49.473 E8.69211
G1 X34.852 Y48.885 E8.76039
G1 X35.149 Y48.272 E8.83551
G1 X35.397 Y47.868 E8.88778
G1 X35.508 Y47.713 E8.9088
G1 X35.805 Y47.333 E8.96199
G1 X36.274 Y46.861 E9.03536
G1 X36.456 Y46.702 E9.06201
G1 X36.956 Y46.333 E9.13054
G1 X37.356 Y46.098 E9.1817
G1 X37.565 Y45.994 E9.20744
G1 X38.187 Y45.738 E9.28162
G1 X38.689 Y45.596 E9.33915
G1 X38.845 Y45.566 E9.35666
G1 X39.46 Y45.479 E9.42516
G1 X39.638 Y45.462 E9.44488
G1 X39.759 Y45.459 E9.45822
G1 X40.523 Y45.484 E9.54252
G1 X41.258 Y45.587 E9.62436
G1 X41.258 Y45.579 E9.62524
G1 X41.374 Y45.593 E9.63813
G1 X42.058 Y45.591 E9.71355
G1 X42.73 Y45.503 E9.78829
G1 X43.2 Y45.389 E9.84162
G1 X43.747 Y45.229 E9.90447
G1 X43.939 Y45.182 E9.92627
G1 X44.136 Y45.153 E9.94823
G1 X44.872 Y45.078 E10.02981
G1 X45.616 Y45.119 E10.11198
G1 X45.81 Y45.14 E10.13349
G1 X46.536 Y45.299 E10.21545
G1 X46.687 Y45.339 E10.23268
G1 X47.694 Y45.727 E10.35168
G1 X47.701 Y45.713 E10.35341
G1 X47.922 Y45.791 E10.37925
G1 X48.59 Y45.933 E10.45456
G1 X49.276 Y45.991 E10.53048
G1 X50.253 Y45.921 E10.63849
G1 X50.63 Y45.863 E10.68055
G1 X50.848 Y45.842 E10.7047
G1 X51.38 Y45.82 E10.76342
G1 X51.947 Y45.855 E10.82606
G1 X52.531 Y45.953 E10.89136
G1 X52.693 Y45.988 E10.90964
G1 X53.378 Y46.203 E10.98881
G1 X54.023 Y46.383 E11.06266
G1 X54.7 Y46.483 E11.13812
G1 X55.382 Y46.496 E11.21334
G1 X56.062 Y46.424 E11.28875
G1 X56.77 Y46.251 E11.36912
G1 X57.166 Y46.129 E11.41481
G1 X57.738 Y46.014 E11.47915
G1 X57.872 Y45.994 E11.49409
G1 X58.062 Y45.977 E11.51513
G1 X58.746 Y45.95 E11.59061
G1 X58.942 Y45.95 E11.61223
G1 X59.48 Y46.008 E11.6719
G1 X59.721 Y46.047 E11.69882
G1 X60.005 Y46.112 E11.73095
G1 X60.513 Y46.272 E11.78968
G1 X60.816 Y46.389 E11.8255
G1 X60.967 Y46.458 E11.84381
G1 X61.403 Y46.69 E11.89827
G1 X61.686 Y46.872 E11.93537
G1 X62.084 Y47.173 E11.9904
G1 F3600 X62.4 Y47.458
G1 F1200 X62.4 Y72.102 E14.70799
G1 F1680 E11.70799
G1 F3600 X60.8 Y72.461
G1 F1680 E14.70799
G1 F1200 X60.8 Y46.383 E17.58372
G1 F1680 E14.58372
G1 F3600 X59.2 Y45.978
G1 F1680 E17.58372
G1 F1200 X59.2 Y73.19 E20.58449
G1 F1680 E17.58449
G1 F3600 X57.6 Y73.697
G1 F1680 E20.58449
G1 F1200 X57.6 Y46.041 E23.63423
G1 F1680 E20.63423
G1 F3600 X56 Y46.43
G1 F1680 E23.63423
G1 F1200 X56 Y73.902 E26.66368
G1 F1680 E23.66368
G1 F3600 X54.4 Y74.472
G1 F1680 E26.66368
G1 F1200 X54.4 Y46.439 E29.75499
G1 F1680 E26.75499
G1 F3600 X52.8 Y46.022
G1 F1680 E29.75499
G1 F1200 X52.8 Y74.758 E32.92382
G1 F1680 E29.92382
G1 F3600 X51.2 Y74.667
G1 F1680 E32.92382
G1 F1200 X51.2 Y45.827 E36.10412
G1 F1680 E33.10412
G1 F3600 X49.6 Y45.967
G1 F1680 E36.10412
G1 F1200 X49.6 Y74.866 E39.29093
G1 F1680 E36.29093
G1 F3600 X48 Y74.892
G1 F1680 E39.29093
G1 F1200 X48 Y45.808 E42.49814
G1 F1680 E39.49814
G1 F3600 X46.4 Y45.27
G1 F1680 E42.49814
G1 F1200 X46.4 Y74.463 E45.71736
G1 F1680 E42.71736
G1 F3600 X44.8 Y73.984
G1 F1680 E45.71736
G1 F1200 X44.8 Y45.085 E48.90417
G1 F1680 E45.90417
G1 F3600 X43.2 Y45.389
G1 F1680 E48.90417
G1 F1200 X43.2 Y73.558 E52.01048
G1 F1680 E49.01048
G1 F3600 X41.6 Y72.532
G1 F1680 E52.01048
G1 F1200 X41.6 Y45.592 E54.98126
G1 F1680 E51.98126
G1 F3600 X40 Y45.467
G1 F1680 E54.98126
G1 F1200 X40 Y71.682 E57.87209
G1 F1680 E54.87209
G1 F3600 X38.4 Y71.065
G1 F1680 E57.87209
G1 F1200 X38.4 Y45.677 E60.67173
G1 F1680 E57.67173
G1 F3600 X36.8 Y46.448
G1 F1680 E60.67173
G1 F1200 X36.8 Y69.716 E63.23758
G1 F1680 E60.23758
G1 F3600 X35.2 Y68.123
G1 F1680 E63.23758
G1 F1200 X35.2 Y48.188 E65.4359
G1 F1680 E62.4359
G1 F3600 X33.6 Y51.359
G1 F1680 E65.4359
G1 F1200 X33.6 Y64.811 E66.9193
G1 F1680 E63.9193
G1 F3600 X64 Y71.319
M104 T0 S200
G1 F1680 E66.9193
G1 F1200 X64 Y49.436 E69.33243
G1 F1680 E66.33243
G1 F3600 X65.6 Y51.076
G1 F1680 E69.33243
G1 F1200 X65.6 Y69.558 E71.37051
G1 F1680 E68.37051
G1 F3600 X67.2 Y64.895
G1 F1680 E71.37051
G1 F1200 X67.2 Y54.605 E72.50523
G1 F1680 E69.50523
G1 F3600 X62.116 Y47.132
;TIME_ELAPSED:39.443007
;LAYER:-7
G1 X62.116 Y47.132 Z0.619
;TYPE:SUPPORT
G1 F1680 E72.50523
G1 F1980 X61.715 Y46.83 E72.54265
G1 X61.426 Y46.643 E72.56831
G1 X60.978 Y46.408 E72.60602
G1 X60.835 Y46.343 E72.61773
G1 X60.529 Y46.222 E72.64226
G1 X60.104 Y46.087 E72.6755
G1 X60.082 Y46.082 E72.67718
G1 X66.226 Y52.226 E73.32486
G1 F3600 X66.136 Y51.974
G1 F1980 X66.033 Y51.753 E73.34304
G1 X65.717 Y51.164 E73.39286
G1 X65.581 Y50.954 E73.41151
G1 X65.31 Y50.589 E73.4454
G1 X64.756 Y50.015 E73.50487
G1 X64.511 Y49.817 E73.52835
G1 X64.056 Y49.423 E73.57321
G1 X63.602 Y48.922 E73.62361
G1 X63.076 Y48.154 E73.693
G1 X62.844 Y47.854 E73.72127
G1 X62.668 Y47.656 E73.74101
G1 X62.3 Y47.285 E73.77997
G1 X62.116 Y47.132 E73.7978
G1 F1680 E70.7978
G1 F3600 X60.082 Y46.082
G1 F1680 E73.7978
G1 F1980 X59.727 Y45.997 E73.82501
G1 X59.491 Y45.959 E73.84283
G1 X58.933 Y45.899 E73.88467
G1 X58.742 Y45.899 E73.8989
G1 X58.631 Y45.903 E73.90718
G1 X67.103 Y54.375 E74.80028
G1 X67.252 Y54.59 E74.81978
G1 X67.361 Y54.767 E74.83528
G1 X67.634 Y55.261 E74.87735
G1 X67.705 Y55.401 E74.88905
G1 X67.922 Y55.973 E74.93465
G1 X67.977 Y56.138 E74.94762
G1 X68.096 Y56.641 E74.98615
G1 X57.47 Y46.014 E76.10637
G1 X57.156 Y46.078 E76.13025
G1 X57.016 Y46.119 E76.14113
G1 X56.755 Y46.202 E76.16154
G1 X56.457 Y46.275 E76.18441
G1 X68.175 Y57.993 E77.4197
G1 X68.136 Y58.399 E77.4501
G1 X68.09 Y59.091 E77.5018
G1 X68.096 Y59.186 E77.50889
G1 X55.355 Y46.445 E78.85202
G1 X54.703 Y46.432 E78.90063
G1 X54.033 Y46.333 E78.95112
G1 X53.945 Y46.309 E78.95792
G1 X68.29 Y60.653 E80.47008
G1 X68.345 Y61.089 E80.50284
G1 X68.358 Y61.237 E80.51391
G1 X68.347 Y61.925 E80.5652
G1 X68.343 Y61.979 E80.56924
G1 X52.216 Y45.852 E82.26931
G1 X51.859 Y45.795 E82.29626
G1 X51.473 Y45.772 E82.32508
G1 X51.251 Y45.772 E82.34163
G1 X50.883 Y45.792 E82.3691
G1 X68.154 Y63.063 E84.18977
G1 X68.118 Y63.191 E84.19969
G1 X68.059 Y63.358 E84.21289
G1 X67.804 Y63.986 E84.26341
G1 X49.725 Y45.907 E86.16926
G1 X49.274 Y45.94 E86.20297
G1 X48.597 Y45.883 E86.25361
G1 X48.383 Y45.838 E86.26991
G1 X67.329 Y64.783 E88.2671
G1 X67.001 Y65.305 E88.31306
G1 X66.868 Y65.595 E88.33684
G1 X46.514 Y45.241 E90.48251
G1 X45.829 Y45.092 E90.53477
G1 X45.623 Y45.068 E90.55023
G1 X45.035 Y45.035 E90.59412
G1 X66.527 Y66.527 E92.85976
G1 X66.516 Y66.562 E92.8625
G1 X66.407 Y67.136 E92.90605
G1 X66.34 Y67.613 E92.94195
G1 X43.872 Y45.145 E95.31048
G1 X43.743 Y45.175 E95.32035
G1 X43.187 Y45.338 E95.36354
G1 X42.87 Y45.416 E95.38787
G1 X66.078 Y68.624 E97.83441
G1 X65.933 Y69.012 E97.86528
G1 X65.688 Y69.506 E97.90639
G1 X41.722 Y45.54 E100.43283
G1 X41.377 Y45.541 E100.45855
G1 X41.206 Y45.527 E100.47134
G1 X40.523 Y45.432 E100.52274
G1 X40.335 Y45.426 E100.53676
G1 X65.176 Y70.267 E103.15544
G1 X64.996 Y70.492 E103.17692
G1 X64.635 Y70.862 E103.21545
G1 X64.563 Y70.927 E103.22268
G1 X39.113 Y45.477 E105.90556
G1 X38.834 Y45.516 E105.92656
G1 X38.664 Y45.547 E105.93944
G1 X38.161 Y45.691 E105.97844
G1 X38.086 Y45.722 E105.98449
G1 X63.842 Y71.479 E108.69968
G1 X63.534 Y71.674 E108.72686
G1 X63.365 Y71.77 E108.74135
G1 X63.017 Y71.926 E108.76977
G1 X37.212 Y46.122 E111.49002
G1 X37.025 Y46.229 E111.50608
G1 X36.821 Y46.363 E111.52428
G1 X36.457 Y46.64 E111.55837
G1 X62.059 Y72.242 E114.25728
G1 X61.866 Y72.286 E114.27203
G1 X61.308 Y72.379 E114.3142
G1 X61.074 Y72.426 E114.33199
G1 X60.995 Y72.45 E114.33815
G1 X35.805 Y47.26 E116.99362
G1 X35.761 Y47.304 E116.99826
G1 X35.474 Y47.671 E117.03299
G1 X35.354 Y47.839 E117.04838
G1 X35.26 Y47.988 E117.06151
G1 X60.065 Y72.793 E119.67639
G1 X59.819 Y72.907 E119.6966
G1 X59.476 Y73.107 E119.7262
G1 X59.247 Y73.223 E119.74534
G1 X59.229 Y73.23 E119.74678
G1 X34.825 Y48.825 E122.31944
G1 X34.757 Y48.995 E122.33309
G1 X34.61 Y49.455 E122.36909
G1 X34.491 Y49.765 E122.39384
G1 X58.318 Y73.592 E124.90563
G1 X57.967 Y73.681 E124.93262
G1 X57.673 Y73.739 E124.95496
G1 X57.244 Y73.79 E124.98716
G1 X34.069 Y50.616 E127.43016
G1 X33.726 Y51.116 E127.47536
G1 X33.538 Y51.357 E127.49815
G1 X56.108 Y73.928 E129.87748
G1 X55.707 Y74.02 E129.90814
G1 X55.139 Y74.231 E129.95331
G1 X33.05 Y52.142 E132.28188
G1 X33.008 Y52.226 E132.28888
G1 X32.86 Y52.559 E132.31605
G1 X32.734 Y52.893 E132.34266
G1 X32.686 Y53.051 E132.35496
G1 X54.215 Y74.58 E134.6245
G1 X54.018 Y74.642 E134.6399
G1 X53.812 Y74.69 E134.65566
G1 X53.443 Y74.759 E134.68365
G1 X53.24 Y74.782 E134.69888
G1 X53.15 Y74.787 E134.70559
G1 X32.478 Y54.115 E136.88479
G1 X32.457 Y54.31 E136.89941
G1 X32.451 Y54.541 E136.91663
G1 X32.478 Y55.388 E136.9798
G1 X51.854 Y74.764 E139.02238
G1 X51.439 Y74.711 E139.05356
G1 X51.439 Y74.732 E139.05513
G1 X51.237 Y74.715 E139.07024
G1 X50.565 Y74.745 E139.12038
G1 F3600 X50.562 Y74.745
G1 F1980 X32.354 Y56.537 E141.03983
G1 X32.348 Y56.574 E141.04262
G1 X32.203 Y57.371 E141.103
G1 X32.188 Y57.644 E141.12338
G1 X49.48 Y74.936 E142.94627
G1 X49.312 Y74.954 E142.95886
G1 X48.664 Y74.99 E143.00724
G1 X48.462 Y74.993 E143.0223
G1 X48.272 Y74.976 E143.03652
G1 X48.244 Y74.973 E143.03862
G1 X32.145 Y58.874 E144.73574
G1 X32.082 Y59.367 E144.77279
G1 X32.034 Y59.907 E144.8132
G1 X32.034 Y60.035 E144.82274
G1 X46.592 Y74.594 E146.35746
G1 X46.444 Y74.538 E146.36926
G1 X46.279 Y74.463 E146.38277
G1 X45.653 Y74.223 E146.43274
G1 X44.752 Y74.027 E146.50147
G1 X32.222 Y61.496 E147.82241
G1 X32.251 Y61.589 E147.82967
G1 X32.437 Y62.119 E147.87154
G1 X32.496 Y62.264 E147.88321
G1 X32.666 Y62.588 E147.91049
G1 X32.858 Y63.032 E147.94654
G1 X32.884 Y63.023 E147.94859
G1 X33.099 Y63.646 E147.99772
G1 X42.973 Y73.52 E149.03862
G1 X42.758 Y73.413 E149.05652
G1 X42.398 Y73.198 E149.08777
G1 X42.183 Y73.053 E149.1071
G1 X41.344 Y72.396 E149.18654
G1 X40.763 Y72.05 E149.23694
G1 X40.148 Y71.782 E149.28695
G1 X39.875 Y71.694 E149.30833
G1 X33.762 Y65.582 E149.9527
G1 X33.878 Y65.954 E149.98174
G1 X33.966 Y66.179 E149.99975
G1 X34.269 Y66.777 E150.04973
G1 X34.944 Y67.833 E150.14315
G1 X35.249 Y68.286 E150.18386
G1 X35.637 Y68.73 E150.22781
G1 X35.878 Y68.971 E150.25321
G1 X35.766 Y68.877 E150.26411
G1 F1680 E147.26411
G1 F3600 X62.424 Y47.2
;TIME_ELAPSED:72.311417
;LAYER:-6
M106 S255
G1 X62.424 Y47.2 Z0.869
G1 F1680 E150.26411
G1 F2400 X62.781 Y47.557 E150.28405
G1 X62.82 Y47.6 E150.28635
G1 X35.347 Y47.6 E151.37143
G1 X35.25 Y47.725 E151.37768
G1 X35.081 Y48 E151.39043
G1 X63.144 Y48 E152.49882
G1 X63.22 Y48.1 E152.50378
G1 X63.346 Y48.296 E152.51298
G1 X63.419 Y48.4 E152.518
