M73 P0
;MINX:31.1
;MAXX:68.9
;MINY:44.5
;MAXY:75.5
;MINZ:0.0
;MAXZ:28.6
;MachineType:ENTINA TINA2
;FilamentType:PLA
;Extruder0Temperature:200
;InfillDensity:10
;FLAVOR:Marlin
;TIME:731
;FilamentUsed:860.0
;Layer height: 0.35

;Generated with Cura_SteamEngine 3.1
M104 T0 S215
M82 ; absolute extrusion mode
;(**** start.gcode for tina2****)
M104 S150
G28 Z
G28 X Y; Home extruder
G1 X55 Y55 F1000
G1 Z10 F200
G29
G1 Z15 F100
M107 ; Turn off fan
G90 ; Absolute positioning
M82 ; Extruder in absolute mode
M109 S215.0
G92 E0 ; Reset extruder position
G1 X90 Y6 Z0.27 F2000
G1 X20 Y6 Z0.27 E15 F1000
G92 E0 ; Reset extruder position

;LAYER_COUNT:79
;LAYER:-5
M107
M203 Z5
G1 F3600 X62.017 Y46.976 Z0.349
G1 F1200 X62.483 Y47.38 E0.06801
G1 X62.584 Y47.475 E0.0833
G1 X63.056 Y48.038 E0.16432
G1 X63.166 Y48.182 E0.1843
G1 X63.289 Y48.377 E0.20972
G1 X63.67 Y48.928 E0.2836
G1 X64.127 Y49.437 E0.35903
G1 X64.158 Y49.463 E0.36349
G1 X64.15 Y49.472 E0.36482
G1 X64.787 Y50.009 E0.45669
G1 X65.218 Y50.45 E0.52469
G1 X65.379 Y50.643 E0.55241
G1 X65.762 Y51.185 E0.62559
G1 X66.09 Y51.818 E0.70421
G1 X66.133 Y51.913 E0.71571
G1 X66.195 Y52.079 E0.73525
G1 X66.374 Y52.639 E0.80008
G1 X66.437 Y52.867 E0.82617
G1 X66.656 Y53.5 E0.90003
G1 X66.932 Y54.057 E0.96858
G1 X66.922 Y54.063 E0.96987
G1 X67.285 Y54.623 E1.04346
G1 X67.565 Y55.091 E1.1036
G1 X67.639 Y55.227 E1.12067
G1 X67.691 Y55.34 E1.13439
G1 X67.958 Y56.013 E1.21423
G1 X68.073 Y56.439 E1.26289
G1 X68.097 Y56.54 E1.27434
G1 X68.116 Y56.658 E1.28752
G1 X68.186 Y57.174 E1.34494
G1 X68.201 Y57.378 E1.3675
G1 X68.203 Y57.879 E1.42274
G1 X68.151 Y58.321 E1.47182
G1 X68.105 Y58.99 E1.54577
G1 X68.145 Y59.671 E1.62099
G1 X68.254 Y60.268 E1.68792
G1 X68.322 Y60.594 E1.72464
G1 X68.368 Y60.9 E1.75876
G1 X68.383 Y61.077 E1.77835
G1 X68.405 Y61.499 E1.82495
G1 X68.406 Y61.691 E1.84612
G1 X68.374 Y62.175 E1.89961
G1 X68.345 Y62.374 E1.92179
G1 X68.227 Y62.977 E1.98954
G1 X68.084 Y63.441 E2.04309
G1 X68.005 Y63.644 E2.06711
G1 X67.755 Y64.177 E2.13203
G1 X67.607 Y64.439 E2.16521
G1 X67.068 Y65.26 E2.27351
G1 X67.077 Y65.264 E2.2746
G1 X67.052 Y65.303 E2.27971
G1 X66.76 Y65.92 E2.35498
G1 X66.549 Y66.57 E2.43034
G1 X66.42 Y67.265 E2.50829
G1 X66.362 Y67.716 E2.55843
G1 X66.213 Y68.361 E2.63143
G1 X66.166 Y68.511 E2.64877
G1 X65.942 Y69.114 E2.7197
G1 X65.858 Y69.285 E2.74071
G1 X65.579 Y69.798 E2.80511
G1 X65.496 Y69.936 E2.82286
G1 X65.04 Y70.522 E2.90475
G1 X64.854 Y70.729 E2.93543
G1 X64.525 Y71.041 E2.98543
G1 X64.369 Y71.177 E3.00826
G1 X63.944 Y71.495 E3.06679
G1 X63.722 Y71.639 E3.09597
G1 X63.319 Y71.86 E3.14665
G1 X62.82 Y72.08 E3.20679
G1 X62.685 Y72.123 E3.22241
G1 X62.009 Y72.308 E3.2997
G1 X61.844 Y72.344 E3.31832
G1 X61.344 Y72.42 E3.37409
G1 X61.344 Y72.435 E3.37575
G1 X61.06 Y72.489 E3.40763
G1 X60.407 Y72.701 E3.48334
G1 X59.616 Y73.092 E3.58064
G1 X59.487 Y73.172 E3.59738
G1 X58.798 Y73.493 E3.6812
G1 X58.666 Y73.547 E3.69692
G1 X58.531 Y73.59 E3.71255
G1 X57.937 Y73.751 E3.78041
G1 X57.782 Y73.786 E3.79794
G1 X57.199 Y73.857 E3.8627
G1 X56.612 Y73.891 E3.92754
G1 X56.612 Y73.906 E3.92919
G1 X56.431 Y73.921 E3.94922
G1 X55.759 Y74.062 E4.02494
G1 X54.96 Y74.355 E4.11879
G1 X54.843 Y74.408 E4.13295
G1 X54.68 Y74.47 E4.15218
G1 X54.139 Y74.648 E4.21499
G1 X53.957 Y74.701 E4.23589
G1 X53.471 Y74.795 E4.29048
G1 X53.237 Y74.822 E4.31645
G1 X52.681 Y74.851 E4.37785
G1 X52.388 Y74.85 E4.41016
G1 X52.016 Y74.823 E4.45129
G1 X51.897 Y74.806 E4.46454
G1 X51.23 Y74.747 E4.53838
G1 X50.546 Y74.774 E4.61387
G1 X49.614 Y74.945 E4.71836
G1 X49.111 Y75.007 E4.77425
G1 X48.821 Y75.023 E4.80628
G1 X48.356 Y75.016 E4.85756
G1 X48.087 Y74.994 E4.88732
G1 X47.667 Y74.94 E4.93402
G1 X47.448 Y74.9 E4.95857
G1 X47.135 Y74.823 E4.99411
G1 X46.4 Y74.562 E5.08012
G1 X45.981 Y74.382 E5.13041
G1 X45.975 Y74.394 E5.13189
G1 X45.769 Y74.312 E5.15634
G1 X45.111 Y74.144 E5.23123
G1 X44.465 Y74.048 E5.30325
G1 X43.91 Y73.93 E5.36582
G1 X43.734 Y73.885 E5.38585
G1 X43.212 Y73.697 E5.44703
G1 X42.825 Y73.522 E5.49387
G1 X42.652 Y73.422 E5.5159
G1 X42.072 Y73.048 E5.59201
G1 X41.834 Y72.844 E5.62657
G1 X41.305 Y72.433 E5.70045
G1 X40.717 Y72.086 E5.77574
G1 X40.091 Y71.816 E5.85091
G1 X39.987 Y71.786 E5.86285
G1 X39.99 Y71.774 E5.86421
G1 X39.357 Y71.603 E5.93652
G1 X39.218 Y71.552 E5.95285
G1 X38.52 Y71.253 E6.03658
G1 X38.09 Y70.996 E6.09183
G1 X37.903 Y70.87 E6.11669
G1 X37.695 Y70.712 E6.14549
G1 X37.285 Y70.342 E6.2064
G1 X37.138 Y70.194 E6.2294
G1 X37.028 Y70.071 E6.24759
G1 X36.354 Y69.438 E6.34956
G1 X36.038 Y69.19 E6.39386
G1 X35.745 Y68.928 E6.4372
G1 X35.376 Y68.525 E6.49745
G1 X35.151 Y68.239 E6.53758
G1 X34.999 Y68.017 E6.56725
G1 X34.811 Y67.716 E6.60639
G1 X34.827 Y67.708 E6.60836
G1 X34.437 Y67.143 E6.68407
G1 X34.149 Y66.69 E6.74326
G1 X33.868 Y66.102 E6.81513
G1 X33.789 Y65.899 E6.83915
G1 X33.666 Y65.507 E6.88445
G1 X33.609 Y65.289 E6.9093
G1 X33.586 Y65.176 E6.92202
G1 X33.411 Y64.533 E6.9955
G1 X33.248 Y64.114 E7.04508
G1 X33.085 Y63.737 E7.09037
G1 X33.017 Y63.512 E7.11629
G1 X32.79 Y62.884 E7.18993
G1 X32.547 Y62.393 E7.25034
G1 X32.346 Y61.917 E7.30732
G1 X32.257 Y61.671 E7.33617
G1 X32.208 Y61.506 E7.35515
G1 X32.078 Y60.894 E7.42414
G1 X32.06 Y60.707 E7.44486
G1 X32.024 Y60.042 E7.5183
G1 X32.023 Y59.881 E7.53605
G1 X32.096 Y59.229 E7.6084
G1 X32.13 Y59.019 E7.63186
G1 X32.194 Y58.156 E7.72729
G1 X32.193 Y57.541 E7.79511
G1 X32.27 Y56.935 E7.86247
G1 X32.331 Y56.653 E7.89429
G1 X32.447 Y55.988 E7.96873
G1 X32.467 Y55.064 E8.07064
G1 X32.448 Y54.537 E8.1288
G1 X32.458 Y54.302 E8.15473
G1 X32.545 Y53.579 E8.23504
G1 X32.594 Y53.379 E8.25774
G1 X32.771 Y52.772 E8.32747
G1 X32.826 Y52.609 E8.34644
G1 X32.902 Y52.438 E8.36707
G1 X33.178 Y51.88 E8.43572
G1 X33.247 Y51.754 E8.45156
G1 X33.651 Y51.182 E8.52879
G1 X33.739 Y51.069 E8.54458
G1 X34.115 Y50.514 E8.61851
G1 X34.423 Y49.906 E8.69366
G1 X34.614 Y49.384 E8.75496
G1 X34.781 Y48.867 E8.81487
G1 X34.821 Y48.775 E8.82593
G1 X35.035 Y48.328 E8.88058
G1 X35.174 Y48.08 E8.91194
G1 X35.426 Y47.687 E8.96342
G1 X35.772 Y47.247 E9.02514
G1 X35.885 Y47.129 E9.04316
G1 X36.287 Y46.741 E9.10477
G1 X36.4 Y46.641 E9.12141
G1 X36.527 Y46.544 E9.13903
G1 X37.055 Y46.182 E9.20963
G1 X37.306 Y46.034 E9.24176
G1 X37.797 Y45.797 E9.30188
G1 X37.927 Y45.749 E9.31716
G1 X38.443 Y45.581 E9.377
G1 X38.591 Y45.539 E9.39397
G1 X38.758 Y45.505 E9.41276
G1 X39.264 Y45.42 E9.46934
G1 X39.394 Y45.404 E9.48379
G1 X39.521 Y45.397 E9.49781
G1 X40.121 Y45.389 E9.56398
G1 X40.295 Y45.394 E9.58318
G1 X40.91 Y45.471 E9.65153
G1 X41.577 Y45.518 E9.72526
G1 X42.26 Y45.479 E9.8007
G1 X42.927 Y45.354 E9.87553
G1 X43.471 Y45.197 E9.93797
G1 X44.084 Y45.062 E10.00719
G1 X44.278 Y45.04 E10.02872
G1 X44.846 Y44.998 E10.09153
G1 X45 Y44.993 E10.10852
G1 X45.667 Y45.044 E10.18229
G1 X45.817 Y45.062 E10.19895
G1 X45.999 Y45.098 E10.2194
G1 X46.689 Y45.269 E10.29779
G1 X47.069 Y45.408 E10.34241
G1 X47.615 Y45.637 E10.40771
G1 X47.622 Y45.616 E10.41015
G1 X47.786 Y45.677 E10.42944
G1 X48.451 Y45.835 E10.50482
G1 X49.13 Y45.906 E10.5801
G1 X49.808 Y45.892 E10.65488
G1 X50.855 Y45.754 E10.77134
G1 X51.09 Y45.744 E10.79727
G1 X51.736 Y45.75 E10.86851
G1 X51.951 Y45.763 E10.89227
G1 X52.499 Y45.845 E10.95337
G1 X52.745 Y45.899 E10.98114
G1 X53.018 Y45.974 E11.01236
G1 X53.341 Y46.088 E11.05013
G1 X53.983 Y46.283 E11.12412
G1 X54.655 Y46.398 E11.19931
G1 X55.337 Y46.429 E11.27459
G1 X56.021 Y46.372 E11.35028
G1 X56.848 Y46.181 E11.44388
G1 X57.193 Y46.071 E11.48381
G1 X57.473 Y46.001 E11.51563
G1 X57.953 Y45.917 E11.56937
G1 X58.12 Y45.902 E11.58786
G1 X58.749 Y45.874 E11.65729
G1 X58.918 Y45.873 E11.67593
G1 X59.117 Y45.889 E11.69794
G1 X59.747 Y45.97 E11.76799
G1 X60.008 Y46.021 E11.79731
G1 X60.573 Y46.184 E11.86216
G1 X61.135 Y46.426 E11.92964
G1 X61.339 Y46.533 E11.95504
G1 X61.915 Y46.895 E12.03006
G1 X62.017 Y46.976 E12.04442
G1 F3600 X62.4 Y47.309
G1 F1200 X62.4 Y72.201 E14.78936
G1 F1680 E11.78936
G1 F3600 X60.8 Y72.574
G1 F1680 E14.78936
G1 F1200 X60.8 Y46.282 E17.68868
G1 F1680 E14.68868
G1 F3600 X59.2 Y45.9
G1 F1680 E17.68868
G1 F1200 X59.2 Y73.306 E20.71085
G1 F1680 E17.71085
G1 F3600 X57.6 Y73.809
G1 F1680 E20.71085
G1 F1200 X57.6 Y45.978 E23.77989
G1 F1680 E20.77989
G1 F3600 X56 Y46.373
G1 F1680 E23.77989
G1 F1200 X56 Y74.012 E26.82775
G1 F1680 E23.82775
G1 F3600 X54.4 Y74.563
G1 F1680 E26.82775
G1 F1200 X54.4 Y46.355 E29.93836
G1 F1680 E26.93836
G1 F3600 X52.8 Y45.915
G1 F1680 E29.93836
G1 F1200 X52.8 Y74.845 E33.12859
G1 F1680 E30.12859
G1 F3600 X51.2 Y74.749
G1 F1680 E33.12859
G1 F1200 X51.2 Y45.746 E36.32686
G1 F1680 E33.32686
G1 F3600 X49.6 Y45.896
G1 F1680 E36.32686
G1 F1200 X49.6 Y74.947 E39.53043
G1 F1680 E36.53043
G1 F3600 X48 Y74.982
G1 F1680 E39.53043
G1 F1200 X48 Y45.728 E42.75639
G1 F1680 E39.75639
G1 F3600 X46.4 Y45.198
G1 F1680 E42.75639
G1 F1200 X46.4 Y74.562 E45.99447
G1 F1680 E42.99447
G1 F3600 X44.8 Y74.097
G1 F1680 E45.99447
G1 F1200 X44.8 Y45.001 E49.203
G1 F1680 E46.203
G1 F3600 X43.2 Y45.275
G1 F1680 E49.203
G1 F1200 X43.2 Y73.691 E52.33655
G1 F1680 E49.33655
G1 F3600 X41.6 Y72.662
G1 F1680 E52.33655
G1 F1200 X41.6 Y45.516 E55.33005
G1 F1680 E52.33005
G1 F3600 X40 Y45.39
G1 F1680 E55.33005
G1 F1200 X40 Y71.789 E58.24117
G1 F1680 E55.24117
G1 F3600 X38.4 Y71.181
G1 F1680 E58.24117
G1 F1200 X38.4 Y45.595 E61.06264
M73 P1
G1 F1680 E58.06264
G1 F3600 X36.8 Y46.356
G1 F1680 E61.06264
G1 F1200 X36.8 Y69.856 E63.65408
G1 F1680 E60.65408
G1 F3600 X35.2 Y68.301
G1 F1680 E63.65408
G1 F1200 X35.2 Y48.039 E65.88845
G1 F1680 E62.88845
G1 F3600 X33.6 Y51.254
G1 F1680 E65.88845
G1 F1200 X33.6 Y65.244 E67.43118
G1 F1680 E64.43118
G1 F3600 X64 Y71.454
M104 T0 S200
G1 F1680 E67.43118
G1 F1200 X64 Y49.296 E69.87463
G1 F1680 E66.87463
G1 F3600 X65.6 Y50.956
G1 F1680 E69.87463
G1 F1200 X65.6 Y69.76 E71.94822
G1 F1680 E68.94822
G1 F3600 X67.2 Y65.059
G1 F1680 E71.94822
G1 F1200 X67.2 Y54.492 E73.11349
G1 F1680 E70.11349
G1 F3600 X61.943 Y46.852
;TIME_ELAPSED:39.720207
;LAYER:-4
G1 X61.943 Y46.852 Z0.619
;TYPE:SUPPORT
G1 F1680 E73.11349
G1 F1980 X62.515 Y47.342 E73.16963
G1 X62.612 Y47.434 E73.1796
G1 X62.704 Y47.535 E73.18978
G1 X63.094 Y48.006 E73.23536
G1 X63.213 Y48.161 E73.24993
G1 X63.331 Y48.35 E73.26654
G1 X63.71 Y48.896 E73.31608
G1 X64.162 Y49.4 E73.36655
G1 X64.229 Y49.457 E73.3731
G1 X64.222 Y49.466 E73.37395
G1 X64.819 Y49.971 E73.43224
G1 X65.331 Y50.5 E73.48712
G1 X65.735 Y51.053 E73.53817
G1 X65.806 Y51.16 E73.54774
G1 X66.127 Y51.78 E73.59978
G1 X66.186 Y51.908 E73.61029
G1 X66.248 Y52.077 E73.62371
G1 F3600 X66.328 Y52.327
G1 F1980 X59.956 Y45.956 E74.29538
G1 X59.929 Y45.948 E74.29748
G1 X59.744 Y45.918 E74.31145
G1 X59.129 Y45.838 E74.35768
G1 X58.921 Y45.821 E74.37323
G1 X58.746 Y45.823 E74.38628
G1 X58.559 Y45.831 E74.40023
G1 X67.332 Y54.604 E75.32506
G1 X67.68 Y55.198 E75.37638
G1 X67.742 Y55.332 E75.38738
G1 X67.952 Y55.849 E75.42898
G1 X68.01 Y56.011 E75.4418
G1 X68.04 Y56.115 E75.44987
G1 X68.147 Y56.532 E75.48196
G1 X68.173 Y56.718 E75.49596
G1 X57.418 Y45.963 E76.62973
G1 X57.365 Y45.972 E76.63374
G1 X57.192 Y46.017 E76.64706
G1 X56.833 Y46.131 E76.67514
G1 X56.412 Y46.229 E76.70736
G1 X68.234 Y58.052 E77.95366
G1 X68.201 Y58.325 E77.97416
G1 X68.155 Y58.989 E78.02377
G1 X68.171 Y59.261 E78.04408
G1 X55.285 Y46.375 E79.4025
G1 X54.66 Y46.348 E79.44913
G1 X53.993 Y46.233 E79.49958
G1 X53.816 Y46.179 E79.51338
G1 X68.395 Y60.758 E81.05026
G1 X68.42 Y60.915 E81.06211
G1 X68.455 Y61.497 E81.10557
G1 X68.455 Y61.692 E81.12011
G1 X68.433 Y62.069 E81.14826
G1 X52.098 Y45.734 E82.87026
G1 X51.961 Y45.713 E82.88059
G1 X51.736 Y45.698 E82.8974
G1 X51.088 Y45.693 E82.9457
G1 X50.89 Y45.7 E82.96047
G1 X50.803 Y45.712 E82.96702
G1 X68.232 Y63.141 E84.80434
G1 X68.113 Y63.514 E84.83353
G1 X68.048 Y63.67 E84.84612
G1 X67.869 Y64.051 E84.8775
G1 X49.662 Y45.844 E86.79684
G1 X49.131 Y45.854 E86.83643
G1 X48.458 Y45.785 E86.88686
G1 X48.291 Y45.745 E86.89966
G1 X67.395 Y64.85 E88.91361
G1 X67.141 Y65.24 E88.94831
G1 X67.095 Y65.328 E88.95571
G1 X66.937 Y65.664 E88.98339
G1 X46.422 Y45.149 E91.14603
G1 X46 Y45.045 E91.17843
G1 X45.833 Y45.013 E91.1911
G1 X45.671 Y44.992 E91.20328
G1 X44.999 Y44.941 E91.25352
G1 X44.943 Y44.943 E91.25769
G1 X66.596 Y66.596 E93.5403
G1 X66.47 Y67.272 E93.59156
G1 X66.436 Y67.561 E93.61325
G1 X66.415 Y67.687 E93.62277
G1 X43.799 Y45.072 E96.00685
G1 X43.446 Y45.149 E96.03378
G1 X42.915 Y45.303 E96.07499
G1 X42.782 Y45.328 E96.08508
G1 X66.148 Y68.694 E98.54827
G1 X65.986 Y69.14 E98.58364
G1 X65.91 Y69.295 E98.59651
G1 X65.755 Y69.574 E98.6203
G1 X41.644 Y45.462 E101.16208
G1 X41.578 Y45.466 E101.16701
G1 X40.915 Y45.419 E101.21655
G1 X40.302 Y45.343 E101.2626
G1 X40.25 Y45.341 E101.26647
G1 X65.248 Y70.34 E103.90176
G1 X65.087 Y70.544 E103.92113
G1 X64.889 Y70.765 E103.94325
G1 X64.635 Y70.999 E103.96899
G1 X39.043 Y45.407 E106.66684
G1 X38.748 Y45.454 E106.68911
G1 X38.579 Y45.488 E106.70196
G1 X38.435 Y45.529 E106.71312
G1 X38.026 Y45.662 E106.74518
G1 X63.928 Y71.564 E109.47571
G1 X63.754 Y71.677 E109.49117
G1 X63.373 Y71.89 E109.52371
G1 X63.1 Y72.01 E109.54594
G1 X37.152 Y46.061 E112.28137
G1 X37.014 Y46.147 E112.29349
G1 X36.495 Y46.502 E112.34036
G1 X36.396 Y46.579 E112.34971
G1 X62.141 Y72.323 E115.06364
G1 X62.017 Y72.358 E115.07324
G1 X61.849 Y72.394 E115.08605
G1 X61.395 Y72.462 E115.12027
G1 X61.394 Y72.476 E115.12132
G1 X61.079 Y72.535 E115.14521
G1 X35.746 Y47.201 E117.8158
G1 X35.698 Y47.255 E117.82119
G1 X35.358 Y47.693 E117.86252
G1 X35.206 Y47.934 E117.88376
G1 X60.153 Y72.881 E120.51362
G1 X59.64 Y73.136 E120.55632
G1 X59.508 Y73.216 E120.56783
G1 X59.36 Y73.291 E120.58019
G1 X59.312 Y73.312 E120.5841
G1 X34.769 Y48.769 E123.17137
G1 X34.735 Y48.839 E123.17717
G1 X34.566 Y49.367 E123.21849
G1 X34.438 Y49.712 E123.24592
G1 X58.402 Y73.676 E125.77215
G1 X57.941 Y73.801 E125.80776
G1 X57.801 Y73.833 E125.81846
G1 X57.343 Y73.889 E125.85285
G1 X34.018 Y50.564 E128.31172
G1 X33.697 Y51.038 E128.3544
G1 X33.497 Y51.316 E128.37992
G1 X56.201 Y74.02 E130.77333
G1 X55.773 Y74.111 E130.80594
G1 X55.22 Y74.312 E130.8498
G1 X33.012 Y52.104 E133.19092
G1 X32.849 Y52.43 E133.21809
G1 X32.781 Y52.58 E133.23037
G1 X32.722 Y52.755 E133.24413
G1 X32.647 Y53.011 E133.26402
G1 X54.288 Y74.652 E135.54536
G1 X54.167 Y74.692 E135.55486
G1 X53.968 Y74.75 E135.57031
G1 X53.465 Y74.847 E135.6085
G1 X53.255 Y74.871 E135.62425
G1 X53.234 Y74.872 E135.62582
G1 X32.432 Y54.07 E137.81872
G1 X32.405 Y54.31 E137.83672
G1 X32.397 Y54.538 E137.85373
G1 X32.415 Y55.064 E137.89296
G1 X32.41 Y55.32 E137.91205
G1 X51.954 Y74.864 E139.97233
G1 X51.891 Y74.855 E139.97707
G1 X51.227 Y74.797 E140.02676
G1 X50.637 Y74.82 E140.07077
G1 X32.307 Y56.49 E142.00308
G1 X32.28 Y56.642 E142.01458
G1 X32.22 Y56.924 E142.03608
G1 X32.142 Y57.534 E142.08192
G1 X32.142 Y57.598 E142.08669
G1 X49.547 Y75.003 E143.92148
G1 X49.103 Y75.057 E143.95482
G1 X48.822 Y75.072 E143.9758
G1 X48.354 Y75.065 E144.01069
G1 X48.334 Y75.063 E144.01219
G1 X32.092 Y58.821 E145.72438
G1 X32.078 Y59.012 E145.73866
G1 X32.046 Y59.22 E145.75434
G1 X31.972 Y59.876 E145.80355
G1 X31.972 Y59.973 E145.81078
G1 X46.73 Y74.731 E147.36654
G1 X46.378 Y74.607 E147.39436
G1 X46.005 Y74.447 E147.42461
G1 X46 Y74.456 E147.42538
G1 X45.752 Y74.359 E147.44523
G1 X45.101 Y74.193 E147.49531
G1 X44.888 Y74.162 E147.51135
G1 X32.135 Y61.41 E148.85569
G1 X32.159 Y61.519 E148.86401
G1 X32.21 Y61.692 E148.87746
G1 X32.294 Y61.926 E148.89599
G1 X32.445 Y62.288 E148.92523
G1 X32.742 Y62.903 E148.97613
G1 X32.961 Y63.508 E149.0241
G1 X43.199 Y73.746 E150.10336
G1 X42.809 Y73.57 E150.13526
G1 X42.625 Y73.465 E150.15105
G1 X42.038 Y73.086 E150.20313
G1 X41.802 Y72.882 E150.22639
G1 X41.275 Y72.474 E150.27607
G1 X40.692 Y72.13 E150.32652
G1 X40.073 Y71.863 E150.37678
G1 X40.03 Y71.85 E150.38012
G1 X33.589 Y65.409 E151.05912
G1 X33.616 Y65.521 E151.06771
G1 X33.743 Y65.925 E151.09927
G1 X33.821 Y66.122 E151.11507
G1 X34.105 Y66.716 E151.16415
G1 X34.402 Y67.18 E151.20521
G1 X34.752 Y67.687 E151.25114
G1 X34.738 Y67.694 E151.2523
G1 X34.955 Y68.043 E151.28294
G1 X34.964 Y68.056 E151.28412
