M73 P0
;MINX:-1.0
;MAXX:103.0
;MINY:8.0
;MAXY:107.0
;MINZ:0.0
;MAXZ:17.3
;MachineType:ENTINA TINA2
;FilamentType:PLA
;Extruder0Temperature:200
;InfillDensity:10
;FLAVOR:Marlin
;TIME:11255
;FilamentUsed:12830.8
;Layer height: 0.35

;Generated with Cura_SteamEngine 3.1
M104 T0 S215
M82 ; absolute extrusion mode
;(**** start.gcode for tina2****)
M104 S150
G28 Z
G28 X Y; Home extruder
G1 X55 Y55 F1000
G1 Z10 F200
G29
G1 Z15 F100
M107 ; Turn off fan
G90 ; Absolute positioning
M82 ; Extruder in absolute mode
M109 S215.0
G92 E0 ; Reset extruder position
G1 X90 Y6 Z0.27 F2000
G1 X20 Y6 Z0.27 E15 F1000
G92 E0 ; Reset extruder position

;LAYER_COUNT:46
;LAYER:-5
M107
M203 Z5
G1 F3600 X96.091 Y12.676 Z0.349
G1 F1200 X96.349 Y12.76 E0.02992
G1 X96.628 Y12.871 E0.06303
G1 X96.886 Y12.993 E0.0945
G1 X97.145 Y13.137 E0.12718
G1 X97.364 Y13.276 E0.15579
G1 X97.63 Y13.474 E0.19235
G1 X98.111 Y13.894 E0.26277
G1 X98.47 Y14.296 E0.3222
G1 X98.637 Y14.511 E0.35222
G1 X98.793 Y14.742 E0.38296
G1 X98.951 Y15.01 E0.41727
G1 X99.083 Y15.269 E0.44933
G1 X99.186 Y15.508 E0.47802
G1 X99.293 Y15.806 E0.51294
G1 X99.373 Y16.085 E0.54495
G1 X99.429 Y16.346 E0.57438
G1 X99.477 Y16.666 E0.61007
G1 X99.513 Y17.127 E0.66106
G1 X99.52 Y17.312 E0.68147
G1 X99.516 Y19.746 E0.94988
G1 X99.493 Y20.113 E0.99043
G1 X99.454 Y20.421 E1.02467
G1 X99.4 Y20.706 E1.05665
G1 X99.324 Y20.996 E1.08971
G1 X99.24 Y21.254 E1.11963
G1 X99.129 Y21.533 E1.15274
G1 X99.007 Y21.791 E1.18422
G1 X98.863 Y22.05 E1.21689
G1 X98.724 Y22.269 E1.2455
G1 X98.526 Y22.535 E1.28206
G1 X98.106 Y23.016 E1.35248
G1 X97.706 Y23.373 E1.4116
G1 X97.489 Y23.542 E1.44193
G1 X96.765 Y24.032 E1.53834
G1 X96.774 Y24.045 E1.54008
G1 X96.304 Y24.458 E1.60908
G1 X95.852 Y24.97 E1.68439
G1 X95.469 Y25.535 E1.75966
G1 X95.159 Y26.145 E1.83512
G1 X94.93 Y26.787 E1.91028
G1 X94.782 Y27.457 E1.98595
G1 X94.72 Y28.265 E2.07531
G1 X94.717 Y30.445 E2.31571
G1 X94.693 Y30.831 E2.35836
G1 X94.655 Y31.135 E2.39214
G1 X94.598 Y31.43 E2.42527
G1 X94.504 Y31.793 E2.46662
G1 X94.376 Y32.451 E2.54054
G1 X94.331 Y33.132 E2.6158
G1 X94.374 Y33.817 E2.69149
G1 X94.539 Y34.623 E2.78221
G1 X94.57 Y34.731 E2.7946
G1 X94.63 Y35.004 E2.82543
G1 X94.679 Y35.335 E2.86233
G1 X94.691 Y35.487 E2.87914
G1 X94.784 Y36.151 E2.95308
G1 X94.964 Y36.81 E3.02841
G1 X95.225 Y37.44 E3.10361
G1 X95.563 Y38.033 E3.17888
G1 X95.976 Y38.581 E3.25455
G1 X96.547 Y39.152 E3.3436
G1 X96.98 Y39.523 E3.40647
G1 X97.111 Y39.644 E3.42614
G1 X97.47 Y40.046 E3.48557
G1 X97.637 Y40.261 E3.51559
G1 X97.793 Y40.492 E3.54633
G1 X97.951 Y40.76 E3.58064
G1 X98.083 Y41.019 E3.6127
G1 X98.186 Y41.258 E3.64139
G1 X98.293 Y41.556 E3.67631
G1 X98.373 Y41.835 E3.70832
G1 X98.429 Y42.096 E3.73775
G1 X98.477 Y42.416 E3.77343
G1 X98.513 Y42.877 E3.82443
G1 X98.52 Y43.062 E3.84484
G1 X98.516 Y45.496 E4.11325
G1 X98.492 Y45.873 E4.15491
G1 X98.455 Y46.171 E4.18802
G1 X98.268 Y47.13 E4.29576
G1 X98.223 Y47.811 E4.37102
G1 X98.265 Y48.489 E4.44593
G1 X98.348 Y48.974 E4.50019
G1 X98.43 Y49.347 E4.54231
G1 X98.477 Y49.664 E4.57765
G1 X98.513 Y50.127 E4.62886
G1 X98.52 Y50.312 E4.64927
G1 X98.516 Y52.742 E4.91724
G1 X98.493 Y53.114 E4.95834
G1 X98.455 Y53.421 E4.99245
G1 X98.4 Y53.705 E5.02435
G1 X98.324 Y53.996 E5.05752
G1 X98.241 Y54.251 E5.08709
G1 X98.169 Y54.432 E5.10857
G1 X97.962 Y55.07 E5.18254
G1 X97.833 Y55.74 E5.25778
G1 X97.791 Y56.422 E5.33313
G1 X97.835 Y57.103 E5.40838
G1 X97.965 Y57.774 E5.48375
G1 X98.178 Y58.422 E5.55897
G1 X98.472 Y59.039 E5.63434
G1 X98.84 Y59.613 E5.70953
G1 X99.279 Y60.137 E5.78491
G1 X99.779 Y60.6 E5.86005
G1 X100.276 Y60.96 E5.92773
G1 X100.464 Y61.08 E5.95232
G1 X100.719 Y61.269 E5.98732
G1 X101.202 Y61.69 E6.05798
G1 X101.411 Y61.906 E6.09112
G1 X101.67 Y62.201 E6.13441
G1 X101.837 Y62.416 E6.16443
G1 X101.993 Y62.647 E6.19517
G1 X102.151 Y62.915 E6.22948
G1 X102.281 Y63.172 E6.26124
G1 X102.397 Y63.442 E6.29364
G1 X102.489 Y63.698 E6.32364
G1 X102.573 Y63.99 E6.35715
G1 X102.629 Y64.251 E6.38658
G1 X102.677 Y64.571 E6.42227
G1 X102.713 Y65.032 E6.47326
G1 X102.72 Y65.217 E6.49367
G1 X102.717 Y67.695 E6.76693
G1 X102.693 Y68.081 E6.80958
G1 X102.655 Y68.388 E6.84369
G1 X102.6 Y68.673 E6.8757
G1 X102.524 Y68.964 E6.90887
G1 X102.441 Y69.217 E6.93823
G1 X102.272 Y69.866 E7.01218
G1 X102.186 Y70.544 E7.08755
G1 X102.186 Y71.226 E7.16275
G1 X102.272 Y71.906 E7.23834
G1 X102.573 Y72.99 E7.3624
G1 X102.629 Y73.251 E7.39183
G1 X102.677 Y73.571 E7.42752
G1 X102.713 Y74.032 E7.47851
G1 X102.72 Y74.217 E7.49892
G1 X102.716 Y76.713 E7.77417
G1 X102.692 Y77.09 E7.81583
G1 X102.655 Y77.388 E7.84894
G1 X102.6 Y77.673 E7.88095
G1 X102.526 Y77.955 E7.9131
G1 X102.486 Y78.078 E7.92736
G1 X102.317 Y78.726 E8.00121
G1 X102.229 Y79.404 E8.0766
G1 X102.227 Y80.086 E8.15181
G1 X102.313 Y80.767 E8.2275
G1 X102.35 Y80.903 E8.24304
G1 X102.334 Y80.907 E8.24486
G1 X102.571 Y81.736 E8.33994
G1 X102.63 Y82.002 E8.36999
G1 X102.676 Y82.314 E8.40476
G1 X102.713 Y82.782 E8.45653
G1 X102.72 Y82.967 E8.47695
G1 X102.716 Y85.463 E8.75219
G1 X102.692 Y85.84 E8.79385
G1 X102.655 Y86.138 E8.82696
G1 X102.6 Y86.423 E8.85897
G1 X102.391 Y87.227 E8.95058
G1 X102.401 Y87.23 E8.95173
G1 X102.385 Y87.294 E8.95901
G1 X102.305 Y87.972 E9.03429
G1 X102.31 Y88.655 E9.10961
G1 X102.401 Y89.327 E9.18439
G1 X102.503 Y89.748 E9.23216
G1 X102.572 Y89.985 E9.25938
G1 X102.629 Y90.251 E9.28938
G1 X102.677 Y90.571 E9.32506
G1 X102.713 Y91.033 E9.37616
G1 X102.72 Y91.224 E9.39724
G1 X102.716 Y93.713 E9.67171
G1 X102.692 Y94.09 E9.71337
G1 X102.655 Y94.388 E9.74648
G1 X102.6 Y94.672 E9.77838
G1 X102.524 Y94.963 E9.81155
G1 X102.44 Y95.222 E9.84157
G1 X102.331 Y95.496 E9.87409
G1 X102.19 Y95.793 E9.91034
G1 X101.942 Y96.415 E9.98419
G1 X101.771 Y97.077 E10.05958
G1 X101.686 Y97.755 E10.13493
G1 X101.691 Y98.493 E10.21632
G1 X101.712 Y98.765 E10.2464
G1 X101.72 Y98.973 E10.26936
G1 X101.716 Y101.463 E10.54394
G1 X101.692 Y101.84 E10.5856
G1 X101.655 Y102.138 E10.61871
G1 X101.6 Y102.422 E10.65061
G1 X101.524 Y102.713 E10.68378
G1 X101.44 Y102.971 E10.7137
G1 X101.329 Y103.25 E10.74681
G1 X101.207 Y103.508 E10.77828
G1 X101.063 Y103.767 E10.81096
G1 X100.924 Y103.986 E10.83956
G1 X100.723 Y104.255 E10.87659
G1 X100.407 Y104.622 E10.93
G1 X100.174 Y104.863 E10.96696
G1 X99.781 Y105.21 E11.02478
G1 X99.57 Y105.372 E11.05411
G1 X99.326 Y105.536 E11.08653
G1 X99.061 Y105.69 E11.12033
G1 X98.816 Y105.814 E11.15061
G1 X98.544 Y105.929 E11.18318
G1 X98.265 Y106.027 E11.21578
G1 X97.997 Y106.102 E11.24647
G1 X97.732 Y106.16 E11.27639
G1 X97.401 Y106.207 E11.31326
G1 X96.938 Y106.24 E11.36444
G1 X96.757 Y106.246 E11.38441
G1 X95.692 Y106.241 E11.50186
G1 X94.048 Y106.255 E11.68315
G1 X92.663 Y106.249 E11.83588
G1 X90.949 Y106.254 E12.02489
G1 X89.632 Y106.249 E12.17013
G1 X88.078 Y106.257 E12.34149
G1 X87.552 Y106.231 E12.39957
G1 X87.258 Y106.195 E12.43223
G1 X86.992 Y106.146 E12.46206
G1 X86.685 Y106.068 E12.49699
G1 X85.928 Y105.824 E12.58469
G1 X85.825 Y105.793 E12.59656
G1 X85.155 Y105.665 E12.67177
G1 X84.473 Y105.623 E12.74712
G1 X83.793 Y105.668 E12.82227
G1 X83.126 Y105.797 E12.89719
G1 X82.723 Y105.92 E12.94365
G1 X82.391 Y106.035 E12.9824
G1 X82.103 Y106.114 E13.01533
G1 X81.829 Y106.17 E13.04617
G1 X81.498 Y106.218 E13.08305
G1 X81.285 Y106.237 E13.10664
G1 X80.977 Y106.248 E13.14062
G1 X79.326 Y106.248 E13.32268
G1 X78.658 Y106.29 E13.39649
G1 X77.987 Y106.419 E13.47184
G1 X77.338 Y106.632 E13.54716
G1 X76.718 Y106.926 E13.62283
G1 X76.46 Y107.096 E13.6569
G1 X76.456 Y107.092 E13.65753
G1 X75.815 Y107.526 E13.74289
G1 X75.563 Y107.675 E13.77517
G1 X75.291 Y107.812 E13.80876
G1 X75.023 Y107.927 E13.84092
G1 X74.746 Y108.025 E13.87332
G1 X74.525 Y108.089 E13.89869
G1 X74.164 Y108.163 E13.93933
G1 X73.579 Y108.235 E14.00432
G1 X73.373 Y108.251 E14.02711
G1 X71.259 Y108.317 E14.26034
G1 X70.74 Y108.303 E14.3176
G1 X70.463 Y108.277 E14.34828
G1 X70.156 Y108.227 E14.38258
G1 X69.902 Y108.17 E14.41128
G1 X69.599 Y108.081 E14.44611
G1 X69.336 Y107.987 E14.47691
G1 X69.078 Y107.873 E14.50801
G1 X68.803 Y107.732 E14.54209
G1 X68.064 Y107.289 E14.6371
G1 X68.057 Y107.301 E14.63863
G1 X68.025 Y107.282 E14.64274
G1 X67.396 Y107.018 E14.71796
G1 X66.738 Y106.834 E14.79331
G1 X66.066 Y106.736 E14.86819
G1 X65.637 Y106.718 E14.91554
G1 X64.268 Y106.711 E15.06651
G1 X63.633 Y106.663 E15.13673
G1 X63.329 Y106.62 E15.17059
G1 X62.725 Y106.498 E15.23854
G1 X62.482 Y106.429 E15.2664
G1 X62.054 Y106.291 E15.31599
G1 X61.405 Y106.126 E15.38983
G1 X60.727 Y106.042 E15.46517
G1 X60.049 Y106.044 E15.53993
G1 X59.621 Y106.09 E15.5874
G1 X59.335 Y106.132 E15.61928
G1 X58.866 Y106.168 E15.67115
G1 X58.673 Y106.175 E15.69245
G1 X51.74 Y106.174 E16.45698
G1 X51.072 Y106.216 E16.53079
G1 X50.407 Y106.344 E16.60546
G1 X50.071 Y106.442 E16.64406
G1 X49.768 Y106.541 E16.67921
G1 X49.504 Y106.611 E16.70933
G1 X49.205 Y106.669 E16.74292
G1 X48.939 Y106.703 E16.77249
G1 X48.612 Y106.721 E16.8086
G1 X48.104 Y106.713 E16.86463
G1 X47.92 Y106.703 E16.88495
G1 X47.104 Y106.622 E16.97537
G1 X46.442 Y106.59 E17.04846
G1 X45.968 Y106.618 E17.10082
G1 X44.959 Y106.72 E17.21266
G1 X44.572 Y106.737 E17.25537
G1 X44.283 Y106.73 E17.28725
G1 X43.976 Y106.704 E17.32123
G1 X43.701 Y106.663 E17.35189
G1 X43.42 Y106.603 E17.38357
G1 X43.135 Y106.523 E17.41622
G1 X43.005 Y106.478 E17.43139
G1 X42.36 Y106.296 E17.50529
G1 X41.688 Y106.197 E17.58019
G1 X41.243 Y106.178 E17.62931
G1 X34.157 Y106.17 E18.41071
G1 X33.789 Y106.147 E18.45137
G1 X33.474 Y106.107 E18.48639
G1 X32.618 Y105.941 E18.58254
G1 X32.615 Y105.959 E18.58455
G1 X32.534 Y105.946 E18.5936
G1 X31.845 Y105.921 E18.66963
G1 X30.858 Y106.04 E18.77926
G1 X30.65 Y106.085 E18.80272
G1 X30.335 Y106.132 E18.83785
G1 X29.866 Y106.168 E18.88972
G1 X29.673 Y106.175 E18.91101
G1 X22.741 Y106.174 E19.67543
G1 X22.073 Y106.216 E19.74924
G1 X21.408 Y106.344 E19.82392
G1 X21.072 Y106.442 E19.86251
G1 X20.772 Y106.54 E19.89732
G1 X20.49 Y106.614 E19.92947
G1 X20.227 Y106.666 E19.95903
G1 X19.935 Y106.704 E19.9915
G1 X19.623 Y106.722 E20.02596
G1 X19.071 Y106.712 E20.08685
G1 X18.911 Y106.702 E20.10452
G1 X17.747 Y106.583 E20.23355
G1 X17.744 Y106.6 E20.23546
G1 X17.571 Y106.588 E20.25458
G1 X16.982 Y106.618 E20.31961
G1 X16.089 Y106.712 E20.41863
G1 X15.572 Y106.738 E20.47572
G1 X15.283 Y106.731 E20.5076
G1 X14.976 Y106.705 E20.54157
G1 X14.701 Y106.664 E20.57223
G1 X14.424 Y106.605 E20.60346
G1 X14.13 Y106.522 E20.63715
G1 X14.001 Y106.477 E20.65222
G1 X13.356 Y106.296 E20.72609
G1 X12.685 Y106.197 E20.80089
G1 X12.24 Y106.178 E20.85
G1 X5.157 Y106.17 E21.63107
G1 X4.789 Y106.147 E21.67173
G1 X4.474 Y106.107 E21.70675
G1 X4.194 Y106.052 E21.73822
G1 X3.912 Y105.979 E21.77034
G1 X3.65 Y105.893 E21.80075
G1 X3.368 Y105.781 E21.83421
G1 X3.118 Y105.662 E21.86474
G1 X2.836 Y105.506 E21.90028
G1 X2.639 Y105.379 E21.92612
G1 X2.363 Y105.174 E21.96404
G1 X2.01 Y104.872 E22.01526
G1 X1.889 Y104.76 E22.03345
G1 X1.53 Y104.358 E22.09288
G1 X1.363 Y104.143 E22.1229
G1 X1.206 Y103.91 E22.15388
G1 X1.049 Y103.644 E22.18795
G1 X0.919 Y103.387 E22.2197
G1 X0.81 Y103.133 E22.25018
G1 X0.706 Y102.843 E22.28416
G1 X0.626 Y102.563 E22.31627
G1 X0.571 Y102.308 E22.34504
G1 X0.523 Y101.988 E22.38072
G1 X0.486 Y101.51 E22.43359
G1 X0.48 Y101.342 E22.45213
G1 X0.484 Y98.905 E22.72086
G1 X0.513 Y98.448 E22.77136
G1 X0.513 Y97.778 E22.84524
G1 X0.427 Y97.1 E22.92061
G1 X0.255 Y96.437 E22.99614
G1 X-0.05 Y95.698 E23.0843
G1 X-0.083 Y95.634 E23.09224
G1 X-.201 Y95.358 E23.12534
G1 X-.291 Y95.104 E23.15506
G1 X-.374 Y94.813 E23.18843
G1 X-.429 Y94.558 E23.21719
G1 X-.477 Y94.238 E23.25288
G1 X-.514 Y93.76 E23.30575
G1 X-.52 Y93.592 E23.32428
G1 X-.516 Y91.159 E23.59258
G1 X-.492 Y90.782 E23.63424
G1 X-.455 Y90.487 E23.66702
G1 X-.399 Y90.195 E23.69981
G1 X-.294 Y89.791 E23.74584
G1 X-.167 Y89.133 E23.81974
G1 X-.123 Y88.452 E23.89499
G1 X-.166 Y87.767 E23.97068
G1 X-.328 Y86.974 E24.05993
G1 X-.371 Y86.828 E24.07672
G1 X-.429 Y86.558 E24.10717
G1 X-.477 Y86.238 E24.14285
G1 X-.514 Y85.76 E24.19572
G1 X-.52 Y85.592 E24.21426
G1 X-.516 Y83.159 E24.48256
G1 X-.492 Y82.782 E24.52421
G1 X-.455 Y82.487 E24.557
G1 X-.399 Y82.195 E24.58979
G1 X-.294 Y81.791 E24.63582
G1 X-.167 Y81.133 E24.70972
G1 X-.123 Y80.452 E24.78497
G1 X-.166 Y79.767 E24.86066
G1 X-.328 Y78.974 E24.94991
G1 X-.371 Y78.828 E24.96669
G1 X-.429 Y78.558 E24.99715
G1 X-.477 Y78.238 E25.03283
G1 X-.514 Y77.76 E25.0857
G1 X-.52 Y77.592 E25.10423
G1 X-.516 Y75.159 E25.37253
G1 X-.492 Y74.782 E25.41419
G1 X-.454 Y74.478 E25.44797
G1 X-.404 Y74.216 E25.47739
G1 X-.319 Y73.551 E25.55132
G1 X-.319 Y72.869 E25.62652
G1 X-.405 Y72.195 E25.70145
G1 X-.52 Y71.715 E25.75588
G1 X-.572 Y71.538 E25.77622
G1 X-.624 Y71.306 E25.80244
G1 X-.675 Y70.961 E25.8409
G1 X-.714 Y70.463 E25.89598
G1 X-.72 Y70.302 E25.91375
G1 X-.716 Y67.814 E26.18811
G1 X-.692 Y67.437 E26.22977
G1 X-.655 Y67.139 E26.26288
G1 X-.6 Y66.855 E26.29478
G1 X-.527 Y66.576 E26.32659
G1 X-.442 Y66.316 E26.35675
G1 X-.272 Y65.667 E26.43073
G1 X-.186 Y64.99 E26.50599
G1 X-.184 Y64.308 E26.58119
G1 X-.27 Y63.626 E26.657
G1 X-.325 Y63.425 E26.67998
G1 X-.315 Y63.423 E26.6811
G1 X-.57 Y62.542 E26.78224
G1 X-.624 Y62.302 E26.80937
G1 X-.675 Y61.961 E26.84739
G1 X-.715 Y61.453 E26.90358
G1 X-.72 Y61.304 E26.92002
G1 X-.716 Y58.814 E27.1946
G1 X-.692 Y58.437 E27.23626
G1 X-.655 Y58.139 E27.26938
G1 X-.6 Y57.855 E27.30128
G1 X-.522 Y57.556 E27.33535
G1 X-.21 Y56.616 E27.44457
G1 X-0.081 Y55.945 E27.51992
G1 X-0.038 Y55.264 E27.59516
G1 X-0.081 Y54.582 E27.67052
G1 X-.209 Y53.916 E27.74531
G1 X-.36 Y53.43 E27.80143
G1 X-.489 Y53.074 E27.84318
G1 X-.57 Y52.792 E27.87554
G1 X-.624 Y52.552 E27.90267
G1 X-.675 Y52.211 E27.94069
G1 X-.714 Y51.713 E27.99577
G1 X-.72 Y51.552 E28.01354
G1 X-.716 Y49.064 E28.2879
G1 X-.692 Y48.687 E28.32956
G1 X-.655 Y48.389 E28.36267
G1 X-.6 Y48.104 E28.39468
G1 X-.386 Y47.284 E28.48813
G1 X-.394 Y47.282 E28.48904
G1 X-.306 Y46.592 E28.56575
G1 X-.306 Y45.909 E28.64106
G1 X-.393 Y45.236 E28.7159
G1 X-.505 Y44.766 E28.76918
G1 X-.57 Y44.541 E28.795
G1 X-.624 Y44.302 E28.82202
G1 X-.675 Y43.961 E28.86004
G1 X-.714 Y43.463 E28.91513
G1 X-.72 Y43.302 E28.93289
G1 X-.716 Y40.814 E29.20726
G1 X-.692 Y40.437 E29.24891
G1 X-.655 Y40.139 E29.28203
G1 X-.6 Y39.855 E29.31393
G1 X-.524 Y39.564 E29.34709
G1 X-.436 Y39.296 E29.3782
G1 X-.332 Y39.034 E29.40928
G1 X-.229 Y38.815 E29.43597
G1 X0.018 Y38.193 E29.50977
G1 X0.189 Y37.532 E29.58506
G1 X0.274 Y36.858 E29.65998
G1 X0.28 Y36.31 E29.72041
G1 X0.284 Y33.814 E29.99566
G1 X0.308 Y33.437 E30.03731
G1 X0.345 Y33.142 E30.0701
G1 X0.401 Y32.85 E30.10289
G1 X0.452 Y32.654 E30.12522
G1 X0.579 Y31.996 E30.19912
G1 X0.623 Y31.312 E30.2747
G1 X0.566 Y30.533 E30.36083
G1 X0.523 Y30.24 E30.39349
G1 X0.486 Y29.761 E30.44647
G1 X0.48 Y29.592 E30.46512
G1 X0.48 Y28.376 E30.59921
G1 X0.438 Y27.708 E30.67302
G1 X0.309 Y27.037 E30.74837
G1 X0.097 Y26.392 E30.82324
G1 X-.108 Y25.937 E30.87827
G1 X-.279 Y25.605 E30.91945
G1 X-.383 Y25.366 E30.94819
G1 X-.485 Y25.085 E30.98116
G1 X-.571 Y24.787 E31.01536
G1 X-.624 Y24.552 E31.04193
G1 X-.675 Y24.211 E31.07995
G1 X-.714 Y23.713 E31.13503
G1 X-.72 Y23.552 E31.1528
G1 X-.716 Y21.064 E31.42716
G1 X-.693 Y20.691 E31.46837
G1 X-.57 Y19.724 E31.57587
G1 X-.57 Y19.046 E31.65063
G1 X-.62 Y18.579 E31.70242
G1 X-.674 Y18.228 E31.74159
G1 X-.714 Y17.713 E31.79855
G1 X-.72 Y17.552 E31.81632
G1 X-.716 Y15.064 E32.09068
G1 X-.692 Y14.687 E32.13233
G1 X-.655 Y14.389 E32.16545
G1 X-.6 Y14.105 E32.19735
G1 X-.524 Y13.814 E32.23051
G1 X-.44 Y13.556 E32.26043
G1 X-.329 Y13.277 E32.29355
G1 X-.207 Y13.019 E32.32502
G1 X-0.061 Y12.755 E32.35829
G1 X0.076 Y12.542 E32.38621
G1 X0.274 Y12.275 E32.42287
G1 X0.696 Y11.792 E32.4936
G1 X0.906 Y11.589 E32.52581
G1 X1.201 Y11.33 E32.56909
G1 X1.416 Y11.163 E32.59912
G1 X1.647 Y11.007 E32.62985
G1 X1.915 Y10.849 E32.66416
G1 X2.172 Y10.719 E32.69592
G1 X2.442 Y10.603 E32.72833
G1 X2.698 Y10.511 E32.75832
G1 X2.987 Y10.428 E32.79148
G1 X3.257 Y10.369 E32.82196
G1 X3.568 Y10.323 E32.85663
G1 X4.039 Y10.287 E32.90872
G1 X4.232 Y10.28 E32.93001
G1 X12.461 Y10.285 E33.83746
