M73 P0
;MINX:2.0
;MAXX:98.0
;MINY:28.0
;MAXY:92.0
;MINZ:0.0
;MAXZ:1.5
;MachineType:ENTINA TINA2
;FilamentType:PLA
;Extruder0Temperature:200
;InfillDensity:10
;FLAVOR:Marlin
;TIME:2041
;FilamentUsed:2055.5
;Layer height: 0.2

;Generated with Cura_SteamEngine 3.1
M104 T0 S215
M82 ; absolute extrusion mode
;(**** start.gcode for tina2****)
M104 S150
G28 Z
G28 X Y; Home extruder
G1 X55 Y55 F1000
G1 Z10 F200
G29
G1 Z15 F100
M107 ; Turn off fan
G90 ; Absolute positioning
M82 ; Extruder in absolute mode
M109 S215.0
G92 E0 ; Reset extruder position
G1 X90 Y6 Z0.27 F2000
G1 X20 Y6 Z0.27 E15 F1000
G92 E0 ; Reset extruder position

;LAYER_COUNT:8
;LAYER:0
M106 S255
M203 Z5
G1 F3600 X87.49 Y30.539 Z0.299
;TYPE:SKIRT
G1 F1200 X88.928 Y31.126 E0.08098
G1 X89.678 Y31.476 E0.12413
G1 X90.118 Y31.724 E0.15046
G1 X91.167 Y32.357 E0.21433
G1 X91.855 Y32.819 E0.25754
G1 X92.495 Y33.344 E0.3007
G1 X92.958 Y33.797 E0.33447
G1 X93.588 Y34.461 E0.38219
G1 X94.129 Y35.089 E0.4254
G1 X94.606 Y35.766 E0.46858
G1 X95.016 Y36.486 E0.51177
G1 X95.355 Y37.242 E0.55497
G1 X95.563 Y37.837 E0.58783
G1 X95.762 Y38.482 E0.62302
G1 X95.967 Y39.285 E0.66623
G1 X96.095 Y40.103 E0.7094
G1 X96.143 Y41.012 E0.75685
G1 X96.143 Y51.002 E1.27768
G1 X96.103 Y51.829 E1.32085
G1 X95.983 Y52.649 E1.36406
G1 X95.726 Y53.644 E1.41763
G1 X95.515 Y54.296 E1.45336
G1 X95.222 Y55.071 E1.49656
G1 X94.856 Y55.814 E1.53974
G1 X94.42 Y56.518 E1.58291
G1 X93.918 Y57.177 E1.6261
G1 X93.522 Y57.616 E1.65692
G1 X92.891 Y58.269 E1.70427
G1 X92.287 Y58.836 E1.74746
G1 X91.632 Y59.343 E1.79064
G1 X91.143 Y59.66 E1.82102
G1 X90.576 Y60.001 E1.85552
G1 X91.167 Y60.357 E1.89149
G1 X91.855 Y60.819 E1.93469
G1 X92.495 Y61.344 E1.97785
G1 X92.958 Y61.797 E2.01162
G1 X93.588 Y62.461 E2.05934
G1 X94.129 Y63.089 E2.10256
G1 X94.606 Y63.766 E2.14573
G1 X95.016 Y64.486 E2.18893
G1 X95.355 Y65.242 E2.23212
G1 X95.563 Y65.837 E2.26499
G1 X95.762 Y66.482 E2.30018
G1 X95.967 Y67.285 E2.34338
G1 X96.095 Y68.103 E2.38655
G1 X96.143 Y69.013 E2.43406
G1 X96.142 Y79.004 E2.95494
G1 X96.102 Y79.831 E2.99811
G1 X95.982 Y80.651 E3.04131
G1 X95.728 Y81.637 E3.0944
G1 X95.518 Y82.288 E3.13006
G1 X95.226 Y83.063 E3.17324
G1 X94.86 Y83.806 E3.21642
G1 X94.425 Y84.511 E3.25961
G1 X93.924 Y85.17 E3.30277
G1 X93.522 Y85.616 E3.33407
G1 X92.891 Y86.269 E3.38141
G1 X92.287 Y86.836 E3.4246
G1 X91.632 Y87.343 E3.46779
G1 X91.143 Y87.66 E3.49817
G1 X90.107 Y88.283 E3.5612
G1 X89.377 Y88.675 E3.60439
G1 X88.692 Y88.966 E3.6432
G1 X86.402 Y89.823 E3.77067
G1 X85.482 Y90.109 E3.8209
G1 X83.532 Y90.598 E3.92571
G1 X82.977 Y90.718 E3.95532
G1 X80.734 Y91.125 E4.07416
G1 X80.181 Y91.207 E4.10331
G1 X76.421 Y91.639 E4.30063
G1 X75.955 Y91.68 E4.32502
G1 X73.268 Y91.841 E4.46536
G1 X72.926 Y91.854 E4.4832
G1 X70.17 Y91.909 E4.62691
G1 X69.988 Y91.911 E4.6364
G1 X27.236 Y91.856 E6.86529
G1 X26.734 Y91.841 E6.89147
G1 X24.046 Y91.68 E7.03187
G1 X23.678 Y91.65 E7.05111
G1 X21.121 Y91.386 E7.18513
G1 X20.59 Y91.314 E7.21307
G1 X17.144 Y90.739 E7.39521
G1 X16.47 Y90.599 E7.4311
G1 X14.519 Y90.11 E7.53596
G1 X13.817 Y89.901 E7.57415
G1 X12.202 Y89.346 E7.66318
G1 X11.21 Y88.934 E7.71918
G1 X9.959 Y88.32 E7.79184
G1 X9.234 Y87.92 E7.83501
G1 X8.502 Y87.414 E7.8814
G1 X7.674 Y86.776 E7.9359
G1 X7.043 Y86.24 E7.97906
G1 X6.467 Y85.645 E8.02223
G1 X5.951 Y84.997 E8.06542
G1 X5.706 Y84.638 E8.08808
G1 X5.289 Y83.993 E8.12812
G1 X4.873 Y83.277 E8.1713
G1 X4.529 Y82.524 E8.21446
G1 X4.258 Y81.741 E8.25765
G1 X4.034 Y80.762 E8.31001
G1 X3.978 Y80.43 E8.32757
G1 X3.879 Y79.608 E8.37073
G1 X3.858 Y78.963 E8.40438
G1 X3.906 Y68.652 E8.94195
G1 X3.95 Y67.825 E8.98513
G1 X4.073 Y67.006 E9.0283
G1 X4.275 Y66.203 E9.07147
G1 X4.553 Y65.423 E9.11464
G1 X4.906 Y64.673 E9.15786
G1 X5.212 Y64.142 E9.18981
G1 X5.623 Y63.485 E9.23021
G1 X6.096 Y62.804 E9.27344
G1 X6.632 Y62.173 E9.31661
G1 X7.226 Y61.596 E9.35978
G1 X7.629 Y61.263 E9.38703
G1 X8.462 Y60.615 E9.44206
G1 X9.139 Y60.138 E9.48523
G1 X9.377 Y59.999 E9.4996
G1 X9.234 Y59.92 E9.50812
G1 X8.502 Y59.414 E9.55451
G1 X7.674 Y58.776 E9.60901
G1 X7.043 Y58.24 E9.65217
G1 X6.467 Y57.645 E9.69535
M73 P1
G1 X5.951 Y56.997 E9.73853
G1 X5.706 Y56.638 E9.76119
G1 X5.289 Y55.993 E9.80124
G1 X4.873 Y55.277 E9.84441
G1 X4.529 Y54.524 E9.88757
G1 X4.258 Y53.741 E9.93077
G1 X4.034 Y52.762 E9.98313
G1 X3.978 Y52.43 E10.00068
G1 X3.879 Y51.608 E10.04384
G1 X3.858 Y50.963 E10.07749
G1 X3.906 Y40.652 E10.61506
G1 X3.95 Y39.825 E10.65824
G1 X4.073 Y39.006 E10.70142
G1 X4.275 Y38.203 E10.74459
G1 X4.553 Y37.423 E10.78776
G1 X4.906 Y36.673 E10.83097
G1 X5.212 Y36.142 E10.86292
G1 X5.623 Y35.485 E10.90333
G1 X6.096 Y34.804 E10.94656
G1 X6.632 Y34.173 E10.98972
G1 X7.226 Y33.596 E11.03289
G1 X7.629 Y33.263 E11.06015
G1 X8.462 Y32.615 E11.11517
G1 X9.139 Y32.138 E11.15835
G1 X9.646 Y31.842 E11.18895
G1 X10.239 Y31.521 E11.22411
G1 X11.084 Y31.121 E11.27285
G1 X12.514 Y30.538 E11.35336
G1 X13.512 Y30.201 E11.40828
G1 X16.314 Y29.443 E11.55961
G1 X17.141 Y29.262 E11.60375
G1 X20.588 Y28.686 E11.78595
G1 X21.121 Y28.614 E11.81399
G1 X23.678 Y28.35 E11.94801
G1 X24.046 Y28.32 E11.96726
G1 X26.734 Y28.159 E12.10765
G1 X27.236 Y28.144 E12.13383
G1 X69.988 Y28.089 E14.36272
G1 X70.17 Y28.091 E14.37221
G1 X72.926 Y28.146 E14.51593
G1 X73.358 Y28.165 E14.53847
G1 X77.349 Y28.446 E14.74706
G1 X77.938 Y28.508 E14.77793
G1 X81.553 Y29.015 E14.96825
G1 X82.15 Y29.121 E14.99986
G1 X84.242 Y29.567 E15.11138
G1 X84.863 Y29.723 E15.14476
G1 X86.657 Y30.248 E15.24221
G1 X87.49 Y30.539 E15.28821
G1 F3600 X87.323 Y30.947
G1 F1200 X88.761 Y31.534 E15.36919
G1 X89.492 Y31.875 E15.41124
G1 X89.891 Y32.101 E15.43515
G1 X90.94 Y32.734 E15.49903
G1 X91.609 Y33.184 E15.54106
G1 X92.23 Y33.699 E15.58312
G1 X92.639 Y34.1 E15.61298
G1 X93.269 Y34.764 E15.6607
G1 X93.795 Y35.376 E15.70278
G1 X94.257 Y36.037 E15.74482
G1 X94.652 Y36.741 E15.78691
G1 X94.975 Y37.48 E15.82895
G1 X95.142 Y37.967 E15.8558
G1 X95.341 Y38.612 E15.89099
G1 X95.541 Y39.394 E15.93307
G1 X95.662 Y40.192 E15.97515
G1 X95.703 Y41.012 E16.01795
G1 X95.703 Y51.002 E16.53878
G1 X95.663 Y51.808 E16.58086
G1 X95.543 Y52.606 E16.62293
G1 X95.308 Y53.508 E16.67152
G1 X95.097 Y54.16 E16.70725
G1 X94.81 Y54.915 E16.74936
G1 X94.451 Y55.637 E16.7914
G1 X94.022 Y56.32 E16.83345
G1 X93.527 Y56.957 E16.87551
G1 X93.206 Y57.31 E16.90038
G1 X92.575 Y57.963 E16.94773
G1 X91.986 Y58.515 E16.98981
G1 X91.346 Y59.006 E17.03187
G1 X90.916 Y59.283 E17.05853
G1 X89.88 Y59.906 E17.12156
G1 X89.709 Y59.998 E17.13168
G1 X89.891 Y60.101 E17.14259
G1 X90.94 Y60.734 E17.20646
G1 X91.609 Y61.184 E17.2485
G1 X92.23 Y61.699 E17.29056
G1 X92.639 Y62.1 E17.32042
G1 X93.269 Y62.764 E17.36814
G1 X93.795 Y63.376 E17.41021
G1 X94.257 Y64.037 E17.45226
G1 X94.652 Y64.741 E17.49434
G1 X94.975 Y65.48 E17.53639
G1 X95.142 Y65.967 E17.56323
G1 X95.341 Y66.612 E17.59842
G1 X95.541 Y67.394 E17.6405
G1 X95.662 Y68.192 E17.68258
G1 X95.703 Y69.013 E17.72544
G1 X95.702 Y79.004 E18.24632
G1 X95.662 Y79.81 E18.2884
G1 X95.542 Y80.607 E18.33042
G1 X95.309 Y81.502 E18.37863
G1 X95.099 Y82.153 E18.41429
G1 X94.814 Y82.908 E18.45637
G1 X94.455 Y83.63 E18.49841
G1 X94.026 Y84.314 E18.5405
G1 X93.532 Y84.951 E18.58253
G1 X93.206 Y85.31 E18.60781
G1 X92.575 Y85.963 E18.65515
G1 X91.986 Y86.515 E18.69724
G1 X91.346 Y87.006 E18.73929
G1 X90.916 Y87.283 E18.76596
G1 X89.88 Y87.906 E18.82898
G1 X89.169 Y88.287 E18.87104
G1 X88.538 Y88.554 E18.90676
G1 X86.248 Y89.411 E19.03424
G1 X85.375 Y89.683 E19.08191
G1 X83.425 Y90.172 E19.18672
G1 X82.898 Y90.285 E19.21482
G1 X80.655 Y90.692 E19.33367
G1 X80.131 Y90.77 E19.36129
G1 X76.371 Y91.202 E19.55861
G1 X75.929 Y91.24 E19.58173
G1 X73.242 Y91.401 E19.72207
G1 X72.917 Y91.414 E19.73903
G1 X70.161 Y91.469 E19.88274
G1 X69.989 Y91.471 E19.89171
G1 X27.237 Y91.416 E22.1206
G1 X26.76 Y91.401 E22.14548
G1 X24.072 Y91.24 E22.28587
G1 X23.723 Y91.212 E22.30413
G1 X21.166 Y90.948 E22.43814
G1 X20.662 Y90.88 E22.46466
G1 X17.216 Y90.305 E22.6468
G1 X16.577 Y90.172 E22.68083
G1 X14.626 Y89.683 E22.78569
G1 X13.96 Y89.485 E22.82192
G1 X12.345 Y88.93 E22.91095
G1 X11.404 Y88.539 E22.96407
G1 X10.153 Y87.925 E23.03673
G1 X9.447 Y87.534 E23.0788
G1 X8.771 Y87.066 E23.12167
G1 X7.943 Y86.428 E23.17616
G1 X7.329 Y85.904 E23.21825
G1 X6.77 Y85.323 E23.26028
G1 X6.075 Y84.399 E23.32056
G1 X5.658 Y83.754 E23.3606
G1 X5.254 Y83.056 E23.40265
G1 X4.922 Y82.321 E23.4447
G1 X4.663 Y81.557 E23.48675
G1 X4.467 Y80.689 E23.53315
G1 X4.411 Y80.357 E23.5507
G1 X4.317 Y79.556 E23.59275
M73 P2
G1 X4.298 Y78.965 E23.62358
G1 X4.346 Y68.654 E24.16115
G1 X4.39 Y67.849 E24.20318
G1 X4.513 Y67.051 E24.24527
G1 X4.715 Y66.27 E24.28733
G1 X4.993 Y65.513 E24.32938
G1 X5.344 Y64.787 E24.37142
G1 X5.585 Y64.375 E24.3963
G1 X5.996 Y63.718 E24.4367
G1 X6.457 Y63.056 E24.47876
G1 X6.982 Y62.443 E24.52084
G1 X7.564 Y61.885 E24.56288
G1 X7.899 Y61.61 E24.58547
G1 X8.732 Y60.962 E24.64049
G1 X9.392 Y60.499 E24.68253
G1 X9.855 Y60.229 E24.71047
G1 X10.291 Y59.993 E24.73632
G1 X10.153 Y59.925 E24.74434
G1 X9.447 Y59.534 E24.78641
G1 X8.771 Y59.066 E24.82928
G1 X7.943 Y58.428 E24.88377
G1 X7.329 Y57.904 E24.92586
G1 X6.77 Y57.323 E24.96789
G1 X6.075 Y56.399 E25.02817
G1 X5.658 Y55.754 E25.06821
G1 X5.254 Y55.056 E25.11026
G1 X4.922 Y54.321 E25.15231
G1 X4.663 Y53.557 E25.19436
G1 X4.467 Y52.689 E25.24076
G1 X4.411 Y52.357 E25.25831
G1 X4.317 Y51.556 E25.30036
G1 X4.298 Y50.965 E25.33119
G1 X4.346 Y40.654 E25.86876
G1 X4.39 Y39.849 E25.91079
G1 X4.513 Y39.051 E25.95289
G1 X4.715 Y38.27 E25.99494
G1 X4.993 Y37.513 E26.03699
G1 X5.344 Y36.787 E26.07903
G1 X5.585 Y36.375 E26.10391
G1 X5.996 Y35.718 E26.14432
G1 X6.457 Y35.056 E26.18637
G1 X6.982 Y34.443 E26.22845
G1 X7.564 Y33.885 E26.27049
G1 X7.899 Y33.61 E26.29308
G1 X8.732 Y32.962 E26.3481
G1 X9.392 Y32.499 E26.39014
G1 X9.855 Y32.229 E26.41808
G1 X10.448 Y31.908 E26.45323
G1 X11.25 Y31.528 E26.4995
G1 X12.68 Y30.945 E26.58001
G1 X13.627 Y30.625 E26.63213
G1 X16.429 Y29.867 E26.78346
G1 X17.213 Y29.696 E26.8253
G1 X20.66 Y29.12 E27.0075
G1 X21.166 Y29.052 E27.03412
G1 X23.723 Y28.788 E27.16814
G1 X24.072 Y28.76 E27.18639
G1 X26.76 Y28.599 E27.32678
G1 X27.237 Y28.584 E27.35166
G1 X69.989 Y28.529 E29.58055
G1 X70.161 Y28.531 E29.58952
G1 X72.917 Y28.586 E29.73323
G1 X73.327 Y28.604 E29.75463
G1 X77.318 Y28.885 E29.96321
G1 X77.877 Y28.944 E29.99252
G1 X81.492 Y29.451 E30.18283
G1 X82.058 Y29.551 E30.2128
G1 X84.15 Y29.997 E30.32432
G1 X84.739 Y30.146 E30.35599
G1 X86.533 Y30.671 E30.45345
G1 X87.323 Y30.947 E30.49707
G1 F3600 X87.157 Y31.354
G1 F1200 X88.595 Y31.941 E30.57805
G1 X89.305 Y32.274 E30.61893
G1 X89.663 Y32.477 E30.64039
G1 X90.712 Y33.11 E30.70427
G1 X91.362 Y33.549 E30.74516
G1 X91.965 Y34.052 E30.7861
G1 X92.32 Y34.403 E30.81213
G1 X92.95 Y35.067 E30.85985
G1 X93.46 Y35.663 E30.90074
G1 X93.907 Y36.308 E30.94165
G1 X94.286 Y36.995 E30.98256
G1 X94.594 Y37.717 E31.02348
G1 X94.722 Y38.097 E31.04439
G1 X94.921 Y38.742 E31.07958
G1 X95.114 Y39.502 E31.12046
G1 X95.228 Y40.279 E31.1614
G1 X95.263 Y41.012 E31.19966
G1 X95.263 Y51.002 E31.72049
G1 X95.223 Y51.786 E31.76142
G1 X95.104 Y52.561 E31.8023
G1 X94.889 Y53.373 E31.84609
G1 X94.678 Y54.025 E31.88182
G1 X94.399 Y54.758 E31.92271
G1 X94.046 Y55.459 E31.96363
G1 X93.624 Y56.12 E32.00451
G1 X92.889 Y57.005 E32.06449
G1 X92.258 Y57.658 E32.11183
G1 X91.685 Y58.193 E32.1527
G1 X91.06 Y58.668 E32.19363
G1 X90.689 Y58.906 E32.21661
G1 X89.653 Y59.529 E32.27964
G1 X88.961 Y59.898 E32.32052
G1 X88.72 Y60 E32.33417
G1 X89.305 Y60.274 E32.36785
G1 X89.663 Y60.477 E32.3893
G1 X90.712 Y61.11 E32.45318
G1 X91.362 Y61.549 E32.49407
G1 X91.965 Y62.052 E32.53501
G1 X92.32 Y62.403 E32.56104
G1 X92.95 Y63.067 E32.60876
G1 X93.46 Y63.663 E32.64965
G1 X93.907 Y64.308 E32.69057
G1 X94.286 Y64.995 E32.73147
G1 X94.594 Y65.717 E32.7724
G1 X94.722 Y66.097 E32.7933
G1 X94.921 Y66.742 E32.82849
G1 X95.114 Y67.502 E32.86937
G1 X95.228 Y68.279 E32.91032
G1 X95.263 Y69.013 E32.94863
G1 X95.262 Y79.004 E33.46951
G1 X95.222 Y79.787 E33.51038
G1 X95.102 Y80.563 E33.55132
G1 X94.89 Y81.367 E33.59467
G1 X94.68 Y82.018 E33.63033
G1 X94.402 Y82.751 E33.67121
G1 X94.05 Y83.453 E33.71215
G1 X93.628 Y84.115 E33.75308
G1 X92.889 Y85.005 E33.81339
G1 X92.258 Y85.658 E33.86073
G1 X91.685 Y86.193 E33.9016
G1 X91.06 Y86.668 E33.94253
G1 X90.689 Y86.906 E33.96551
G1 X89.653 Y87.529 E34.02853
G1 X88.961 Y87.898 E34.06942
G1 X88.384 Y88.142 E34.10208
G1 X86.094 Y88.999 E34.22956
G1 X85.268 Y89.256 E34.27466
G1 X83.318 Y89.745 E34.37947
G1 X82.82 Y89.852 E34.40603
G1 X80.577 Y90.259 E34.52487
G1 X80.081 Y90.333 E34.55102
G1 X76.321 Y90.765 E34.74834
G1 X75.903 Y90.801 E34.77021
G1 X73.216 Y90.962 E34.91055
G1 X72.909 Y90.974 E34.92657
G1 X70.153 Y91.029 E35.07028
G1 X69.989 Y91.031 E35.07883
G1 X27.237 Y90.976 E37.30772
G1 X26.787 Y90.962 E37.33119
G1 X24.099 Y90.801 E37.47158
G1 X23.768 Y90.774 E37.4889
M73 P3
G1 X21.211 Y90.51 E37.62292
G1 X20.735 Y90.446 E37.64796
G1 X17.289 Y89.871 E37.8301
G1 X16.684 Y89.745 E37.86232
G1 X14.733 Y89.256 E37.96718
G1 X14.103 Y89.069 E38.00144
G1 X12.488 Y88.514 E38.09047
G1 X11.597 Y88.144 E38.14077
G1 X10.346 Y87.53 E38.21342
G1 X9.661 Y87.149 E38.25429
G1 X9.039 Y86.717 E38.29377
G1 X8.211 Y86.079 E38.34827
G1 X7.615 Y85.569 E38.38916
G1 X7.074 Y85.001 E38.43006
G1 X6.445 Y84.161 E38.48477
G1 X6.028 Y83.516 E38.52481
G1 X5.636 Y82.836 E38.56573
G1 X5.315 Y82.12 E38.60664
G1 X5.069 Y81.375 E38.64754
G1 X4.901 Y80.616 E38.68807
G1 X4.845 Y80.284 E38.70563
G1 X4.754 Y79.504 E38.74657
G1 X4.738 Y78.967 E38.77458
G1 X4.786 Y68.656 E39.31215
G1 X4.83 Y67.873 E39.35304
G1 X4.953 Y67.098 E39.39395
G1 X5.154 Y66.34 E39.43483
G1 X5.432 Y65.606 E39.47575
G1 X5.958 Y64.608 E39.53457
G1 X6.369 Y63.951 E39.57497
G1 X6.819 Y63.308 E39.61589
G1 X7.331 Y62.714 E39.65677
G1 X8.169 Y61.957 E39.71565
G1 X9.002 Y61.309 E39.77067
G1 X9.645 Y60.86 E39.81156
G1 X10.064 Y60.615 E39.83686
G1 X10.657 Y60.294 E39.87202
G1 X11.292 Y59.994 E39.90863
G1 X10.346 Y59.53 E39.96356
G1 X9.661 Y59.149 E40.00443
G1 X9.039 Y58.717 E40.04391
G1 X8.211 Y58.079 E40.09841
G1 X7.615 Y57.569 E40.1393
G1 X7.074 Y57.001 E40.1802
G1 X6.445 Y56.161 E40.23491
G1 X6.028 Y55.516 E40.27495
G1 X5.636 Y54.836 E40.31587
G1 X5.315 Y54.12 E40.35678
G1 X5.069 Y53.375 E40.39769
G1 X4.901 Y52.616 E40.43821
G1 X4.845 Y52.284 E40.45577
G1 X4.754 Y51.504 E40.49671
G1 X4.738 Y50.967 E40.52472
G1 X4.786 Y40.656 E41.06229
G1 X4.83 Y39.873 E41.10318
G1 X4.953 Y39.098 E41.14409
G1 X5.154 Y38.34 E41.18497
G1 X5.432 Y37.606 E41.22589
G1 X5.958 Y36.608 E41.28471
G1 X6.369 Y35.951 E41.32511
G1 X6.819 Y35.308 E41.36603
G1 X7.331 Y34.714 E41.40691
G1 X8.169 Y33.957 E41.46579
G1 X9.002 Y33.309 E41.52081
G1 X9.645 Y32.86 E41.5617
G1 X10.064 Y32.615 E41.587
G1 X10.657 Y32.294 E41.62216
G1 X11.416 Y31.936 E41.66591
G1 X12.846 Y31.353 E41.74642
G1 X13.742 Y31.05 E41.79573
G1 X16.544 Y30.292 E41.94706
G1 X17.286 Y30.13 E41.98666
G1 X20.733 Y29.554 E42.16886
G1 X21.211 Y29.49 E42.19401
G1 X23.768 Y29.226 E42.32802
G1 X24.099 Y29.199 E42.34534
G1 X26.787 Y29.038 E42.48573
G1 X27.237 Y29.024 E42.5092
G1 X69.989 Y28.969 E44.73809
G1 X70.153 Y28.971 E44.74664
G1 X72.909 Y29.026 E44.89035
G1 X73.296 Y29.043 E44.91055
G1 X77.287 Y29.324 E45.11914
G1 X77.815 Y29.38 E45.14682
G1 X81.43 Y29.887 E45.33713
G1 X81.967 Y29.981 E45.36555
G1 X84.059 Y30.427 E45.47707
G1 X84.616 Y30.568 E45.50703
G1 X86.41 Y31.093 E45.60448
G1 X87.157 Y31.354 E45.64573
G1 F3600 X86.991 Y31.761
G1 F1200 X88.429 Y32.348 E45.72671
G1 X89.436 Y32.854 E45.78547
G1 X90.485 Y33.487 E45.84934
G1 X91.116 Y33.914 E45.88906
G1 X91.698 Y34.405 E45.92876
G1 X92.001 Y34.706 E45.95103
G1 X92.631 Y35.37 E45.99875
G1 X93.125 Y35.949 E46.03843
G1 X93.557 Y36.577 E46.07817
G1 X93.92 Y37.247 E46.1179
G1 X94.301 Y38.227 E46.17271
G1 X94.5 Y38.872 E46.20791
G1 X94.686 Y39.61 E46.24758
G1 X94.794 Y40.365 E46.28735
G1 X94.823 Y41.012 E46.32111
G1 X94.823 Y51.002 E46.84194
G1 X94.783 Y51.763 E46.88167
G1 X94.664 Y52.515 E46.92137
G1 X94.47 Y53.237 E46.96034
G1 X94.259 Y53.889 E46.99607
G1 X93.987 Y54.601 E47.03581
G1 X93.642 Y55.28 E47.07552
