M73 P0
;MINX:22.5
;MAXX:77.5
;MINY:8.8
;MAXY:111.2
;MINZ:0.0
;MAXZ:1.0
;MachineType:ENTINA TINA2
;FilamentType:PLA
;Extruder0Temperature:200
;InfillDensity:10
;FLAVOR:Marlin
;TIME:627
;FilamentUsed:561.5
;Layer height: 0.2

;Generated with Cura_SteamEngine 3.1
M104 T0 S215
M82 ; absolute extrusion mode
;(**** start.gcode for tina2****)
M104 S150
G28 Z
G28 X Y; Home extruder
G1 X55 Y55 F1000
G1 Z10 F200
G29
G1 Z15 F100
M107 ; Turn off fan
G90 ; Absolute positioning
M82 ; Extruder in absolute mode
M109 S215.0
G92 E0 ; Reset extruder position
G1 X90 Y6 Z0.27 F2000
G1 X20 Y6 Z0.27 E15 F1000
G92 E0 ; Reset extruder position

;LAYER_COUNT:5
;LAYER:0
M106 S255
M203 Z5
G1 F3600 X76.794 Y10.615 Z0.299
;TYPE:SKIRT
G1 F1200 X76.947 Y11.098 E0.02641
G1 X77.022 Y11.6 E0.05288
G1 X77.029 Y11.888 E0.0679
G1 X76.644 Y31.467 E1.08885
G1 X76.714 Y54.491 E2.28922
G1 X77.055 Y77.944 E3.51208
G1 X77.678 Y102.465 E4.7909
G1 X77.679 Y102.553 E4.79548
G1 X77.669 Y108.184 E5.08906
G1 X77.628 Y108.689 E5.11547
G1 X77.508 Y109.182 E5.14193
G1 X77.313 Y109.65 E5.16836
G1 X77.046 Y110.081 E5.19479
G1 X76.715 Y110.466 E5.22126
G1 X76.328 Y110.793 E5.24768
G1 X75.894 Y111.056 E5.27413
G1 X75.424 Y111.247 E5.30058
G1 X74.93 Y111.362 E5.32703
M73 P1
G1 X74.449 Y111.398 E5.35217
G1 X25.55 Y111.398 E7.90154
G1 X25.044 Y111.358 E7.928
G1 X24.551 Y111.239 E7.95444
G1 X24.083 Y111.044 E7.98087
G1 X23.651 Y110.779 E8.0073
G1 X23.266 Y110.448 E8.03377
G1 X22.938 Y110.062 E8.06017
G1 X22.675 Y109.628 E8.08663
G1 X22.483 Y109.159 E8.11305
G1 X22.367 Y108.665 E8.13951
G1 X22.33 Y108.177 E8.16502
G1 X22.332 Y103.167 E8.42622
G1 X22.388 Y102.572 E8.45738
G1 X36.751 Y26.341 E12.50163
G1 X36.795 Y26.14 E12.51236
G1 X37.142 Y24.781 E12.58548
G1 X37.237 Y24.474 E12.60224
G1 X37.571 Y23.559 E12.65302
G1 X37.71 Y23.235 E12.6714
G1 X38.486 Y21.666 E12.76266
G1 X38.73 Y21.253 E12.78767
G1 X39.807 Y19.707 E12.8859
G1 X40.107 Y19.338 E12.91069
G1 X41.329 Y18.043 E13.00352
G1 X41.652 Y17.744 E13.02647
G1 X42.87 Y16.764 E13.10797
G1 X43.153 Y16.561 E13.12613
G1 X44.129 Y15.936 E13.18655
G1 X44.511 Y15.726 E13.20928
G1 X45.303 Y15.359 E13.25479
G1 X45.912 Y15.148 E13.28839
G1 X73.065 Y8.692 E14.74348
G1 X73.566 Y8.614 E14.76992
G1 X74.073 Y8.616 E14.79635
G1 X74.574 Y8.697 E14.82281
G1 X75.056 Y8.856 E14.84927
G1 X75.506 Y9.088 E14.87566
G1 X75.915 Y9.388 E14.90211
G1 X76.272 Y9.749 E14.92858
G1 X76.567 Y10.161 E14.955
G1 X76.794 Y10.615 E14.98146
G1 F1680 E11.98146
G1 F3600 X73.142 Y12.653
;TYPE:WALL-INNER
G1 F1680 E14.98146
G1 F1320 X72.765 Y30.472 E15.91067
G1 X72.757 Y36.422 E16.22087
M73 P2
G1 X72.763 Y42.367 E16.53081
G1 X72.789 Y48.313 E16.84081
G1 X72.831 Y54.259 E17.15082
G1 X72.891 Y60.205 E17.46083
G1 X72.969 Y66.151 E17.77085
G1 X73.064 Y72.097 E18.08089
G1 X73.176 Y78.041 E18.39084
G1 X73.306 Y83.985 E18.7008
G1 X73.452 Y89.929 E19.01079
G1 X73.617 Y95.874 E19.32085
G1 X73.799 Y101.795 E19.62969
G1 X73.799 Y107.527 E19.92853
G1 X26.201 Y107.527 E22.41006
G1 X26.201 Y103.235 E22.63383
G1 X40.604 Y26.812 E26.6883
G1 X40.816 Y25.992 E26.73246
G1 X41.101 Y25.155 E26.77856
G1 X41.431 Y24.38 E26.82247
G1 X41.816 Y23.63 E26.86642
G1 X42.276 Y22.882 E26.91221
G1 X42.782 Y22.176 E26.95749
G1 X43.332 Y21.52 E27.00212
G1 X43.931 Y20.903 E27.04695
G1 X44.566 Y20.337 E27.0913
G1 X45.256 Y19.809 E27.1366
G1 X45.966 Y19.346 E27.18079
G1 X46.672 Y18.953 E27.22292
G1 X73.142 Y12.653 E28.64149
G1 F3600 X73.512 Y12.195
;TYPE:WALL-OUTER
G1 F1320 X73.125 Y30.476 E29.59478
G1 X73.117 Y36.422 E29.90478
G1 X73.123 Y42.366 E30.21467
G1 X73.149 Y48.311 E30.52462
G1 X73.191 Y54.256 E30.83457
G1 X73.251 Y60.201 E31.14453
G1 X73.329 Y66.146 E31.4545
G1 X73.424 Y72.091 E31.76449
G1 X73.536 Y78.034 E32.07438
G1 X73.666 Y83.977 E32.38429
G1 X73.812 Y89.92 E32.69423
G1 X73.977 Y95.863 E33.00419
G1 X74.159 Y101.795 E33.3136
G1 X74.159 Y107.887 E33.63121
G1 X25.841 Y107.887 E36.15028
G1 X25.841 Y103.2 E36.39464
G1 X40.253 Y26.731 E40.45156
G1 X40.47 Y25.892 E40.49674
M73 P3
G1 X40.763 Y25.032 E40.5441
G1 X41.104 Y24.23 E40.58954
G1 X41.509 Y23.441 E40.63578
G1 X41.975 Y22.683 E40.68216
G1 X42.493 Y21.961 E40.72849
G1 X43.065 Y21.278 E40.77494
G1 X43.681 Y20.644 E40.82103
G1 X44.341 Y20.056 E40.86711
G1 X45.043 Y19.519 E40.91319
G1 X45.787 Y19.033 E40.95952
G1 X46.538 Y18.615 E41.00433
G1 X73.512 Y12.195 E42.44991
G1 F1680 E39.44991
G1 F3600 X72.7 Y13.2
;TYPE:SKIN
G1 F1680 E42.44991
G1 F1320 X72.335 Y30.468 E43.35038
G1 X72.327 Y36.422 E43.6608
G1 X72.333 Y42.367 E43.97074
G1 X72.359 Y48.315 E44.28084
G1 X72.401 Y54.263 E44.59095
G1 X72.461 Y60.209 E44.90096
G1 X72.539 Y66.157 E45.21109
G1 X72.634 Y72.104 E45.52118
G1 X72.746 Y78.049 E45.83118
G1 X72.876 Y83.995 E46.14125
G1 X73.022 Y89.939 E46.45123
G1 X73.187 Y95.886 E46.7614
G1 X73.369 Y101.795 E47.06961
G1 X73.369 Y107.097 E47.34604
G1 X26.631 Y107.097 E49.78273
G1 X26.631 Y103.273 E49.9821
G1 X41.02 Y26.92 E54.03285
G1 X41.228 Y26.115 E54.0762
G1 X41.508 Y25.294 E54.12142
G1 X41.814 Y24.576 E54.16211
G1 X42.196 Y23.832 E54.20572
G1 X42.63 Y23.126 E54.24892
G1 X43.122 Y22.44 E54.29293
G1 X43.654 Y21.806 E54.33608
G1 X44.229 Y21.213 E54.37915
G1 X44.833 Y20.675 E54.42132
G1 X45.513 Y20.155 E54.46595
G1 X46.185 Y19.716 E54.5078
G1 X46.831 Y19.357 E54.54633
G1 X72.7 Y13.2 E55.93269
G1 F3600 X72.406 Y13.575
G1 F1320 X72.171 Y13.906 E55.95621
M73 P4
;TYPE:SKIN
G1 X71.857 Y13.591
G1 F3600 X71.428 Y13.728
G1 F1320 X72.447 Y14.747 E56.02451
G1 X72.475 Y14.775
G1 F3600 X72.435 Y15.301
G1 F1320 X70.971 Y13.837 E56.12264
G1 X70.943 Y13.809
G1 F3600 X70.514 Y13.946
G1 F1320 X72.423 Y15.854 E56.25056
G1 X72.451 Y15.882
G1 F3600 X72.411 Y16.409
G1 F1320 X70.058 Y14.055 E56.40831
G1 X70.03 Y14.027
G1 F3600 X69.615 Y14.178
G1 F1320 X72.399 Y16.962 E56.59491
G1 X72.427 Y16.99
G1 F3600 X72.388 Y17.517
G1 F1320 X69.183 Y14.311 E56.80977
G1 X69.155 Y14.283
G1 F3600 X68.751 Y14.446
G1 F1320 X72.376 Y18.07 E57.05271
G1 X72.404 Y18.098
G1 F3600 X72.365 Y18.625
G1 F1320 X68.32 Y14.58 E57.32384
G1 X68.292 Y14.552
G1 F3600 X67.889 Y14.714
G1 F1320 X72.353 Y19.178 E57.62305
G1 X72.381 Y19.206
G1 F3600 X72.341 Y19.732
G1 F1320 X67.457 Y14.848 E57.95041
G1 X67.429 Y14.82
G1 F3600 X67.025 Y14.982
G1 F1320 X72.329 Y20.286 E58.30593
G1 X72.357 Y20.314
G1 F3600 X72.317 Y20.84
G1 F1320 X66.594 Y15.117 E58.68953
G1 X66.566 Y15.089
G1 F3600 X66.162 Y15.25
G1 F1320 X72.306 Y21.394 E59.10135
G1 X72.334 Y21.422
G1 F3600 X72.294 Y21.948
G1 F1320 X65.731 Y15.385 E59.54125
G1 X65.703 Y15.357
G1 F3600 X65.299 Y15.519
G1 F1320 X72.283 Y22.502 E60.00934
G1 X72.311 Y22.53
G1 F3600 X72.271 Y23.056
M73 P5
G1 F1320 X64.868 Y15.653 E60.50554
G1 X64.84 Y15.625
G1 F3600 X64.436 Y15.787
G1 F1320 X72.259 Y23.611 E61.02993
G1 X72.287 Y23.639
G1 F3600 X72.247 Y24.164
G1 F1320 X64.005 Y15.921 E61.58241
G1 X63.977 Y15.893
G1 F3600 X63.573 Y16.056
G1 F1320 X72.235 Y24.718 E62.163
G1 X72.263 Y24.746
G1 F3600 X72.224 Y25.272
G1 F1320 X63.141 Y16.189 E62.77181
G1 X63.113 Y16.161
G1 F3600 X62.71 Y16.324
G1 F1320 X72.212 Y25.826 E63.40871
G1 X72.24 Y25.854
G1 F3600 X72.201 Y26.38
G1 F1320 X62.279 Y16.458 E64.07376
G1 X62.251 Y16.43
G1 F3600 X61.847 Y16.592
G1 F1320 X72.189 Y26.934 E64.76696
G1 X72.217 Y26.962
G1 F3600 X72.177 Y27.488
G1 F1320 X61.415 Y16.726 E65.48831
G1 X61.387 Y16.698
G1 F3600 X60.984 Y16.86
G1 F1320 X72.165 Y28.042 E66.23778
G1 X72.193 Y28.07
G1 F3600 X72.153 Y28.596
G1 F1320 X60.553 Y16.995 E67.01533
G1 X60.525 Y16.967
G1 F3600 X60.121 Y17.129
G1 F1320 X72.142 Y29.15 E67.82107
G1 X72.17 Y29.178
G1 F3600 X72.13 Y29.704
G1 F1320 X59.689 Y17.263 E68.65496
G1 X59.661 Y17.235
G1 F3600 X59.258 Y17.397
G1 F1320 X72.119 Y30.258 E69.517
G1 X72.147 Y30.286
G1 F3600 X72.114 Y30.819
G1 F1320 X58.827 Y17.532 E70.4076
G1 X58.799 Y17.504
G1 F3600 X58.394 Y17.665
G1 F1320 X72.113 Y31.384 E71.32715
G1 X72.141 Y31.412
G1 F3600 X72.112 Y31.949
M73 P6
G1 F1320 X57.963 Y17.799 E72.27556
G1 X57.935 Y17.771
G1 F3600 X57.532 Y17.934
G1 F1320 X67.136 Y27.538 E72.91929
G1 X67.164 Y27.566
G1 F3600 X67.185 Y27.587
G1 F1320 X72.112 Y32.514 E73.24954
G1 X72.14 Y32.542
G1 F3600 X72.111 Y33.079
G1 F1320 X66.619 Y27.587 E73.61765
G1 X66.591 Y27.559
G1 F3600 X66.571 Y27.538
G1 F1320 X57.1 Y18.068 E74.25244
G1 X57.072 Y18.04
G1 F3600 X56.668 Y18.202
G1 F1320 X66.005 Y27.538 E74.87824
G1 X66.033 Y27.566
G1 F3600 X66.053 Y27.587
G1 F1320 X72.11 Y33.644 E75.28423
G1 X72.138 Y33.672
G1 F3600 X72.11 Y34.209
G1 F1320 X65.487 Y27.587 E75.72812
G1 X65.459 Y27.559
G1 F3600 X65.439 Y27.538
G1 F1320 X56.237 Y18.336 E76.34491
G1 X56.209 Y18.308
G1 F3600 X55.806 Y18.471
G1 F1320 X64.874 Y27.538 E76.95268
G1 X64.902 Y27.566
G1 F3600 X64.928 Y27.593
G1 F1320 X72.109 Y34.774 E77.43401
G1 X72.137 Y34.802
G1 F3600 X72.108 Y35.339
G1 F1320 X64.401 Y27.631 E77.95062
G1 X64.373 Y27.603
G1 F3600 X64.354 Y27.584
G1 F1320 X55.374 Y18.604 E78.55253
G1 X55.346 Y18.576
G1 F3600 X54.942 Y18.739
G1 F1320 X63.852 Y27.648 E79.14971
G1 X63.88 Y27.676
G1 F3600 X63.933 Y27.729
G1 F1320 X66.816 Y30.612 E79.34295
G1 X66.844 Y30.64
G1 F3600 X66.864 Y30.66
G1 F1320 X72.107 Y35.903 E79.69438
G1 X72.135 Y35.931
G1 F3600 X72.107 Y36.469
M73 P7
G1 F1320 X66.299 Y30.66 E80.08371
G1 X66.271 Y30.632
G1 F3600 X66.25 Y30.612
G1 F1320 X63.513 Y27.874 E80.2672
G1 X63.485 Y27.846
G1 F3600 X63.452 Y27.814
G1 F1320 X54.511 Y18.873 E80.86649
G1 X54.483 Y18.845
G1 F3600 X54.08 Y19.007
G1 F1320 X63.179 Y28.107 E81.47641
G1 X63.207 Y28.135
G1 F3600 X63.198 Y28.125
G1 F1320 X65.685 Y30.612 E81.64311
G1 X65.713 Y30.64
G1 F3600 X65.733 Y30.66
G1 F1320 X72.107 Y37.034 E82.07034
G1 X72.135 Y37.062
G1 F3600 X72.107 Y37.601
G1 F1320 X65.167 Y30.66 E82.53555
G1 X65.139 Y30.632
G1 F3600 X65.119 Y30.612
G1 F1320 X53.648 Y19.141 E83.30442
G1 X53.62 Y19.113
G1 F3600 X53.216 Y19.275
G1 F1320 X64.57 Y30.629 E84.06545
G1 X64.598 Y30.657
G1 F3600 X64.63 Y30.689
G1 F1320 X72.108 Y38.167 E84.56668
G1 X72.136 Y38.195
G1 F3600 X72.109 Y38.733
G1 F1320 X67.108 Y33.733 E84.90186
G1 X67.08 Y33.705
G1 F3600 X67.059 Y33.684
G1 F1320 X64.122 Y30.747 E85.09872
G1 X64.094 Y30.719
G1 F3600 X64.074 Y30.699
G1 F1320 X52.871 Y19.496 E85.84963
G1 X52.843 Y19.468
G1 F3600 X52.527 Y19.717
G1 F1320 X63.606 Y30.796 E86.59223
G1 X63.634 Y30.824
G1 F3600 X63.692 Y30.882
G1 F1320 X66.494 Y33.684 E86.78004
G1 X66.522 Y33.712
G1 F3600 X66.542 Y33.733
G1 F1320 X72.109 Y39.299 E87.15315
G1 X72.137 Y39.327
G1 F3600 X72.11 Y39.865
M73 P8
G1 F1320 X65.977 Y33.733 E87.56419
G1 X65.949 Y33.705
G1 F3600 X65.928 Y33.684
G1 F1320 X63.334 Y31.09 E87.73806
G1 X63.306 Y31.062
G1 F3600 X63.323 Y31.079
G1 F1320 X52.182 Y19.938 E88.48482
G1 X52.154 Y19.91
G1 F3600 X51.837 Y20.159
G1 F1320 X65.362 Y33.684 E89.39137
G1 X65.39 Y33.712
G1 F3600 X65.411 Y33.733
G1 F1320 X72.11 Y40.432 E89.84038
G1 X72.138 Y40.46
G1 F3600 X72.111 Y40.998
G1 F1320 X64.845 Y33.733 E90.32737
G1 X64.817 Y33.705
G1 F3600 X64.797 Y33.684
G1 F1320 X51.492 Y20.38 E91.21914
G1 X51.464 Y20.352
G1 F3600 X51.147 Y20.6
G1 F1320 X64.231 Y33.684 E92.09613
G1 X64.259 Y33.712
G1 F3600 X64.28 Y33.733
G1 F1320 X72.111 Y41.564 E92.62103
G1 X72.139 Y41.592
G1 F3600 X72.112 Y42.13
G1 F1320 X66.645 Y36.664 E92.98743
G1 X66.617 Y36.636
G1 F3600 X66.538 Y36.556
G1 F1320 X63.714 Y33.733 E93.17668
G1 X63.686 Y33.705
G1 F3600 X63.665 Y33.684
G1 F1320 X50.811 Y20.83 E94.03826
G1 X50.783 Y20.802
G1 F3600 X50.519 Y21.103
G1 F1320 X65.676 Y36.261 E95.05423
G1 X65.704 Y36.289
G1 F3600 X65.782 Y36.366
G1 F1320 X72.114 Y42.698 E95.47865
G1 X72.142 Y42.726
G1 F3600 X72.116 Y43.266
G1 F1320 X65.149 Y36.3 E95.9456
G1 X65.121 Y36.272
G1 F3600 X65.082 Y36.232
G1 F1320 X50.254 Y21.404 E96.93948
G1 X50.226 Y21.376
G1 F3600 X49.994 Y21.71
M73 P9
G1 F1320 X64.572 Y36.288 E97.91661
G1 X64.6 Y36.316
G1 F3600 X64.643 Y36.359
G1 F1320 X72.119 Y43.834 E98.41768
G1 X72.147 Y43.862
G1 F3600 X72.121 Y44.402
G1 F1320 X64.174 Y36.456 E98.95031
G1 X64.146 Y36.428
G1 F3600 X64.137 Y36.418
G1 F1320 X49.748 Y22.029 E99.91477
G1 X49.72 Y22.001
G1 F3600 X49.505 Y22.353
G1 F1320 X63.768 Y36.615 E100.87075
G1 X63.796 Y36.643
G1 F3600 X63.79 Y36.637
G1 F1320 X72.124 Y44.971 E101.42936
G1 X72.152 Y44.999
G1 F3600 X72.126 Y45.539
G1 F1320 X66.474 Y39.887 E101.8082
G1 X66.446 Y39.859
G1 F3600 X66.438 Y39.851
G1 F1320 X49.281 Y22.693 E102.95823
G1 X49.253 Y22.665
G1 F3600 X49.059 Y23.038
G1 F1320 X66.044 Y40.022 E104.09666
G1 X66.072 Y40.05
G1 F3600 X66.079 Y40.058
G1 F1320 X72.129 Y46.107 E104.50214
G1 X72.157 Y46.135
G1 F3600 X72.131 Y46.675
G1 F1320 X65.618 Y40.162 E104.93869
G1 X65.59 Y40.134
G1 F3600 X65.537 Y40.081
G1 F1320 X48.854 Y23.398 E106.05692
G1 X48.826 Y23.37
G1 F3600 X48.653 Y23.763
G1 F1320 X64.991 Y40.101 E107.15201
G1 X65.019 Y40.129
G1 F3600 X65.078 Y40.188
G1 F1320 X72.134 Y47.243 E107.62493
G1 X72.162 Y47.271
G1 F3600 X72.136 Y47.811
G1 F1320 X64.415 Y40.09 E108.14245
G1 X64.387 Y40.062
G1 F3600 X64.35 Y40.025
G1 F1320 X48.47 Y24.145 E109.20685
G1 X48.442 Y24.117
G1 F3600 X48.291 Y24.533
M73 P10
G1 F1320 X72.139 Y48.38 E110.80529
G1 X72.167 Y48.408
G1 F3600 X72.143 Y48.95
G1 F1320 X48.129 Y24.936 E112.41489
G1 X48.101 Y24.908
G1 F3600 X47.976 Y25.349
G1 F1320 X66.984 Y44.356 E113.68892
G1 X67.012 Y44.384
G1 F3600 X66.987 Y44.359
G1 F1320 X72.146 Y49.519 E114.03475
G1 X72.174 Y49.547
G1 F3600 X72.151 Y50.089
G1 F1320 X66.698 Y44.636 E114.40025
G1 X66.67 Y44.608
G1 F3600 X66.661 Y44.6
G1 F1320 X47.838 Y25.776 E115.66194
G1 X47.81 Y25.748
G1 F3600 X47.714 Y26.218
G1 F1320 X66.281 Y44.785 E116.90644
G1 X66.309 Y44.813
G1 F3600 X66.338 Y44.842
G1 F1320 X72.155 Y50.659 E117.29634
G1 X72.183 Y50.687
G1 F3600 X72.158 Y51.228
G1 F1320 X65.91 Y44.98 E117.71513
G1 X65.882 Y44.952
G1 F3600 X65.841 Y44.911
G1 F1320 X47.601 Y26.67 E118.93775
G1 X47.573 Y26.642
G1 F3600 X47.509 Y27.145
G1 F1320 X65.338 Y44.974 E120.13278
G1 X65.366 Y45.002
G1 F3600 X65.415 Y45.05
G1 F1320 X72.163 Y51.798 E120.58509
G1 X72.191 Y51.826
G1 F3600 X72.167 Y52.368
G1 F1320 X67.4 Y47.601 E120.90461
G1 X67.372 Y47.573
G1 F3600 X67.132 Y47.333
G1 F1320 X64.835 Y45.036 E121.05857
G1 X64.807 Y45.008
G1 F3600 X64.732 Y44.933
G1 F1320 X47.427 Y27.628 E122.21848
G1 X47.399 Y27.6
G1 F3600 X47.383 Y28.149
G1 F1320 X63.988 Y44.755 E123.33151
G1 X64.016 Y44.783
G1 F3600 X64.038 Y44.805
M73 P11
G1 F1320 X72.17 Y52.937 E123.87658
G1 X72.198 Y52.965
G1 F3600 X72.175 Y53.507
G1 F1320 X47.306 Y28.638 E125.54349
G1 X47.278 Y28.61
G1 F3600 X47.229 Y29.127
G1 F1320 X72.179 Y54.077 E127.21583
G1 X72.207 Y54.105
G1 F3600 X72.184 Y54.648
G1 F1320 X47.152 Y29.616 E128.89367
G1 X47.124 Y29.588
G1 F3600 X47.075 Y30.105
G1 F1320 X72.189 Y55.219 E130.577
G1 X72.217 Y55.247
G1 F3600 X72.195 Y55.79
G1 F1320 X46.998 Y30.593 E132.26589
G1 X46.97 Y30.565
G1 F3600 X46.921 Y31.082
G1 F1320 X67.107 Y51.268 E133.61891
G1 X67.135 Y51.296
G1 F3600 X67.431 Y51.591
G1 F1320 X72.201 Y56.362 E133.93867
G1 X72.229 Y56.39
G1 F3600 X72.207 Y56.934
G1 F1320 X46.844 Y31.57 E135.63872
G1 X46.816 Y31.542
G1 F3600 X46.767 Y32.059
G1 F1320 X72.213 Y57.505 E137.34431
G1 X72.241 Y57.533
G1 F3600 X72.218 Y58.076
G1 F1320 X46.69 Y32.548 E139.05539
G1 X46.662 Y32.52
G1 F3600 X46.613 Y33.037
G1 F1320 X72.224 Y58.648 E140.77203
G1 X72.252 Y58.676
G1 F3600 X72.23 Y59.219
G1 F1320 X46.536 Y33.526 E142.49421
G1 X46.508 Y33.498
G1 F3600 X46.459 Y34.014
G1 F1320 X72.235 Y59.79 E144.22191
G1 X72.263 Y59.818
G1 F3600 X72.242 Y60.362
G1 F1320 X46.382 Y34.503 E145.95521
G1 X46.354 Y34.475
G1 F3600 X46.305 Y34.991
G1 F1320 X64.259 Y52.946 E147.15866
G1 X64.287 Y52.974
G1 F3600 X64.268 Y52.955
M73 P12
G1 F1320 X66.554 Y55.24 E147.31185
G1 X66.582 Y55.268
G1 F3600 X66.607 Y55.293
G1 F1320 X72.25 Y60.936 E147.69009
G1 X72.278 Y60.964
G1 F3600 X72.257 Y61.509
G1 F1320 X66.096 Y55.348 E148.10305
G1 X66.068 Y55.32
G1 F3600 X66.044 Y55.296
G1 F1320 X63.855 Y53.107 E148.24977
G1 X63.827 Y53.079
G1 F3600 X63.83 Y53.082
G1 F1320 X46.228 Y35.48 E149.42959
G1 X46.2 Y35.452
G1 F3600 X46.151 Y35.969
G1 F1320 X63.393 Y53.211 E150.58528
G1 X63.421 Y53.239
G1 F3600 X63.427 Y53.245
G1 F1320 X65.731 Y55.548 E150.73968
G1 X65.759 Y55.576
G1 F3600 X65.741 Y55.559
