M73 P0
;MINX:22.7
;MAXX:77.6
;MINY:9.3
;MAXY:111.6
;MINZ:0.0
;MAXZ:1.0
;MachineType:ENTINA TINA2
;FilamentType:PLA
;Extruder0Temperature:200
;InfillDensity:10
;FLAVOR:Marlin
;TIME:644
;FilamentUsed:561.5
;Layer height: 0.2

;Generated with Cura_SteamEngine 3.1
M104 T0 S215
M82 ; absolute extrusion mode
;(**** start.gcode for tina2****)
M104 S150
G28 Z
G28 X Y; Home extruder
G1 X55 Y55 F1000
G1 Z10 F200
G29
G1 Z15 F100
M107 ; Turn off fan
G90 ; Absolute positioning
M82 ; Extruder in absolute mode
M109 S215.0
G92 E0 ; Reset extruder position
G1 X90 Y6 Z0.27 F2000
G1 X20 Y6 Z0.27 E15 F1000
G92 E0 ; Reset extruder position

;LAYER_COUNT:5
;LAYER:0
M106 S255
M203 Z5
G1 F3600 X77.512 Y10.832 Z0.299
;TYPE:SKIRT
G1 F1200 X77.704 Y11.301 E0.02642
G1 X77.82 Y11.795 E0.05288
G1 X77.857 Y12.277 E0.07808
G1 X77.866 Y17.907 E0.3716
G1 X77.865 Y17.994 E0.37614
G1 X77.242 Y42.515 E1.65496
G1 X76.901 Y65.949 E2.87683
G1 X76.831 Y88.999 E4.07855
G1 X77.216 Y108.571 E5.09914
G1 X77.186 Y109.077 E5.12556
G1 X77.077 Y109.572 E5.15199
G1 X76.892 Y110.044 E5.17842
G1 X76.634 Y110.481 E5.20488
G1 X76.312 Y110.872 E5.23129
G1 X75.931 Y111.208 E5.25777
G1 X75.503 Y111.48 E5.28421
G1 X75.038 Y111.681 E5.31062
M73 P1
G1 X74.546 Y111.807 E5.3371
G1 X74.041 Y111.854 E5.36354
G1 X73.535 Y111.821 E5.38998
G1 X73.251 Y111.766 E5.40506
G1 X45.886 Y105.251 E6.87161
G1 X45.404 Y105.096 E6.89801
G1 X44.976 Y104.881 E6.92298
G1 X43.42 Y103.948 E7.01757
G1 X43.097 Y103.726 E7.038
G1 X42.159 Y102.995 E7.1
G1 X41.861 Y102.732 E7.12073
G1 X40.576 Y101.447 E7.21547
G1 X40.337 Y101.179 E7.23419
G1 X39.746 Y100.439 E7.28356
G1 X39.543 Y100.155 E7.30176
G1 X38.617 Y98.695 E7.3919
G1 X38.44 Y98.378 E7.41083
G1 X38.012 Y97.498 E7.46185
G1 X37.874 Y97.17 E7.4804
G1 X37.271 Y95.476 E7.57414
G1 X37.141 Y94.994 E7.60017
G1 X22.575 Y17.889 E11.69116
G1 X22.519 Y17.292 E11.72242
G1 X22.517 Y12.282 E11.98362
G1 X22.557 Y11.777 E12.01003
G1 X22.675 Y11.284 E12.03646
G1 X22.87 Y10.815 E12.06294
G1 X23.136 Y10.383 E12.08939
G1 X23.466 Y9.998 E12.11583
G1 X23.852 Y9.67 E12.14224
G1 X24.286 Y9.407 E12.16869
G1 X24.755 Y9.214 E12.19513
G1 X25.249 Y9.098 E12.22159
G1 X25.737 Y9.061 E12.2471
G1 X74.637 Y9.062 E14.79652
G1 X75.143 Y9.102 E14.82298
G1 X75.636 Y9.221 E14.84942
G1 X76.104 Y9.416 E14.87585
G1 X76.536 Y9.681 E14.90228
G1 X76.921 Y10.012 E14.92875
G1 X77.249 Y10.399 E14.9552
G1 X77.512 Y10.832 E14.98161
G1 F1680 E11.98161
G1 F3600 X73.986 Y12.932
;TYPE:WALL-INNER
G1 F1680 E14.98161
G1 F1320 X73.986 Y18.644 E15.2794
M73 P2
G1 X73.804 Y24.584 E15.58923
G1 X73.639 Y30.529 E15.8993
G1 X73.493 Y36.473 E16.20928
G1 X73.363 Y42.416 E16.5192
G1 X73.251 Y48.361 E16.8292
G1 X73.156 Y54.307 E17.13923
G1 X73.078 Y60.253 E17.44925
G1 X73.018 Y66.199 E17.75927
G1 X72.976 Y72.144 E18.06922
G1 X72.95 Y78.091 E18.37927
G1 X72.944 Y84.037 E18.68927
G1 X72.952 Y89.987 E18.99947
G1 X73.329 Y107.806 E19.92868
G1 X46.859 Y101.506 E21.34725
G1 X46.153 Y101.113 E21.38937
G1 X45.443 Y100.65 E21.43356
G1 X44.753 Y100.122 E21.47886
G1 X44.118 Y99.556 E21.52321
G1 X43.519 Y98.939 E21.56804
G1 X42.969 Y98.283 E21.61267
G1 X42.463 Y97.577 E21.65796
G1 X42.003 Y96.829 E21.70374
G1 X41.618 Y96.079 E21.74769
G1 X41.287 Y95.298 E21.79191
G1 X41.003 Y94.467 E21.8377
G1 X40.791 Y93.647 E21.88186
G1 X26.388 Y17.224 E25.93633
G1 X26.388 Y12.932 E26.16009
G1 X73.986 Y12.932 E28.64163
G1 F3600 X74.346 Y12.572
;TYPE:WALL-OUTER
G1 F1320 X74.346 Y18.655 E28.95877
G1 X74.164 Y24.595 E29.2686
G1 X73.999 Y30.538 E29.57856
G1 X73.853 Y36.482 E29.88854
G1 X73.723 Y42.424 E30.1984
G1 X73.611 Y48.367 E30.5083
G1 X73.516 Y54.312 E30.81828
G1 X73.438 Y60.257 E31.12825
G1 X73.378 Y66.202 E31.43821
G1 X73.336 Y72.147 E31.74816
G1 X73.31 Y78.092 E32.05811
G1 X73.304 Y84.037 E32.36806
G1 X73.312 Y89.983 E32.67805
G1 X73.699 Y108.264 E33.63135
G1 X46.725 Y101.844 E35.07693
G1 X45.974 Y101.426 E35.12174
M73 P3
G1 X45.23 Y100.94 E35.16807
G1 X44.528 Y100.403 E35.21415
G1 X43.868 Y99.815 E35.26023
G1 X43.252 Y99.181 E35.30632
G1 X42.68 Y98.498 E35.35277
G1 X42.162 Y97.776 E35.39909
G1 X41.696 Y97.018 E35.44548
G1 X41.291 Y96.229 E35.49172
G1 X40.948 Y95.421 E35.53748
G1 X40.657 Y94.567 E35.58452
G1 X40.44 Y93.728 E35.6297
G1 X26.028 Y17.259 E39.68662
G1 X26.028 Y12.572 E39.93098
G1 X74.346 Y12.572 E42.45005
G1 F1680 E39.45005
G1 F3600 X73.556 Y13.362
;TYPE:SKIN
G1 F1680 E42.45005
G1 F1320 X73.556 Y18.631 E42.72475
G1 X73.374 Y24.571 E43.03458
G1 X73.209 Y30.517 E43.3447
G1 X73.063 Y36.463 E43.65479
G1 X72.933 Y42.406 E43.9647
G1 X72.821 Y48.353 E44.2748
G1 X72.726 Y54.3 E44.58489
G1 X72.648 Y60.247 E44.89497
G1 X72.588 Y66.195 E45.20508
G1 X72.546 Y72.141 E45.51509
G1 X72.52 Y78.089 E45.82519
G1 X72.514 Y84.037 E46.13529
G1 X72.522 Y89.991 E46.4457
G1 X72.887 Y107.259 E47.34618
G1 X47.018 Y101.102 E48.73254
G1 X46.372 Y100.743 E48.77107
G1 X45.7 Y100.304 E48.81292
G1 X45.02 Y99.784 E48.85755
G1 X44.414 Y99.244 E48.89986
G1 X43.841 Y98.653 E48.94278
G1 X43.309 Y98.019 E48.98593
G1 X42.817 Y97.333 E49.02994
G1 X42.382 Y96.625 E49.07326
G1 X42.007 Y95.895 E49.11605
G1 X41.689 Y95.144 E49.15857
G1 X41.414 Y94.338 E49.20297
G1 X41.207 Y93.539 E49.246
G1 X26.818 Y17.186 E53.29675
G1 X26.818 Y13.362 E53.49612
M73 P4
G1 X73.556 Y13.362 E55.93282
G1 F3600 X73.335 Y13.938
;TYPE:SKIN
G1 F1320 X72.979 Y13.582 E55.95668
G1 F3600 X72.413 Y13.582
G1 F1320 X73.335 Y14.504 E56.01848
G1 X73.363 Y14.532
G1 F3600 X73.335 Y15.069
G1 F1320 X71.847 Y13.582 E56.11818
G1 X71.819 Y13.554
G1 F3600 X71.282 Y13.582
G1 F1320 X73.335 Y15.635 E56.25579
G1 X73.363 Y15.663
G1 F3600 X73.335 Y16.201
G1 F1320 X70.716 Y13.582 E56.43133
G1 X70.688 Y13.554
G1 F3600 X70.15 Y13.582
G1 F1320 X73.335 Y16.766 E56.64478
G1 X73.363 Y16.794
G1 F3600 X73.335 Y17.332
G1 F1320 X69.584 Y13.582 E56.89617
G1 X69.556 Y13.554
G1 F3600 X69.019 Y13.582
G1 F1320 X73.335 Y17.898 E57.18546
G1 X73.363 Y17.926
G1 F3600 X73.335 Y18.463
G1 F1320 X68.453 Y13.582 E57.51266
G1 X68.425 Y13.554
G1 F3600 X67.887 Y13.582
G1 F1320 X73.323 Y19.017 E57.87699
G1 X73.351 Y19.045
G1 F3600 X73.307 Y19.567
G1 F1320 X67.322 Y13.582 E58.27815
G1 X67.294 Y13.554
G1 F3600 X66.756 Y13.582
G1 F1320 X73.29 Y20.115 E58.71607
G1 X73.318 Y20.143
G1 F3600 X73.273 Y20.664
G1 F1320 X66.19 Y13.582 E59.1908
G1 X66.162 Y13.554
G1 F3600 X65.625 Y13.582
G1 F1320 X73.256 Y21.213 E59.70228
G1 X73.284 Y21.241
G1 F3600 X73.239 Y21.762
G1 F1320 X65.059 Y13.582 E60.25057
G1 X65.031 Y13.554
G1 F3600 X64.493 Y13.582
M73 P5
G1 F1320 X73.223 Y22.311 E60.83569
G1 X73.251 Y22.339
G1 F3600 X73.206 Y22.86
G1 F1320 X63.928 Y13.582 E61.45757
G1 X63.9 Y13.554
G1 F3600 X63.362 Y13.582
G1 F1320 X73.189 Y23.408 E62.11622
G1 X73.217 Y23.436
G1 F3600 X73.172 Y23.958
G1 F1320 X62.796 Y13.582 E62.81169
G1 X62.768 Y13.554
G1 F3600 X62.231 Y13.582
G1 F1320 X73.155 Y24.506 E63.5439
G1 X73.183 Y24.534
G1 F3600 X73.14 Y25.057
G1 F1320 X61.665 Y13.582 E64.31305
G1 X61.637 Y13.554
G1 F3600 X61.099 Y13.582
G1 F1320 X73.124 Y25.607 E65.11905
G1 X73.152 Y25.635
G1 F3600 X73.109 Y26.158
G1 F1320 X60.533 Y13.582 E65.96199
G1 X60.505 Y13.554
G1 F3600 X59.968 Y13.582
G1 F1320 X73.094 Y26.708 E66.8418
G1 X73.122 Y26.736
G1 F3600 X73.078 Y27.258
G1 F1320 X59.402 Y13.582 E67.75847
G1 X59.374 Y13.554
G1 F3600 X58.836 Y13.582
G1 F1320 X73.063 Y27.809 E68.71207
G1 X73.091 Y27.837
G1 F3600 X73.048 Y28.359
G1 F1320 X58.271 Y13.582 E69.70254
G1 X58.243 Y13.554
G1 F3600 X57.705 Y13.582
G1 F1320 X73.033 Y28.91 E70.72994
G1 X73.061 Y28.938
G1 F3600 X73.017 Y29.46
G1 F1320 X57.139 Y13.582 E71.7942
G1 X57.111 Y13.554
G1 F3600 X56.574 Y13.582
G1 F1320 X73.002 Y30.01 E72.89533
G1 X73.03 Y30.038
G1 F3600 X72.987 Y30.561
G1 F1320 X56.008 Y13.582 E74.03339
G1 X55.98 Y13.554
M73 P6
G1 F3600 X55.442 Y13.582
G1 F1320 X72.974 Y31.113 E75.20849
G1 X73.002 Y31.141
G1 F3600 X72.96 Y31.665
G1 F1320 X54.877 Y13.582 E76.42055
G1 X54.849 Y13.554
G1 F3600 X54.311 Y13.582
G1 F1320 X72.946 Y32.217 E77.66961
G1 X72.974 Y32.245
G1 F3600 X72.933 Y32.769
G1 F1320 X53.745 Y13.582 E78.9557
G1 X53.717 Y13.554
G1 F3600 X53.18 Y13.582
G1 F1320 X72.919 Y33.321 E80.27876
G1 X72.947 Y33.349
G1 F3600 X72.906 Y33.873
G1 F1320 X52.614 Y13.582 E81.63885
G1 X52.586 Y13.554
G1 F3600 X52.048 Y13.582
G1 F1320 X72.892 Y34.426 E83.03598
G1 X72.92 Y34.454
G1 F3600 X72.879 Y34.978
G1 F1320 X51.483 Y13.582 E84.4701
G1 X51.455 Y13.554
G1 F3600 X50.917 Y13.582
G1 F1320 X72.865 Y35.53 E85.94122
G1 X72.893 Y35.558
G1 F3600 X72.852 Y36.082
G1 F1320 X50.351 Y13.582 E87.44938
G1 X50.323 Y13.554
G1 F3600 X49.785 Y13.582
G1 F1320 X66.724 Y30.52 E88.58472
G1 X66.752 Y30.548
G1 F3600 X66.851 Y30.648
G1 F1320 X72.839 Y36.635 E88.98605
G1 X72.867 Y36.663
G1 F3600 X72.827 Y37.188
G1 F1320 X66.145 Y30.507 E89.4339
G1 X66.117 Y30.479
G1 F3600 X66.097 Y30.459
G1 F1320 X49.22 Y13.582 E90.56512
G1 X49.192 Y13.554
G1 F3600 X48.654 Y13.582
G1 F1320 X65.512 Y30.439 E91.69504
G1 X65.54 Y30.467
G1 F3600 X65.56 Y30.488
G1 F1320 X72.815 Y37.742 E92.18129
M73 P7
G1 X72.843 Y37.77
G1 F3600 X72.802 Y38.295
G1 F1320 X64.995 Y30.488 E92.70458
G1 X64.967 Y30.46
G1 F3600 X64.946 Y30.439
G1 F1320 X48.088 Y13.582 E93.8345
G1 X48.06 Y13.554
G1 F3600 X47.523 Y13.582
G1 F1320 X64.38 Y30.439 E94.96438
G1 X64.408 Y30.467
G1 F3600 X64.429 Y30.488
G1 F1320 X72.79 Y38.849 E95.5248
G1 X72.818 Y38.877
G1 F3600 X72.778 Y39.402
G1 F1320 X63.863 Y30.488 E96.12232
G1 X63.835 Y30.46
G1 F3600 X63.814 Y30.439
G1 F1320 X46.957 Y13.582 E97.2522
G1 X46.929 Y13.554
G1 F3600 X46.391 Y13.582
G1 F1320 X63.249 Y30.439 E98.38212
G1 X63.277 Y30.467
G1 F3600 X63.298 Y30.488
G1 F1320 X72.766 Y39.956 E99.01674
G1 X72.794 Y39.984
G1 F3600 X72.753 Y40.509
G1 F1320 X67.102 Y34.858 E99.39551
G1 X67.074 Y34.83
G1 F3600 X67.055 Y34.811
G1 F1320 X62.732 Y30.488 E99.68527
G1 X62.704 Y30.46
G1 F3600 X62.683 Y30.439
G1 F1320 X45.826 Y13.582 E100.81516
G1 X45.798 Y13.554
G1 F3600 X45.26 Y13.582
G1 F1320 X62.117 Y30.439 E101.94504
G1 X62.145 Y30.467
G1 F3600 X62.166 Y30.488
G1 F1320 X66.489 Y34.811 E102.2348
G1 X66.517 Y34.839
G1 F3600 X66.536 Y34.858
G1 F1320 X72.741 Y41.063 E102.65071
G1 X72.769 Y41.091
G1 F3600 X72.729 Y41.616
G1 F1320 X65.97 Y34.858 E103.10371
G1 X65.942 Y34.83
G1 F3600 X65.924 Y34.811
M73 P8
G1 F1320 X44.694 Y13.582 E104.52668
G1 X44.666 Y13.554
G1 F3600 X44.129 Y13.582
G1 F1320 X65.358 Y34.811 E105.94961
G1 X65.386 Y34.839
G1 F3600 X65.405 Y34.858
G1 F1320 X72.717 Y42.17 E106.43971
G1 X72.745 Y42.198
G1 F3600 X72.706 Y42.724
G1 F1320 X64.839 Y34.858 E106.96698
G1 X64.811 Y34.83
G1 F3600 X64.792 Y34.811
G1 F1320 X43.563 Y13.582 E108.38991
G1 X43.535 Y13.554
G1 F3600 X42.997 Y13.582
G1 F1320 X64.227 Y34.811 E109.81288
G1 X64.255 Y34.839
G1 F3600 X64.273 Y34.858
G1 F1320 X72.695 Y43.279 E110.37735
G1 X72.723 Y43.307
G1 F3600 X72.684 Y43.834
G1 F1320 X66.967 Y38.117 E110.76055
G1 X66.939 Y38.089
G1 F3600 X66.918 Y38.068
G1 F1320 X63.708 Y34.858 E110.97571
G1 X63.68 Y34.83
G1 F3600 X63.661 Y34.811
G1 F1320 X42.432 Y13.582 E112.39864
G1 X42.404 Y13.554
G1 F3600 X41.866 Y13.582
G1 F1320 X63.095 Y34.811 E113.82157
G1 X63.123 Y34.839
G1 F3600 X63.142 Y34.858
G1 F1320 X66.352 Y38.068 E114.03672
G1 X66.38 Y38.096
G1 F3600 X66.401 Y38.117
G1 F1320 X72.675 Y44.39 E114.45722
G1 X72.703 Y44.418
G1 F3600 X72.664 Y44.945
G1 F1320 X65.835 Y38.117 E114.91492
G1 X65.807 Y38.089
G1 F3600 X65.787 Y38.068
G1 F1320 X62.576 Y34.858 E115.13011
G1 X62.548 Y34.83
G1 F3600 X62.53 Y34.811
G1 F1320 X41.3 Y13.582 E116.55308
G1 X41.272 Y13.554
M73 P9
G1 F3600 X40.735 Y13.582
G1 F1320 X61.964 Y34.811 E117.976
G1 X61.992 Y34.839
G1 F3600 X62.011 Y34.858
G1 F1320 X65.221 Y38.068 E118.19116
G1 X65.249 Y38.096
G1 F3600 X65.27 Y38.117
G1 F1320 X72.653 Y45.5 E118.68603
G1 X72.681 Y45.528
G1 F3600 X72.643 Y46.055
G1 F1320 X67.446 Y40.859 E119.03434
G1 X67.418 Y40.831
G1 F3600 X67.397 Y40.81
G1 F1320 X64.66 Y38.073 E119.21779
G1 X64.632 Y38.045
G1 F3600 X64.609 Y38.021
G1 F1320 X61.445 Y34.858 E119.42983
G1 X61.417 Y34.83
G1 F3600 X61.398 Y34.811
G1 F1320 X40.169 Y13.582 E120.85276
G1 X40.141 Y13.554
G1 F3600 X39.603 Y13.582
G1 F1320 X60.833 Y34.811 E122.27573
G1 X60.861 Y34.839
G1 F3600 X60.879 Y34.858
G1 F1320 X63.822 Y37.8 E122.47296
G1 X63.85 Y37.828
G1 F3600 X63.978 Y37.956
G1 F1320 X66.832 Y40.81 E122.66425
G1 X66.86 Y40.838
G1 F3600 X66.88 Y40.859
G1 F1320 X72.633 Y46.611 E123.04983
G1 X72.661 Y46.639
G1 F3600 X72.622 Y47.166
G1 F1320 X66.315 Y40.859 E123.47257
G1 X66.287 Y40.831
G1 F3600 X66.266 Y40.81
G1 F1320 X39.037 Y13.582 E125.29763
G1 X39.009 Y13.554
G1 F3600 X38.472 Y13.582
G1 F1320 X65.7 Y40.81 E127.12266
G1 X65.728 Y40.838
G1 F3600 X65.749 Y40.859
G1 F1320 X72.612 Y47.721 E127.58264
G1 X72.64 Y47.749
G1 F3600 X72.601 Y48.277
G1 F1320 X65.183 Y40.859 E128.07985
M73 P10
G1 X65.155 Y40.831
G1 F3600 X65.135 Y40.81
G1 F1320 X37.906 Y13.582 E129.90491
G1 X37.878 Y13.554
G1 F3600 X37.34 Y13.582
G1 F1320 X64.569 Y40.81 E131.72997
G1 X64.597 Y40.838
G1 F3600 X64.618 Y40.859
G1 F1320 X72.592 Y48.834 E132.26449
G1 X72.62 Y48.862
G1 F3600 X72.583 Y49.39
G1 F1320 X64.052 Y40.859 E132.8363
G1 X64.024 Y40.831
G1 F3600 X64.003 Y40.81
G1 F1320 X36.775 Y13.582 E134.66133
G1 X36.747 Y13.554
G1 F3600 X36.209 Y13.582
G1 F1320 X63.438 Y40.81 E136.48639
G1 X63.466 Y40.838
G1 F3600 X63.486 Y40.859
G1 F1320 X72.574 Y49.947 E137.09554
G1 X72.602 Y49.975
G1 F3600 X72.566 Y50.504
G1 F1320 X35.643 Y13.582 E139.57036
G1 X35.615 Y13.554
G1 F3600 X35.078 Y13.582
G1 F1320 X66.288 Y44.792 E141.6623
G1 X66.316 Y44.82
G1 F3600 X66.383 Y44.887
G1 F1320 X72.556 Y51.06 E142.07606
G1 X72.584 Y51.088
G1 F3600 X72.548 Y51.618
G1 F1320 X65.637 Y44.707 E142.53929
G1 X65.609 Y44.679
G1 F3600 X65.611 Y44.681
G1 F1320 X34.512 Y13.582 E144.62378
G1 X34.484 Y13.554
G1 F3600 X33.946 Y13.582
G1 F1320 X72.539 Y52.174 E147.21054
G1 X72.567 Y52.202
G1 F3600 X72.53 Y52.731
G1 F1320 X64.604 Y44.805 E147.7418
G1 X64.576 Y44.777
G1 F3600 X64.58 Y44.781
G1 F1320 X33.381 Y13.582 E149.833
G1 X33.353 Y13.554
G1 F3600 X32.815 Y13.582
M73 P11
G1 F1320 X72.521 Y53.288 E152.4944
G1 X72.549 Y53.316
G1 F3600 X72.513 Y53.845
G1 F1320 X32.249 Y13.582 E155.19316
G1 X32.221 Y13.554
G1 F3600 X31.684 Y13.582
G1 F1320 X72.504 Y54.402 E157.92923
G1 X72.532 Y54.43
G1 F3600 X72.496 Y54.96
G1 F1320 X31.118 Y13.582 E160.7027
G1 X31.09 Y13.554
G1 F3600 X30.552 Y13.582
G1 F1320 X72.489 Y55.519 E163.51364
G1 X72.517 Y55.547
G1 F3600 X72.482 Y56.077
G1 F1320 X64.693 Y48.289 E164.03568
G1 X64.665 Y48.261
G1 F3600 X64.671 Y48.266
G1 F1320 X29.986 Y13.582 E166.3605
G1 X29.958 Y13.554
G1 F3600 X29.421 Y13.582
G1 F1320 X66.678 Y50.839 E168.85775
G1 X66.706 Y50.867
G1 F3600 X66.858 Y51.019
G1 F1320 X72.474 Y56.635 E169.23418
G1 X72.502 Y56.663
G1 F3600 X72.467 Y57.194
G1 F1320 X65.94 Y50.667 E169.67167
G1 X65.912 Y50.639
G1 F3600 X65.857 Y50.584
G1 F1320 X28.855 Y13.582 E172.15183
G1 X28.827 Y13.554
G1 F3600 X28.289 Y13.582
G1 F1320 X72.46 Y57.752 E175.11247
G1 X72.488 Y57.78
G1 F3600 X72.452 Y58.31
G1 F1320 X64.788 Y50.646 E175.62617
G1 X64.76 Y50.618
G1 X27.724 Y13.582 E178.1086
G1 X27.696 Y13.554
G1 F3600 X27.158 Y13.582
G1 F1320 X64.321 Y50.745 E180.59955
G1 X64.349 Y50.773
G1 F3600 X64.333 Y50.757
G1 F1320 X72.445 Y58.869 E181.14328
G1 X72.473 Y58.897
G1 F3600 X72.438 Y59.428
M73 P12
G1 F1320 X27.036 Y14.026 E184.18647
G1 X27.008 Y13.998
G1 F3600 X27.036 Y14.591
G1 F1320 X72.431 Y59.985 E187.22915
G1 X72.459 Y60.013
G1 F3600 X72.424 Y60.545
G1 F1320 X27.036 Y15.157 E190.2714
G1 X27.008 Y15.129
G1 F3600 X27.036 Y15.723
G1 F1320 X72.419 Y61.105 E193.31329
G1 X72.447 Y61.133
G1 F3600 X72.413 Y61.665
G1 F1320 X64.944 Y54.196 E193.81392
G1 X64.916 Y54.168
G1 F3600 X64.938 Y54.19
G1 F1320 X27.036 Y16.288 E196.3544
G1 X27.008 Y16.26
G1 F3600 X27.036 Y16.854
G1 F1320 X72.407 Y62.225 E199.39551
G1 X72.435 Y62.253
G1 F3600 X72.402 Y62.785
G1 F1320 X66.244 Y56.627 E199.80826
G1 X66.216 Y56.599
G1 F3600 X66.159 Y56.543
G1 F1320 X27.095 Y17.478 E202.42666
G1 X27.067 Y17.45
G1 F3600 X27.227 Y18.176
G1 F1320 X65.497 Y56.446 E204.99181
G1 X65.525 Y56.474
G1 F3600 X65.592 Y56.541
G1 F1320 X72.396 Y63.345 E205.44787
G1 X72.424 Y63.373
G1 F3600 X72.39 Y63.905
